MODULE MainModule
	VAR num zHeight;

	PROC main()
		SetDO DO4_Heat_Nozzle, 1;
		WaitDI DI3_Nozzle_At_Temp, 1;
		SetDO DO6_Between_Layer_Retract, 1;
		WaitTime .1;
		SetDO DO5_Program_Feed, 1;
		WaitTime 1.573055050990728;
		SetDO DO5_Program_Feed, 0;
		SetDO DO6_Between_Layer_Retract, 0;

		SetDO DO1_Auto_Mode, 1;
		MoveL Offs(pZero, 2.4560193681, -2.12848980817, 5.2), v100, z0, tNozzleAlCal, \Wobj := wobjAlWithButton;
		MoveL Offs(pZero, 2.4560193681, -2.12848980817, 0.20000000000000018), v30, z0, tNozzleAlCal, \Wobj := wobjAlWithButton;
		WaitRob \InPos;
		SetDO DO6_Between_Layer_Retract, 0;
		SetDO DO5_Program_Feed, 1;
		MoveC Offs(pZero, -2.03238022776, -2.53612511714, 0.20000000000000018), Offs(pZero, -2.61247224293, 1.93325859107, 0.20000000000000018), v10, z0, tNozzleAlCal, \Wobj := wobjAlWithButton;
		MoveC Offs(pZero, 1.83127179971, 2.68494759643, 0.20000000000000018), Offs(pZero, 2.75344376673, -1.72657100157, 0.20000000000000018), v10, z0, tNozzleAlCal, \Wobj := wobjAlWithButton;
		MoveL Offs(pZero, 2.32983703339, -1.46094469364, 0.20000000000000018), v10, z0, tNozzleAlCal, \Wobj := wobjAlWithButton;
		MoveC Offs(pZero, -1.35342005501, -2.39389936186, 0.20000000000000018), Offs(pZero, -2.4530027876, 1.24309184055, 0.20000000000000018), v10, z0, tNozzleAlCal, \Wobj := wobjAlWithButton;
		MoveC Offs(pZero, 1.13018859239, 2.50702487934, 0.20000000000000018), Offs(pZero, 2.55585373167, -1.0149441868, 0.20000000000000018), v10, z0, tNozzleAlCal, \Wobj := wobjAlWithButton;
		MoveL Offs(pZero, 2.09115305318, -0.830408880109, 0.20000000000000018), v10, z0, tNozzleAlCal, \Wobj := wobjAlWithButton;
		MoveC Offs(pZero, -0.712766980841, -2.13411884182, 0.20000000000000018), Offs(pZero, -2.17047226591, 0.592916640776, 0.20000000000000018), v10, z0, tNozzleAlCal, \Wobj := wobjAlWithButton;
		MoveC Offs(pZero, 0.47122920481, 2.20010068782, 0.20000000000000018), Offs(pZero, 2.22291230669, -0.348081709906, 0.20000000000000018), v10, z0, tNozzleAlCal, \Wobj := wobjAlWithButton;
		MoveL Offs(pZero, 1.72893179409, -0.270730218816, 0.20000000000000018), v10, z0, tNozzleAlCal, \Wobj := wobjAlWithButton;
		MoveC Offs(pZero, -0.146222114217, -1.7438804699, 0.20000000000000018), Offs(pZero, -1.74987443708, 0.0209631689202, 0.20000000000000018), v10, z0, tNozzleAlCal, \Wobj := wobjAlWithButton;
		MoveC Offs(pZero, -0.104403420836, 1.746882917, 0.20000000000000018), Offs(pZero, 1.73492127093, 0.229233906064, 0.20000000000000018), v10, z0, tNozzleAlCal, \Wobj := wobjAlWithButton;
		MoveL Offs(pZero, 1.23922947923, 0.163738504332, 0.20000000000000018), v10, z0, tNozzleAlCal, \Wobj := wobjAlWithButton;
		MoveC Offs(pZero, 0.287463026243, -1.21649702365, 0.20000000000000018), Offs(pZero, -1.18144425847, -0.40827621059, 0.20000000000000018), v10, z0, tNozzleAlCal, \Wobj := wobjAlWithButton;
		MoveC Offs(pZero, -0.524954498414, 1.13442618737, 0.20000000000000018), Offs(pZero, 1.075918995, 0.636316207719, 0.20000000000000018), v10, z0, tNozzleAlCal, \Wobj := wobjAlWithButton;
		MoveL Offs(pZero, 0.645551396998, 0.381789724631, 0.20000000000000018), v10, z0, tNozzleAlCal, \Wobj := wobjAlWithButton;
		MoveC Offs(pZero, 0.485455421289, -0.571693129171, 0.20000000000000018), Offs(pZero, -0.481368452352, -0.575138603365, 0.20000000000000018), v10, z0, tNozzleAlCal, \Wobj := wobjAlWithButton;
		MoveC Offs(pZero, -0.648256136866, 0.37717897743, 0.20000000000000018), Offs(pZero, 0.262125661421, 0.702702026199, 0.20000000000000018), v10, z0, tNozzleAlCal, \Wobj := wobjAlWithButton;
		MoveL Offs(pZero, 0.0873752204738, 0.234234008733, 0.20000000000000018), v10, z0, tNozzleAlCal, \Wobj := wobjAlWithButton;
		MoveC Offs(pZero, 0.227412066864, 0.103844845055, 0.20000000000000018), Offs(pZero, 0.234234008733, -0.0873752204738, 0.20000000000000018), v10, z0, tNozzleAlCal, \Wobj := wobjAlWithButton;
		MoveC Offs(pZero, 0.103844845055, -0.227412066864, 0.20000000000000018), Offs(pZero, -0.0873752204738, -0.234234008733, 0.20000000000000018), v10, z0, tNozzleAlCal, \Wobj := wobjAlWithButton;
		MoveC Offs(pZero, -0.227412066864, -0.103844845055, 0.4000000000000002), Offs(pZero, -0.234234008733, 0.0873752204738, 0.4000000000000002), v10, z0, tNozzleAlCal, \Wobj := wobjAlWithButton;
		MoveC Offs(pZero, -0.103844845055, 0.227412066864, 0.4000000000000002), Offs(pZero, 0.0873752204738, 0.234234008733, 0.4000000000000002), v10, z0, tNozzleAlCal, \Wobj := wobjAlWithButton;
		MoveL Offs(pZero, 0.262125661421, 0.702702026199, 0.4000000000000002), v10, z0, tNozzleAlCal, \Wobj := wobjAlWithButton;
		MoveC Offs(pZero, 0.736908072909, -0.13952237126, 0.4000000000000002), Offs(pZero, -0.0129004348857, -0.749889044312, 0.4000000000000002), v10, z0, tNozzleAlCal, \Wobj := wobjAlWithButton;
		MoveC Offs(pZero, -0.74127105104, -0.114093071176, 0.4000000000000002), Offs(pZero, -0.23780036812, 0.711302316123, 0.4000000000000002), v10, z0, tNozzleAlCal, \Wobj := wobjAlWithButton;
		MoveL Offs(pZero, -0.396333946867, 1.1855038602, 0.4000000000000002), v10, z0, tNozzleAlCal, \Wobj := wobjAlWithButton;
		MoveC Offs(pZero, 1.13966553644, 0.513480734844, 0.4000000000000002), Offs(pZero, 0.625427147068, -1.08228502887, 0.4000000000000002), v10, z0, tNozzleAlCal, \Wobj := wobjAlWithButton;
		MoveC Offs(pZero, -1.01394346971, -0.731039424534, 0.4000000000000002), Offs(pZero, -0.829247958414, 0.935333001378, 0.4000000000000002), v10, z0, tNozzleAlCal, \Wobj := wobjAlWithButton;
		MoveL Offs(pZero, -1.16094714178, 1.30946620193, 0.4000000000000002), v10, z0, tNozzleAlCal, \Wobj := wobjAlWithButton;
		MoveC Offs(pZero, 1.2229659411, 1.25174051101, 0.4000000000000002), Offs(pZero, 1.33610627711, -1.13018583262, 0.4000000000000002), v10, z0, tNozzleAlCal, \Wobj := wobjAlWithButton;
		MoveC Offs(pZero, -1.03160229609, -1.41361122756, 0.4000000000000002), Offs(pZero, -1.48385737967, 0.927721551325, 0.4000000000000002), v10, z0, tNozzleAlCal, \Wobj := wobjAlWithButton;
		MoveL Offs(pZero, -1.90781663101, 1.1927848517, 0.4000000000000002), v10, z0, tNozzleAlCal, \Wobj := wobjAlWithButton;
		MoveC Offs(pZero, 1.08478271912, 1.97122968025, 0.4000000000000002), Offs(pZero, 2.02853506154, -0.973419490307, 0.4000000000000002), v10, z0, tNozzleAlCal, \Wobj := wobjAlWithButton;
		MoveC Offs(pZero, -0.859040213649, -2.07955521959, 0.4000000000000002), Offs(pZero, -2.1241320733, 0.741999282473, 0.4000000000000002), v10, z0, tNozzleAlCal, \Wobj := wobjAlWithButton;
		MoveL Offs(pZero, -2.59616142292, 0.906888011912, 0.4000000000000002), v10, z0, tNozzleAlCal, \Wobj := wobjAlWithButton;
		MoveC Offs(pZero, 0.787819025225, 2.63473740314, 0.4000000000000002), Offs(pZero, 2.66785559064, -0.667118091108, 0.4000000000000002), v10, z0, tNozzleAlCal, \Wobj := wobjAlWithButton;
		MoveC Offs(pZero, -0.545035238529, -2.69544738193, 0.4000000000000002), Offs(pZero, -2.7174556213, 0.421823359068, 0.4000000000000002), v10, z0, tNozzleAlCal, \Wobj := wobjAlWithButton;
		MoveL Offs(pZero, -3.21153846154, 0.498518515262, 0.4000000000000002), v10, z0, tNozzleAlCal, \Wobj := wobjAlWithButton;
		MoveC Offs(pZero, 0.374536795735, 3.22834666488, 0.4000000000000002), Offs(pZero, 3.2403703492, -0.25, 0.4000000000000002), v10, z0, tNozzleAlCal, \Wobj := wobjAlWithButton;
		MoveC Offs(pZero, -0.125092695804, -3.247591695, 0.4000000000000002), Offs(pZero, -3.25, -3.98010209723e-16, 0.4000000000000002), v10, z0, tNozzleAlCal, \Wobj := wobjAlWithButton;
		zHeight := 0.4000000000000002;
		FOR i FROM 1 TO 473.0 DO 
			TPWRITE "Layer " \NUM:=i;
			MoveC Offs(pZero, -2.29809703886,2.29809703886,zHeight+0.0), Offs(pZero, 1.99005104861e-16,3.25,zHeight+0.025), v10, z0, tNozzleCorrected, \Wobj := wobjAlWithButton;
			MoveC Offs(pZero, 2.29809703886,2.29809703886,zHeight+0.05), Offs(pZero, 3.25,0.0,zHeight+0.07500000000000001), v10, z0, tNozzleCorrected, \Wobj := wobjAlWithButton;
			MoveC Offs(pZero, 2.29809703886,-2.29809703886,zHeight+0.1), Offs(pZero, 1.99005104861e-16,-3.25,zHeight+0.125), v10, z0, tNozzleCorrected, \Wobj := wobjAlWithButton;
			MoveC Offs(pZero, -2.29809703886,-2.29809703886,zHeight+0.15000000000000002), Offs(pZero, -3.25,-3.98010209723e-16,zHeight+0.17500000000000002), v10, z0, tNozzleCorrected, \Wobj := wobjAlWithButton;
			zHeight:= zHeight + 0.2;
		ENDFOR
		WaitRob \InPos;
		SetDO DO5_Program_Feed, 0;
		SetDO DO6_Between_Layer_Retract, 1;
		zHeight:= zHeight + 3;
		MoveL Offs(pZero, 0, 0, zHeight), v10 , z0, tNozzleCorrected, \Wobj := wobjAlWithButton;
		SetDO DO1_Auto_Mode, 0;

		MoveL Offs(pZero, 123.41, 2.99, 100), v30, z0, tNozzleAlCal, \Wobj := wobjAlWithButton;
		MoveL pSwitch1, v30, z0, tNozzleAlCal, \Wobj := wobjAlWithButton;
		WaitDI D652_10_DI9, 0;
		MoveL Offs(pZero, 123.41, 2.99, 100), v30, z0, tNozzleAlCal, \Wobj := wobjAlWithButton;
		MoveAbsJ [[-76.69,32.26,-3.32,90,-118.95,-13.31],[9E+09,9E+09,9E+09,9E+09,9E+09,9E+09]], v30, z0, tNozzleAlCal, \WObj:=wobjAlWithButton;


		!Layer number 1 of 10
		SetDO DO6_Between_Layer_Retract, 1;
		WaitTime .1;
		SetDO DO5_Program_Feed, 1;
		WaitTime 4.5410834490864405;
		SetDO DO5_Program_Feed, 0;
		SetDO DO6_Between_Layer_Retract, 0;

		SetDO DO1_Auto_Mode, 1;
		MoveJ [[13.900, 0.000, -2.000], [0.6532815, -0.2705981, -0.6532815, 0.2705981], [-1, 1, 1, 1], [9E+09, 9E+09, 9E+09, 9E+09, 9E+09, 9E+09]], v30, z0, tNozzleAlCal, \Wobj := wobjAlWithButton;
		MoveJ [[3.900, 0.000, -2.000], [0.6532815, -0.2705981, -0.6532815, 0.2705981], [-1, 1, 1, 1], [9E+09, 9E+09, 9E+09, 9E+09, 9E+09, 9E+09]], v30, z0, tNozzleAlCal, \Wobj := wobjAlWithButton;
		WaitRob \InPos;
		SetDO DO6_Between_Layer_Retract, 0;
		SetDO DO5_Program_Feed, 1;
		MoveJ [[0.126, 3.898, 4.000], [0.2811241, 0.2600013, -0.6575708, 0.6488215], [-1, 1, 1, 1], [9E+09, 9E+09, 9E+09, 9E+09, 9E+09, 9E+09]], v30, z0, tNozzleAlCal, \Wobj := wobjAlWithButton;
		MoveJ [[-3.892, 0.252, 10.000], [-0.2493366, 0.6441918, -0.2915767, 0.6616882], [-1, 1, 0, 1], [9E+09, 9E+09, 9E+09, 9E+09, 9E+09, 9E+09]], v30, z0, tNozzleAlCal, \Wobj := wobjAlWithButton;
		MoveJ [[-0.378, -3.882, 16.000], [-0.6393938, 0.6656327, 0.2386066, 0.301953], [-1, 1, -1, 1], [9E+09, 9E+09, 9E+09, 9E+09, 9E+09, 9E+09]], v30, z0, tNozzleAlCal, \Wobj := wobjAlWithButton;
		MoveJ [[3.867, -0.503, 22.000], [-0.6694032, 0.3122505, 0.6344286, -0.2278145], [-1, 1, -2, 1], [9E+09, 9E+09, 9E+09, 9E+09, 9E+09, 9E+09]], v30, z0, tNozzleAlCal, \Wobj := wobjAlWithButton;
		MoveJ [[0.628, 3.849, 28.000], [-0.3224662, -0.2169626, 0.6729987, -0.6292977], [-1, 1, -3, 1], [9E+09, 9E+09, 9E+09, 9E+09, 9E+09, 9E+09]], v30, z0, tNozzleAlCal, \Wobj := wobjAlWithButton;
		MoveJ [[-3.827, 0.752, 34.000], [0.2060541, -0.6240022, 0.3325978, -0.6764183], [-1, 1, -4, 1], [9E+09, 9E+09, 9E+09, 9E+09, 9E+09, 9E+09]], v30, z0, tNozzleAlCal, \Wobj := wobjAlWithButton;
		MoveJ [[-0.875, -3.801, 40.000], [0.6185437, -0.6796612, -0.1950917, -0.3426423], [-1, 1, -5, 1], [9E+09, 9E+09, 9E+09, 9E+09, 9E+09, 9E+09]], v30, z0, tNozzleAlCal, \Wobj := wobjAlWithButton;
		MoveJ [[3.770, -0.998, 46.000], [0.6827263, -0.3525974, -0.6129234, 0.1840784], [-1, 1, -6, 1], [9E+09, 9E+09, 9E+09, 9E+09, 9E+09, 9E+09]], v30, z0, tNozzleAlCal, \Wobj := wobjAlWithButton;
		MoveJ [[1.119, 3.736, 52.000], [0.3624602, 0.1730168, -0.685613, 0.607143], [-1, 1, -7, 1], [9E+09, 9E+09, 9E+09, 9E+09, 9E+09, 9E+09]], v30, z0, tNozzleAlCal, \Wobj := wobjAlWithButton;
		MoveJ [[-3.698, 1.239, 58.000], [-0.1619102, 0.6012039, -0.3722284, 0.6883205], [-1, 1, -8, 1], [9E+09, 9E+09, 9E+09, 9E+09, 9E+09, 9E+09]], v30, z0, tNozzleAlCal, \Wobj := wobjAlWithButton;
		MoveJ [[-3.881, 0.385, 58.000], [-0.2379596, 0.6391, -0.3025744, 0.6658643], [-1, 1, -8, 1], [9E+09, 9E+09, 9E+09, 9E+09, 9E+09, 9E+09]], v30, z0, tNozzleAlCal, \Wobj := wobjAlWithButton;
		MoveJ [[0.260, 3.891, 52.000], [0.2922026, 0.2486932, -0.6619303, 0.6439081], [-1, 1, -7, 1], [9E+09, 9E+09, 9E+09, 9E+09, 9E+09, 9E+09]], v30, z0, tNozzleAlCal, \Wobj := wobjAlWithButton;
		MoveJ [[3.898, -0.134, 46.000], [0.6578232, -0.2817547, -0.6485479, 0.259362], [-1, 1, -6, 1], [9E+09, 9E+09, 9E+09, 9E+09, 9E+09, 9E+09]], v30, z0, tNozzleAlCal, \Wobj := wobjAlWithButton;
		MoveJ [[-0.008, -3.900, 40.000], [0.6530182, -0.6535442, -0.2699629, -0.2712329], [-1, 1, -5, 1], [9E+09, 9E+09, 9E+09, 9E+09, 9E+09, 9E+09]], v30, z0, tNozzleAlCal, \Wobj := wobjAlWithButton;
		MoveJ [[-3.898, -0.119, 34.000], [0.2804933, -0.6573178, 0.2606404, -0.6490944], [-1, 1, -5, 1], [9E+09, 9E+09, 9E+09, 9E+09, 9E+09, 9E+09]], v30, z0, tNozzleAlCal, \Wobj := wobjAlWithButton;
		MoveJ [[-0.244, 3.892, 28.000], [-0.2499796, -0.2909503, 0.644475, -0.6614456], [-1, 1, -4, 1], [9E+09, 9E+09, 9E+09, 9E+09, 9E+09, 9E+09]], v30, z0, tNozzleAlCal, \Wobj := wobjAlWithButton;
		MoveJ [[3.882, 0.370, 22.000], [-0.639687, 0.2392536, 0.6654004, -0.3013314], [-1, 1, -3, 1], [9E+09, 9E+09, 9E+09, 9E+09, 9E+09, 9E+09]], v30, z0, tNozzleAlCal, \Wobj := wobjAlWithButton;
		MoveJ [[0.495, -3.868, 16.000], [-0.6691815, 0.6347319, 0.3116336, 0.228465], [-1, 1, -2, 1], [9E+09, 9E+09, 9E+09, 9E+09, 9E+09, 9E+09]], v30, z0, tNozzleAlCal, \Wobj := wobjAlWithButton;
		MoveJ [[-3.850, -0.620, 10.000], [-0.3218544, 0.6727875, -0.2176167, 0.6296108], [-1, 1, -1, 1], [9E+09, 9E+09, 9E+09, 9E+09, 9E+09, 9E+09]], v30, z0, tNozzleAlCal, \Wobj := wobjAlWithButton;
		MoveJ [[-0.744, 3.828, 4.000], [0.2067115, 0.331991, -0.6243253, 0.6762177], [-1, 1, 0, 1], [9E+09, 9E+09, 9E+09, 9E+09, 9E+09, 9E+09]], v30, z0, tNozzleAlCal, \Wobj := wobjAlWithButton;
		MoveJ [[3.802, 0.868, -2.000], [0.6188764, -0.1957523, -0.6794712, 0.342041], [-1, 1, 1, 1], [9E+09, 9E+09, 9E+09, 9E+09, 9E+09, 9E+09]], v30, z0, tNozzleAlCal, \Wobj := wobjAlWithButton;
		MoveJ [[3.514, 1.692, -2.000], [0.5766886, -0.1184448, -0.6971161, 0.4091825], [-1, 1, 1, 1], [9E+09, 9E+09, 9E+09, 9E+09, 9E+09, 9E+09]], v30, z0, tNozzleAlCal, \Wobj := wobjAlWithButton;
		MoveJ [[-1.578, 3.567, 4.000], [0.1296993, 0.3998058, -0.5832284, 0.6951102], [-1, 1, 0, 1], [9E+09, 9E+09, 9E+09, 9E+09, 9E+09, 9E+09]], v30, z0, tNozzleAlCal, \Wobj := wobjAlWithButton;
		MoveJ [[-3.616, -1.462, 10.000], [-0.3903247, 0.6929225, -0.1409201, 0.5896157], [-1, 1, -1, 1], [9E+09, 9E+09, 9E+09, 9E+09, 9E+09, 9E+09]], v30, z0, tNozzleAlCal, \Wobj := wobjAlWithButton;
		MoveJ [[1.344, -3.661, 16.000], [-0.6905537, 0.5958489, 0.3807415, 0.1521039], [-1, 1, -2, 1], [9E+09, 9E+09, 9E+09, 9E+09, 9E+09, 9E+09]], v30, z0, tNozzleAlCal, \Wobj := wobjAlWithButton;
		MoveJ [[3.703, 1.225, 22.000], [-0.6019264, 0.163248, 0.6880045, -0.3710589], [-1, 1, -3, 1], [9E+09, 9E+09, 9E+09, 9E+09, 9E+09, 9E+09]], v30, z0, tNozzleAlCal, \Wobj := wobjAlWithButton;
		MoveJ [[-1.104, 3.740, 28.000], [-0.1743494, -0.3612792, 0.6078465, -0.6852754], [-1, 1, -4, 1], [9E+09, 9E+09, 9E+09, 9E+09, 9E+09, 9E+09]], v30, z0, tNozzleAlCal, \Wobj := wobjAlWithButton;
		MoveJ [[-3.774, -0.983, 34.000], [0.3514052, -0.6823671, 0.1854053, -0.6136077], [-1, 1, -5, 1], [9E+09, 9E+09, 9E+09, 9E+09, 9E+09, 9E+09]], v30, z0, tNozzleAlCal, \Wobj := wobjAlWithButton;
		MoveJ [[0.860, -3.804, 40.000], [0.6792806, -0.6192086, -0.3414392, -0.1964126], [-1, 1, -6, 1], [9E+09, 9E+09, 9E+09, 9E+09, 9E+09, 9E+09]], v30, z0, tNozzleAlCal, \Wobj := wobjAlWithButton;
		MoveJ [[3.830, 0.737, 46.000], [0.6246476, -0.2073687, -0.6760165, 0.3313841], [-1, 1, -7, 1], [9E+09, 9E+09, 9E+09, 9E+09, 9E+09, 9E+09]], v30, z0, tNozzleAlCal, \Wobj := wobjAlWithButton;
		MoveJ [[-0.613, 3.852, 52.000], [0.2182705, 0.3212422, -0.6299234, 0.6725757], [-1, 1, -8, 1], [9E+09, 9E+09, 9E+09, 9E+09, 9E+09, 9E+09]], v30, z0, tNozzleAlCal, \Wobj := wobjAlWithButton;
		MoveJ [[-3.869, -0.488, 58.000], [-0.3110165, 0.668959, -0.2291154, 0.6350345], [-1, 1, -9, 1], [9E+09, 9E+09, 9E+09, 9E+09, 9E+09, 9E+09]], v30, z0, tNozzleAlCal, \Wobj := wobjAlWithButton;
		MoveJ [[-3.664, -1.337, 58.000], [-0.3801622, 0.6904055, -0.1527751, 0.5962187], [-1, 1, -9, 1], [9E+09, 9E+09, 9E+09, 9E+09, 9E+09, 9E+09]], v30, z0, tNozzleAlCal, \Wobj := wobjAlWithButton;
		MoveJ [[-1.455, 3.619, 52.000], [0.1415935, 0.3897513, -0.5899949, 0.6927852], [-1, 1, -8, 1], [9E+09, 9E+09, 9E+09, 9E+09, 9E+09, 9E+09]], v30, z0, tNozzleAlCal, \Wobj := wobjAlWithButton;
		MoveJ [[3.570, 1.571, 46.000], [0.5836167, -0.130375, -0.6949837, 0.3992387], [-1, 1, -7, 1], [9E+09, 9E+09, 9E+09, 9E+09, 9E+09, 9E+09]], v30, z0, tNozzleAlCal, \Wobj := wobjAlWithButton;
		MoveJ [[1.685, -3.517, 40.000], [0.6970007, -0.5770861, -0.4086216, -0.1191223], [-1, 1, -6, 1], [9E+09, 9E+09, 9E+09, 9E+09, 9E+09, 9E+09]], v30, z0, tNozzleAlCal, \Wobj := wobjAlWithButton;
		MoveJ [[-3.461, -1.798, 34.000], [0.4178979, -0.6988354, 0.1078386, -0.5704046], [-1, 1, -5, 1], [9E+09, 9E+09, 9E+09, 9E+09, 9E+09, 9E+09]], v30, z0, tNozzleAlCal, \Wobj := wobjAlWithButton;
		MoveJ [[-1.909, 3.401, 28.000], [-0.0965266, -0.4270647, 0.5635741, -0.7004874], [-1, 1, -4, 1], [9E+09, 9E+09, 9E+09, 9E+09, 9E+09, 9E+09]], v30, z0, tNozzleAlCal, \Wobj := wobjAlWithButton;
		MoveJ [[3.337, 2.018, 22.000], [-0.5565962, 0.0851895, 0.7019564, -0.4361201], [-1, 1, -3, 1], [9E+09, 9E+09, 9E+09, 9E+09, 9E+09, 9E+09]], v30, z0, tNozzleAlCal, \Wobj := wobjAlWithButton;
		MoveJ [[2.125, -3.270, 16.000], [-0.7032419, 0.5494728, 0.4450614, 0.07383], [-1, 1, -2, 1], [9E+09, 9E+09, 9E+09, 9E+09, 9E+09, 9E+09]], v30, z0, tNozzleAlCal, \Wobj := wobjAlWithButton;
		MoveJ [[-3.200, -2.229, 10.000], [-0.4538864, 0.7043436, -0.0624513, 0.5422058], [-1, 1, -1, 1], [9E+09, 9E+09, 9E+09, 9E+09, 9E+09, 9E+09]], v30, z0, tNozzleAlCal, \Wobj := wobjAlWithButton;
		MoveJ [[-2.332, 3.126, 4.000], [0.0510562, 0.4625927, -0.5347972, 0.7052612], [-1, 1, 0, 1], [9E+09, 9E+09, 9E+09, 9E+09, 9E+09, 9E+09]], v30, z0, tNozzleAlCal, \Wobj := wobjAlWithButton;
		MoveJ [[3.049, 2.432, -2.000], [0.5272486, -0.0396478, -0.7059944, 0.4711782], [-1, 1, 1, 1], [9E+09, 9E+09, 9E+09, 9E+09, 9E+09, 9E+09]], v30, z0, tNozzleAlCal, \Wobj := wobjAlWithButton;
		MoveJ [[2.432, 3.049, -2.000], [0.4711782, 0.0396478, -0.7059944, 0.5272487], [-1, 1, 1, 1], [9E+09, 9E+09, 9E+09, 9E+09, 9E+09, 9E+09]], v30, z0, tNozzleAlCal, \Wobj := wobjAlWithButton;
		MoveJ [[-2.969, 2.529, 4.000], [-0.0282291, 0.5195623, -0.4796405, 0.7065431], [-1, 1, 0, 1], [9E+09, 9E+09, 9E+09, 9E+09, 9E+09, 9E+09]], v30, z0, tNozzleAlCal, \Wobj := wobjAlWithButton;
		MoveJ [[-2.624, -2.886, 10.000], [-0.5117403, 0.7069071, 0.0168028, 0.4879774], [-1, 1, -1, 1], [9E+09, 9E+09, 9E+09, 9E+09, 9E+09, 9E+09]], v30, z0, tNozzleAlCal, \Wobj := wobjAlWithButton;
		MoveJ [[2.799, -2.715, 16.000], [-0.7070864, 0.4961868, 0.5037844, -0.0053724], [-1, 1, -2, 1], [9E+09, 9E+09, 9E+09, 9E+09, 9E+09, 9E+09]], v30, z0, tNozzleAlCal, \Wobj := wobjAlWithButton;
		MoveJ [[2.805, 2.710, 22.000], [-0.5042664, 0.0060597, 0.7070809, -0.4956969], [-1, 1, -3, 1], [9E+09, 9E+09, 9E+09, 9E+09, 9E+09, 9E+09]], v30, z0, tNozzleAlCal, \Wobj := wobjAlWithButton;
		MoveJ [[-2.618, 2.891, 28.000], [-0.01749, -0.4874797, 0.5122144, -0.7068905], [-1, 1, -4, 1], [9E+09, 9E+09, 9E+09, 9E+09, 9E+09, 9E+09]], v30, z0, tNozzleAlCal, \Wobj := wobjAlWithButton;
		MoveJ [[-2.974, -2.523, 34.000], [0.4791353, -0.7065153, 0.0289158, -0.5200283], [-1, 1, -5, 1], [9E+09, 9E+09, 9E+09, 9E+09, 9E+09, 9E+09]], v30, z0, tNozzleAlCal, \Wobj := wobjAlWithButton;
		MoveJ [[2.426, -3.054, 40.000], [0.7059555, -0.5277064, -0.4706655, -0.040334], [-1, 1, -6, 1], [9E+09, 9E+09, 9E+09, 9E+09, 9E+09, 9E+09]], v30, z0, tNozzleAlCal, \Wobj := wobjAlWithButton;
		MoveJ [[3.131, 2.326, 46.000], [0.5352465, -0.0517418, -0.7052112, 0.4620727], [-1, 1, -7, 1], [9E+09, 9E+09, 9E+09, 9E+09, 9E+09, 9E+09]], v30, z0, tNozzleAlCal, \Wobj := wobjAlWithButton;
		MoveJ [[-2.223, 3.204, 52.000], [0.0631358, 0.4533591, -0.5426468, 0.7042826], [-1, 1, -8, 1], [9E+09, 9E+09, 9E+09, 9E+09, 9E+09, 9E+09]], v30, z0, tNozzleAlCal, \Wobj := wobjAlWithButton;
		MoveJ [[-3.274, -2.119, 58.000], [-0.4445271, 0.7031698, -0.0745136, 0.5499052], [-1, 1, -9, 1], [9E+09, 9E+09, 9E+09, 9E+09, 9E+09, 9E+09]], v30, z0, tNozzleAlCal, \Wobj := wobjAlWithButton;
		MoveJ [[-2.721, -2.794, 58.000], [-0.5033019, 0.7070913, 0.004685, 0.4966762], [-1, 1, -9, 1], [9E+09, 9E+09, 9E+09, 9E+09, 9E+09, 9E+09]], v30, z0, tNozzleAlCal, \Wobj := wobjAlWithButton;
		MoveJ [[-2.881, 2.629, 52.000], [-0.0161158, 0.5112657, -0.4884746, 0.7069231], [-1, 1, -8, 1], [9E+09, 9E+09, 9E+09, 9E+09, 9E+09, 9E+09]], v30, z0, tNozzleAlCal, \Wobj := wobjAlWithButton;
		MoveJ [[2.535, 2.964, 46.000], [0.4801453, 0.0275422, -0.7065702, 0.5190959], [-1, 1, -7, 1], [9E+09, 9E+09, 9E+09, 9E+09, 9E+09, 9E+09]], v30, z0, tNozzleAlCal, \Wobj := wobjAlWithButton;
		MoveJ [[3.044, -2.438, 40.000], [0.7060326, -0.4716905, -0.5267904, 0.0389616], [-1, 1, -6, 1], [9E+09, 9E+09, 9E+09, 9E+09, 9E+09, 9E+09]], v30, z0, tNozzleAlCal, \Wobj := wobjAlWithButton;
		MoveJ [[-2.338, -3.122, 34.000], [0.5343473, -0.7053105, -0.0503706, -0.4631123], [-1, 1, -5, 1], [9E+09, 9E+09, 9E+09, 9E+09, 9E+09, 9E+09]], v30, z0, tNozzleAlCal, \Wobj := wobjAlWithButton;
		MoveJ [[-3.196, 2.236, 28.000], [0.0617666, -0.5417644, 0.4544133, -0.704404], [-1, 1, -4, 1], [9E+09, 9E+09, 9E+09, 9E+09, 9E+09, 9E+09]], v30, z0, tNozzleAlCal, \Wobj := wobjAlWithButton;
		MoveJ [[2.131, 3.266, 22.000], [-0.4455953, -0.0731464, 0.7033133, -0.54904], [-1, 1, -3, 1], [9E+09, 9E+09, 9E+09, 9E+09, 9E+09, 9E+09]], v30, z0, tNozzleAlCal, \Wobj := wobjAlWithButton;
		MoveJ [[3.333, -2.025, 16.000], [-0.7020389, 0.4366609, 0.556172, -0.0845071], [-1, 1, -2, 1], [9E+09, 9E+09, 9E+09, 9E+09, 9E+09, 9E+09]], v30, z0, tNozzleAlCal, \Wobj := wobjAlWithButton;
		MoveJ [[-1.916, -3.397, 10.000], [-0.5631587, 0.7005809, 0.0958457, 0.4276124], [-1, 1, -1, 1], [9E+09, 9E+09, 9E+09, 9E+09, 9E+09, 9E+09]], v30, z0, tNozzleAlCal, \Wobj := wobjAlWithButton;
		MoveJ [[-3.457, 1.805, 4.000], [-0.1071593, 0.5699981, -0.4184521, 0.6989399], [-1, 1, 0, 1], [9E+09, 9E+09, 9E+09, 9E+09, 9E+09, 9E+09]], v30, z0, tNozzleAlCal, \Wobj := wobjAlWithButton;
		MoveJ [[1.692, 3.514, -2.000], [0.4091824, 0.1184448, -0.6971161, 0.5766887], [-1, 1, 1, 1], [9E+09, 9E+09, 9E+09, 9E+09, 9E+09, 9E+09]], v30, z0, tNozzleAlCal, \Wobj := wobjAlWithButton;
		MoveJ [[0.868, 3.802, -2.000], [0.3420409, 0.1957522, -0.6794712, 0.6188765], [-1, 1, 1, 1], [9E+09, 9E+09, 9E+09, 9E+09, 9E+09, 9E+09]], v30, z0, tNozzleAlCal, \Wobj := wobjAlWithButton;
		MoveJ [[-3.772, 0.990, 4.000], [-0.1847419, 0.6132659, -0.3520014, 0.682547], [-1, 1, 0, 1], [9E+09, 9E+09, 9E+09, 9E+09, 9E+09, 9E+09]], v30, z0, tNozzleAlCal, \Wobj := wobjAlWithButton;
		MoveJ [[-1.112, -3.738, 10.000], [-0.6074951, 0.6854445, 0.1736832, 0.3618698], [-1, 1, -1, 1], [9E+09, 9E+09, 9E+09, 9E+09, 9E+09, 9E+09]], v30, z0, tNozzleAlCal, \Wobj := wobjAlWithButton;
		MoveJ [[3.700, -1.232, 16.000], [-0.6881628, 0.3716438, 0.6015654, -0.1625792], [-1, 1, -2, 1], [9E+09, 9E+09, 9E+09, 9E+09, 9E+09, 9E+09]], v30, z0, tNozzleAlCal, \Wobj := wobjAlWithButton;
		MoveJ [[1.351, 3.659, 22.000], [-0.3813205, -0.1514326, 0.6907013, -0.5954786], [-1, 1, -3, 1], [9E+09, 9E+09, 9E+09, 9E+09, 9E+09, 9E+09]], v30, z0, tNozzleAlCal, \Wobj := wobjAlWithButton;
		MoveJ [[-3.613, 1.469, 28.000], [0.1402465, -0.589236, 0.3908976, -0.6930591], [-1, 1, -4, 1], [9E+09, 9E+09, 9E+09, 9E+09, 9E+09, 9E+09]], v30, z0, tNozzleAlCal, \Wobj := wobjAlWithButton;
		MoveJ [[-1.585, -3.564, 34.000], [0.5828395, -0.6952359, -0.1290236, -0.4003725], [-1, 1, -5, 1], [9E+09, 9E+09, 9E+09, 9E+09, 9E+09, 9E+09]], v30, z0, tNozzleAlCal, \Wobj := wobjAlWithButton;
		MoveJ [[3.510, -1.699, 40.000], [0.6972309, -0.4097428, -0.5762906, 0.1177672], [-1, 1, -6, 1], [9E+09, 9E+09, 9E+09, 9E+09, 9E+09, 9E+09]], v30, z0, tNozzleAlCal, \Wobj := wobjAlWithButton;
		MoveJ [[1.812, 3.454, 46.000], [0.4190059, 0.1064798, -0.6990437, 0.5695912], [-1, 1, -7, 1], [9E+09, 9E+09, 9E+09, 9E+09, 9E+09, 9E+09]], v30, z0, tNozzleAlCal, \Wobj := wobjAlWithButton;
		MoveJ [[-3.393, 1.922, 52.000], [-0.0951647, 0.5627427, -0.4281596, 0.7006738], [-1, 1, -8, 1], [9E+09, 9E+09, 9E+09, 9E+09, 9E+09, 9E+09]], v30, z0, tNozzleAlCal, \Wobj := wobjAlWithButton;
		MoveJ [[-2.031, -3.329, 58.000], [-0.5557473, 0.7021207, 0.0838246, 0.4372013], [-1, 1, -9, 1], [9E+09, 9E+09, 9E+09, 9E+09, 9E+09, 9E+09]], v30, z0, tNozzleAlCal, \Wobj := wobjAlWithButton;
		MoveJ [[-1.239, -3.698, 58.000], [-0.6012039, 0.6883205, 0.1619101, 0.3722283], [-1, 1, -9, 1], [9E+09, 9E+09, 9E+09, 9E+09, 9E+09, 9E+09]], v30, z0, tNozzleAlCal, \Wobj := wobjAlWithButton;
		MoveJ [[-3.736, 1.119, 52.000], [-0.1730169, 0.607143, -0.3624602, 0.685613], [-1, 1, -8, 1], [9E+09, 9E+09, 9E+09, 9E+09, 9E+09, 9E+09]], v30, z0, tNozzleAlCal, \Wobj := wobjAlWithButton;
		MoveJ [[0.998, 3.770, 46.000], [0.3525973, 0.1840783, -0.6827263, 0.6129235], [-1, 1, -7, 1], [9E+09, 9E+09, 9E+09, 9E+09, 9E+09, 9E+09]], v30, z0, tNozzleAlCal, \Wobj := wobjAlWithButton;
		MoveJ [[3.801, -0.875, 40.000], [0.6796611, -0.3426424, -0.6185437, 0.1950918], [-1, 1, -6, 1], [9E+09, 9E+09, 9E+09, 9E+09, 9E+09, 9E+09]], v30, z0, tNozzleAlCal, \Wobj := wobjAlWithButton;
		MoveJ [[-0.752, -3.827, 34.000], [0.6240023, -0.6764183, -0.2060541, -0.3325977], [-1, 1, -5, 1], [9E+09, 9E+09, 9E+09, 9E+09, 9E+09, 9E+09]], v30, z0, tNozzleAlCal, \Wobj := wobjAlWithButton;
		MoveJ [[-3.849, 0.628, 28.000], [0.2169627, -0.6292977, 0.3224663, -0.6729987], [-1, 1, -4, 1], [9E+09, 9E+09, 9E+09, 9E+09, 9E+09, 9E+09]], v30, z0, tNozzleAlCal, \Wobj := wobjAlWithButton;
		MoveJ [[0.503, 3.867, 22.000], [-0.3122504, -0.2278144, 0.6694032, -0.6344287], [-1, 1, -3, 1], [9E+09, 9E+09, 9E+09, 9E+09, 9E+09, 9E+09]], v30, z0, tNozzleAlCal, \Wobj := wobjAlWithButton;
		MoveJ [[3.882, -0.378, 16.000], [-0.6656327, 0.301953, 0.6393938, -0.2386067], [-1, 1, -2, 1], [9E+09, 9E+09, 9E+09, 9E+09, 9E+09, 9E+09]], v30, z0, tNozzleAlCal, \Wobj := wobjAlWithButton;
		MoveJ [[-0.252, -3.892, 10.000], [-0.6441918, 0.6616882, 0.2493365, 0.2915766], [-1, 1, -1, 1], [9E+09, 9E+09, 9E+09, 9E+09, 9E+09, 9E+09]], v30, z0, tNozzleAlCal, \Wobj := wobjAlWithButton;
		MoveJ [[-3.898, 0.126, 4.000], [-0.2600013, 0.6488214, -0.2811241, 0.6575708], [-1, 1, 0, 1], [9E+09, 9E+09, 9E+09, 9E+09, 9E+09, 9E+09]], v30, z0, tNozzleAlCal, \Wobj := wobjAlWithButton;
		MoveJ [[-0.000, 3.900, -2.000], [0.270598, 0.270598, -0.6532815, 0.6532815], [-1, 1, 0, 1], [9E+09, 9E+09, 9E+09, 9E+09, 9E+09, 9E+09]], v30, z0, tNozzleAlCal, \Wobj := wobjAlWithButton;
		MoveJ [[-0.868, 3.802, -2.000], [0.1957522, 0.3420409, -0.6188765, 0.6794712], [-1, 1, 0, 1], [9E+09, 9E+09, 9E+09, 9E+09, 9E+09, 9E+09]], v30, z0, tNozzleAlCal, \Wobj := wobjAlWithButton;
		MoveJ [[-3.828, -0.744, 4.000], [-0.3319911, 0.6762177, -0.2067115, 0.6243252], [-1, 1, -1, 1], [9E+09, 9E+09, 9E+09, 9E+09, 9E+09, 9E+09]], v30, z0, tNozzleAlCal, \Wobj := wobjAlWithButton;
		MoveJ [[0.620, -3.850, 10.000], [-0.6727875, 0.6296109, 0.3218543, 0.2176166], [-1, 1, -2, 1], [9E+09, 9E+09, 9E+09, 9E+09, 9E+09, 9E+09]], v30, z0, tNozzleAlCal, \Wobj := wobjAlWithButton;
		MoveJ [[3.868, 0.495, 16.000], [-0.6347319, 0.228465, 0.6691814, -0.3116336], [-1, 1, -3, 1], [9E+09, 9E+09, 9E+09, 9E+09, 9E+09, 9E+09]], v30, z0, tNozzleAlCal, \Wobj := wobjAlWithButton;
		MoveJ [[-0.370, 3.882, 22.000], [-0.2392535, -0.3013313, 0.639687, -0.6654005], [-1, 1, -4, 1], [9E+09, 9E+09, 9E+09, 9E+09, 9E+09, 9E+09]], v30, z0, tNozzleAlCal, \Wobj := wobjAlWithButton;
		MoveJ [[-3.892, -0.244, 28.000], [0.2909504, -0.6614455, 0.2499797, -0.6444749], [-1, 1, -5, 1], [9E+09, 9E+09, 9E+09, 9E+09, 9E+09, 9E+09]], v30, z0, tNozzleAlCal, \Wobj := wobjAlWithButton;
		MoveJ [[0.119, -3.898, 34.000], [0.6573178, -0.6490944, -0.2804933, -0.2606403], [-1, 1, -6, 1], [9E+09, 9E+09, 9E+09, 9E+09, 9E+09, 9E+09]], v30, z0, tNozzleAlCal, \Wobj := wobjAlWithButton;
		MoveJ [[3.900, -0.008, 40.000], [0.6535442, -0.271233, -0.6530182, 0.269963], [-1, 1, -6, 1], [9E+09, 9E+09, 9E+09, 9E+09, 9E+09, 9E+09]], v30, z0, tNozzleAlCal, \Wobj := wobjAlWithButton;
		MoveJ [[0.134, 3.898, 46.000], [0.2817546, 0.259362, -0.6578232, 0.6485479], [-1, 1, -7, 1], [9E+09, 9E+09, 9E+09, 9E+09, 9E+09, 9E+09]], v30, z0, tNozzleAlCal, \Wobj := wobjAlWithButton;
		MoveJ [[-3.891, 0.260, 52.000], [-0.2486933, 0.6439081, -0.2922027, 0.6619303], [-1, 1, -8, 1], [9E+09, 9E+09, 9E+09, 9E+09, 9E+09, 9E+09]], v30, z0, tNozzleAlCal, \Wobj := wobjAlWithButton;
		MoveJ [[-0.385, -3.881, 58.000], [-0.6391, 0.6658643, 0.2379595, 0.3025743], [-1, 1, -9, 1], [9E+09, 9E+09, 9E+09, 9E+09, 9E+09, 9E+09]], v30, z0, tNozzleAlCal, \Wobj := wobjAlWithButton;
		MoveJ [[0.488, -3.869, 58.000], [-0.6689591, 0.6350345, 0.3110164, 0.2291153], [-1, 1, -10, 1], [9E+09, 9E+09, 9E+09, 9E+09, 9E+09, 9E+09]], v30, z0, tNozzleAlCal, \Wobj := wobjAlWithButton;
		MoveJ [[-3.852, -0.613, 52.000], [-0.3212423, 0.6725756, -0.2182706, 0.6299234], [-1, 1, -9, 1], [9E+09, 9E+09, 9E+09, 9E+09, 9E+09, 9E+09]], v30, z0, tNozzleAlCal, \Wobj := wobjAlWithButton;
		MoveJ [[-0.737, 3.830, 46.000], [0.2073687, 0.331384, -0.6246477, 0.6760165], [-1, 1, -8, 1], [9E+09, 9E+09, 9E+09, 9E+09, 9E+09, 9E+09]], v30, z0, tNozzleAlCal, \Wobj := wobjAlWithButton;
		MoveJ [[3.804, 0.860, 40.000], [0.6192086, -0.1964127, -0.6792806, 0.3414392], [-1, 1, -7, 1], [9E+09, 9E+09, 9E+09, 9E+09, 9E+09, 9E+09]], v30, z0, tNozzleAlCal, \Wobj := wobjAlWithButton;
		MoveJ [[0.983, -3.774, 34.000], [0.6823672, -0.6136078, -0.3514051, -0.1854052], [-1, 1, -6, 1], [9E+09, 9E+09, 9E+09, 9E+09, 9E+09, 9E+09]], v30, z0, tNozzleAlCal, \Wobj := wobjAlWithButton;
		MoveJ [[-3.740, -1.104, 28.000], [0.3612792, -0.6852754, 0.1743494, -0.6078465], [-1, 1, -5, 1], [9E+09, 9E+09, 9E+09, 9E+09, 9E+09, 9E+09]], v30, z0, tNozzleAlCal, \Wobj := wobjAlWithButton;
		MoveJ [[-1.225, 3.703, 22.000], [-0.163248, -0.3710588, 0.6019264, -0.6880045], [-1, 1, -4, 1], [9E+09, 9E+09, 9E+09, 9E+09, 9E+09, 9E+09]], v30, z0, tNozzleAlCal, \Wobj := wobjAlWithButton;
		MoveJ [[3.661, 1.344, 16.000], [-0.5958489, 0.1521039, 0.6905537, -0.3807416], [-1, 1, -3, 1], [9E+09, 9E+09, 9E+09, 9E+09, 9E+09, 9E+09]], v30, z0, tNozzleAlCal, \Wobj := wobjAlWithButton;
		MoveJ [[1.462, -3.616, 10.000], [-0.6929225, 0.5896157, 0.3903246, 0.14092], [-1, 1, -2, 1], [9E+09, 9E+09, 9E+09, 9E+09, 9E+09, 9E+09]], v30, z0, tNozzleAlCal, \Wobj := wobjAlWithButton;
		MoveJ [[-3.567, -1.578, 4.000], [-0.3998058, 0.6951101, -0.1296994, 0.5832284], [-1, 1, -1, 1], [9E+09, 9E+09, 9E+09, 9E+09, 9E+09, 9E+09]], v30, z0, tNozzleAlCal, \Wobj := wobjAlWithButton;
		MoveJ [[-1.692, 3.514, -2.000], [0.1184448, 0.4091824, -0.5766887, 0.6971161], [-1, 1, 0, 1], [9E+09, 9E+09, 9E+09, 9E+09, 9E+09, 9E+09]], v30, z0, tNozzleAlCal, \Wobj := wobjAlWithButton;
		MoveJ [[-2.432, 3.049, -2.000], [0.0396478, 0.4711782, -0.5272487, 0.7059944], [-1, 1, 0, 1], [9E+09, 9E+09, 9E+09, 9E+09, 9E+09, 9E+09]], v30, z0, tNozzleAlCal, \Wobj := wobjAlWithButton;
		MoveJ [[-3.126, -2.332, 4.000], [-0.4625928, 0.7052612, -0.0510562, 0.5347971], [-1, 1, -1, 1], [9E+09, 9E+09, 9E+09, 9E+09, 9E+09, 9E+09]], v30, z0, tNozzleAlCal, \Wobj := wobjAlWithButton;
		MoveJ [[2.229, -3.200, 10.000], [-0.7043436, 0.5422059, 0.4538864, 0.0624512], [-1, 1, -2, 1], [9E+09, 9E+09, 9E+09, 9E+09, 9E+09, 9E+09]], v30, z0, tNozzleAlCal, \Wobj := wobjAlWithButton;
		MoveJ [[3.270, 2.125, 16.000], [-0.5494728, 0.0738301, 0.7032419, -0.4450614], [-1, 1, -3, 1], [9E+09, 9E+09, 9E+09, 9E+09, 9E+09, 9E+09]], v30, z0, tNozzleAlCal, \Wobj := wobjAlWithButton;
		MoveJ [[-2.018, 3.337, 22.000], [-0.0851894, -0.4361201, 0.5565962, -0.7019564], [-1, 1, -4, 1], [9E+09, 9E+09, 9E+09, 9E+09, 9E+09, 9E+09]], v30, z0, tNozzleAlCal, \Wobj := wobjAlWithButton;
		MoveJ [[-3.401, -1.909, 28.000], [0.4270648, -0.7004874, 0.0965267, -0.563574], [-1, 1, -5, 1], [9E+09, 9E+09, 9E+09, 9E+09, 9E+09, 9E+09]], v30, z0, tNozzleAlCal, \Wobj := wobjAlWithButton;
		MoveJ [[1.798, -3.461, 34.000], [0.6988354, -0.5704047, -0.4178978, -0.1078385], [-1, 1, -6, 1], [9E+09, 9E+09, 9E+09, 9E+09, 9E+09, 9E+09]], v30, z0, tNozzleAlCal, \Wobj := wobjAlWithButton;
		MoveJ [[3.517, 1.685, 40.000], [0.5770861, -0.1191224, -0.6970007, 0.4086217], [-1, 1, -7, 1], [9E+09, 9E+09, 9E+09, 9E+09, 9E+09, 9E+09]], v30, z0, tNozzleAlCal, \Wobj := wobjAlWithButton;
		MoveJ [[-1.571, 3.570, 46.000], [0.1303749, 0.3992387, -0.5836168, 0.6949838], [-1, 1, -8, 1], [9E+09, 9E+09, 9E+09, 9E+09, 9E+09, 9E+09]], v30, z0, tNozzleAlCal, \Wobj := wobjAlWithButton;
		MoveJ [[-3.619, -1.455, 52.000], [-0.3897514, 0.6927852, -0.1415936, 0.5899948], [-1, 1, -9, 1], [9E+09, 9E+09, 9E+09, 9E+09, 9E+09, 9E+09]], v30, z0, tNozzleAlCal, \Wobj := wobjAlWithButton;
		MoveJ [[1.337, -3.664, 58.000], [-0.6904056, 0.5962188, 0.3801621, 0.152775], [-1, 1, -10, 1], [9E+09, 9E+09, 9E+09, 9E+09, 9E+09, 9E+09]], v30, z0, tNozzleAlCal, \Wobj := wobjAlWithButton;
		MoveJ [[2.119, -3.274, 58.000], [-0.7031698, 0.5499052, 0.4445271, 0.0745135], [-1, 1, -10, 1], [9E+09, 9E+09, 9E+09, 9E+09, 9E+09, 9E+09]], v30, z0, tNozzleAlCal, \Wobj := wobjAlWithButton;
		MoveJ [[-3.204, -2.223, 52.000], [-0.4533592, 0.7042825, -0.0631359, 0.5426468], [-1, 1, -9, 1], [9E+09, 9E+09, 9E+09, 9E+09, 9E+09, 9E+09]], v30, z0, tNozzleAlCal, \Wobj := wobjAlWithButton;
		MoveJ [[-2.326, 3.131, 46.000], [0.0517417, 0.4620727, -0.5352466, 0.7052112], [-1, 1, -8, 1], [9E+09, 9E+09, 9E+09, 9E+09, 9E+09, 9E+09]], v30, z0, tNozzleAlCal, \Wobj := wobjAlWithButton;
		MoveJ [[3.054, 2.426, 40.000], [0.5277064, -0.0403341, -0.7059555, 0.4706655], [-1, 1, -7, 1], [9E+09, 9E+09, 9E+09, 9E+09, 9E+09, 9E+09]], v30, z0, tNozzleAlCal, \Wobj := wobjAlWithButton;
		MoveJ [[2.523, -2.974, 34.000], [0.7065153, -0.5200284, -0.4791352, -0.0289157], [-1, 1, -6, 1], [9E+09, 9E+09, 9E+09, 9E+09, 9E+09, 9E+09]], v30, z0, tNozzleAlCal, \Wobj := wobjAlWithButton;
		MoveJ [[-2.891, -2.618, 28.000], [0.4874798, -0.7068905, 0.01749, -0.5122143], [-1, 1, -5, 1], [9E+09, 9E+09, 9E+09, 9E+09, 9E+09, 9E+09]], v30, z0, tNozzleAlCal, \Wobj := wobjAlWithButton;
		MoveJ [[-2.710, 2.805, 22.000], [-0.0060596, -0.4956968, 0.5042665, -0.7070809], [-1, 1, -4, 1], [9E+09, 9E+09, 9E+09, 9E+09, 9E+09, 9E+09]], v30, z0, tNozzleAlCal, \Wobj := wobjAlWithButton;
		MoveJ [[2.715, 2.799, 16.000], [-0.4961868, -0.0053723, 0.7070864, -0.5037844], [-1, 1, -3, 1], [9E+09, 9E+09, 9E+09, 9E+09, 9E+09, 9E+09]], v30, z0, tNozzleAlCal, \Wobj := wobjAlWithButton;
		MoveJ [[2.886, -2.624, 10.000], [-0.7069071, 0.4879774, 0.5117402, -0.0168029], [-1, 1, -2, 1], [9E+09, 9E+09, 9E+09, 9E+09, 9E+09, 9E+09]], v30, z0, tNozzleAlCal, \Wobj := wobjAlWithButton;
		MoveJ [[-2.529, -2.969, 4.000], [-0.5195624, 0.7065431, 0.028229, 0.4796405], [-1, 1, -1, 1], [9E+09, 9E+09, 9E+09, 9E+09, 9E+09, 9E+09]], v30, z0, tNozzleAlCal, \Wobj := wobjAlWithButton;
		MoveJ [[-3.049, 2.432, -2.000], [-0.0396478, 0.5272486, -0.4711782, 0.7059944], [-1, 1, 0, 1], [9E+09, 9E+09, 9E+09, 9E+09, 9E+09, 9E+09]], v30, z0, tNozzleAlCal, \Wobj := wobjAlWithButton;
		MoveJ [[-3.514, 1.692, -2.000], [-0.1184448, 0.5766886, -0.4091825, 0.6971161], [-1, 1, 0, 1], [9E+09, 9E+09, 9E+09, 9E+09, 9E+09, 9E+09]], v30, z0, tNozzleAlCal, \Wobj := wobjAlWithButton;
		MoveJ [[-1.805, -3.457, 4.000], [-0.5699982, 0.6989399, 0.1071592, 0.4184521], [-1, 1, -1, 1], [9E+09, 9E+09, 9E+09, 9E+09, 9E+09, 9E+09]], v30, z0, tNozzleAlCal, \Wobj := wobjAlWithButton;
		MoveJ [[3.397, -1.916, 10.000], [-0.7005809, 0.4276124, 0.5631587, -0.0958457], [-1, 1, -2, 1], [9E+09, 9E+09, 9E+09, 9E+09, 9E+09, 9E+09]], v30, z0, tNozzleAlCal, \Wobj := wobjAlWithButton;
		MoveJ [[2.025, 3.333, 16.000], [-0.4366609, -0.0845071, 0.7020389, -0.556172], [-1, 1, -3, 1], [9E+09, 9E+09, 9E+09, 9E+09, 9E+09, 9E+09]], v30, z0, tNozzleAlCal, \Wobj := wobjAlWithButton;
		MoveJ [[-3.266, 2.131, 22.000], [0.0731465, -0.5490399, 0.4455953, -0.7033133], [-1, 1, -4, 1], [9E+09, 9E+09, 9E+09, 9E+09, 9E+09, 9E+09]], v30, z0, tNozzleAlCal, \Wobj := wobjAlWithButton;
		MoveJ [[-2.236, -3.196, 28.000], [0.5417644, -0.704404, -0.0617666, -0.4544132], [-1, 1, -5, 1], [9E+09, 9E+09, 9E+09, 9E+09, 9E+09, 9E+09]], v30, z0, tNozzleAlCal, \Wobj := wobjAlWithButton;
		MoveJ [[3.122, -2.338, 34.000], [0.7053105, -0.4631124, -0.5343472, 0.0503707], [-1, 1, -6, 1], [9E+09, 9E+09, 9E+09, 9E+09, 9E+09, 9E+09]], v30, z0, tNozzleAlCal, \Wobj := wobjAlWithButton;
		MoveJ [[2.438, 3.044, 40.000], [0.4716905, 0.0389615, -0.7060326, 0.5267904], [-1, 1, -7, 1], [9E+09, 9E+09, 9E+09, 9E+09, 9E+09, 9E+09]], v30, z0, tNozzleAlCal, \Wobj := wobjAlWithButton;
		MoveJ [[-2.964, 2.535, 46.000], [-0.0275423, 0.5190959, -0.4801453, 0.7065702], [-1, 1, -8, 1], [9E+09, 9E+09, 9E+09, 9E+09, 9E+09, 9E+09]], v30, z0, tNozzleAlCal, \Wobj := wobjAlWithButton;
		MoveJ [[-2.629, -2.881, 52.000], [-0.5112657, 0.7069231, 0.0161157, 0.4884746], [-1, 1, -9, 1], [9E+09, 9E+09, 9E+09, 9E+09, 9E+09, 9E+09]], v30, z0, tNozzleAlCal, \Wobj := wobjAlWithButton;
		MoveJ [[2.794, -2.721, 58.000], [-0.7070913, 0.4966763, 0.5033018, -0.0046851], [-1, 1, -10, 1], [9E+09, 9E+09, 9E+09, 9E+09, 9E+09, 9E+09]], v30, z0, tNozzleAlCal, \Wobj := wobjAlWithButton;
		MoveJ [[3.329, -2.031, 58.000], [-0.7021207, 0.4372013, 0.5557473, -0.0838247], [-1, 1, -10, 1], [9E+09, 9E+09, 9E+09, 9E+09, 9E+09, 9E+09]], v30, z0, tNozzleAlCal, \Wobj := wobjAlWithButton;
		MoveJ [[-1.922, -3.393, 52.000], [-0.5627428, 0.7006738, 0.0951646, 0.4281596], [-1, 1, -9, 1], [9E+09, 9E+09, 9E+09, 9E+09, 9E+09, 9E+09]], v30, z0, tNozzleAlCal, \Wobj := wobjAlWithButton;
		MoveJ [[-3.454, 1.812, 46.000], [-0.1064799, 0.5695911, -0.419006, 0.6990437], [-1, 1, -8, 1], [9E+09, 9E+09, 9E+09, 9E+09, 9E+09, 9E+09]], v30, z0, tNozzleAlCal, \Wobj := wobjAlWithButton;
		MoveJ [[1.699, 3.510, 40.000], [0.4097427, 0.1177671, -0.6972309, 0.5762907], [-1, 1, -7, 1], [9E+09, 9E+09, 9E+09, 9E+09, 9E+09, 9E+09]], v30, z0, tNozzleAlCal, \Wobj := wobjAlWithButton;
		MoveJ [[3.564, -1.585, 34.000], [0.6952359, -0.4003725, -0.5828395, 0.1290237], [-1, 1, -6, 1], [9E+09, 9E+09, 9E+09, 9E+09, 9E+09, 9E+09]], v30, z0, tNozzleAlCal, \Wobj := wobjAlWithButton;
		MoveJ [[-1.469, -3.613, 28.000], [0.5892361, -0.6930592, -0.1402464, -0.3908976], [-1, 1, -5, 1], [9E+09, 9E+09, 9E+09, 9E+09, 9E+09, 9E+09]], v30, z0, tNozzleAlCal, \Wobj := wobjAlWithButton;
		MoveJ [[-3.659, 1.351, 22.000], [0.1514326, -0.5954785, 0.3813206, -0.6907012], [-1, 1, -4, 1], [9E+09, 9E+09, 9E+09, 9E+09, 9E+09, 9E+09]], v30, z0, tNozzleAlCal, \Wobj := wobjAlWithButton;
		MoveJ [[1.232, 3.700, 16.000], [-0.3716437, -0.1625791, 0.6881628, -0.6015654], [-1, 1, -3, 1], [9E+09, 9E+09, 9E+09, 9E+09, 9E+09, 9E+09]], v30, z0, tNozzleAlCal, \Wobj := wobjAlWithButton;
		MoveJ [[3.738, -1.112, 10.000], [-0.6854445, 0.3618699, 0.607495, -0.1736833], [-1, 1, -2, 1], [9E+09, 9E+09, 9E+09, 9E+09, 9E+09, 9E+09]], v30, z0, tNozzleAlCal, \Wobj := wobjAlWithButton;
		MoveJ [[-0.990, -3.772, 4.000], [-0.6132659, 0.6825471, 0.1847419, 0.3520014], [-1, 1, -1, 1], [9E+09, 9E+09, 9E+09, 9E+09, 9E+09, 9E+09]], v30, z0, tNozzleAlCal, \Wobj := wobjAlWithButton;
		MoveJ [[-3.802, 0.868, -2.000], [-0.1957523, 0.6188764, -0.342041, 0.6794712], [-1, 1, 0, 1], [9E+09, 9E+09, 9E+09, 9E+09, 9E+09, 9E+09]], v30, z0, tNozzleAlCal, \Wobj := wobjAlWithButton;
		MoveJ [[-3.900, -0.000, -2.000], [-0.2705981, 0.6532815, -0.2705981, 0.6532815], [-1, 1, -1, 1], [9E+09, 9E+09, 9E+09, 9E+09, 9E+09, 9E+09]], v30, z0, tNozzleAlCal, \Wobj := wobjAlWithButton;
		MoveJ [[-0.126, -3.898, 4.000], [-0.6488215, 0.6575708, 0.2600013, 0.2811241], [-1, 1, -1, 1], [9E+09, 9E+09, 9E+09, 9E+09, 9E+09, 9E+09]], v30, z0, tNozzleAlCal, \Wobj := wobjAlWithButton;
		MoveJ [[3.892, -0.252, 10.000], [-0.6616882, 0.2915767, 0.6441918, -0.2493366], [-1, 1, -2, 1], [9E+09, 9E+09, 9E+09, 9E+09, 9E+09, 9E+09]], v30, z0, tNozzleAlCal, \Wobj := wobjAlWithButton;
		MoveJ [[0.378, 3.882, 16.000], [-0.301953, -0.2386066, 0.6656327, -0.6393938], [-1, 1, -3, 1], [9E+09, 9E+09, 9E+09, 9E+09, 9E+09, 9E+09]], v30, z0, tNozzleAlCal, \Wobj := wobjAlWithButton;
		MoveJ [[-3.867, 0.503, 22.000], [0.2278145, -0.6344286, 0.3122505, -0.6694032], [-1, 1, -4, 1], [9E+09, 9E+09, 9E+09, 9E+09, 9E+09, 9E+09]], v30, z0, tNozzleAlCal, \Wobj := wobjAlWithButton;
		MoveJ [[-0.628, -3.849, 28.000], [0.6292977, -0.6729987, -0.2169626, -0.3224662], [-1, 1, -5, 1], [9E+09, 9E+09, 9E+09, 9E+09, 9E+09, 9E+09]], v30, z0, tNozzleAlCal, \Wobj := wobjAlWithButton;
		MoveJ [[3.827, -0.752, 34.000], [0.6764183, -0.3325978, -0.6240022, 0.2060541], [-1, 1, -6, 1], [9E+09, 9E+09, 9E+09, 9E+09, 9E+09, 9E+09]], v30, z0, tNozzleAlCal, \Wobj := wobjAlWithButton;
		MoveJ [[0.875, 3.801, 40.000], [0.3426423, 0.1950917, -0.6796612, 0.6185437], [-1, 1, -7, 1], [9E+09, 9E+09, 9E+09, 9E+09, 9E+09, 9E+09]], v30, z0, tNozzleAlCal, \Wobj := wobjAlWithButton;
		MoveJ [[-3.770, 0.998, 46.000], [-0.1840784, 0.6129234, -0.3525974, 0.6827263], [-1, 1, -8, 1], [9E+09, 9E+09, 9E+09, 9E+09, 9E+09, 9E+09]], v30, z0, tNozzleAlCal, \Wobj := wobjAlWithButton;
		MoveJ [[-1.119, -3.736, 52.000], [-0.607143, 0.685613, 0.1730168, 0.3624602], [-1, 1, -9, 1], [9E+09, 9E+09, 9E+09, 9E+09, 9E+09, 9E+09]], v30, z0, tNozzleAlCal, \Wobj := wobjAlWithButton;
		MoveJ [[3.698, -1.239, 58.000], [-0.6883205, 0.3722284, 0.6012039, -0.1619102], [-1, 1, -10, 1], [9E+09, 9E+09, 9E+09, 9E+09, 9E+09, 9E+09]], v30, z0, tNozzleAlCal, \Wobj := wobjAlWithButton;
		MoveJ [[3.881, -0.385, 58.000], [-0.6658643, 0.3025744, 0.6391, -0.2379596], [-1, 1, -10, 1], [9E+09, 9E+09, 9E+09, 9E+09, 9E+09, 9E+09]], v30, z0, tNozzleAlCal, \Wobj := wobjAlWithButton;
		MoveJ [[-0.260, -3.891, 52.000], [-0.6439081, 0.6619303, 0.2486932, 0.2922026], [-1, 1, -9, 1], [9E+09, 9E+09, 9E+09, 9E+09, 9E+09, 9E+09]], v30, z0, tNozzleAlCal, \Wobj := wobjAlWithButton;
		MoveJ [[-3.898, 0.134, 46.000], [-0.259362, 0.6485479, -0.2817547, 0.6578232], [-1, 1, -8, 1], [9E+09, 9E+09, 9E+09, 9E+09, 9E+09, 9E+09]], v30, z0, tNozzleAlCal, \Wobj := wobjAlWithButton;
		MoveJ [[0.008, 3.900, 40.000], [0.2712329, 0.2699629, -0.6535442, 0.6530182], [-1, 1, -7, 1], [9E+09, 9E+09, 9E+09, 9E+09, 9E+09, 9E+09]], v30, z0, tNozzleAlCal, \Wobj := wobjAlWithButton;
		MoveJ [[3.898, 0.119, 34.000], [0.6490944, -0.2606404, -0.6573178, 0.2804933], [-1, 1, -7, 1], [9E+09, 9E+09, 9E+09, 9E+09, 9E+09, 9E+09]], v30, z0, tNozzleAlCal, \Wobj := wobjAlWithButton;
		MoveJ [[0.244, -3.892, 28.000], [0.6614456, -0.644475, -0.2909503, -0.2499796], [-1, 1, -6, 1], [9E+09, 9E+09, 9E+09, 9E+09, 9E+09, 9E+09]], v30, z0, tNozzleAlCal, \Wobj := wobjAlWithButton;
		MoveJ [[-3.882, -0.370, 22.000], [0.3013314, -0.6654004, 0.2392536, -0.639687], [-1, 1, -5, 1], [9E+09, 9E+09, 9E+09, 9E+09, 9E+09, 9E+09]], v30, z0, tNozzleAlCal, \Wobj := wobjAlWithButton;
		MoveJ [[-0.495, 3.868, 16.000], [-0.228465, -0.3116336, 0.6347319, -0.6691815], [-1, 1, -4, 1], [9E+09, 9E+09, 9E+09, 9E+09, 9E+09, 9E+09]], v30, z0, tNozzleAlCal, \Wobj := wobjAlWithButton;
		MoveJ [[3.850, 0.620, 10.000], [-0.6296108, 0.2176167, 0.6727875, -0.3218544], [-1, 1, -3, 1], [9E+09, 9E+09, 9E+09, 9E+09, 9E+09, 9E+09]], v30, z0, tNozzleAlCal, \Wobj := wobjAlWithButton;
		MoveJ [[0.744, -3.828, 4.000], [-0.6762177, 0.6243253, 0.331991, 0.2067115], [-1, 1, -2, 1], [9E+09, 9E+09, 9E+09, 9E+09, 9E+09, 9E+09]], v30, z0, tNozzleAlCal, \Wobj := wobjAlWithButton;
		MoveJ [[-3.802, -0.868, -2.000], [-0.342041, 0.6794712, -0.1957523, 0.6188764], [-1, 1, -1, 1], [9E+09, 9E+09, 9E+09, 9E+09, 9E+09, 9E+09]], v30, z0, tNozzleAlCal, \Wobj := wobjAlWithButton;
		MoveJ [[-3.514, -1.692, -2.000], [-0.4091825, 0.6971161, -0.1184448, 0.5766886], [-1, 1, -1, 1], [9E+09, 9E+09, 9E+09, 9E+09, 9E+09, 9E+09]], v30, z0, tNozzleAlCal, \Wobj := wobjAlWithButton;
		MoveJ [[1.578, -3.567, 4.000], [-0.6951102, 0.5832284, 0.3998058, 0.1296993], [-1, 1, -2, 1], [9E+09, 9E+09, 9E+09, 9E+09, 9E+09, 9E+09]], v30, z0, tNozzleAlCal, \Wobj := wobjAlWithButton;
		MoveJ [[3.616, 1.462, 10.000], [-0.5896157, 0.1409201, 0.6929225, -0.3903247], [-1, 1, -3, 1], [9E+09, 9E+09, 9E+09, 9E+09, 9E+09, 9E+09]], v30, z0, tNozzleAlCal, \Wobj := wobjAlWithButton;
		MoveJ [[-1.344, 3.661, 16.000], [-0.1521039, -0.3807415, 0.5958489, -0.6905537], [-1, 1, -4, 1], [9E+09, 9E+09, 9E+09, 9E+09, 9E+09, 9E+09]], v30, z0, tNozzleAlCal, \Wobj := wobjAlWithButton;
		MoveJ [[-3.703, -1.225, 22.000], [0.3710589, -0.6880045, 0.163248, -0.6019264], [-1, 1, -5, 1], [9E+09, 9E+09, 9E+09, 9E+09, 9E+09, 9E+09]], v30, z0, tNozzleAlCal, \Wobj := wobjAlWithButton;
		MoveJ [[1.104, -3.740, 28.000], [0.6852754, -0.6078465, -0.3612792, -0.1743494], [-1, 1, -6, 1], [9E+09, 9E+09, 9E+09, 9E+09, 9E+09, 9E+09]], v30, z0, tNozzleAlCal, \Wobj := wobjAlWithButton;
		MoveJ [[3.774, 0.983, 34.000], [0.6136077, -0.1854053, -0.6823671, 0.3514052], [-1, 1, -7, 1], [9E+09, 9E+09, 9E+09, 9E+09, 9E+09, 9E+09]], v30, z0, tNozzleAlCal, \Wobj := wobjAlWithButton;
		MoveJ [[-0.860, 3.804, 40.000], [0.1964126, 0.3414392, -0.6192086, 0.6792806], [-1, 1, -8, 1], [9E+09, 9E+09, 9E+09, 9E+09, 9E+09, 9E+09]], v30, z0, tNozzleAlCal, \Wobj := wobjAlWithButton;
		MoveJ [[-3.830, -0.737, 46.000], [-0.3313841, 0.6760165, -0.2073687, 0.6246476], [-1, 1, -9, 1], [9E+09, 9E+09, 9E+09, 9E+09, 9E+09, 9E+09]], v30, z0, tNozzleAlCal, \Wobj := wobjAlWithButton;
		MoveJ [[0.613, -3.852, 52.000], [-0.6725757, 0.6299234, 0.3212422, 0.2182705], [-1, 1, -10, 1], [9E+09, 9E+09, 9E+09, 9E+09, 9E+09, 9E+09]], v30, z0, tNozzleAlCal, \Wobj := wobjAlWithButton;
		MoveJ [[3.869, 0.488, 58.000], [-0.6350345, 0.2291154, 0.668959, -0.3110165], [-1, 1, -11, 1], [9E+09, 9E+09, 9E+09, 9E+09, 9E+09, 9E+09]], v30, z0, tNozzleAlCal, \Wobj := wobjAlWithButton;
		MoveJ [[3.664, 1.337, 58.000], [-0.5962187, 0.1527751, 0.6904055, -0.3801622], [-1, 1, -11, 1], [9E+09, 9E+09, 9E+09, 9E+09, 9E+09, 9E+09]], v30, z0, tNozzleAlCal, \Wobj := wobjAlWithButton;
		MoveJ [[1.455, -3.619, 52.000], [-0.6927852, 0.5899949, 0.3897513, 0.1415935], [-1, 1, -10, 1], [9E+09, 9E+09, 9E+09, 9E+09, 9E+09, 9E+09]], v30, z0, tNozzleAlCal, \Wobj := wobjAlWithButton;
		MoveJ [[-3.570, -1.571, 46.000], [-0.3992387, 0.6949837, -0.130375, 0.5836167], [-1, 1, -9, 1], [9E+09, 9E+09, 9E+09, 9E+09, 9E+09, 9E+09]], v30, z0, tNozzleAlCal, \Wobj := wobjAlWithButton;
		MoveJ [[-1.685, 3.517, 40.000], [0.1191223, 0.4086216, -0.5770861, 0.6970007], [-1, 1, -8, 1], [9E+09, 9E+09, 9E+09, 9E+09, 9E+09, 9E+09]], v30, z0, tNozzleAlCal, \Wobj := wobjAlWithButton;
		MoveJ [[3.461, 1.798, 34.000], [0.5704046, -0.1078386, -0.6988354, 0.4178979], [-1, 1, -7, 1], [9E+09, 9E+09, 9E+09, 9E+09, 9E+09, 9E+09]], v30, z0, tNozzleAlCal, \Wobj := wobjAlWithButton;
		MoveJ [[1.909, -3.401, 28.000], [0.7004874, -0.5635741, -0.4270647, -0.0965266], [-1, 1, -6, 1], [9E+09, 9E+09, 9E+09, 9E+09, 9E+09, 9E+09]], v30, z0, tNozzleAlCal, \Wobj := wobjAlWithButton;
		MoveJ [[-3.337, -2.018, 22.000], [0.4361201, -0.7019564, 0.0851895, -0.5565962], [-1, 1, -5, 1], [9E+09, 9E+09, 9E+09, 9E+09, 9E+09, 9E+09]], v30, z0, tNozzleAlCal, \Wobj := wobjAlWithButton;
		MoveJ [[-2.125, 3.270, 16.000], [-0.07383, -0.4450614, 0.5494728, -0.7032419], [-1, 1, -4, 1], [9E+09, 9E+09, 9E+09, 9E+09, 9E+09, 9E+09]], v30, z0, tNozzleAlCal, \Wobj := wobjAlWithButton;
		MoveJ [[3.200, 2.229, 10.000], [-0.5422058, 0.0624513, 0.7043436, -0.4538864], [-1, 1, -3, 1], [9E+09, 9E+09, 9E+09, 9E+09, 9E+09, 9E+09]], v30, z0, tNozzleAlCal, \Wobj := wobjAlWithButton;
		MoveJ [[2.332, -3.126, 4.000], [-0.7052612, 0.5347972, 0.4625927, 0.0510562], [-1, 1, -2, 1], [9E+09, 9E+09, 9E+09, 9E+09, 9E+09, 9E+09]], v30, z0, tNozzleAlCal, \Wobj := wobjAlWithButton;
		MoveJ [[-3.049, -2.432, -2.000], [-0.4711782, 0.7059944, -0.0396478, 0.5272486], [-1, 1, -1, 1], [9E+09, 9E+09, 9E+09, 9E+09, 9E+09, 9E+09]], v30, z0, tNozzleAlCal, \Wobj := wobjAlWithButton;
		MoveJ [[-2.432, -3.049, -2.000], [-0.5272487, 0.7059944, 0.0396478, 0.4711782], [-1, 1, -1, 1], [9E+09, 9E+09, 9E+09, 9E+09, 9E+09, 9E+09]], v30, z0, tNozzleAlCal, \Wobj := wobjAlWithButton;
		MoveJ [[2.969, -2.529, 4.000], [-0.7065431, 0.4796405, 0.5195623, -0.0282291], [-1, 1, -2, 1], [9E+09, 9E+09, 9E+09, 9E+09, 9E+09, 9E+09]], v30, z0, tNozzleAlCal, \Wobj := wobjAlWithButton;
		MoveJ [[2.624, 2.886, 10.000], [-0.4879774, -0.0168028, 0.7069071, -0.5117403], [-1, 1, -3, 1], [9E+09, 9E+09, 9E+09, 9E+09, 9E+09, 9E+09]], v30, z0, tNozzleAlCal, \Wobj := wobjAlWithButton;
		MoveJ [[-2.799, 2.715, 16.000], [0.0053724, -0.5037844, 0.4961868, -0.7070864], [-1, 1, -4, 1], [9E+09, 9E+09, 9E+09, 9E+09, 9E+09, 9E+09]], v30, z0, tNozzleAlCal, \Wobj := wobjAlWithButton;
		MoveJ [[-2.805, -2.710, 22.000], [0.4956969, -0.7070809, 0.0060597, -0.5042664], [-1, 1, -5, 1], [9E+09, 9E+09, 9E+09, 9E+09, 9E+09, 9E+09]], v30, z0, tNozzleAlCal, \Wobj := wobjAlWithButton;
		MoveJ [[2.618, -2.891, 28.000], [0.7068905, -0.5122144, -0.4874797, -0.01749], [-1, 1, -6, 1], [9E+09, 9E+09, 9E+09, 9E+09, 9E+09, 9E+09]], v30, z0, tNozzleAlCal, \Wobj := wobjAlWithButton;
		MoveJ [[2.974, 2.523, 34.000], [0.5200283, -0.0289158, -0.7065153, 0.4791353], [-1, 1, -7, 1], [9E+09, 9E+09, 9E+09, 9E+09, 9E+09, 9E+09]], v30, z0, tNozzleAlCal, \Wobj := wobjAlWithButton;
		MoveJ [[-2.426, 3.054, 40.000], [0.040334, 0.4706655, -0.5277064, 0.7059555], [-1, 1, -8, 1], [9E+09, 9E+09, 9E+09, 9E+09, 9E+09, 9E+09]], v30, z0, tNozzleAlCal, \Wobj := wobjAlWithButton;
		MoveJ [[-3.131, -2.326, 46.000], [-0.4620727, 0.7052112, -0.0517418, 0.5352465], [-1, 1, -9, 1], [9E+09, 9E+09, 9E+09, 9E+09, 9E+09, 9E+09]], v30, z0, tNozzleAlCal, \Wobj := wobjAlWithButton;
		MoveJ [[2.223, -3.204, 52.000], [-0.7042826, 0.5426468, 0.4533591, 0.0631358], [-1, 1, -10, 1], [9E+09, 9E+09, 9E+09, 9E+09, 9E+09, 9E+09]], v30, z0, tNozzleAlCal, \Wobj := wobjAlWithButton;
		MoveJ [[3.274, 2.119, 58.000], [-0.5499052, 0.0745136, 0.7031698, -0.4445271], [-1, 1, -11, 1], [9E+09, 9E+09, 9E+09, 9E+09, 9E+09, 9E+09]], v30, z0, tNozzleAlCal, \Wobj := wobjAlWithButton;
		MoveJ [[2.721, 2.794, 58.000], [-0.4966762, -0.004685, 0.7070913, -0.5033019], [-1, 1, -11, 1], [9E+09, 9E+09, 9E+09, 9E+09, 9E+09, 9E+09]], v30, z0, tNozzleAlCal, \Wobj := wobjAlWithButton;
		MoveJ [[2.881, -2.629, 52.000], [-0.7069231, 0.4884746, 0.5112657, -0.0161158], [-1, 1, -10, 1], [9E+09, 9E+09, 9E+09, 9E+09, 9E+09, 9E+09]], v30, z0, tNozzleAlCal, \Wobj := wobjAlWithButton;
		MoveJ [[-2.535, -2.964, 46.000], [-0.5190959, 0.7065702, 0.0275422, 0.4801453], [-1, 1, -9, 1], [9E+09, 9E+09, 9E+09, 9E+09, 9E+09, 9E+09]], v30, z0, tNozzleAlCal, \Wobj := wobjAlWithButton;
		MoveJ [[-3.044, 2.438, 40.000], [-0.0389616, 0.5267904, -0.4716905, 0.7060326], [-1, 1, -8, 1], [9E+09, 9E+09, 9E+09, 9E+09, 9E+09, 9E+09]], v30, z0, tNozzleAlCal, \Wobj := wobjAlWithButton;
		MoveJ [[2.338, 3.122, 34.000], [0.4631123, 0.0503706, -0.7053105, 0.5343473], [-1, 1, -7, 1], [9E+09, 9E+09, 9E+09, 9E+09, 9E+09, 9E+09]], v30, z0, tNozzleAlCal, \Wobj := wobjAlWithButton;
		MoveJ [[3.196, -2.236, 28.000], [0.704404, -0.4544133, -0.5417644, 0.0617666], [-1, 1, -6, 1], [9E+09, 9E+09, 9E+09, 9E+09, 9E+09, 9E+09]], v30, z0, tNozzleAlCal, \Wobj := wobjAlWithButton;
		MoveJ [[-2.131, -3.266, 22.000], [0.54904, -0.7033133, -0.0731464, -0.4455953], [-1, 1, -5, 1], [9E+09, 9E+09, 9E+09, 9E+09, 9E+09, 9E+09]], v30, z0, tNozzleAlCal, \Wobj := wobjAlWithButton;
		MoveJ [[-3.333, 2.025, 16.000], [0.0845071, -0.556172, 0.4366609, -0.7020389], [-1, 1, -4, 1], [9E+09, 9E+09, 9E+09, 9E+09, 9E+09, 9E+09]], v30, z0, tNozzleAlCal, \Wobj := wobjAlWithButton;
		MoveJ [[1.916, 3.397, 10.000], [-0.4276124, -0.0958457, 0.7005809, -0.5631587], [-1, 1, -3, 1], [9E+09, 9E+09, 9E+09, 9E+09, 9E+09, 9E+09]], v30, z0, tNozzleAlCal, \Wobj := wobjAlWithButton;
		MoveJ [[3.457, -1.805, 4.000], [-0.6989399, 0.4184521, 0.5699981, -0.1071593], [-1, 1, -2, 1], [9E+09, 9E+09, 9E+09, 9E+09, 9E+09, 9E+09]], v30, z0, tNozzleAlCal, \Wobj := wobjAlWithButton;
		MoveJ [[-1.692, -3.514, -2.000], [-0.5766887, 0.6971161, 0.1184448, 0.4091824], [-1, 1, -1, 1], [9E+09, 9E+09, 9E+09, 9E+09, 9E+09, 9E+09]], v30, z0, tNozzleAlCal, \Wobj := wobjAlWithButton;
		MoveJ [[-0.868, -3.802, -2.000], [-0.6188765, 0.6794712, 0.1957522, 0.3420409], [-1, 1, -1, 1], [9E+09, 9E+09, 9E+09, 9E+09, 9E+09, 9E+09]], v30, z0, tNozzleAlCal, \Wobj := wobjAlWithButton;
		MoveJ [[3.772, -0.990, 4.000], [-0.682547, 0.3520014, 0.6132659, -0.1847419], [-1, 1, -2, 1], [9E+09, 9E+09, 9E+09, 9E+09, 9E+09, 9E+09]], v30, z0, tNozzleAlCal, \Wobj := wobjAlWithButton;
		MoveJ [[1.112, 3.738, 10.000], [-0.3618698, -0.1736832, 0.6854445, -0.6074951], [-1, 1, -3, 1], [9E+09, 9E+09, 9E+09, 9E+09, 9E+09, 9E+09]], v30, z0, tNozzleAlCal, \Wobj := wobjAlWithButton;
		MoveJ [[-3.700, 1.232, 16.000], [0.1625792, -0.6015654, 0.3716438, -0.6881628], [-1, 1, -4, 1], [9E+09, 9E+09, 9E+09, 9E+09, 9E+09, 9E+09]], v30, z0, tNozzleAlCal, \Wobj := wobjAlWithButton;
		MoveJ [[-1.351, -3.659, 22.000], [0.5954786, -0.6907013, -0.1514326, -0.3813205], [-1, 1, -5, 1], [9E+09, 9E+09, 9E+09, 9E+09, 9E+09, 9E+09]], v30, z0, tNozzleAlCal, \Wobj := wobjAlWithButton;
		MoveJ [[3.613, -1.469, 28.000], [0.6930591, -0.3908976, -0.589236, 0.1402465], [-1, 1, -6, 1], [9E+09, 9E+09, 9E+09, 9E+09, 9E+09, 9E+09]], v30, z0, tNozzleAlCal, \Wobj := wobjAlWithButton;
		MoveJ [[1.585, 3.564, 34.000], [0.4003725, 0.1290236, -0.6952359, 0.5828395], [-1, 1, -7, 1], [9E+09, 9E+09, 9E+09, 9E+09, 9E+09, 9E+09]], v30, z0, tNozzleAlCal, \Wobj := wobjAlWithButton;
		MoveJ [[-3.510, 1.699, 40.000], [-0.1177672, 0.5762906, -0.4097428, 0.6972309], [-1, 1, -8, 1], [9E+09, 9E+09, 9E+09, 9E+09, 9E+09, 9E+09]], v30, z0, tNozzleAlCal, \Wobj := wobjAlWithButton;
		MoveJ [[-1.812, -3.454, 46.000], [-0.5695912, 0.6990437, 0.1064798, 0.4190059], [-1, 1, -9, 1], [9E+09, 9E+09, 9E+09, 9E+09, 9E+09, 9E+09]], v30, z0, tNozzleAlCal, \Wobj := wobjAlWithButton;
		MoveJ [[3.393, -1.922, 52.000], [-0.7006738, 0.4281596, 0.5627427, -0.0951647], [-1, 1, -10, 1], [9E+09, 9E+09, 9E+09, 9E+09, 9E+09, 9E+09]], v30, z0, tNozzleAlCal, \Wobj := wobjAlWithButton;
		MoveJ [[2.031, 3.329, 58.000], [-0.4372013, -0.0838246, 0.7021207, -0.5557473], [-1, 1, -11, 1], [9E+09, 9E+09, 9E+09, 9E+09, 9E+09, 9E+09]], v30, z0, tNozzleAlCal, \Wobj := wobjAlWithButton;
		MoveJ [[1.239, 3.698, 58.000], [-0.3722283, -0.1619101, 0.6883205, -0.6012039], [-1, 1, -11, 1], [9E+09, 9E+09, 9E+09, 9E+09, 9E+09, 9E+09]], v30, z0, tNozzleAlCal, \Wobj := wobjAlWithButton;
		MoveJ [[3.736, -1.119, 52.000], [-0.685613, 0.3624602, 0.607143, -0.1730169], [-1, 1, -10, 1], [9E+09, 9E+09, 9E+09, 9E+09, 9E+09, 9E+09]], v30, z0, tNozzleAlCal, \Wobj := wobjAlWithButton;
		MoveJ [[-0.998, -3.770, 46.000], [-0.6129235, 0.6827263, 0.1840783, 0.3525973], [-1, 1, -9, 1], [9E+09, 9E+09, 9E+09, 9E+09, 9E+09, 9E+09]], v30, z0, tNozzleAlCal, \Wobj := wobjAlWithButton;
		MoveJ [[-3.801, 0.875, 40.000], [-0.1950918, 0.6185437, -0.3426424, 0.6796611], [-1, 1, -8, 1], [9E+09, 9E+09, 9E+09, 9E+09, 9E+09, 9E+09]], v30, z0, tNozzleAlCal, \Wobj := wobjAlWithButton;
		MoveJ [[0.752, 3.827, 34.000], [0.3325977, 0.2060541, -0.6764183, 0.6240023], [-1, 1, -7, 1], [9E+09, 9E+09, 9E+09, 9E+09, 9E+09, 9E+09]], v30, z0, tNozzleAlCal, \Wobj := wobjAlWithButton;
		MoveJ [[3.849, -0.628, 28.000], [0.6729987, -0.3224663, -0.6292977, 0.2169627], [-1, 1, -6, 1], [9E+09, 9E+09, 9E+09, 9E+09, 9E+09, 9E+09]], v30, z0, tNozzleAlCal, \Wobj := wobjAlWithButton;
		MoveJ [[-0.503, -3.867, 22.000], [0.6344287, -0.6694032, -0.2278144, -0.3122504], [-1, 1, -5, 1], [9E+09, 9E+09, 9E+09, 9E+09, 9E+09, 9E+09]], v30, z0, tNozzleAlCal, \Wobj := wobjAlWithButton;
		MoveJ [[-3.882, 0.378, 16.000], [0.2386067, -0.6393938, 0.301953, -0.6656327], [-1, 1, -4, 1], [9E+09, 9E+09, 9E+09, 9E+09, 9E+09, 9E+09]], v30, z0, tNozzleAlCal, \Wobj := wobjAlWithButton;
		MoveJ [[0.252, 3.892, 10.000], [-0.2915766, -0.2493365, 0.6616882, -0.6441918], [-1, 1, -3, 1], [9E+09, 9E+09, 9E+09, 9E+09, 9E+09, 9E+09]], v30, z0, tNozzleAlCal, \Wobj := wobjAlWithButton;
		MoveJ [[3.898, -0.126, 4.000], [-0.6575708, 0.2811241, 0.6488214, -0.2600013], [-1, 1, -2, 1], [9E+09, 9E+09, 9E+09, 9E+09, 9E+09, 9E+09]], v30, z0, tNozzleAlCal, \Wobj := wobjAlWithButton;
		MoveJ [[0.000, -3.900, -2.000], [-0.6532815, 0.6532815, 0.270598, 0.270598], [-1, 1, -2, 1], [9E+09, 9E+09, 9E+09, 9E+09, 9E+09, 9E+09]], v30, z0, tNozzleAlCal, \Wobj := wobjAlWithButton;
		MoveJ [[0.868, -3.802, -2.000], [-0.6794712, 0.6188765, 0.3420409, 0.1957522], [-1, 1, -2, 1], [9E+09, 9E+09, 9E+09, 9E+09, 9E+09, 9E+09]], v30, z0, tNozzleAlCal, \Wobj := wobjAlWithButton;
		MoveJ [[3.828, 0.744, 4.000], [-0.6243252, 0.2067115, 0.6762177, -0.3319911], [-1, 1, -3, 1], [9E+09, 9E+09, 9E+09, 9E+09, 9E+09, 9E+09]], v30, z0, tNozzleAlCal, \Wobj := wobjAlWithButton;
		MoveJ [[-0.620, 3.850, 10.000], [-0.2176166, -0.3218543, 0.6296109, -0.6727875], [-1, 1, -4, 1], [9E+09, 9E+09, 9E+09, 9E+09, 9E+09, 9E+09]], v30, z0, tNozzleAlCal, \Wobj := wobjAlWithButton;
		MoveJ [[-3.868, -0.495, 16.000], [0.3116336, -0.6691814, 0.228465, -0.6347319], [-1, 1, -5, 1], [9E+09, 9E+09, 9E+09, 9E+09, 9E+09, 9E+09]], v30, z0, tNozzleAlCal, \Wobj := wobjAlWithButton;
		MoveJ [[0.370, -3.882, 22.000], [0.6654005, -0.639687, -0.3013313, -0.2392535], [-1, 1, -6, 1], [9E+09, 9E+09, 9E+09, 9E+09, 9E+09, 9E+09]], v30, z0, tNozzleAlCal, \Wobj := wobjAlWithButton;
		MoveJ [[3.892, 0.244, 28.000], [0.6444749, -0.2499797, -0.6614455, 0.2909504], [-1, 1, -7, 1], [9E+09, 9E+09, 9E+09, 9E+09, 9E+09, 9E+09]], v30, z0, tNozzleAlCal, \Wobj := wobjAlWithButton;
		MoveJ [[-0.119, 3.898, 34.000], [0.2606403, 0.2804933, -0.6490944, 0.6573178], [-1, 1, -8, 1], [9E+09, 9E+09, 9E+09, 9E+09, 9E+09, 9E+09]], v30, z0, tNozzleAlCal, \Wobj := wobjAlWithButton;
		MoveJ [[-3.900, 0.008, 40.000], [-0.269963, 0.6530182, -0.271233, 0.6535442], [-1, 1, -8, 1], [9E+09, 9E+09, 9E+09, 9E+09, 9E+09, 9E+09]], v30, z0, tNozzleAlCal, \Wobj := wobjAlWithButton;
		MoveJ [[-0.134, -3.898, 46.000], [-0.6485479, 0.6578232, 0.259362, 0.2817546], [-1, 1, -9, 1], [9E+09, 9E+09, 9E+09, 9E+09, 9E+09, 9E+09]], v30, z0, tNozzleAlCal, \Wobj := wobjAlWithButton;
		MoveJ [[3.891, -0.260, 52.000], [-0.6619303, 0.2922027, 0.6439081, -0.2486933], [-1, 1, -10, 1], [9E+09, 9E+09, 9E+09, 9E+09, 9E+09, 9E+09]], v30, z0, tNozzleAlCal, \Wobj := wobjAlWithButton;
		MoveJ [[0.385, 3.881, 58.000], [-0.3025743, -0.2379595, 0.6658643, -0.6391], [-1, 1, -11, 1], [9E+09, 9E+09, 9E+09, 9E+09, 9E+09, 9E+09]], v30, z0, tNozzleAlCal, \Wobj := wobjAlWithButton;
		MoveJ [[-0.488, 3.869, 58.000], [-0.2291153, -0.3110164, 0.6350345, -0.6689591], [-1, 1, -12, 1], [9E+09, 9E+09, 9E+09, 9E+09, 9E+09, 9E+09]], v30, z0, tNozzleAlCal, \Wobj := wobjAlWithButton;
		MoveJ [[3.852, 0.613, 52.000], [-0.6299234, 0.2182706, 0.6725756, -0.3212423], [-1, 1, -11, 1], [9E+09, 9E+09, 9E+09, 9E+09, 9E+09, 9E+09]], v30, z0, tNozzleAlCal, \Wobj := wobjAlWithButton;
		MoveJ [[0.737, -3.830, 46.000], [-0.6760165, 0.6246477, 0.331384, 0.2073687], [-1, 1, -10, 1], [9E+09, 9E+09, 9E+09, 9E+09, 9E+09, 9E+09]], v30, z0, tNozzleAlCal, \Wobj := wobjAlWithButton;
		MoveJ [[-3.804, -0.860, 40.000], [-0.3414392, 0.6792806, -0.1964127, 0.6192086], [-1, 1, -9, 1], [9E+09, 9E+09, 9E+09, 9E+09, 9E+09, 9E+09]], v30, z0, tNozzleAlCal, \Wobj := wobjAlWithButton;
		MoveJ [[-0.983, 3.774, 34.000], [0.1854052, 0.3514051, -0.6136078, 0.6823672], [-1, 1, -8, 1], [9E+09, 9E+09, 9E+09, 9E+09, 9E+09, 9E+09]], v30, z0, tNozzleAlCal, \Wobj := wobjAlWithButton;
		MoveJ [[3.740, 1.104, 28.000], [0.6078465, -0.1743494, -0.6852754, 0.3612792], [-1, 1, -7, 1], [9E+09, 9E+09, 9E+09, 9E+09, 9E+09, 9E+09]], v30, z0, tNozzleAlCal, \Wobj := wobjAlWithButton;
		MoveJ [[1.225, -3.703, 22.000], [0.6880045, -0.6019264, -0.3710588, -0.163248], [-1, 1, -6, 1], [9E+09, 9E+09, 9E+09, 9E+09, 9E+09, 9E+09]], v30, z0, tNozzleAlCal, \Wobj := wobjAlWithButton;
		MoveJ [[-3.661, -1.344, 16.000], [0.3807416, -0.6905537, 0.1521039, -0.5958489], [-1, 1, -5, 1], [9E+09, 9E+09, 9E+09, 9E+09, 9E+09, 9E+09]], v30, z0, tNozzleAlCal, \Wobj := wobjAlWithButton;
		MoveJ [[-1.462, 3.616, 10.000], [-0.14092, -0.3903246, 0.5896157, -0.6929225], [-1, 1, -4, 1], [9E+09, 9E+09, 9E+09, 9E+09, 9E+09, 9E+09]], v30, z0, tNozzleAlCal, \Wobj := wobjAlWithButton;
		MoveJ [[3.567, 1.578, 4.000], [-0.5832284, 0.1296994, 0.6951101, -0.3998058], [-1, 1, -3, 1], [9E+09, 9E+09, 9E+09, 9E+09, 9E+09, 9E+09]], v30, z0, tNozzleAlCal, \Wobj := wobjAlWithButton;
		MoveJ [[1.692, -3.514, -2.000], [-0.6971161, 0.5766887, 0.4091824, 0.1184448], [-1, 1, -2, 1], [9E+09, 9E+09, 9E+09, 9E+09, 9E+09, 9E+09]], v30, z0, tNozzleAlCal, \Wobj := wobjAlWithButton;
		MoveJ [[2.432, -3.049, -2.000], [-0.7059944, 0.5272487, 0.4711782, 0.0396478], [-1, 1, -2, 1], [9E+09, 9E+09, 9E+09, 9E+09, 9E+09, 9E+09]], v30, z0, tNozzleAlCal, \Wobj := wobjAlWithButton;
		MoveJ [[3.126, 2.332, 4.000], [-0.5347971, 0.0510562, 0.7052612, -0.4625928], [-1, 1, -3, 1], [9E+09, 9E+09, 9E+09, 9E+09, 9E+09, 9E+09]], v30, z0, tNozzleAlCal, \Wobj := wobjAlWithButton;
		MoveJ [[-2.229, 3.200, 10.000], [-0.0624512, -0.4538864, 0.5422059, -0.7043436], [-1, 1, -4, 1], [9E+09, 9E+09, 9E+09, 9E+09, 9E+09, 9E+09]], v30, z0, tNozzleAlCal, \Wobj := wobjAlWithButton;
		MoveJ [[-3.270, -2.125, 16.000], [0.4450614, -0.7032419, 0.0738301, -0.5494728], [-1, 1, -5, 1], [9E+09, 9E+09, 9E+09, 9E+09, 9E+09, 9E+09]], v30, z0, tNozzleAlCal, \Wobj := wobjAlWithButton;
		MoveJ [[2.018, -3.337, 22.000], [0.7019564, -0.5565962, -0.4361201, -0.0851894], [-1, 1, -6, 1], [9E+09, 9E+09, 9E+09, 9E+09, 9E+09, 9E+09]], v30, z0, tNozzleAlCal, \Wobj := wobjAlWithButton;
		MoveJ [[3.401, 1.909, 28.000], [0.563574, -0.0965267, -0.7004874, 0.4270648], [-1, 1, -7, 1], [9E+09, 9E+09, 9E+09, 9E+09, 9E+09, 9E+09]], v30, z0, tNozzleAlCal, \Wobj := wobjAlWithButton;
		MoveJ [[-1.798, 3.461, 34.000], [0.1078385, 0.4178978, -0.5704047, 0.6988354], [-1, 1, -8, 1], [9E+09, 9E+09, 9E+09, 9E+09, 9E+09, 9E+09]], v30, z0, tNozzleAlCal, \Wobj := wobjAlWithButton;
		MoveJ [[-3.517, -1.685, 40.000], [-0.4086217, 0.6970007, -0.1191224, 0.5770861], [-1, 1, -9, 1], [9E+09, 9E+09, 9E+09, 9E+09, 9E+09, 9E+09]], v30, z0, tNozzleAlCal, \Wobj := wobjAlWithButton;
		MoveJ [[1.571, -3.570, 46.000], [-0.6949838, 0.5836168, 0.3992387, 0.1303749], [-1, 1, -10, 1], [9E+09, 9E+09, 9E+09, 9E+09, 9E+09, 9E+09]], v30, z0, tNozzleAlCal, \Wobj := wobjAlWithButton;
		MoveJ [[3.619, 1.455, 52.000], [-0.5899948, 0.1415936, 0.6927852, -0.3897514], [-1, 1, -11, 1], [9E+09, 9E+09, 9E+09, 9E+09, 9E+09, 9E+09]], v30, z0, tNozzleAlCal, \Wobj := wobjAlWithButton;
		MoveJ [[-1.337, 3.664, 58.000], [-0.152775, -0.3801621, 0.5962188, -0.6904056], [-1, 1, -12, 1], [9E+09, 9E+09, 9E+09, 9E+09, 9E+09, 9E+09]], v30, z0, tNozzleAlCal, \Wobj := wobjAlWithButton;
		MoveJ [[-2.119, 3.274, 58.000], [-0.0745135, -0.4445271, 0.5499052, -0.7031698], [-1, 1, -12, 1], [9E+09, 9E+09, 9E+09, 9E+09, 9E+09, 9E+09]], v30, z0, tNozzleAlCal, \Wobj := wobjAlWithButton;
		MoveJ [[3.204, 2.223, 52.000], [-0.5426468, 0.0631359, 0.7042825, -0.4533592], [-1, 1, -11, 1], [9E+09, 9E+09, 9E+09, 9E+09, 9E+09, 9E+09]], v30, z0, tNozzleAlCal, \Wobj := wobjAlWithButton;
		MoveJ [[2.326, -3.131, 46.000], [-0.7052112, 0.5352466, 0.4620727, 0.0517417], [-1, 1, -10, 1], [9E+09, 9E+09, 9E+09, 9E+09, 9E+09, 9E+09]], v30, z0, tNozzleAlCal, \Wobj := wobjAlWithButton;
		MoveJ [[-3.054, -2.426, 40.000], [-0.4706655, 0.7059555, -0.0403341, 0.5277064], [-1, 1, -9, 1], [9E+09, 9E+09, 9E+09, 9E+09, 9E+09, 9E+09]], v30, z0, tNozzleAlCal, \Wobj := wobjAlWithButton;
		MoveJ [[-2.523, 2.974, 34.000], [0.0289157, 0.4791352, -0.5200284, 0.7065153], [-1, 1, -8, 1], [9E+09, 9E+09, 9E+09, 9E+09, 9E+09, 9E+09]], v30, z0, tNozzleAlCal, \Wobj := wobjAlWithButton;
		MoveJ [[2.891, 2.618, 28.000], [0.5122143, -0.01749, -0.7068905, 0.4874798], [-1, 1, -7, 1], [9E+09, 9E+09, 9E+09, 9E+09, 9E+09, 9E+09]], v30, z0, tNozzleAlCal, \Wobj := wobjAlWithButton;
		MoveJ [[2.710, -2.805, 22.000], [0.7070809, -0.5042665, -0.4956968, -0.0060596], [-1, 1, -6, 1], [9E+09, 9E+09, 9E+09, 9E+09, 9E+09, 9E+09]], v30, z0, tNozzleAlCal, \Wobj := wobjAlWithButton;
		MoveJ [[-2.715, -2.799, 16.000], [0.5037844, -0.7070864, -0.0053723, -0.4961868], [-1, 1, -5, 1], [9E+09, 9E+09, 9E+09, 9E+09, 9E+09, 9E+09]], v30, z0, tNozzleAlCal, \Wobj := wobjAlWithButton;
		MoveJ [[-2.886, 2.624, 10.000], [0.0168029, -0.5117402, 0.4879774, -0.7069071], [-1, 1, -4, 1], [9E+09, 9E+09, 9E+09, 9E+09, 9E+09, 9E+09]], v30, z0, tNozzleAlCal, \Wobj := wobjAlWithButton;
		MoveJ [[2.529, 2.969, 4.000], [-0.4796405, -0.028229, 0.7065431, -0.5195624], [-1, 1, -3, 1], [9E+09, 9E+09, 9E+09, 9E+09, 9E+09, 9E+09]], v30, z0, tNozzleAlCal, \Wobj := wobjAlWithButton;
		MoveJ [[3.049, -2.432, -2.000], [-0.7059944, 0.4711782, 0.5272486, -0.0396478], [-1, 1, -2, 1], [9E+09, 9E+09, 9E+09, 9E+09, 9E+09, 9E+09]], v30, z0, tNozzleAlCal, \Wobj := wobjAlWithButton;
		MoveJ [[3.514, -1.692, -2.000], [-0.6971161, 0.4091825, 0.5766886, -0.1184448], [-1, 1, -2, 1], [9E+09, 9E+09, 9E+09, 9E+09, 9E+09, 9E+09]], v30, z0, tNozzleAlCal, \Wobj := wobjAlWithButton;
		MoveJ [[1.805, 3.457, 4.000], [-0.4184521, -0.1071592, 0.6989399, -0.5699982], [-1, 1, -3, 1], [9E+09, 9E+09, 9E+09, 9E+09, 9E+09, 9E+09]], v30, z0, tNozzleAlCal, \Wobj := wobjAlWithButton;
		MoveJ [[-3.397, 1.916, 10.000], [0.0958457, -0.5631587, 0.4276124, -0.7005809], [-1, 1, -4, 1], [9E+09, 9E+09, 9E+09, 9E+09, 9E+09, 9E+09]], v30, z0, tNozzleAlCal, \Wobj := wobjAlWithButton;
		MoveJ [[-2.025, -3.333, 16.000], [0.556172, -0.7020389, -0.0845071, -0.4366609], [-1, 1, -5, 1], [9E+09, 9E+09, 9E+09, 9E+09, 9E+09, 9E+09]], v30, z0, tNozzleAlCal, \Wobj := wobjAlWithButton;
		MoveJ [[3.266, -2.131, 22.000], [0.7033133, -0.4455953, -0.5490399, 0.0731465], [-1, 1, -6, 1], [9E+09, 9E+09, 9E+09, 9E+09, 9E+09, 9E+09]], v30, z0, tNozzleAlCal, \Wobj := wobjAlWithButton;
		MoveJ [[2.236, 3.196, 28.000], [0.4544132, 0.0617666, -0.704404, 0.5417644], [-1, 1, -7, 1], [9E+09, 9E+09, 9E+09, 9E+09, 9E+09, 9E+09]], v30, z0, tNozzleAlCal, \Wobj := wobjAlWithButton;
		MoveJ [[-3.122, 2.338, 34.000], [-0.0503707, 0.5343472, -0.4631124, 0.7053105], [-1, 1, -8, 1], [9E+09, 9E+09, 9E+09, 9E+09, 9E+09, 9E+09]], v30, z0, tNozzleAlCal, \Wobj := wobjAlWithButton;
		MoveJ [[-2.438, -3.044, 40.000], [-0.5267904, 0.7060326, 0.0389615, 0.4716905], [-1, 1, -9, 1], [9E+09, 9E+09, 9E+09, 9E+09, 9E+09, 9E+09]], v30, z0, tNozzleAlCal, \Wobj := wobjAlWithButton;
		MoveJ [[2.964, -2.535, 46.000], [-0.7065702, 0.4801453, 0.5190959, -0.0275423], [-1, 1, -10, 1], [9E+09, 9E+09, 9E+09, 9E+09, 9E+09, 9E+09]], v30, z0, tNozzleAlCal, \Wobj := wobjAlWithButton;
		MoveJ [[2.629, 2.881, 52.000], [-0.4884746, -0.0161157, 0.7069231, -0.5112657], [-1, 1, -11, 1], [9E+09, 9E+09, 9E+09, 9E+09, 9E+09, 9E+09]], v30, z0, tNozzleAlCal, \Wobj := wobjAlWithButton;
		MoveJ [[-2.794, 2.721, 58.000], [0.0046851, -0.5033018, 0.4966763, -0.7070913], [-1, 1, -12, 1], [9E+09, 9E+09, 9E+09, 9E+09, 9E+09, 9E+09]], v30, z0, tNozzleAlCal, \Wobj := wobjAlWithButton;
		MoveJ [[-3.329, 2.031, 58.000], [0.0838247, -0.5557473, 0.4372013, -0.7021207], [-1, 1, -12, 1], [9E+09, 9E+09, 9E+09, 9E+09, 9E+09, 9E+09]], v30, z0, tNozzleAlCal, \Wobj := wobjAlWithButton;
		MoveJ [[1.922, 3.393, 52.000], [-0.4281596, -0.0951646, 0.7006738, -0.5627428], [-1, 1, -11, 1], [9E+09, 9E+09, 9E+09, 9E+09, 9E+09, 9E+09]], v30, z0, tNozzleAlCal, \Wobj := wobjAlWithButton;
		MoveJ [[3.454, -1.812, 46.000], [-0.6990437, 0.419006, 0.5695911, -0.1064799], [-1, 1, -10, 1], [9E+09, 9E+09, 9E+09, 9E+09, 9E+09, 9E+09]], v30, z0, tNozzleAlCal, \Wobj := wobjAlWithButton;
		MoveJ [[-1.699, -3.510, 40.000], [-0.5762907, 0.6972309, 0.1177671, 0.4097427], [-1, 1, -9, 1], [9E+09, 9E+09, 9E+09, 9E+09, 9E+09, 9E+09]], v30, z0, tNozzleAlCal, \Wobj := wobjAlWithButton;
		MoveJ [[-3.564, 1.585, 34.000], [-0.1290237, 0.5828395, -0.4003725, 0.6952359], [-1, 1, -8, 1], [9E+09, 9E+09, 9E+09, 9E+09, 9E+09, 9E+09]], v30, z0, tNozzleAlCal, \Wobj := wobjAlWithButton;
		MoveJ [[1.469, 3.613, 28.000], [0.3908976, 0.1402464, -0.6930592, 0.5892361], [-1, 1, -7, 1], [9E+09, 9E+09, 9E+09, 9E+09, 9E+09, 9E+09]], v30, z0, tNozzleAlCal, \Wobj := wobjAlWithButton;
		MoveJ [[3.659, -1.351, 22.000], [0.6907012, -0.3813206, -0.5954785, 0.1514326], [-1, 1, -6, 1], [9E+09, 9E+09, 9E+09, 9E+09, 9E+09, 9E+09]], v30, z0, tNozzleAlCal, \Wobj := wobjAlWithButton;
		MoveJ [[-1.232, -3.700, 16.000], [0.6015654, -0.6881628, -0.1625791, -0.3716437], [-1, 1, -5, 1], [9E+09, 9E+09, 9E+09, 9E+09, 9E+09, 9E+09]], v30, z0, tNozzleAlCal, \Wobj := wobjAlWithButton;
		MoveJ [[-3.738, 1.112, 10.000], [0.1736833, -0.607495, 0.3618699, -0.6854445], [-1, 1, -4, 1], [9E+09, 9E+09, 9E+09, 9E+09, 9E+09, 9E+09]], v30, z0, tNozzleAlCal, \Wobj := wobjAlWithButton;
		MoveJ [[0.990, 3.772, 4.000], [-0.3520014, -0.1847419, 0.6825471, -0.6132659], [-1, 1, -3, 1], [9E+09, 9E+09, 9E+09, 9E+09, 9E+09, 9E+09]], v30, z0, tNozzleAlCal, \Wobj := wobjAlWithButton;
		MoveJ [[3.802, -0.868, -2.000], [-0.6794712, 0.342041, 0.6188764, -0.1957523], [-1, 1, -2, 1], [9E+09, 9E+09, 9E+09, 9E+09, 9E+09, 9E+09]], v30, z0, tNozzleAlCal, \Wobj := wobjAlWithButton;
		MoveJ [[3.900, 0.000, -2.000], [-0.6532815, 0.2705981, 0.6532815, -0.2705981], [-1, 1, -3, 1], [9E+09, 9E+09, 9E+09, 9E+09, 9E+09, 9E+09]], v30, z0, tNozzleAlCal, \Wobj := wobjAlWithButton;
		WaitRob \InPos;
		SetDO DO6_Between_Layer_Retract, 1;
		SetDO DO5_Program_Feed, 0;
		MoveJ [[13.900, 0.000, -2.000], [-0.6532815, 0.2705981, 0.6532815, -0.2705981], [-1, 1, -3, 1], [9E+09, 9E+09, 9E+09, 9E+09, 9E+09, 9E+09]], v60, z0, tNozzleAlCal, \Wobj := wobjAlWithButton;
		MoveJ [[13.900, 0.000, -2.000], [0.6532815, -0.2705981, -0.6532815, 0.2705981], [-1, 1, 1, 1], [9E+09, 9E+09, 9E+09, 9E+09, 9E+09, 9E+09]], v100, z0, tNozzleAlCal, \Wobj := wobjAlWithButton;


		!Layer number 2 of 10
		SetDO DO1_Auto_Mode, 1;
		MoveJ [[14.100, 0.000, -2.000], [0.6532815, -0.2705981, -0.6532815, 0.2705981], [-1, 1, 1, 1], [9E+09, 9E+09, 9E+09, 9E+09, 9E+09, 9E+09]], v30, z0, tNozzleAlCal, \Wobj := wobjAlWithButton;
		MoveJ [[4.100, 0.000, -2.000], [0.6532815, -0.2705981, -0.6532815, 0.2705981], [-1, 1, 1, 1], [9E+09, 9E+09, 9E+09, 9E+09, 9E+09, 9E+09]], v30, z0, tNozzleAlCal, \Wobj := wobjAlWithButton;
		WaitRob \InPos;
		SetDO DO6_Between_Layer_Retract, 0;
		SetDO DO5_Program_Feed, 1;
		MoveJ [[0.976, -3.982, 3.455], [0.6810174, -0.6161169, -0.346987, -0.1903035], [-1, 1, 1, 1], [9E+09, 9E+09, 9E+09, 9E+09, 9E+09, 9E+09]], v30, z0, tNozzleAlCal, \Wobj := wobjAlWithButton;
		MoveJ [[-3.635, -1.896, 8.909], [0.4183681, -0.6989241, 0.1072624, -0.5700598], [-1, 1, 2, 1], [9E+09, 9E+09, 9E+09, 9E+09, 9E+09, 9E+09]], v30, z0, tNozzleAlCal, \Wobj := wobjAlWithButton;
		MoveJ [[-2.707, 3.079, 14.364], [-0.022673, -0.4837106, 0.5157752, -0.7067432], [-1, 1, 3, 1], [9E+09, 9E+09, 9E+09, 9E+09, 9E+09, 9E+09]], v30, z0, tNozzleAlCal, \Wobj := wobjAlWithButton;
		MoveJ [[2.346, 3.363, 19.818], [-0.4540463, -0.0622435, 0.704362, -0.542072], [-1, 1, 4, 1], [9E+09, 9E+09, 9E+09, 9E+09, 9E+09, 9E+09]], v30, z0, tNozzleAlCal, \Wobj := wobjAlWithButton;
		MoveJ [[3.824, -1.478, 25.273], [-0.6918147, 0.3857643, 0.5926095, -0.1462617], [-1, 1, 5, 1], [9E+09, 9E+09, 9E+09, 9E+09, 9E+09, 9E+09]], v30, z0, tNozzleAlCal, \Wobj := wobjAlWithButton;
		MoveJ [[-0.525, -4.066, 30.727], [-0.6345939, 0.6692825, 0.2281689, 0.3119144], [-1, 1, 6, 1], [9E+09, 9E+09, 9E+09, 9E+09, 9E+09, 9E+09]], v30, z0, tNozzleAlCal, \Wobj := wobjAlWithButton;
		MoveJ [[-4.074, -0.459, 36.182], [-0.306783, 0.6674193, -0.2335628, 0.6370905], [-1, 1, 6, 1], [9E+09, 9E+09, 9E+09, 9E+09, 9E+09, 9E+09]], v30, z0, tNozzleAlCal, \Wobj := wobjAlWithButton;
		MoveJ [[-1.416, 3.848, 41.636], [0.15184, 0.3809691, -0.5957034, 0.6906118], [-1, 1, 7, 1], [9E+09, 9E+09, 9E+09, 9E+09, 9E+09, 9E+09]], v30, z0, tNozzleAlCal, \Wobj := wobjAlWithButton;
		MoveJ [[3.400, 2.291, 47.091], [0.5457185, -0.0679259, -0.7038367, 0.4496569], [-1, 1, 8, 1], [9E+09, 9E+09, 9E+09, 9E+09, 9E+09, 9E+09]], v30, z0, tNozzleAlCal, \Wobj := wobjAlWithButton;
		MoveJ [[3.035, -2.757, 52.545], [0.7069032, -0.4878574, -0.5118547, 0.0169688], [-1, 1, 9, 1], [9E+09, 9E+09, 9E+09, 9E+09, 9E+09, 9E+09]], v30, z0, tNozzleAlCal, \Wobj := wobjAlWithButton;
		MoveJ [[-1.955, -3.604, 58.000], [0.566665, -0.6997669, -0.1016183, -0.4229549], [-1, 1, 10, 1], [9E+09, 9E+09, 9E+09, 9E+09, 9E+09, 9E+09]], v30, z0, tNozzleAlCal, \Wobj := wobjAlWithButton;
		MoveJ [[-2.684, -3.100, 58.000], [0.5176137, -0.7066517, -0.0253645, -0.4817428], [-1, 1, 10, 1], [9E+09, 9E+09, 9E+09, 9E+09, 9E+09, 9E+09]], v30, z0, tNozzleAlCal, \Wobj := wobjAlWithButton;
		MoveJ [[2.371, -3.345, 52.545], [0.7045939, -0.5403388, -0.4561075, -0.0595604], [-1, 1, 9, 1], [9E+09, 9E+09, 9E+09, 9E+09, 9E+09, 9E+09]], v30, z0, tNozzleAlCal, \Wobj := wobjAlWithButton;
		MoveJ [[3.813, 1.507, 47.091], [0.591136, -0.1436258, -0.6923667, 0.3880185], [-1, 1, 8, 1], [9E+09, 9E+09, 9E+09, 9E+09, 9E+09, 9E+09]], v30, z0, tNozzleAlCal, \Wobj := wobjAlWithButton;
		MoveJ [[-0.555, 4.062, 41.636], [0.2256182, 0.314329, -0.6334014, 0.6701466], [-1, 1, 7, 1], [9E+09, 9E+09, 9E+09, 9E+09, 9E+09, 9E+09]], v30, z0, tNozzleAlCal, \Wobj := wobjAlWithButton;
		MoveJ [[-4.078, 0.428, 36.182], [-0.236103, 0.6382543, -0.3043543, 0.6665249], [-1, 1, 7, 1], [9E+09, 9E+09, 9E+09, 9E+09, 9E+09, 9E+09]], v30, z0, tNozzleAlCal, \Wobj := wobjAlWithButton;
		MoveJ [[-1.386, -3.858, 30.727], [-0.5971501, 0.6900285, 0.1544692, 0.3786976], [-1, 1, 6, 1], [9E+09, 9E+09, 9E+09, 9E+09, 9E+09, 9E+09]], v30, z0, tNozzleAlCal, \Wobj := wobjAlWithButton;
		MoveJ [[3.417, -2.265, 25.273], [-0.7035729, 0.4475752, 0.5474271, -0.070606], [-1, 1, 5, 1], [9E+09, 9E+09, 9E+09, 9E+09, 9E+09, 9E+09]], v30, z0, tNozzleAlCal, \Wobj := wobjAlWithButton;
		MoveJ [[3.014, 2.780, 19.818], [-0.5099929, 0.0142763, 0.7069627, -0.4898033], [-1, 1, 4, 1], [9E+09, 9E+09, 9E+09, 9E+09, 9E+09, 9E+09]], v30, z0, tNozzleAlCal, \Wobj := wobjAlWithButton;
		MoveJ [[-1.982, 3.589, 14.364], [-0.0989525, -0.42511, 0.56505, -0.7001489], [-1, 1, 3, 1], [9E+09, 9E+09, 9E+09, 9E+09, 9E+09, 9E+09]], v30, z0, tNozzleAlCal, \Wobj := wobjAlWithButton;
		MoveJ [[-3.958, -1.071, 8.909], [0.3542812, -0.6832298, 0.1822006, -0.6119517], [-1, 1, 2, 1], [9E+09, 9E+09, 9E+09, 9E+09, 9E+09, 9E+09]], v30, z0, tNozzleAlCal, \Wobj := wobjAlWithButton;
		MoveJ [[0.097, -4.099, 3.455], [0.6564498, -0.6500211, -0.278339, -0.2628188], [-1, 1, 1, 1], [9E+09, 9E+09, 9E+09, 9E+09, 9E+09, 9E+09]], v30, z0, tNozzleAlCal, \Wobj := wobjAlWithButton;
		MoveJ [[4.004, -0.881, -2.000], [0.6787087, -0.339644, -0.6201951, 0.1983797], [-1, 1, 1, 1], [9E+09, 9E+09, 9E+09, 9E+09, 9E+09, 9E+09]], v30, z0, tNozzleAlCal, \Wobj := wobjAlWithButton;
		MoveJ [[3.721, -1.722, -2.000], [0.6961787, -0.4047079, -0.5798375, 0.1238355], [-1, 1, 1, 1], [9E+09, 9E+09, 9E+09, 9E+09, 9E+09, 9E+09]], v30, z0, tNozzleAlCal, \Wobj := wobjAlWithButton;
		MoveJ [[-0.786, -4.024, 3.455], [0.6241859, -0.6763044, -0.2064277, -0.3322529], [-1, 1, 2, 1], [9E+09, 9E+09, 9E+09, 9E+09, 9E+09, 9E+09]], v30, z0, tNozzleAlCal, \Wobj := wobjAlWithButton;
		MoveJ [[-4.095, -0.195, 8.909], [0.2860408, -0.6595254, 0.2550026, -0.6466689], [-1, 1, 2, 1], [9E+09, 9E+09, 9E+09, 9E+09, 9E+09, 9E+09]], v30, z0, tNozzleAlCal, \Wobj := wobjAlWithButton;
		MoveJ [[-1.164, 3.931, 14.364], [-0.1740718, -0.3615253, 0.6077002, -0.6853459], [-1, 1, 3, 1], [9E+09, 9E+09, 9E+09, 9E+09, 9E+09, 9E+09]], v30, z0, tNozzleAlCal, \Wobj := wobjAlWithButton;
		MoveJ [[3.541, 2.067, 19.818], [-0.5599604, 0.0906287, 0.7012749, -0.4317921], [-1, 1, 4, 1], [9E+09, 9E+09, 9E+09, 9E+09, 9E+09, 9E+09]], v30, z0, tNozzleAlCal, \Wobj := wobjAlWithButton;
		MoveJ [[2.851, -2.947, 25.273], [-0.7070824, 0.5041388, 0.4958267, 0.0058775], [-1, 1, 5, 1], [9E+09, 9E+09, 9E+09, 9E+09, 9E+09, 9E+09]], v30, z0, tNozzleAlCal, \Wobj := wobjAlWithButton;
		MoveJ [[-2.183, -3.470, 30.727], [-0.5527051, 0.7026846, 0.0789584, 0.4410409], [-1, 1, 6, 1], [9E+09, 9E+09, 9E+09, 9E+09, 9E+09, 9E+09]], v30, z0, tNozzleAlCal, \Wobj := wobjAlWithButton;
		MoveJ [[-3.890, 1.294, 36.182], [-0.1626549, 0.6016063, -0.3715776, 0.6881449], [-1, 1, 7, 1], [9E+09, 9E+09, 9E+09, 9E+09, 9E+09, 9E+09]], v30, z0, tNozzleAlCal, \Wobj := wobjAlWithButton;
		MoveJ [[0.331, 4.087, 41.636], [0.2967512, 0.2440037, -0.6636733, 0.6418246], [-1, 1, 8, 1], [9E+09, 9E+09, 9E+09, 9E+09, 9E+09, 9E+09]], v30, z0, tNozzleAlCal, \Wobj := wobjAlWithButton;
		MoveJ [[4.048, 0.652, 47.091], [0.6296229, -0.2176419, -0.6727793, 0.3218308], [-1, 1, 8, 1], [9E+09, 9E+09, 9E+09, 9E+09, 9E+09, 9E+09]], v30, z0, tNozzleAlCal, \Wobj := wobjAlWithButton;
		MoveJ [[1.597, -3.776, 52.545], [0.694024, -0.5864852, -0.3950129, -0.1353913], [-1, 1, 9, 1], [9E+09, 9E+09, 9E+09, 9E+09, 9E+09, 9E+09]], v30, z0, tNozzleAlCal, \Wobj := wobjAlWithButton;
		MoveJ [[-3.287, -2.450, 58.000], [0.4624939, -0.7052517, 0.0511867, -0.5348827], [-1, 1, 10, 1], [9E+09, 9E+09, 9E+09, 9E+09, 9E+09, 9E+09]], v30, z0, tNozzleAlCal, \Wobj := wobjAlWithButton;
		MoveJ [[-3.737, -1.686, 58.000], [0.4019517, -0.6955832, 0.1271377, -0.5817515], [-1, 1, 10, 1], [9E+09, 9E+09, 9E+09, 9E+09, 9E+09, 9E+09]], v30, z0, tNozzleAlCal, \Wobj := wobjAlWithButton;
		MoveJ [[0.748, -4.031, 52.545], [0.6753172, -0.6257556, -0.3292871, -0.2096348], [-1, 1, 9, 1], [9E+09, 9E+09, 9E+09, 9E+09, 9E+09, 9E+09]], v30, z0, tNozzleAlCal, \Wobj := wobjAlWithButton;
		MoveJ [[4.093, -0.234, 47.091], [0.660728, -0.2891063, -0.6453043, 0.25187], [-1, 1, 9, 1], [9E+09, 9E+09, 9E+09, 9E+09, 9E+09, 9E+09]], v30, z0, tNozzleAlCal, \Wobj := wobjAlWithButton;
		MoveJ [[1.202, 3.920, 41.636], [0.3644051, 0.1708176, -0.6861643, 0.6059777], [-1, 1, 8, 1], [9E+09, 9E+09, 9E+09, 9E+09, 9E+09, 9E+09]], v30, z0, tNozzleAlCal, \Wobj := wobjAlWithButton;
		MoveJ [[-3.521, 2.100, 36.182], [-0.0872999, 0.557905, -0.4344445, 0.7016971], [-1, 1, 7, 1], [9E+09, 9E+09, 9E+09, 9E+09, 9E+09, 9E+09]], v30, z0, tNozzleAlCal, \Wobj := wobjAlWithButton;
		MoveJ [[-2.878, -2.920, 30.727], [-0.5017802, 0.7071023, 0.002522, 0.4982135], [-1, 1, 6, 1], [9E+09, 9E+09, 9E+09, 9E+09, 9E+09, 9E+09]], v30, z0, tNozzleAlCal, \Wobj := wobjAlWithButton;
		MoveJ [[2.150, -3.491, 25.273], [-0.702302, 0.5547918, 0.4384131, 0.0822921], [-1, 1, 5, 1], [9E+09, 9E+09, 9E+09, 9E+09, 9E+09, 9E+09]], v30, z0, tNozzleAlCal, \Wobj := wobjAlWithButton;
		MoveJ [[3.902, 1.257, 19.818], [-0.6033628, 0.1659186, 0.6873653, -0.3687185], [-1, 1, 4, 1], [9E+09, 9E+09, 9E+09, 9E+09, 9E+09, 9E+09]], v30, z0, tNozzleAlCal, \Wobj := wobjAlWithButton;
		MoveJ [[-0.292, 4.090, 14.364], [-0.2471503, -0.2937021, 0.6432256, -0.6625079], [-1, 1, 3, 1], [9E+09, 9E+09, 9E+09, 9E+09, 9E+09, 9E+09]], v30, z0, tNozzleAlCal, \Wobj := wobjAlWithButton;
		MoveJ [[-4.041, 0.690, 8.909], [0.2144468, -0.6280886, 0.324815, -0.6738046], [-1, 1, 3, 1], [9E+09, 9E+09, 9E+09, 9E+09, 9E+09, 9E+09]], v30, z0, tNozzleAlCal, \Wobj := wobjAlWithButton;
		MoveJ [[-1.633, -3.761, 3.455], [0.5846041, -0.6946586, -0.1320963, -0.3977916], [-1, 1, 2, 1], [9E+09, 9E+09, 9E+09, 9E+09, 9E+09, 9E+09]], v30, z0, tNozzleAlCal, \Wobj := wobjAlWithButton;
		MoveJ [[3.264, -2.481, -2.000], [0.7054867, -0.4650269, -0.5326819, 0.0478394], [-1, 1, 1, 1], [9E+09, 9E+09, 9E+09, 9E+09, 9E+09, 9E+09]], v30, z0, tNozzleAlCal, \Wobj := wobjAlWithButton;
		MoveJ [[2.654, -3.125, -2.000], [0.7065234, -0.519894, -0.479281, -0.0287176], [-1, 1, 1, 1], [9E+09, 9E+09, 9E+09, 9E+09, 9E+09, 9E+09]], v30, z0, tNozzleAlCal, \Wobj := wobjAlWithButton;
		MoveJ [[-2.403, -3.322, 3.455], [0.5381683, -0.7048686, -0.0562161, -0.4586665], [-1, 1, 2, 1], [9E+09, 9E+09, 9E+09, 9E+09, 9E+09, 9E+09]], v30, z0, tNozzleAlCal, \Wobj := wobjAlWithButton;
		MoveJ [[-3.799, 1.543, 8.909], [0.1403386, -0.589288, 0.3908193, -0.6930405], [-1, 1, 3, 1], [9E+09, 9E+09, 9E+09, 9E+09, 9E+09, 9E+09]], v30, z0, tNozzleAlCal, \Wobj := wobjAlWithButton;
		MoveJ [[0.594, 4.057, 14.364], [-0.3173312, -0.2224355, 0.6712097, -0.6319026], [-1, 1, 4, 1], [9E+09, 9E+09, 9E+09, 9E+09, 9E+09, 9E+09]], v30, z0, tNozzleAlCal, \Wobj := wobjAlWithButton;
		MoveJ [[4.082, 0.389, 19.818], [-0.6396914, 0.2392633, 0.665397, -0.3013221], [-1, 1, 4, 1], [9E+09, 9E+09, 9E+09, 9E+09, 9E+09, 9E+09]], v30, z0, tNozzleAlCal, \Wobj := wobjAlWithButton;
		MoveJ [[1.350, -3.871, 25.273], [-0.6892877, 0.5989404, 0.3758596, 0.1577419], [-1, 1, 5, 1], [9E+09, 9E+09, 9E+09, 9E+09, 9E+09, 9E+09]], v30, z0, tNozzleAlCal, \Wobj := wobjAlWithButton;
		MoveJ [[-3.439, -2.233, 30.727], [-0.4449724, 0.7032299, -0.073944, 0.5495449], [-1, 1, 6, 1], [9E+09, 9E+09, 9E+09, 9E+09, 9E+09, 9E+09]], v30, z0, tNozzleAlCal, \Wobj := wobjAlWithButton;
		MoveJ [[-2.987, 2.808, 36.182], [-0.0109213, 0.5076629, -0.4922179, 0.7070225], [-1, 1, 7, 1], [9E+09, 9E+09, 9E+09, 9E+09, 9E+09, 9E+09]], v30, z0, tNozzleAlCal, \Wobj := wobjAlWithButton;
		MoveJ [[2.016, 3.570, 41.636], [0.4277866, 0.0956288, -0.7006106, 0.5630263], [-1, 1, 8, 1], [9E+09, 9E+09, 9E+09, 9E+09, 9E+09, 9E+09]], v30, z0, tNozzleAlCal, \Wobj := wobjAlWithButton;
		MoveJ [[3.947, -1.108, 47.091], [0.6840868, -0.3571812, -0.6102636, 0.1789563], [-1, 1, 9, 1], [9E+09, 9E+09, 9E+09, 9E+09, 9E+09, 9E+09]], v30, z0, tNozzleAlCal, \Wobj := wobjAlWithButton;
		MoveJ [[-0.136, -4.098, 52.545], [0.6486929, -0.6576896, -0.2597008, -0.2814205], [-1, 1, 10, 1], [9E+09, 9E+09, 9E+09, 9E+09, 9E+09, 9E+09]], v30, z0, tNozzleAlCal, \Wobj := wobjAlWithButton;
		MoveJ [[-4.012, -0.843, 58.000], [0.3366971, -0.6777597, 0.2015982, -0.6217999], [-1, 1, 10, 1], [9E+09, 9E+09, 9E+09, 9E+09, 9E+09, 9E+09]], v30, z0, tNozzleAlCal, \Wobj := wobjAlWithButton;
		MoveJ [[-4.100, 0.039, 58.000], [0.267495, -0.65199, 0.2736952, -0.6545582], [-1, 1, 11, 1], [9E+09, 9E+09, 9E+09, 9E+09, 9E+09, 9E+09]], v30, z0, tNozzleAlCal, \Wobj := wobjAlWithButton;
		MoveJ [[-1.014, -3.973, 52.545], [0.6144634, -0.6819128, -0.1870696, -0.3499069], [-1, 1, 10, 1], [9E+09, 9E+09, 9E+09, 9E+09, 9E+09, 9E+09]], v30, z0, tNozzleAlCal, \Wobj := wobjAlWithButton;
		MoveJ [[3.617, -1.931, 47.091], [0.6994252, -0.4210685, -0.5680681, 0.1039445], [-1, 1, 9, 1], [9E+09, 9E+09, 9E+09, 9E+09, 9E+09, 9E+09]], v30, z0, tNozzleAlCal, \Wobj := wobjAlWithButton;
		MoveJ [[2.736, 3.053, 41.636], [0.4861528, 0.0193189, -0.7068429, 0.513474], [-1, 1, 8, 1], [9E+09, 9E+09, 9E+09, 9E+09, 9E+09, 9E+09]], v30, z0, tNozzleAlCal, \Wobj := wobjAlWithButton;
		MoveJ [[-2.314, 3.385, 36.182], [0.0655853, 0.4514688, -0.5442205, 0.7040587], [-1, 1, 7, 1], [9E+09, 9E+09, 9E+09, 9E+09, 9E+09, 9E+09]], v30, z0, tNozzleAlCal, \Wobj := wobjAlWithButton;
		MoveJ [[-3.838, -1.441, 30.727], [-0.3829477, 0.6911128, -0.149543, 0.5944334], [-1, 1, 6, 1], [9E+09, 9E+09, 9E+09, 9E+09, 9E+09, 9E+09]], v30, z0, tNozzleAlCal, \Wobj := wobjAlWithButton;
		MoveJ [[0.486, -4.071, 25.273], [-0.6681922, 0.636067, 0.3088994, 0.2313423], [-1, 1, 5, 1], [9E+09, 9E+09, 9E+09, 9E+09, 9E+09, 9E+09]], v30, z0, tNozzleAlCal, \Wobj := wobjAlWithButton;
		MoveJ [[4.070, -0.497, 19.818], [-0.6685201, 0.3098028, 0.6356275, -0.2303929], [-1, 1, 5, 1], [9E+09, 9E+09, 9E+09, 9E+09, 9E+09, 9E+09]], v30, z0, tNozzleAlCal, \Wobj := wobjAlWithButton;
		MoveJ [[1.452, 3.834, 14.364], [-0.3837917, -0.148561, 0.6913246, -0.5938889], [-1, 1, 4, 1], [9E+09, 9E+09, 9E+09, 9E+09, 9E+09, 9E+09]], v30, z0, tNozzleAlCal, \Wobj := wobjAlWithButton;
		MoveJ [[-3.378, 2.323, 8.909], [0.0645851, -0.5435786, 0.4522415, -0.7041511], [-1, 1, 3, 1], [9E+09, 9E+09, 9E+09, 9E+09, 9E+09, 9E+09]], v30, z0, tNozzleAlCal, \Wobj := wobjAlWithButton;
		MoveJ [[-3.061, -2.728, 3.455], [0.4854229, -0.7068147, 0.0203231, -0.514164], [-1, 1, 2, 1], [9E+09, 9E+09, 9E+09, 9E+09, 9E+09, 9E+09]], v30, z0, tNozzleAlCal, \Wobj := wobjAlWithButton;
		MoveJ [[1.920, -3.622, -2.000], [0.6992768, -0.5686657, -0.420261, -0.1049379], [-1, 1, 1, 1], [9E+09, 9E+09, 9E+09, 9E+09, 9E+09, 9E+09]], v30, z0, tNozzleAlCal, \Wobj := wobjAlWithButton;
		MoveJ [[1.097, -3.951, -2.000], [0.6838319, -0.6107704, -0.3563139, -0.1799278], [-1, 1, 1, 1], [9E+09, 9E+09, 9E+09, 9E+09, 9E+09, 9E+09]], v30, z0, tNozzleAlCal, \Wobj := wobjAlWithButton;
		MoveJ [[-3.576, -2.006, 3.455], [0.4269864, -0.700474, 0.0966241, -0.5636334], [-1, 1, 2, 1], [9E+09, 9E+09, 9E+09, 9E+09, 9E+09, 9E+09]], v30, z0, tNozzleAlCal, \Wobj := wobjAlWithButton;
		MoveJ [[-2.800, 2.995, 8.909], [-0.0119256, -0.4914962, 0.5083616, -0.7070062], [-1, 1, 3, 1], [9E+09, 9E+09, 9E+09, 9E+09, 9E+09, 9E+09]], v30, z0, tNozzleAlCal, \Wobj := wobjAlWithButton;
		MoveJ [[2.242, 3.432, 14.364], [-0.4457526, -0.0729448, 0.7033343, -0.5489123], [-1, 1, 4, 1], [9E+09, 9E+09, 9E+09, 9E+09, 9E+09, 9E+09]], v30, z0, tNozzleAlCal, \Wobj := wobjAlWithButton;
		MoveJ [[3.868, -1.361, 19.818], [-0.6895111, 0.3767101, 0.5984058, -0.1567626], [-1, 1, 5, 1], [9E+09, 9E+09, 9E+09, 9E+09, 9E+09, 9E+09]], v30, z0, tNozzleAlCal, \Wobj := wobjAlWithButton;
		MoveJ [[-0.401, -4.080, 25.273], [-0.6392627, 0.6657362, 0.2383177, 0.3022305], [-1, 1, 6, 1], [9E+09, 9E+09, 9E+09, 9E+09, 9E+09, 9E+09]], v30, z0, tNozzleAlCal, \Wobj := wobjAlWithButton;
		MoveJ [[-4.058, -0.582, 30.727], [-0.3164333, 0.670893, -0.2233889, 0.6323528], [-1, 1, 6, 1], [9E+09, 9E+09, 9E+09, 9E+09, 9E+09, 9E+09]], v30, z0, tNozzleAlCal, \Wobj := wobjAlWithButton;
		MoveJ [[-1.532, 3.803, 36.182], [0.1413229, 0.3899817, -0.5898426, 0.6928404], [-1, 1, 7, 1], [9E+09, 9E+09, 9E+09, 9E+09, 9E+09, 9E+09]], v30, z0, tNozzleAlCal, \Wobj := wobjAlWithButton;
		MoveJ [[3.329, 2.394, 41.636], [0.5388192, -0.0572175, -0.7047881, 0.4579016], [-1, 1, 8, 1], [9E+09, 9E+09, 9E+09, 9E+09, 9E+09, 9E+09]], v30, z0, tNozzleAlCal, \Wobj := wobjAlWithButton;
		MoveJ [[3.117, -2.663, 47.091], [0.7065635, -0.4800192, -0.5192125, 0.027714], [-1, 1, 9, 1], [9E+09, 9E+09, 9E+09, 9E+09, 9E+09, 9E+09]], v30, z0, tNozzleAlCal, \Wobj := wobjAlWithButton;
		MoveJ [[-1.844, -3.662, 52.545], [0.5730298, -0.6981411, -0.1122453, -0.4142909], [-1, 1, 10, 1], [9E+09, 9E+09, 9E+09, 9E+09, 9E+09, 9E+09]], v30, z0, tNozzleAlCal, \Wobj := wobjAlWithButton;
		MoveJ [[-3.996, 0.919, 58.000], [0.1951567, -0.6185764, 0.3425833, -0.6796425], [-1, 1, 11, 1], [9E+09, 9E+09, 9E+09, 9E+09, 9E+09, 9E+09]], v30, z0, tNozzleAlCal, \Wobj := wobjAlWithButton;
		MoveJ [[-3.705, 1.757, 58.000], [0.1205304, -0.5779105, 0.4074549, -0.6967585], [-1, 1, 11, 1], [9E+09, 9E+09, 9E+09, 9E+09, 9E+09, 9E+09]], v30, z0, tNozzleAlCal, \Wobj := wobjAlWithButton;
		MoveJ [[-2.588, -3.180, 52.545], [0.5248779, -0.7061845, -0.036105, -0.4738177], [-1, 1, 10, 1], [9E+09, 9E+09, 9E+09, 9E+09, 9E+09, 9E+09]], v30, z0, tNozzleAlCal, \Wobj := wobjAlWithButton;
		MoveJ [[2.472, -3.271, 47.091], [0.705418, -0.533342, -0.4642697, -0.0488414], [-1, 1, 9, 1], [9E+09, 9E+09, 9E+09, 9E+09, 9E+09, 9E+09]], v30, z0, tNozzleAlCal, \Wobj := wobjAlWithButton;
		MoveJ [[3.766, 1.622, 41.636], [0.5851685, -0.133083, -0.6944703, 0.3969608], [-1, 1, 8, 1], [9E+09, 9E+09, 9E+09, 9E+09, 9E+09, 9E+09]], v30, z0, tNozzleAlCal, \Wobj := wobjAlWithButton;
		MoveJ [[-0.679, 4.043, 36.182], [0.2154037, 0.3239224, -0.6285494, 0.6734993], [-1, 1, 7, 1], [9E+09, 9E+09, 9E+09, 9E+09, 9E+09, 9E+09]], v30, z0, tNozzleAlCal, \Wobj := wobjAlWithButton;
		MoveJ [[-4.089, 0.304, 30.727], [-0.246209, 0.6428077, -0.2946156, 0.6628583], [-1, 1, 7, 1], [9E+09, 9E+09, 9E+09, 9E+09, 9E+09, 9E+09]], v30, z0, tNozzleAlCal, \Wobj := wobjAlWithButton;
		MoveJ [[-1.268, -3.899, 25.273], [-0.6028385, 0.6876003, 0.1649419, 0.3695752], [-1, 1, 6, 1], [9E+09, 9E+09, 9E+09, 9E+09, 9E+09, 9E+09]], v30, z0, tNozzleAlCal, \Wobj := wobjAlWithButton;
		MoveJ [[3.485, -2.160, 19.818], [-0.7024182, 0.4392009, 0.5541684, -0.0812944], [-1, 1, 5, 1], [9E+09, 9E+09, 9E+09, 9E+09, 9E+09, 9E+09]], v30, z0, tNozzleAlCal, \Wobj := wobjAlWithButton;
		MoveJ [[2.928, 2.870, 14.364], [-0.5024874, 0.0035266, 0.707098, -0.4975002], [-1, 1, 4, 1], [9E+09, 9E+09, 9E+09, 9E+09, 9E+09, 9E+09]], v30, z0, tNozzleAlCal, \Wobj := wobjAlWithButton;
		MoveJ [[-2.090, 3.527, 8.909], [-0.0882965, -0.4336514, 0.5585217, -0.7015724], [-1, 1, 3, 1], [9E+09, 9E+09, 9E+09, 9E+09, 9E+09, 9E+09]], v30, z0, tNozzleAlCal, \Wobj := wobjAlWithButton;
		MoveJ [[-3.923, -1.190, 3.455], [0.3635439, -0.6859209, 0.1717922, -0.6064947], [-1, 1, 2, 1], [9E+09, 9E+09, 9E+09, 9E+09, 9E+09, 9E+09]], v30, z0, tNozzleAlCal, \Wobj := wobjAlWithButton;
		MoveJ [[0.222, -4.094, -2.000], [0.6603696, -0.6457143, -0.2881893, -0.2528083], [-1, 1, 1, 1], [9E+09, 9E+09, 9E+09, 9E+09, 9E+09, 9E+09]], v30, z0, tNozzleAlCal, \Wobj := wobjAlWithButton;
		MoveJ [[-0.663, -4.046, -2.000], [0.6291651, -0.6730879, -0.2166859, -0.3227249], [-1, 1, 2, 1], [9E+09, 9E+09, 9E+09, 9E+09, 9E+09, 9E+09]], v30, z0, tNozzleAlCal, \Wobj := wobjAlWithButton;
		MoveJ [[-4.088, -0.319, 3.455], [0.2958392, -0.663326, 0.2449463, -0.6422455], [-1, 1, 2, 1], [9E+09, 9E+09, 9E+09, 9E+09, 9E+09, 9E+09]], v30, z0, tNozzleAlCal, \Wobj := wobjAlWithButton;
		MoveJ [[-1.283, 3.894, 8.909], [-0.1636322, -0.3707225, 0.6021336, -0.6879132], [-1, 1, 3, 1], [9E+09, 9E+09, 9E+09, 9E+09, 9E+09, 9E+09]], v30, z0, tNozzleAlCal, \Wobj := wobjAlWithButton;
		MoveJ [[3.476, 2.174, 14.364], [-0.5533311, 0.0799567, 0.7025717, -0.4402554], [-1, 1, 4, 1], [9E+09, 9E+09, 9E+09, 9E+09, 9E+09, 9E+09]], v30, z0, tNozzleAlCal, \Wobj := wobjAlWithButton;
		MoveJ [[2.939, -2.859, 19.818], [-0.70709, 0.4965424, 0.5034339, -0.0048731], [-1, 1, 5, 1], [9E+09, 9E+09, 9E+09, 9E+09, 9E+09, 9E+09]], v30, z0, tNozzleAlCal, \Wobj := wobjAlWithButton;
		MoveJ [[-2.077, -3.535, 25.273], [-0.5593465, 0.7014029, 0.0896324, 0.4325871], [-1, 1, 6, 1], [9E+09, 9E+09, 9E+09, 9E+09, 9E+09, 9E+09]], v30, z0, tNozzleAlCal, \Wobj := wobjAlWithButton;
		MoveJ [[-3.928, 1.175, 30.727], [-0.1730981, 0.6071859, -0.3623883, 0.6855925], [-1, 1, 7, 1], [9E+09, 9E+09, 9E+09, 9E+09, 9E+09, 9E+09]], v30, z0, tNozzleAlCal, \Wobj := wobjAlWithButton;
		MoveJ [[0.206, 4.095, 36.182], [0.2869591, 0.2540654, -0.659887, 0.646262], [-1, 1, 8, 1], [9E+09, 9E+09, 9E+09, 9E+09, 9E+09, 9E+09]], v30, z0, tNozzleAlCal, \Wobj := wobjAlWithButton;
		MoveJ [[4.026, 0.775, 41.636], [0.6246572, -0.2073884, -0.6760104, 0.3313659], [-1, 1, 8, 1], [9E+09, 9E+09, 9E+09, 9E+09, 9E+09, 9E+09]], v30, z0, tNozzleAlCal, \Wobj := wobjAlWithButton;
		MoveJ [[1.711, -3.726, 47.091], [0.6960021, -0.5804119, -0.4038837, -0.1248242], [-1, 1, 9, 1], [9E+09, 9E+09, 9E+09, 9E+09, 9E+09, 9E+09]], v30, z0, tNozzleAlCal, \Wobj := wobjAlWithButton;
		MoveJ [[-3.211, -2.549, 52.545], [0.4705724, -0.7059484, 0.0404587, -0.5277894], [-1, 1, 10, 1], [9E+09, 9E+09, 9E+09, 9E+09, 9E+09, 9E+09]], v30, z0, tNozzleAlCal, \Wobj := wobjAlWithButton;
		MoveJ [[-3.240, 2.512, 58.000], [0.044491, -0.5304691, 0.4675495, -0.7057057], [-1, 1, 11, 1], [9E+09, 9E+09, 9E+09, 9E+09, 9E+09, 9E+09]], v30, z0, tNozzleAlCal, \Wobj := wobjAlWithButton;
		MoveJ [[-2.625, 3.150, 58.000], [-0.03207, -0.4768085, 0.5221625, -0.7063792], [-1, 1, 11, 1], [9E+09, 9E+09, 9E+09, 9E+09, 9E+09, 9E+09]], v30, z0, tNozzleAlCal, \Wobj := wobjAlWithButton;
		MoveJ [[-3.684, -1.799, 52.545], [0.4107498, -0.6974358, 0.1165479, -0.5755733], [-1, 1, 10, 1], [9E+09, 9E+09, 9E+09, 9E+09, 9E+09, 9E+09]], v30, z0, tNozzleAlCal, \Wobj := wobjAlWithButton;
		MoveJ [[0.870, -4.007, 47.091], [0.6784263, -0.620677, -0.3387626, -0.1993436], [-1, 1, 9, 1], [9E+09, 9E+09, 9E+09, 9E+09, 9E+09, 9E+09]], v30, z0, tNozzleAlCal, \Wobj := wobjAlWithButton;
		MoveJ [[4.099, -0.109, 41.636], [0.6568224, -0.2792622, -0.649625, 0.2618861], [-1, 1, 9, 1], [9E+09, 9E+09, 9E+09, 9E+09, 9E+09, 9E+09]], v30, z0, tNozzleAlCal, \Wobj := wobjAlWithButton;
		MoveJ [[1.082, 3.955, 36.182], [0.3551501, 0.1812297, -0.683488, 0.6114478], [-1, 1, 8, 1], [9E+09, 9E+09, 9E+09, 9E+09, 9E+09, 9E+09]], v30, z0, tNozzleAlCal, \Wobj := wobjAlWithButton;
		MoveJ [[-3.583, 1.992, 30.727], [-0.0979578, 0.5644455, -0.4259123, 0.7002887], [-1, 1, 7, 1], [9E+09, 9E+09, 9E+09, 9E+09, 9E+09, 9E+09]], v30, z0, tNozzleAlCal, \Wobj := wobjAlWithButton;
		MoveJ [[-2.788, -3.006, 25.273], [-0.5092967, 0.7069823, 0.0132719, 0.4905272], [-1, 1, 6, 1], [9E+09, 9E+09, 9E+09, 9E+09, 9E+09, 9E+09]], v30, z0, tNozzleAlCal, \Wobj := wobjAlWithButton;
		MoveJ [[2.256, -3.424, 19.818], [-0.7034719, 0.5480624, 0.4467971, 0.0716053], [-1, 1, 5, 1], [9E+09, 9E+09, 9E+09, 9E+09, 9E+09, 9E+09]], v30, z0, tNozzleAlCal, \Wobj := wobjAlWithButton;
		MoveJ [[3.862, 1.375, 14.364], [-0.5976874, 0.1554493, 0.6898084, -0.377849], [-1, 1, 4, 1], [9E+09, 9E+09, 9E+09, 9E+09, 9E+09, 9E+09]], v30, z0, tNozzleAlCal, \Wobj := wobjAlWithButton;
		MoveJ [[-0.416, 4.079, 8.909], [-0.2370495, -0.3034473, 0.638686, -0.6661888], [-1, 1, 3, 1], [9E+09, 9E+09, 9E+09, 9E+09, 9E+09, 9E+09]], v30, z0, tNozzleAlCal, \Wobj := wobjAlWithButton;
		MoveJ [[-4.061, 0.567, 3.455], [0.224666, -0.6329542, 0.3152286, -0.6704664], [-1, 1, 3, 1], [9E+09, 9E+09, 9E+09, 9E+09, 9E+09, 9E+09]], v30, z0, tNozzleAlCal, \Wobj := wobjAlWithButton;
		MoveJ [[-1.518, -3.809, -2.000], [0.5905842, -0.6925701, -0.1426421, -0.3888578], [-1, 1, 2, 1], [9E+09, 9E+09, 9E+09, 9E+09, 9E+09, 9E+09]], v30, z0, tNozzleAlCal, \Wobj := wobjAlWithButton;
		MoveJ [[-2.301, -3.394, -2.000], [0.5450792, -0.7039325, -0.0669259, -0.4504316], [-1, 1, 2, 1], [9E+09, 9E+09, 9E+09, 9E+09, 9E+09, 9E+09]], v30, z0, tNozzleAlCal, \Wobj := wobjAlWithButton;
		MoveJ [[-3.844, 1.427, 3.455], [0.1508589, -0.5951616, 0.3818151, -0.6908268], [-1, 1, 3, 1], [9E+09, 9E+09, 9E+09, 9E+09, 9E+09, 9E+09]], v30, z0, tNozzleAlCal, \Wobj := wobjAlWithButton;
		MoveJ [[0.470, 4.073, 8.909], [-0.3076876, -0.2326143, 0.6677504, -0.6366541], [-1, 1, 4, 1], [9E+09, 9E+09, 9E+09, 9E+09, 9E+09, 9E+09]], v30, z0, tNozzleAlCal, \Wobj := wobjAlWithButton;
		MoveJ [[4.068, 0.513, 14.364], [-0.6350364, 0.2291195, 0.6689576, -0.3110126], [-1, 1, 4, 1], [9E+09, 9E+09, 9E+09, 9E+09, 9E+09, 9E+09]], v30, z0, tNozzleAlCal, \Wobj := wobjAlWithButton;
		MoveJ [[1.467, -3.829, 19.818], [-0.6916062, 0.5931569, 0.384922, 0.1472443], [-1, 1, 5, 1], [9E+09, 9E+09, 9E+09, 9E+09, 9E+09, 9E+09]], v30, z0, tNozzleAlCal, \Wobj := wobjAlWithButton;
		MoveJ [[-3.369, -2.336, 25.273], [-0.4532758, 0.7042728, -0.0632441, 0.5427164], [-1, 1, 6, 1], [9E+09, 9E+09, 9E+09, 9E+09, 9E+09, 9E+09]], v30, z0, tNozzleAlCal, \Wobj := wobjAlWithButton;
		MoveJ [[-3.071, 2.716, 30.727], [-0.0216691, 0.5150875, -0.4844429, 0.7067747], [-1, 1, 7, 1], [9E+09, 9E+09, 9E+09, 9E+09, 9E+09, 9E+09]], v30, z0, tNozzleAlCal, \Wobj := wobjAlWithButton;
		MoveJ [[1.907, 3.630, 36.182], [0.4191774, 0.1062693, -0.6990757, 0.569465], [-1, 1, 8, 1], [9E+09, 9E+09, 9E+09, 9E+09, 9E+09, 9E+09]], v30, z0, tNozzleAlCal, \Wobj := wobjAlWithButton;
		MoveJ [[3.979, -0.988, 41.636], [0.681287, -0.347862, -0.6156233, 0.1893359], [-1, 1, 9, 1], [9E+09, 9E+09, 9E+09, 9E+09, 9E+09, 9E+09]], v30, z0, tNozzleAlCal, \Wobj := wobjAlWithButton;
		MoveJ [[-0.012, -4.100, 47.091], [0.6528965, -0.6536653, -0.2696697, -0.2715258], [-1, 1, 10, 1], [9E+09, 9E+09, 9E+09, 9E+09, 9E+09, 9E+09]], v30, z0, tNozzleAlCal, \Wobj := wobjAlWithButton;
		MoveJ [[-3.985, -0.965, 52.545], [0.3461115, -0.6807463, 0.1912708, -0.6166092], [-1, 1, 10, 1], [9E+09, 9E+09, 9E+09, 9E+09, 9E+09, 9E+09]], v30, z0, tNozzleAlCal, \Wobj := wobjAlWithButton;
		MoveJ [[-1.886, 3.640, 58.000], [-0.1082551, -0.4175578, 0.5706536, -0.698771], [-1, 1, 11, 1], [9E+09, 9E+09, 9E+09, 9E+09, 9E+09, 9E+09]], v30, z0, tNozzleAlCal, \Wobj := wobjAlWithButton;
		MoveJ [[-1.059, 3.961, 58.000], [-0.1831709, -0.3534115, 0.6124544, -0.6829703], [-1, 1, 11, 1], [9E+09, 9E+09, 9E+09, 9E+09, 9E+09, 9E+09]], v30, z0, tNozzleAlCal, \Wobj := wobjAlWithButton;
		MoveJ [[-4.099, -0.086, 52.545], [0.2774154, -0.6560757, 0.2637512, -0.6504158], [-1, 1, 10, 1], [9E+09, 9E+09, 9E+09, 9E+09, 9E+09, 9E+09]], v30, z0, tNozzleAlCal, \Wobj := wobjAlWithButton;
		MoveJ [[-0.893, -4.002, 47.091], [0.6197121, -0.6789899, -0.1974153, -0.3405246], [-1, 1, 10, 1], [9E+09, 9E+09, 9E+09, 9E+09, 9E+09, 9E+09]], v30, z0, tNozzleAlCal, \Wobj := wobjAlWithButton;
		MoveJ [[3.674, -1.820, 41.636], [0.6977641, -0.4123834, -0.574404, 0.114566], [-1, 1, 9, 1], [9E+09, 9E+09, 9E+09, 9E+09, 9E+09, 9E+09]], v30, z0, tNozzleAlCal, \Wobj := wobjAlWithButton;
		MoveJ [[2.642, 3.135, 36.182], [0.4782901, 0.030063, -0.7064675, 0.5208057], [-1, 1, 8, 1], [9E+09, 9E+09, 9E+09, 9E+09, 9E+09, 9E+09]], v30, z0, tNozzleAlCal, \Wobj := wobjAlWithButton;
		MoveJ [[-2.416, 3.313, 30.727], [0.0548737, 0.4596905, -0.5372938, 0.7049744], [-1, 1, 7, 1], [9E+09, 9E+09, 9E+09, 9E+09, 9E+09, 9E+09]], v30, z0, tNozzleAlCal, \Wobj := wobjAlWithButton;
		MoveJ [[-3.793, -1.557, 25.273], [-0.3919408, 0.6933065, -0.1390186, 0.5885427], [-1, 1, 6, 1], [9E+09, 9E+09, 9E+09, 9E+09, 9E+09, 9E+09]], v30, z0, tNozzleAlCal, \Wobj := wobjAlWithButton;
		MoveJ [[0.609, -4.054, 19.818], [-0.6716321, 0.6312972, 0.318534, 0.2211569], [-1, 1, 5, 1], [9E+09, 9E+09, 9E+09, 9E+09, 9E+09, 9E+09]], v30, z0, tNozzleAlCal, \Wobj := wobjAlWithButton;
		MoveJ [[4.083, -0.373, 14.364], [-0.6649401, 0.3001034, 0.640264, -0.24053], [-1, 1, 5, 1], [9E+09, 9E+09, 9E+09, 9E+09, 9E+09, 9E+09]], v30, z0, tNozzleAlCal, \Wobj := wobjAlWithButton;
		MoveJ [[1.335, 3.877, 8.909], [-0.3747183, -0.1590542, 0.6889861, -0.5996551], [-1, 1, 4, 1], [9E+09, 9E+09, 9E+09, 9E+09, 9E+09, 9E+09]], v30, z0, tNozzleAlCal, \Wobj := wobjAlWithButton;
		MoveJ [[-3.447, 2.220, 3.455], [0.075283, -0.5503913, 0.4439251, -0.7030878], [-1, 1, 3, 1], [9E+09, 9E+09, 9E+09, 9E+09, 9E+09, 9E+09]], v30, z0, tNozzleAlCal, \Wobj := wobjAlWithButton;
		MoveJ [[-2.977, -2.820, -2.000], [0.4931837, -0.707042, 0.0095749, -0.5067246], [-1, 1, 2, 1], [9E+09, 9E+09, 9E+09, 9E+09, 9E+09, 9E+09]], v30, z0, tNozzleAlCal, \Wobj := wobjAlWithButton;
		MoveJ [[-3.513, -2.114, -2.000], [0.4355061, -0.701862, 0.0859635, -0.5570767], [-1, 1, 2, 1], [9E+09, 9E+09, 9E+09, 9E+09, 9E+09, 9E+09]], v30, z0, tNozzleAlCal, \Wobj := wobjAlWithButton;
		MoveJ [[-2.889, 2.909, 3.455], [-0.0011755, -0.4991681, 0.5008306, -0.7071058], [-1, 1, 3, 1], [9E+09, 9E+09, 9E+09, 9E+09, 9E+09, 9E+09]], v30, z0, tNozzleAlCal, \Wobj := wobjAlWithButton;
		MoveJ [[2.137, 3.499, 8.909], [-0.4373558, -0.0836293, 0.702144, -0.5556257], [-1, 1, 4, 1], [9E+09, 9E+09, 9E+09, 9E+09, 9E+09, 9E+09]], v30, z0, tNozzleAlCal, \Wobj := wobjAlWithButton;
		MoveJ [[3.907, -1.242, 14.364], [-0.6870481, 0.3675689, 0.6040639, -0.1672273], [-1, 1, 5, 1], [9E+09, 9E+09, 9E+09, 9E+09, 9E+09, 9E+09]], v30, z0, tNozzleAlCal, \Wobj := wobjAlWithButton;
		MoveJ [[-0.276, -4.091, 19.818], [-0.6437837, 0.6620361, 0.2484115, 0.2924767], [-1, 1, 6, 1], [9E+09, 9E+09, 9E+09, 9E+09, 9E+09, 9E+09]], v30, z0, tNozzleAlCal, \Wobj := wobjAlWithButton;
		MoveJ [[-4.039, -0.706, 25.273], [-0.3260105, 0.6742117, -0.2131633, 0.6274689], [-1, 1, 6, 1], [9E+09, 9E+09, 9E+09, 9E+09, 9E+09, 9E+09]], v30, z0, tNozzleAlCal, \Wobj := wobjAlWithButton;
		MoveJ [[-1.647, 3.755, 30.727], [0.1307732, 0.3989041, -0.5838455, 0.6949089], [-1, 1, 7, 1], [9E+09, 9E+09, 9E+09, 9E+09, 9E+09, 9E+09]], v30, z0, tNozzleAlCal, \Wobj := wobjAlWithButton;
		MoveJ [[3.255, 2.494, 36.182], [0.5317954, -0.0464958, -0.7055765, 0.4660405], [-1, 1, 8, 1], [9E+09, 9E+09, 9E+09, 9E+09, 9E+09, 9E+09]], v30, z0, tNozzleAlCal, \Wobj := wobjAlWithButton;
		MoveJ [[3.197, -2.567, 41.636], [0.7060605, -0.47207, -0.5264504, 0.0384528], [-1, 1, 9, 1], [9E+09, 9E+09, 9E+09, 9E+09, 9E+09, 9E+09]], v30, z0, tNozzleAlCal, \Wobj := wobjAlWithButton;
		MoveJ [[-1.732, -3.716, 47.091], [0.5792621, -0.696354, -0.1228463, -0.4055311], [-1, 1, 10, 1], [9E+09, 9E+09, 9E+09, 9E+09, 9E+09, 9E+09]], v30, z0, tNozzleAlCal, \Wobj := wobjAlWithButton;
		MoveJ [[-4.022, 0.797, 52.545], [0.2054669, -0.6237133, 0.3331393, -0.6765969], [-1, 1, 11, 1], [9E+09, 9E+09, 9E+09, 9E+09, 9E+09, 9E+09]], v30, z0, tNozzleAlCal, \Wobj := wobjAlWithButton;
		MoveJ [[-0.183, 4.096, 58.000], [-0.2559392, -0.2851218, 0.6470746, -0.6591625], [-1, 1, 11, 1], [9E+09, 9E+09, 9E+09, 9E+09, 9E+09, 9E+09]], v30, z0, tNozzleAlCal, \Wobj := wobjAlWithButton;
		MoveJ [[0.702, 4.040, 58.000], [-0.3257069, -0.2134894, 0.6741086, -0.6276265], [-1, 1, 12, 1], [9E+09, 9E+09, 9E+09, 9E+09, 9E+09, 9E+09]], v30, z0, tNozzleAlCal, \Wobj := wobjAlWithButton;
		MoveJ [[-3.756, 1.643, 52.545], [0.1311094, -0.5840383, 0.3986217, -0.6948456], [-1, 1, 11, 1], [9E+09, 9E+09, 9E+09, 9E+09, 9E+09, 9E+09]], v30, z0, tNozzleAlCal, \Wobj := wobjAlWithButton;
