		MoveL [[-175.000, -26.800, 0.000], [0.707107, -0.707107, 0, 0], [-1, -1, -2, 0], [9E+09, 9E+09, 9E+09, 9E+09, 9E+09, 9E+09]], v30, z0, tNozTest, \Wobj := wobjPlatform;
		MoveL [[-198.176, -23.129, 0.000], [0.6984013, -0.6984013, 0.1106159, -0.1106159], [-1, -1, -2, 0], [9E+09, 9E+09, 9E+09, 9E+09, 9E+09, 9E+09]], v30, z0, tNozTest, \Wobj := wobjPlatform;
		MoveL [[-219.084, -12.476, 0.000], [0.6724987, -0.6724987, 0.2185081, -0.2185081], [-1, -1, -2, 0], [9E+09, 9E+09, 9E+09, 9E+09, 9E+09, 9E+09]], v30, z0, tNozTest, \Wobj := wobjPlatform;
		MoveL [[-235.676, 4.116, 0.000], [0.630037, -0.630037, 0.3210199, -0.3210199], [-1, -1, -2, 0], [9E+09, 9E+09, 9E+09, 9E+09, 9E+09, 9E+09]], v30, z0, tNozTest, \Wobj := wobjPlatform;
		MoveL [[-246.329, 25.024, 0.000], [0.5720616, -0.5720616, 0.4156271, -0.4156271], [-1, -1, -2, 0], [9E+09, 9E+09, 9E+09, 9E+09, 9E+09, 9E+09]], v30, z0, tNozTest, \Wobj := wobjPlatform;
		MoveL [[-250.000, 48.200, 0.000], [0.5000002, -0.5000002, 0.5000002, -0.5000002], [-1, -1, -2, 0], [9E+09, 9E+09, 9E+09, 9E+09, 9E+09, 9E+09]], v30, z0, tNozTest, \Wobj := wobjPlatform;
		MoveL [[-246.329, 71.376, 0.000], [0.4156271, -0.4156271, 0.5720616, -0.5720616], [-1, -1, -2, 0], [9E+09, 9E+09, 9E+09, 9E+09, 9E+09, 9E+09]], v30, z0, tNozTest, \Wobj := wobjPlatform;
		MoveL [[-235.676, 92.284, 0.000], [0.3210199, -0.3210199, 0.630037, -0.630037], [-1, -1, -2, 0], [9E+09, 9E+09, 9E+09, 9E+09, 9E+09, 9E+09]], v30, z0, tNozTest, \Wobj := wobjPlatform;
		MoveL [[-219.084, 108.876, 0.000], [0.2185081, -0.2185081, 0.6724987, -0.6724987], [-1, -1, -2, 0], [9E+09, 9E+09, 9E+09, 9E+09, 9E+09, 9E+09]], v30, z0, tNozTest, \Wobj := wobjPlatform;
		MoveL [[-198.176, 119.529, 0.000], [0.1106159, -0.1106159, 0.6984013, -0.6984013], [-1, -1, -2, 0], [9E+09, 9E+09, 9E+09, 9E+09, 9E+09, 9E+09]], v30, z0, tNozTest, \Wobj := wobjPlatform;
		MoveL [[-175.000, 123.200, 0.000], [0, -0, 0.707107, -0.707107], [-1, -1, -2, 0], [9E+09, 9E+09, 9E+09, 9E+09, 9E+09, 9E+09]], v30, z0, tNozTest, \Wobj := wobjPlatform;
		MoveL [[-151.824, 119.529, 0.000], [-0.1106159, 0.1106159, 0.6984013, -0.6984013], [-1, -1, -2, 0], [9E+09, 9E+09, 9E+09, 9E+09, 9E+09, 9E+09]], v30, z0, tNozTest, \Wobj := wobjPlatform;
		MoveL [[-130.916, 108.876, 0.000], [-0.2185081, 0.2185081, 0.6724987, -0.6724987], [-1, -1, -2, 0], [9E+09, 9E+09, 9E+09, 9E+09, 9E+09, 9E+09]], v30, z0, tNozTest, \Wobj := wobjPlatform;
		MoveL [[-114.324, 92.284, 0.000], [-0.3210199, 0.3210199, 0.630037, -0.630037], [-1, -1, -2, 0], [9E+09, 9E+09, 9E+09, 9E+09, 9E+09, 9E+09]], v30, z0, tNozTest, \Wobj := wobjPlatform;
		MoveL [[-103.671, 71.376, 0.000], [-0.4156271, 0.4156271, 0.5720616, -0.5720616], [-1, -1, -2, 0], [9E+09, 9E+09, 9E+09, 9E+09, 9E+09, 9E+09]], v30, z0, tNozTest, \Wobj := wobjPlatform;
		MoveL [[-100.000, 48.200, 0.000], [-0.5000002, 0.5000002, 0.5000002, -0.5000002], [-1, -1, -2, 0], [9E+09, 9E+09, 9E+09, 9E+09, 9E+09, 9E+09]], v30, z0, tNozTest, \Wobj := wobjPlatform;
		MoveL [[-103.671, 25.024, 0.000], [-0.5720616, 0.5720616, 0.4156271, -0.4156271], [-1, -1, -2, 0], [9E+09, 9E+09, 9E+09, 9E+09, 9E+09, 9E+09]], v30, z0, tNozTest, \Wobj := wobjPlatform;
		MoveL [[-114.324, 4.116, 0.000], [-0.630037, 0.630037, 0.3210199, -0.3210199], [-1, -1, -2, 0], [9E+09, 9E+09, 9E+09, 9E+09, 9E+09, 9E+09]], v30, z0, tNozTest, \Wobj := wobjPlatform;
		MoveL [[-130.916, -12.476, 0.000], [-0.6724987, 0.6724987, 0.2185081, -0.2185081], [-1, -1, -2, 0], [9E+09, 9E+09, 9E+09, 9E+09, 9E+09, 9E+09]], v30, z0, tNozTest, \Wobj := wobjPlatform;
		MoveL [[-151.824, -23.129, 0.000], [-0.6984013, 0.6984013, 0.1106159, -0.1106159], [-1, -1, -2, 0], [9E+09, 9E+09, 9E+09, 9E+09, 9E+09, 9E+09]], v30, z0, tNozTest, \Wobj := wobjPlatform;
