 TASK PERS tooldata tCalibCone:=[TRUE,[[0,0,38.4],[1,0,0,0]],[1,[0,0,1],[1,0,0,0],0,0,0]];
 CONST robtarget pTasterGagePrep:=[[0,-404.23,164.87],[0,-0.707107,-0.707107,0],[-1,-1,0,0],[9E+09,9E+09,9E+09,9E+09,9E+09,9E+09]];
 TASK PERS tooldata taster:=[TRUE,[[0,0,134.14],[1,0,0,0]],[0.55,[0,0,75],[1,0,0,0],0,0,0]];
 CONST robtarget pNozHR1:=[[-21.65,-433.18,619.74],[0.270598,0.65328,0.270598,-0.65328],[-1,1,-1,1],[9E+09,9E+09,9E+09,9E+09,9E+09,9E+09]];
 CONST robtarget pNozBack1:=[[-22.16,-433.71,630.88],[0.5,0.5,0.5,-0.5],[-2,1,-2,1],[9E+09,9E+09,9E+09,9E+09,9E+09,9E+09]];
 CONST robtarget pNozHL1:=[[-20.96,-433.82,622.32],[0.65328,0.270598,0.65328,-0.270598],[-2,-1,0,1],[9E+09,9E+09,9E+09,9E+09,9E+09,9E+09]];
 CONST robtarget pNozHD1:=[[-21,-433.5,619.22],[0.653282,0.270598,0.270598,-0.653282],[-2,-1,-1,1],[9E+09,9E+09,9E+09,9E+09,9E+09,9E+09]];
 CONST robtarget pNozHL2:=[[-21,-433.8,620],[0.65326,0.27062,0.65329,-0.2706],[-2,1,3,0],[9E+09,9E+09,9E+09,9E+09,9E+09,9E+09]];
 CONST robtarget pNozHBL1:=[[-21.61,-433.4,629.4],[0.707107,0,0.5,-0.5],[-2,-1,0,1],[9E+09,9E+09,9E+09,9E+09,9E+09,9E+09]];
 CONST robtarget pNozHBR1:=[[-21.25,-433.36,610.94],[0.5,0.5,0,-0.707107],[-1,0,-1,1],[9E+09,9E+09,9E+09,9E+09,9E+09,9E+09]];