MODULE MainModule
	PROC main()
		SetDO DO4_Heat_Nozzle, 1;
		SetDO DO1_Auto_Mode, 1;

		! Base Grip layer number 1 of 25
		MoveJ [[15.660, 0.000, -0.200], [0.6532815, -0.2705981, -0.6532815, 0.2705981], [-1, 1, 1, 1], [9E+09, 9E+09, 9E+09, 9E+09, 9E+09, 9E+09]], v30, z0, tNozzle, \Wobj := wobjFlatPlat;
		MoveJ [[5.660, 0.000, -0.200], [0.6532815, -0.2705981, -0.6532815, 0.2705981], [-1, 1, 1, 1], [9E+09, 9E+09, 9E+09, 9E+09, 9E+09, 9E+09]], v30, z0, tNozzle, \Wobj := wobjFlatPlat;
		WaitRob \InPos;
		SetDO DO6_Between_Layer_Retract, 0;
		SetDO DO5_Program_Feed, 1;
		MoveJ [[5.660, 0.000, 24.800], [0.6532815, -0.2705981, -0.6532815, 0.2705981], [-1, 1, 1, 1], [9E+09, 9E+09, 9E+09, 9E+09, 9E+09, 9E+09]], v30, z0, tNozzle, \Wobj := wobjFlatPlat;
		MoveJ [[5.627, 0.612, 24.800], [0.6376735, -0.2348333, -0.6669733, 0.3055692], [-1, 1, 1, 1], [9E+09, 9E+09, 9E+09, 9E+09, 9E+09, 9E+09]], v30, z0, tNozzle, \Wobj := wobjFlatPlat;
		MoveJ [[5.627, 0.612, -0.200], [0.6376735, -0.2348333, -0.6669733, 0.3055692], [-1, 1, 1, 1], [9E+09, 9E+09, 9E+09, 9E+09, 9E+09, 9E+09]], v30, z0, tNozzle, \Wobj := wobjFlatPlat;
		MoveJ [[5.528, 1.217, -0.200], [0.6201951, -0.1983797, -0.6787087, 0.339644], [-1, 1, 1, 1], [9E+09, 9E+09, 9E+09, 9E+09, 9E+09, 9E+09]], v30, z0, tNozzle, \Wobj := wobjFlatPlat;
		MoveJ [[5.528, 1.217, 24.800], [0.6201951, -0.1983797, -0.6787087, 0.339644], [-1, 1, 1, 1], [9E+09, 9E+09, 9E+09, 9E+09, 9E+09, 9E+09]], v30, z0, tNozzle, \Wobj := wobjFlatPlat;
		MoveJ [[5.364, 1.807, 24.800], [0.6008976, -0.1613442, -0.6884534, 0.3727226], [-1, 1, 1, 1], [9E+09, 9E+09, 9E+09, 9E+09, 9E+09, 9E+09]], v30, z0, tNozzle, \Wobj := wobjFlatPlat;
		MoveJ [[5.364, 1.807, -0.200], [0.6008976, -0.1613442, -0.6884534, 0.3727226], [-1, 1, 1, 1], [9E+09, 9E+09, 9E+09, 9E+09, 9E+09, 9E+09]], v30, z0, tNozzle, \Wobj := wobjFlatPlat;
		MoveJ [[5.137, 2.377, -0.200], [0.5798375, -0.1238355, -0.6961787, 0.4047079], [-1, 1, 1, 1], [9E+09, 9E+09, 9E+09, 9E+09, 9E+09, 9E+09]], v30, z0, tNozzle, \Wobj := wobjFlatPlat;
		MoveJ [[5.137, 2.377, 24.800], [0.5798375, -0.1238355, -0.6961787, 0.4047079], [-1, 1, 1, 1], [9E+09, 9E+09, 9E+09, 9E+09, 9E+09, 9E+09]], v30, z0, tNozzle, \Wobj := wobjFlatPlat;
		MoveJ [[4.850, 2.918, 24.800], [0.5570767, -0.0859635, -0.701862, 0.4355061], [-1, 1, 1, 1], [9E+09, 9E+09, 9E+09, 9E+09, 9E+09, 9E+09]], v30, z0, tNozzle, \Wobj := wobjFlatPlat;
		MoveJ [[4.850, 2.918, -0.200], [0.5570767, -0.0859635, -0.701862, 0.4355061], [-1, 1, 1, 1], [9E+09, 9E+09, 9E+09, 9E+09, 9E+09, 9E+09]], v30, z0, tNozzle, \Wobj := wobjFlatPlat;
		MoveJ [[4.506, 3.425, -0.200], [0.5326819, -0.0478394, -0.7054867, 0.4650269], [-1, 1, 1, 1], [9E+09, 9E+09, 9E+09, 9E+09, 9E+09, 9E+09]], v30, z0, tNozzle, \Wobj := wobjFlatPlat;
		MoveJ [[4.506, 3.425, 24.800], [0.5326819, -0.0478394, -0.7054867, 0.4650269], [-1, 1, 1, 1], [9E+09, 9E+09, 9E+09, 9E+09, 9E+09, 9E+09]], v30, z0, tNozzle, \Wobj := wobjFlatPlat;
		MoveJ [[4.109, 3.892, 24.800], [0.5067246, -0.0095749, -0.707042, 0.4931837], [-1, 1, 1, 1], [9E+09, 9E+09, 9E+09, 9E+09, 9E+09, 9E+09]], v30, z0, tNozzle, \Wobj := wobjFlatPlat;
		MoveJ [[4.109, 3.892, -0.200], [0.5067246, -0.0095749, -0.707042, 0.4931837], [-1, 1, 1, 1], [9E+09, 9E+09, 9E+09, 9E+09, 9E+09, 9E+09]], v30, z0, tNozzle, \Wobj := wobjFlatPlat;
		MoveJ [[3.664, 4.314, -0.200], [0.479281, 0.0287176, -0.7065234, 0.519894], [-1, 1, 1, 1], [9E+09, 9E+09, 9E+09, 9E+09, 9E+09, 9E+09]], v30, z0, tNozzle, \Wobj := wobjFlatPlat;
		MoveJ [[3.664, 4.314, 24.800], [0.479281, 0.0287176, -0.7065234, 0.519894], [-1, 1, 1, 1], [9E+09, 9E+09, 9E+09, 9E+09, 9E+09, 9E+09]], v30, z0, tNozzle, \Wobj := wobjFlatPlat;
		MoveJ [[3.176, 4.685, 24.800], [0.4504316, 0.0669259, -0.7039325, 0.5450792], [-1, 1, 1, 1], [9E+09, 9E+09, 9E+09, 9E+09, 9E+09, 9E+09]], v30, z0, tNozzle, \Wobj := wobjFlatPlat;
		MoveJ [[3.176, 4.685, -0.200], [0.4504316, 0.0669259, -0.7039325, 0.5450792], [-1, 1, 1, 1], [9E+09, 9E+09, 9E+09, 9E+09, 9E+09, 9E+09]], v30, z0, tNozzle, \Wobj := wobjFlatPlat;
		MoveJ [[2.651, 5.001, -0.200], [0.420261, 0.1049379, -0.6992768, 0.5686657], [-1, 1, 1, 1], [9E+09, 9E+09, 9E+09, 9E+09, 9E+09, 9E+09]], v30, z0, tNozzle, \Wobj := wobjFlatPlat;
		MoveJ [[2.651, 5.001, 24.800], [0.420261, 0.1049379, -0.6992768, 0.5686657], [-1, 1, 1, 1], [9E+09, 9E+09, 9E+09, 9E+09, 9E+09, 9E+09]], v30, z0, tNozzle, \Wobj := wobjFlatPlat;
		MoveJ [[2.095, 5.258, 24.800], [0.3888578, 0.1426421, -0.6925701, 0.5905842], [-1, 1, 1, 1], [9E+09, 9E+09, 9E+09, 9E+09, 9E+09, 9E+09]], v30, z0, tNozzle, \Wobj := wobjFlatPlat;
		MoveJ [[2.095, 5.258, -0.200], [0.3888578, 0.1426421, -0.6925701, 0.5905842], [-1, 1, 1, 1], [9E+09, 9E+09, 9E+09, 9E+09, 9E+09, 9E+09]], v30, z0, tNozzle, \Wobj := wobjFlatPlat;
		MoveJ [[1.514, 5.454, -0.200], [0.3563139, 0.1799278, -0.6838319, 0.6107704], [-1, 1, 1, 1], [9E+09, 9E+09, 9E+09, 9E+09, 9E+09, 9E+09]], v30, z0, tNozzle, \Wobj := wobjFlatPlat;
		MoveJ [[1.514, 5.454, 24.800], [0.3563139, 0.1799278, -0.6838319, 0.6107704], [-1, 1, 1, 1], [9E+09, 9E+09, 9E+09, 9E+09, 9E+09, 9E+09]], v30, z0, tNozzle, \Wobj := wobjFlatPlat;
		MoveJ [[0.916, 5.585, 24.800], [0.3227249, 0.2166859, -0.6730879, 0.6291651], [-1, 1, 1, 1], [9E+09, 9E+09, 9E+09, 9E+09, 9E+09, 9E+09]], v30, z0, tNozzle, \Wobj := wobjFlatPlat;
		MoveJ [[0.916, 5.585, -0.200], [0.3227249, 0.2166859, -0.6730879, 0.6291651], [-1, 1, 1, 1], [9E+09, 9E+09, 9E+09, 9E+09, 9E+09, 9E+09]], v30, z0, tNozzle, \Wobj := wobjFlatPlat;
		MoveJ [[0.306, 5.652, -0.200], [0.2881893, 0.2528083, -0.6603696, 0.6457143], [-1, 1, 1, 1], [9E+09, 9E+09, 9E+09, 9E+09, 9E+09, 9E+09]], v30, z0, tNozzle, \Wobj := wobjFlatPlat;
		MoveJ [[0.306, 5.652, 24.800], [0.2881893, 0.2528083, -0.6603696, 0.6457143], [-1, 1, 1, 1], [9E+09, 9E+09, 9E+09, 9E+09, 9E+09, 9E+09]], v30, z0, tNozzle, \Wobj := wobjFlatPlat;
		MoveJ [[-0.306, 5.652, 24.800], [0.2528083, 0.2881893, -0.6457143, 0.6603696], [-1, 1, 0, 1], [9E+09, 9E+09, 9E+09, 9E+09, 9E+09, 9E+09]], v30, z0, tNozzle, \Wobj := wobjFlatPlat;
		MoveJ [[-0.306, 5.652, -0.200], [0.2528083, 0.2881893, -0.6457143, 0.6603696], [-1, 1, 0, 1], [9E+09, 9E+09, 9E+09, 9E+09, 9E+09, 9E+09]], v30, z0, tNozzle, \Wobj := wobjFlatPlat;
		MoveJ [[-0.916, 5.585, -0.200], [0.2166859, 0.3227249, -0.6291651, 0.6730879], [-1, 1, 0, 1], [9E+09, 9E+09, 9E+09, 9E+09, 9E+09, 9E+09]], v30, z0, tNozzle, \Wobj := wobjFlatPlat;
		MoveJ [[-0.916, 5.585, 24.800], [0.2166859, 0.3227249, -0.6291651, 0.6730879], [-1, 1, 0, 1], [9E+09, 9E+09, 9E+09, 9E+09, 9E+09, 9E+09]], v30, z0, tNozzle, \Wobj := wobjFlatPlat;
		MoveJ [[-1.514, 5.454, 24.800], [0.1799278, 0.3563139, -0.6107704, 0.6838319], [-1, 1, 0, 1], [9E+09, 9E+09, 9E+09, 9E+09, 9E+09, 9E+09]], v30, z0, tNozzle, \Wobj := wobjFlatPlat;
		MoveJ [[-1.514, 5.454, -0.200], [0.1799278, 0.3563139, -0.6107704, 0.6838319], [-1, 1, 0, 1], [9E+09, 9E+09, 9E+09, 9E+09, 9E+09, 9E+09]], v30, z0, tNozzle, \Wobj := wobjFlatPlat;
		MoveJ [[-2.095, 5.258, -0.200], [0.1426421, 0.3888578, -0.5905842, 0.6925701], [-1, 1, 0, 1], [9E+09, 9E+09, 9E+09, 9E+09, 9E+09, 9E+09]], v30, z0, tNozzle, \Wobj := wobjFlatPlat;
		MoveJ [[-2.095, 5.258, 24.800], [0.1426421, 0.3888578, -0.5905842, 0.6925701], [-1, 1, 0, 1], [9E+09, 9E+09, 9E+09, 9E+09, 9E+09, 9E+09]], v30, z0, tNozzle, \Wobj := wobjFlatPlat;
		MoveJ [[-2.651, 5.001, 24.800], [0.1049379, 0.420261, -0.5686657, 0.6992768], [-1, 1, 0, 1], [9E+09, 9E+09, 9E+09, 9E+09, 9E+09, 9E+09]], v30, z0, tNozzle, \Wobj := wobjFlatPlat;
		MoveJ [[-2.651, 5.001, -0.200], [0.1049379, 0.420261, -0.5686657, 0.6992768], [-1, 1, 0, 1], [9E+09, 9E+09, 9E+09, 9E+09, 9E+09, 9E+09]], v30, z0, tNozzle, \Wobj := wobjFlatPlat;
		MoveJ [[-3.176, 4.685, -0.200], [0.0669259, 0.4504316, -0.5450792, 0.7039325], [-1, 1, 0, 1], [9E+09, 9E+09, 9E+09, 9E+09, 9E+09, 9E+09]], v30, z0, tNozzle, \Wobj := wobjFlatPlat;
		MoveJ [[-3.176, 4.685, 24.800], [0.0669259, 0.4504316, -0.5450792, 0.7039325], [-1, 1, 0, 1], [9E+09, 9E+09, 9E+09, 9E+09, 9E+09, 9E+09]], v30, z0, tNozzle, \Wobj := wobjFlatPlat;
		MoveJ [[-3.664, 4.314, 24.800], [0.0287176, 0.479281, -0.519894, 0.7065234], [-1, 1, 0, 1], [9E+09, 9E+09, 9E+09, 9E+09, 9E+09, 9E+09]], v30, z0, tNozzle, \Wobj := wobjFlatPlat;
		MoveJ [[-3.664, 4.314, -0.200], [0.0287176, 0.479281, -0.519894, 0.7065234], [-1, 1, 0, 1], [9E+09, 9E+09, 9E+09, 9E+09, 9E+09, 9E+09]], v30, z0, tNozzle, \Wobj := wobjFlatPlat;
		MoveJ [[-4.109, 3.892, -0.200], [-0.0095749, 0.5067246, -0.4931837, 0.707042], [-1, 1, 0, 1], [9E+09, 9E+09, 9E+09, 9E+09, 9E+09, 9E+09]], v30, z0, tNozzle, \Wobj := wobjFlatPlat;
		MoveJ [[-4.109, 3.892, 24.800], [-0.0095749, 0.5067246, -0.4931837, 0.707042], [-1, 1, 0, 1], [9E+09, 9E+09, 9E+09, 9E+09, 9E+09, 9E+09]], v30, z0, tNozzle, \Wobj := wobjFlatPlat;
		MoveJ [[-4.506, 3.425, 24.800], [-0.0478394, 0.5326819, -0.4650269, 0.7054867], [-1, 1, 0, 1], [9E+09, 9E+09, 9E+09, 9E+09, 9E+09, 9E+09]], v30, z0, tNozzle, \Wobj := wobjFlatPlat;
		MoveJ [[-4.506, 3.425, -0.200], [-0.0478394, 0.5326819, -0.4650269, 0.7054867], [-1, 1, 0, 1], [9E+09, 9E+09, 9E+09, 9E+09, 9E+09, 9E+09]], v30, z0, tNozzle, \Wobj := wobjFlatPlat;
		MoveJ [[-4.850, 2.918, -0.200], [-0.0859635, 0.5570767, -0.4355061, 0.701862], [-1, 1, 0, 1], [9E+09, 9E+09, 9E+09, 9E+09, 9E+09, 9E+09]], v30, z0, tNozzle, \Wobj := wobjFlatPlat;
		MoveJ [[-4.850, 2.918, 24.800], [-0.0859635, 0.5570767, -0.4355061, 0.701862], [-1, 1, 0, 1], [9E+09, 9E+09, 9E+09, 9E+09, 9E+09, 9E+09]], v30, z0, tNozzle, \Wobj := wobjFlatPlat;
		MoveJ [[-5.137, 2.377, 24.800], [-0.1238355, 0.5798375, -0.4047079, 0.6961787], [-1, 1, 0, 1], [9E+09, 9E+09, 9E+09, 9E+09, 9E+09, 9E+09]], v30, z0, tNozzle, \Wobj := wobjFlatPlat;
		MoveJ [[-5.137, 2.377, -0.200], [-0.1238355, 0.5798375, -0.4047079, 0.6961787], [-1, 1, 0, 1], [9E+09, 9E+09, 9E+09, 9E+09, 9E+09, 9E+09]], v30, z0, tNozzle, \Wobj := wobjFlatPlat;
		MoveJ [[-5.364, 1.807, -0.200], [-0.1613442, 0.6008976, -0.3727226, 0.6884534], [-1, 1, 0, 1], [9E+09, 9E+09, 9E+09, 9E+09, 9E+09, 9E+09]], v30, z0, tNozzle, \Wobj := wobjFlatPlat;
		MoveJ [[-5.364, 1.807, 24.800], [-0.1613442, 0.6008976, -0.3727226, 0.6884534], [-1, 1, 0, 1], [9E+09, 9E+09, 9E+09, 9E+09, 9E+09, 9E+09]], v30, z0, tNozzle, \Wobj := wobjFlatPlat;
		MoveJ [[-5.528, 1.217, 24.800], [-0.1983797, 0.6201951, -0.339644, 0.6787087], [-1, 1, 0, 1], [9E+09, 9E+09, 9E+09, 9E+09, 9E+09, 9E+09]], v30, z0, tNozzle, \Wobj := wobjFlatPlat;
		MoveJ [[-5.528, 1.217, -0.200], [-0.1983797, 0.6201951, -0.339644, 0.6787087], [-1, 1, 0, 1], [9E+09, 9E+09, 9E+09, 9E+09, 9E+09, 9E+09]], v30, z0, tNozzle, \Wobj := wobjFlatPlat;
		MoveJ [[-5.627, 0.612, -0.200], [-0.2348333, 0.6376735, -0.3055692, 0.6669733], [-1, 1, 0, 1], [9E+09, 9E+09, 9E+09, 9E+09, 9E+09, 9E+09]], v30, z0, tNozzle, \Wobj := wobjFlatPlat;
		MoveJ [[-5.627, 0.612, 24.800], [-0.2348333, 0.6376735, -0.3055692, 0.6669733], [-1, 1, 0, 1], [9E+09, 9E+09, 9E+09, 9E+09, 9E+09, 9E+09]], v30, z0, tNozzle, \Wobj := wobjFlatPlat;
		MoveJ [[-5.660, -0.000, 24.800], [-0.2705981, 0.6532815, -0.2705981, 0.6532815], [-1, 1, -1, 1], [9E+09, 9E+09, 9E+09, 9E+09, 9E+09, 9E+09]], v30, z0, tNozzle, \Wobj := wobjFlatPlat;
		MoveJ [[-5.660, -0.000, -0.200], [-0.2705981, 0.6532815, -0.2705981, 0.6532815], [-1, 1, -1, 1], [9E+09, 9E+09, 9E+09, 9E+09, 9E+09, 9E+09]], v30, z0, tNozzle, \Wobj := wobjFlatPlat;
		MoveJ [[-5.627, -0.612, -0.200], [-0.3055692, 0.6669733, -0.2348333, 0.6376735], [-1, 1, -1, 1], [9E+09, 9E+09, 9E+09, 9E+09, 9E+09, 9E+09]], v30, z0, tNozzle, \Wobj := wobjFlatPlat;
		MoveJ [[-5.627, -0.612, 24.800], [-0.3055692, 0.6669733, -0.2348333, 0.6376735], [-1, 1, -1, 1], [9E+09, 9E+09, 9E+09, 9E+09, 9E+09, 9E+09]], v30, z0, tNozzle, \Wobj := wobjFlatPlat;
		MoveJ [[-5.528, -1.217, 24.800], [-0.339644, 0.6787087, -0.1983797, 0.6201951], [-1, 1, -1, 1], [9E+09, 9E+09, 9E+09, 9E+09, 9E+09, 9E+09]], v30, z0, tNozzle, \Wobj := wobjFlatPlat;
		MoveJ [[-5.528, -1.217, -0.200], [-0.339644, 0.6787087, -0.1983797, 0.6201951], [-1, 1, -1, 1], [9E+09, 9E+09, 9E+09, 9E+09, 9E+09, 9E+09]], v30, z0, tNozzle, \Wobj := wobjFlatPlat;
		MoveJ [[-5.364, -1.807, -0.200], [-0.3727226, 0.6884534, -0.1613442, 0.6008976], [-1, 1, -1, 1], [9E+09, 9E+09, 9E+09, 9E+09, 9E+09, 9E+09]], v30, z0, tNozzle, \Wobj := wobjFlatPlat;
		MoveJ [[-5.364, -1.807, 24.800], [-0.3727226, 0.6884534, -0.1613442, 0.6008976], [-1, 1, -1, 1], [9E+09, 9E+09, 9E+09, 9E+09, 9E+09, 9E+09]], v30, z0, tNozzle, \Wobj := wobjFlatPlat;
		MoveJ [[-5.137, -2.377, 24.800], [-0.4047079, 0.6961787, -0.1238355, 0.5798375], [-1, 1, -1, 1], [9E+09, 9E+09, 9E+09, 9E+09, 9E+09, 9E+09]], v30, z0, tNozzle, \Wobj := wobjFlatPlat;
		MoveJ [[-5.137, -2.377, -0.200], [-0.4047079, 0.6961787, -0.1238355, 0.5798375], [-1, 1, -1, 1], [9E+09, 9E+09, 9E+09, 9E+09, 9E+09, 9E+09]], v30, z0, tNozzle, \Wobj := wobjFlatPlat;
		MoveJ [[-4.850, -2.918, -0.200], [-0.4355061, 0.701862, -0.0859635, 0.5570767], [-1, 1, -1, 1], [9E+09, 9E+09, 9E+09, 9E+09, 9E+09, 9E+09]], v30, z0, tNozzle, \Wobj := wobjFlatPlat;
		MoveJ [[-4.850, -2.918, 24.800], [-0.4355061, 0.701862, -0.0859635, 0.5570767], [-1, 1, -1, 1], [9E+09, 9E+09, 9E+09, 9E+09, 9E+09, 9E+09]], v30, z0, tNozzle, \Wobj := wobjFlatPlat;
		MoveJ [[-4.506, -3.425, 24.800], [-0.4650269, 0.7054867, -0.0478394, 0.5326819], [-1, 1, -1, 1], [9E+09, 9E+09, 9E+09, 9E+09, 9E+09, 9E+09]], v30, z0, tNozzle, \Wobj := wobjFlatPlat;
		MoveJ [[-4.506, -3.425, -0.200], [-0.4650269, 0.7054867, -0.0478394, 0.5326819], [-1, 1, -1, 1], [9E+09, 9E+09, 9E+09, 9E+09, 9E+09, 9E+09]], v30, z0, tNozzle, \Wobj := wobjFlatPlat;
		MoveJ [[-4.109, -3.892, -0.200], [-0.4931837, 0.707042, -0.0095749, 0.5067246], [-1, 1, -1, 1], [9E+09, 9E+09, 9E+09, 9E+09, 9E+09, 9E+09]], v30, z0, tNozzle, \Wobj := wobjFlatPlat;
		MoveJ [[-4.109, -3.892, 24.800], [-0.4931837, 0.707042, -0.0095749, 0.5067246], [-1, 1, -1, 1], [9E+09, 9E+09, 9E+09, 9E+09, 9E+09, 9E+09]], v30, z0, tNozzle, \Wobj := wobjFlatPlat;
		MoveJ [[-3.664, -4.314, 24.800], [-0.519894, 0.7065234, 0.0287176, 0.479281], [-1, 1, -1, 1], [9E+09, 9E+09, 9E+09, 9E+09, 9E+09, 9E+09]], v30, z0, tNozzle, \Wobj := wobjFlatPlat;
		MoveJ [[-3.664, -4.314, -0.200], [-0.519894, 0.7065234, 0.0287176, 0.479281], [-1, 1, -1, 1], [9E+09, 9E+09, 9E+09, 9E+09, 9E+09, 9E+09]], v30, z0, tNozzle, \Wobj := wobjFlatPlat;
		MoveJ [[-3.176, -4.685, -0.200], [-0.5450792, 0.7039325, 0.0669259, 0.4504316], [-1, 1, -1, 1], [9E+09, 9E+09, 9E+09, 9E+09, 9E+09, 9E+09]], v30, z0, tNozzle, \Wobj := wobjFlatPlat;
		MoveJ [[-3.176, -4.685, 24.800], [-0.5450792, 0.7039325, 0.0669259, 0.4504316], [-1, 1, -1, 1], [9E+09, 9E+09, 9E+09, 9E+09, 9E+09, 9E+09]], v30, z0, tNozzle, \Wobj := wobjFlatPlat;
		MoveJ [[-2.651, -5.001, 24.800], [-0.5686657, 0.6992768, 0.1049379, 0.420261], [-1, 1, -1, 1], [9E+09, 9E+09, 9E+09, 9E+09, 9E+09, 9E+09]], v30, z0, tNozzle, \Wobj := wobjFlatPlat;
		MoveJ [[-2.651, -5.001, -0.200], [-0.5686657, 0.6992768, 0.1049379, 0.420261], [-1, 1, -1, 1], [9E+09, 9E+09, 9E+09, 9E+09, 9E+09, 9E+09]], v30, z0, tNozzle, \Wobj := wobjFlatPlat;
		MoveJ [[-2.095, -5.258, -0.200], [-0.5905842, 0.6925701, 0.1426421, 0.3888578], [-1, 1, -1, 1], [9E+09, 9E+09, 9E+09, 9E+09, 9E+09, 9E+09]], v30, z0, tNozzle, \Wobj := wobjFlatPlat;
		MoveJ [[-2.095, -5.258, 24.800], [-0.5905842, 0.6925701, 0.1426421, 0.3888578], [-1, 1, -1, 1], [9E+09, 9E+09, 9E+09, 9E+09, 9E+09, 9E+09]], v30, z0, tNozzle, \Wobj := wobjFlatPlat;
		MoveJ [[-1.514, -5.454, 24.800], [-0.6107704, 0.6838319, 0.1799278, 0.3563139], [-1, 1, -1, 1], [9E+09, 9E+09, 9E+09, 9E+09, 9E+09, 9E+09]], v30, z0, tNozzle, \Wobj := wobjFlatPlat;
		MoveJ [[-1.514, -5.454, -0.200], [-0.6107704, 0.6838319, 0.1799278, 0.3563139], [-1, 1, -1, 1], [9E+09, 9E+09, 9E+09, 9E+09, 9E+09, 9E+09]], v30, z0, tNozzle, \Wobj := wobjFlatPlat;
		MoveJ [[-0.916, -5.585, -0.200], [-0.6291651, 0.6730879, 0.2166859, 0.3227249], [-1, 1, -1, 1], [9E+09, 9E+09, 9E+09, 9E+09, 9E+09, 9E+09]], v30, z0, tNozzle, \Wobj := wobjFlatPlat;
		MoveJ [[-0.916, -5.585, 24.800], [-0.6291651, 0.6730879, 0.2166859, 0.3227249], [-1, 1, -1, 1], [9E+09, 9E+09, 9E+09, 9E+09, 9E+09, 9E+09]], v30, z0, tNozzle, \Wobj := wobjFlatPlat;
		MoveJ [[-0.306, -5.652, 24.800], [-0.6457143, 0.6603696, 0.2528083, 0.2881893], [-1, 1, -1, 1], [9E+09, 9E+09, 9E+09, 9E+09, 9E+09, 9E+09]], v30, z0, tNozzle, \Wobj := wobjFlatPlat;
		MoveJ [[-0.306, -5.652, -0.200], [-0.6457143, 0.6603696, 0.2528083, 0.2881893], [-1, 1, -1, 1], [9E+09, 9E+09, 9E+09, 9E+09, 9E+09, 9E+09]], v30, z0, tNozzle, \Wobj := wobjFlatPlat;
		MoveJ [[0.306, -5.652, -0.200], [-0.6603696, 0.6457143, 0.2881893, 0.2528083], [-1, 1, -2, 1], [9E+09, 9E+09, 9E+09, 9E+09, 9E+09, 9E+09]], v30, z0, tNozzle, \Wobj := wobjFlatPlat;
		MoveJ [[0.306, -5.652, 24.800], [-0.6603696, 0.6457143, 0.2881893, 0.2528083], [-1, 1, -2, 1], [9E+09, 9E+09, 9E+09, 9E+09, 9E+09, 9E+09]], v30, z0, tNozzle, \Wobj := wobjFlatPlat;
		MoveJ [[0.916, -5.585, 24.800], [-0.6730879, 0.6291651, 0.3227249, 0.2166859], [-1, 1, -2, 1], [9E+09, 9E+09, 9E+09, 9E+09, 9E+09, 9E+09]], v30, z0, tNozzle, \Wobj := wobjFlatPlat;
		MoveJ [[0.916, -5.585, -0.200], [-0.6730879, 0.6291651, 0.3227249, 0.2166859], [-1, 1, -2, 1], [9E+09, 9E+09, 9E+09, 9E+09, 9E+09, 9E+09]], v30, z0, tNozzle, \Wobj := wobjFlatPlat;
		MoveJ [[1.514, -5.454, -0.200], [-0.6838319, 0.6107704, 0.3563139, 0.1799278], [-1, 1, -2, 1], [9E+09, 9E+09, 9E+09, 9E+09, 9E+09, 9E+09]], v30, z0, tNozzle, \Wobj := wobjFlatPlat;
		MoveJ [[1.514, -5.454, 24.800], [-0.6838319, 0.6107704, 0.3563139, 0.1799278], [-1, 1, -2, 1], [9E+09, 9E+09, 9E+09, 9E+09, 9E+09, 9E+09]], v30, z0, tNozzle, \Wobj := wobjFlatPlat;
		MoveJ [[2.095, -5.258, 24.800], [-0.6925701, 0.5905842, 0.3888578, 0.1426421], [-1, 1, -2, 1], [9E+09, 9E+09, 9E+09, 9E+09, 9E+09, 9E+09]], v30, z0, tNozzle, \Wobj := wobjFlatPlat;
		MoveJ [[2.095, -5.258, -0.200], [-0.6925701, 0.5905842, 0.3888578, 0.1426421], [-1, 1, -2, 1], [9E+09, 9E+09, 9E+09, 9E+09, 9E+09, 9E+09]], v30, z0, tNozzle, \Wobj := wobjFlatPlat;
		MoveJ [[2.651, -5.001, -0.200], [-0.6992768, 0.5686657, 0.420261, 0.1049379], [-1, 1, -2, 1], [9E+09, 9E+09, 9E+09, 9E+09, 9E+09, 9E+09]], v30, z0, tNozzle, \Wobj := wobjFlatPlat;
		MoveJ [[2.651, -5.001, 24.800], [-0.6992768, 0.5686657, 0.420261, 0.1049379], [-1, 1, -2, 1], [9E+09, 9E+09, 9E+09, 9E+09, 9E+09, 9E+09]], v30, z0, tNozzle, \Wobj := wobjFlatPlat;
		MoveJ [[3.176, -4.685, 24.800], [-0.7039325, 0.5450792, 0.4504316, 0.0669259], [-1, 1, -2, 1], [9E+09, 9E+09, 9E+09, 9E+09, 9E+09, 9E+09]], v30, z0, tNozzle, \Wobj := wobjFlatPlat;
		MoveJ [[3.176, -4.685, -0.200], [-0.7039325, 0.5450792, 0.4504316, 0.0669259], [-1, 1, -2, 1], [9E+09, 9E+09, 9E+09, 9E+09, 9E+09, 9E+09]], v30, z0, tNozzle, \Wobj := wobjFlatPlat;
		MoveJ [[3.664, -4.314, -0.200], [-0.7065234, 0.519894, 0.479281, 0.0287176], [-1, 1, -2, 1], [9E+09, 9E+09, 9E+09, 9E+09, 9E+09, 9E+09]], v30, z0, tNozzle, \Wobj := wobjFlatPlat;
		MoveJ [[3.664, -4.314, 24.800], [-0.7065234, 0.519894, 0.479281, 0.0287176], [-1, 1, -2, 1], [9E+09, 9E+09, 9E+09, 9E+09, 9E+09, 9E+09]], v30, z0, tNozzle, \Wobj := wobjFlatPlat;
		MoveJ [[4.109, -3.892, 24.800], [-0.707042, 0.4931837, 0.5067246, -0.0095749], [-1, 1, -2, 1], [9E+09, 9E+09, 9E+09, 9E+09, 9E+09, 9E+09]], v30, z0, tNozzle, \Wobj := wobjFlatPlat;
		MoveJ [[4.109, -3.892, -0.200], [-0.707042, 0.4931837, 0.5067246, -0.0095749], [-1, 1, -2, 1], [9E+09, 9E+09, 9E+09, 9E+09, 9E+09, 9E+09]], v30, z0, tNozzle, \Wobj := wobjFlatPlat;
		MoveJ [[4.506, -3.425, -0.200], [-0.7054867, 0.4650269, 0.5326819, -0.0478394], [-1, 1, -2, 1], [9E+09, 9E+09, 9E+09, 9E+09, 9E+09, 9E+09]], v30, z0, tNozzle, \Wobj := wobjFlatPlat;
		MoveJ [[4.506, -3.425, 24.800], [-0.7054867, 0.4650269, 0.5326819, -0.0478394], [-1, 1, -2, 1], [9E+09, 9E+09, 9E+09, 9E+09, 9E+09, 9E+09]], v30, z0, tNozzle, \Wobj := wobjFlatPlat;
		MoveJ [[4.850, -2.918, 24.800], [-0.701862, 0.4355061, 0.5570767, -0.0859635], [-1, 1, -2, 1], [9E+09, 9E+09, 9E+09, 9E+09, 9E+09, 9E+09]], v30, z0, tNozzle, \Wobj := wobjFlatPlat;
		MoveJ [[4.850, -2.918, -0.200], [-0.701862, 0.4355061, 0.5570767, -0.0859635], [-1, 1, -2, 1], [9E+09, 9E+09, 9E+09, 9E+09, 9E+09, 9E+09]], v30, z0, tNozzle, \Wobj := wobjFlatPlat;
		MoveJ [[5.137, -2.377, -0.200], [-0.6961787, 0.4047079, 0.5798375, -0.1238355], [-1, 1, -2, 1], [9E+09, 9E+09, 9E+09, 9E+09, 9E+09, 9E+09]], v30, z0, tNozzle, \Wobj := wobjFlatPlat;
		MoveJ [[5.137, -2.377, 24.800], [-0.6961787, 0.4047079, 0.5798375, -0.1238355], [-1, 1, -2, 1], [9E+09, 9E+09, 9E+09, 9E+09, 9E+09, 9E+09]], v30, z0, tNozzle, \Wobj := wobjFlatPlat;
		MoveJ [[5.364, -1.807, 24.800], [-0.6884534, 0.3727226, 0.6008976, -0.1613442], [-1, 1, -2, 1], [9E+09, 9E+09, 9E+09, 9E+09, 9E+09, 9E+09]], v30, z0, tNozzle, \Wobj := wobjFlatPlat;
		MoveJ [[5.364, -1.807, -0.200], [-0.6884534, 0.3727226, 0.6008976, -0.1613442], [-1, 1, -2, 1], [9E+09, 9E+09, 9E+09, 9E+09, 9E+09, 9E+09]], v30, z0, tNozzle, \Wobj := wobjFlatPlat;
		MoveJ [[5.528, -1.217, -0.200], [-0.6787087, 0.339644, 0.6201951, -0.1983797], [-1, 1, -2, 1], [9E+09, 9E+09, 9E+09, 9E+09, 9E+09, 9E+09]], v30, z0, tNozzle, \Wobj := wobjFlatPlat;
		MoveJ [[5.528, -1.217, 24.800], [-0.6787087, 0.339644, 0.6201951, -0.1983797], [-1, 1, -2, 1], [9E+09, 9E+09, 9E+09, 9E+09, 9E+09, 9E+09]], v30, z0, tNozzle, \Wobj := wobjFlatPlat;
		MoveJ [[5.627, -0.612, 24.800], [-0.6669733, 0.3055692, 0.6376735, -0.2348333], [-1, 1, -2, 1], [9E+09, 9E+09, 9E+09, 9E+09, 9E+09, 9E+09]], v30, z0, tNozzle, \Wobj := wobjFlatPlat;
		MoveJ [[5.627, -0.612, -0.200], [-0.6669733, 0.3055692, 0.6376735, -0.2348333], [-1, 1, -2, 1], [9E+09, 9E+09, 9E+09, 9E+09, 9E+09, 9E+09]], v30, z0, tNozzle, \Wobj := wobjFlatPlat;
		MoveJ [[5.660, -0.000, -0.200], [-0.6532815, 0.2705981, 0.6532815, -0.2705981], [-1, 1, -2, 1], [9E+09, 9E+09, 9E+09, 9E+09, 9E+09, 9E+09]], v30, z0, tNozzle, \Wobj := wobjFlatPlat;
		WaitRob \InPos;
		SetDO DO6_Between_Layer_Retract, 1;
		SetDO DO5_Program_Feed, 0;
		MoveJ [[15.660, -0.000, -0.200], [-0.6532815, 0.2705981, 0.6532815, -0.2705981], [-1, 1, -2, 1], [9E+09, 9E+09, 9E+09, 9E+09, 9E+09, 9E+09]], v30, z0, tNozzle, \Wobj := wobjFlatPlat;
		MoveJ [[15.660, 0.000, -0.200], [0.6532815, -0.2705981, -0.6532815, 0.2705981], [-1, 1, 1, 1], [9E+09, 9E+09, 9E+09, 9E+09, 9E+09, 9E+09]], v30, z0, tNozzle, \Wobj := wobjFlatPlat;

		! Base Grip layer number 2 of 25
		MoveJ [[15.760, 0.000, -0.200], [0.6532815, -0.2705981, -0.6532815, 0.2705981], [-1, 1, 1, 1], [9E+09, 9E+09, 9E+09, 9E+09, 9E+09, 9E+09]], v30, z0, tNozzle, \Wobj := wobjFlatPlat;
		MoveJ [[5.760, 0.000, -0.200], [0.6532815, -0.2705981, -0.6532815, 0.2705981], [-1, 1, 1, 1], [9E+09, 9E+09, 9E+09, 9E+09, 9E+09, 9E+09]], v30, z0, tNozzle, \Wobj := wobjFlatPlat;
		WaitRob \InPos;
		SetDO DO6_Between_Layer_Retract, 0;
		SetDO DO5_Program_Feed, 1;
		MoveJ [[5.760, 0.000, 21.644], [0.6532815, -0.2705981, -0.6532815, 0.2705981], [-1, 1, 1, 1], [9E+09, 9E+09, 9E+09, 9E+09, 9E+09, 9E+09]], v30, z0, tNozzle, \Wobj := wobjFlatPlat;
		MoveJ [[5.727, 0.612, 21.644], [0.6379538, -0.2354455, -0.6667574, 0.3049836], [-1, 1, 1, 1], [9E+09, 9E+09, 9E+09, 9E+09, 9E+09, 9E+09]], v30, z0, tNozzle, \Wobj := wobjFlatPlat;
		MoveJ [[5.727, 0.612, -0.200], [0.6379538, -0.2354455, -0.6667574, 0.3049836], [-1, 1, 1, 1], [9E+09, 9E+09, 9E+09, 9E+09, 9E+09, 9E+09]], v30, z0, tNozzle, \Wobj := wobjFlatPlat;
		MoveJ [[5.630, 1.218, -0.200], [0.6208177, -0.1996255, -0.6783433, 0.3385047], [-1, 1, 1, 1], [9E+09, 9E+09, 9E+09, 9E+09, 9E+09, 9E+09]], v30, z0, tNozzle, \Wobj := wobjFlatPlat;
		MoveJ [[5.630, 1.218, 21.644], [0.6208177, -0.1996255, -0.6783433, 0.3385047], [-1, 1, 1, 1], [9E+09, 9E+09, 9E+09, 9E+09, 9E+09, 9E+09]], v30, z0, tNozzle, \Wobj := wobjFlatPlat;
		MoveJ [[5.469, 1.809, 21.644], [0.6019219, -0.1632397, -0.6880064, 0.3710662], [-1, 1, 1, 1], [9E+09, 9E+09, 9E+09, 9E+09, 9E+09, 9E+09]], v30, z0, tNozzle, \Wobj := wobjFlatPlat;
		MoveJ [[5.469, 1.809, -0.200], [0.6019219, -0.1632397, -0.6880064, 0.3710662], [-1, 1, 1, 1], [9E+09, 9E+09, 9E+09, 9E+09, 9E+09, 9E+09]], v30, z0, tNozzle, \Wobj := wobjFlatPlat;
		MoveJ [[5.245, 2.380, -0.200], [0.5813198, -0.1263911, -0.6957193, 0.4025759], [-1, 1, 1, 1], [9E+09, 9E+09, 9E+09, 9E+09, 9E+09, 9E+09]], v30, z0, tNozzle, \Wobj := wobjFlatPlat;
		MoveJ [[5.245, 2.380, 21.644], [0.5813198, -0.1263911, -0.6957193, 0.4025759], [-1, 1, 1, 1], [9E+09, 9E+09, 9E+09, 9E+09, 9E+09, 9E+09]], v30, z0, tNozzle, \Wobj := wobjFlatPlat;
		MoveJ [[4.963, 2.924, 21.644], [0.5590699, -0.0891843, -0.7014601, 0.4329444], [-1, 1, 1, 1], [9E+09, 9E+09, 9E+09, 9E+09, 9E+09, 9E+09]], v30, z0, tNozzle, \Wobj := wobjFlatPlat;
		MoveJ [[4.963, 2.924, -0.200], [0.5590699, -0.0891843, -0.7014601, 0.4329444], [-1, 1, 1, 1], [9E+09, 9E+09, 9E+09, 9E+09, 9E+09, 9E+09]], v30, z0, tNozzle, \Wobj := wobjFlatPlat;
		MoveJ [[4.624, 3.435, -0.200], [0.5352353, -0.0517247, -0.7052125, 0.4620857], [-1, 1, 1, 1], [9E+09, 9E+09, 9E+09, 9E+09, 9E+09, 9E+09]], v30, z0, tNozzle, \Wobj := wobjFlatPlat;
		MoveJ [[4.624, 3.435, 21.644], [0.5352353, -0.0517247, -0.7052125, 0.4620857], [-1, 1, 1, 1], [9E+09, 9E+09, 9E+09, 9E+09, 9E+09, 9E+09]], v30, z0, tNozzle, \Wobj := wobjFlatPlat;
		MoveJ [[4.232, 3.907, 21.644], [0.5098835, -0.0141184, -0.7069659, 0.4899172], [-1, 1, 1, 1], [9E+09, 9E+09, 9E+09, 9E+09, 9E+09, 9E+09]], v30, z0, tNozzle, \Wobj := wobjFlatPlat;
		MoveJ [[4.232, 3.907, -0.200], [0.5098835, -0.0141184, -0.7069659, 0.4899172], [-1, 1, 1, 1], [9E+09, 9E+09, 9E+09, 9E+09, 9E+09, 9E+09]], v30, z0, tNozzle, \Wobj := wobjFlatPlat;
		MoveJ [[3.793, 4.335, -0.200], [0.4830864, 0.0235278, -0.7067153, 0.5163599], [-1, 1, 1, 1], [9E+09, 9E+09, 9E+09, 9E+09, 9E+09, 9E+09]], v30, z0, tNozzle, \Wobj := wobjFlatPlat;
		MoveJ [[3.793, 4.335, 21.644], [0.4830864, 0.0235278, -0.7067153, 0.5163599], [-1, 1, 1, 1], [9E+09, 9E+09, 9E+09, 9E+09, 9E+09, 9E+09]], v30, z0, tNozzle, \Wobj := wobjFlatPlat;
		MoveJ [[3.311, 4.713, 21.644], [0.4549199, 0.0611074, -0.7044614, 0.541339], [-1, 1, 1, 1], [9E+09, 9E+09, 9E+09, 9E+09, 9E+09, 9E+09]], v30, z0, tNozzle, \Wobj := wobjFlatPlat;
		MoveJ [[3.311, 4.713, -0.200], [0.4549199, 0.0611074, -0.7044614, 0.541339], [-1, 1, 1, 1], [9E+09, 9E+09, 9E+09, 9E+09, 9E+09, 9E+09]], v30, z0, tNozzle, \Wobj := wobjFlatPlat;
		MoveJ [[2.791, 5.039, -0.200], [0.4254639, 0.0985138, -0.7002107, 0.5647836], [-1, 1, 1, 1], [9E+09, 9E+09, 9E+09, 9E+09, 9E+09, 9E+09]], v30, z0, tNozzle, \Wobj := wobjFlatPlat;
		MoveJ [[2.791, 5.039, 21.644], [0.4254639, 0.0985138, -0.7002107, 0.5647836], [-1, 1, 1, 1], [9E+09, 9E+09, 9E+09, 9E+09, 9E+09, 9E+09]], v30, z0, tNozzle, \Wobj := wobjFlatPlat;
		MoveJ [[2.240, 5.307, 21.644], [0.3948019, 0.1356409, -0.6939752, 0.5866272], [-1, 1, 1, 1], [9E+09, 9E+09, 9E+09, 9E+09, 9E+09, 9E+09]], v30, z0, tNozzle, \Wobj := wobjFlatPlat;
		MoveJ [[2.240, 5.307, -0.200], [0.3948019, 0.1356409, -0.6939752, 0.5866272], [-1, 1, 1, 1], [9E+09, 9E+09, 9E+09, 9E+09, 9E+09, 9E+09]], v30, z0, tNozzle, \Wobj := wobjFlatPlat;
		MoveJ [[1.663, 5.515, -0.200], [0.3630208, 0.1723835, -0.6857725, 0.606808], [-1, 1, 1, 1], [9E+09, 9E+09, 9E+09, 9E+09, 9E+09, 9E+09]], v30, z0, tNozzle, \Wobj := wobjFlatPlat;
		MoveJ [[1.663, 5.515, 21.644], [0.3630208, 0.1723835, -0.6857725, 0.606808], [-1, 1, 1, 1], [9E+09, 9E+09, 9E+09, 9E+09, 9E+09, 9E+09]], v30, z0, tNozzle, \Wobj := wobjFlatPlat;
		MoveJ [[1.067, 5.660, 21.644], [0.3302106, 0.2086375, -0.675626, 0.6252687], [-1, 1, 1, 1], [9E+09, 9E+09, 9E+09, 9E+09, 9E+09, 9E+09]], v30, z0, tNozzle, \Wobj := wobjFlatPlat;
		MoveJ [[1.067, 5.660, -0.200], [0.3302106, 0.2086375, -0.675626, 0.6252687], [-1, 1, 1, 1], [9E+09, 9E+09, 9E+09, 9E+09, 9E+09, 9E+09]], v30, z0, tNozzle, \Wobj := wobjFlatPlat;
		MoveJ [[0.460, 5.742, -0.200], [0.2964645, 0.2443001, -0.6635643, 0.6419571], [-1, 1, 1, 1], [9E+09, 9E+09, 9E+09, 9E+09, 9E+09, 9E+09]], v30, z0, tNozzle, \Wobj := wobjFlatPlat;
		MoveJ [[0.460, 5.742, 21.644], [0.2964645, 0.2443001, -0.6635643, 0.6419571], [-1, 1, 1, 1], [9E+09, 9E+09, 9E+09, 9E+09, 9E+09, 9E+09]], v30, z0, tNozzle, \Wobj := wobjFlatPlat;
		MoveJ [[-0.153, 5.758, 21.644], [0.2618779, 0.2792702, -0.6496216, 0.6568257], [-1, 1, 0, 1], [9E+09, 9E+09, 9E+09, 9E+09, 9E+09, 9E+09]], v30, z0, tNozzle, \Wobj := wobjFlatPlat;
		MoveJ [[-0.153, 5.758, -0.200], [0.2618779, 0.2792702, -0.6496216, 0.6568257], [-1, 1, 0, 1], [9E+09, 9E+09, 9E+09, 9E+09, 9E+09, 9E+09]], v30, z0, tNozzle, \Wobj := wobjFlatPlat;
		MoveJ [[-0.764, 5.709, -0.200], [0.2265491, 0.3134486, -0.6338375, 0.6698325], [-1, 1, 0, 1], [9E+09, 9E+09, 9E+09, 9E+09, 9E+09, 9E+09]], v30, z0, tNozzle, \Wobj := wobjFlatPlat;
		MoveJ [[-0.764, 5.709, 21.644], [0.2265491, 0.3134486, -0.6338375, 0.6698325], [-1, 1, 0, 1], [9E+09, 9E+09, 9E+09, 9E+09, 9E+09, 9E+09]], v30, z0, tNozzle, \Wobj := wobjFlatPlat;
		MoveJ [[-1.367, 5.595, 21.644], [0.1905781, 0.3467386, -0.6162568, 0.6809406], [-1, 1, 0, 1], [9E+09, 9E+09, 9E+09, 9E+09, 9E+09, 9E+09]], v30, z0, tNozzle, \Wobj := wobjFlatPlat;
		MoveJ [[-1.367, 5.595, -0.200], [0.1905781, 0.3467386, -0.6162568, 0.6809406], [-1, 1, 0, 1], [9E+09, 9E+09, 9E+09, 9E+09, 9E+09, 9E+09]], v30, z0, tNozzle, \Wobj := wobjFlatPlat;
		MoveJ [[-1.954, 5.418, -0.200], [0.1540668, 0.3790457, -0.5969292, 0.6901184], [-1, 1, 0, 1], [9E+09, 9E+09, 9E+09, 9E+09, 9E+09, 9E+09]], v30, z0, tNozzle, \Wobj := wobjFlatPlat;
		MoveJ [[-1.954, 5.418, 21.644], [0.1540668, 0.3790457, -0.5969292, 0.6901184], [-1, 1, 0, 1], [9E+09, 9E+09, 9E+09, 9E+09, 9E+09, 9E+09]], v30, z0, tNozzle, \Wobj := wobjFlatPlat;
		MoveJ [[-2.519, 5.180, 21.644], [0.1171188, 0.4102783, -0.5759095, 0.6973401], [-1, 1, 0, 1], [9E+09, 9E+09, 9E+09, 9E+09, 9E+09, 9E+09]], v30, z0, tNozzle, \Wobj := wobjFlatPlat;
		MoveJ [[-2.519, 5.180, -0.200], [0.1171188, 0.4102783, -0.5759095, 0.6973401], [-1, 1, 0, 1], [9E+09, 9E+09, 9E+09, 9E+09, 9E+09, 9E+09]], v30, z0, tNozzle, \Wobj := wobjFlatPlat;
		MoveJ [[-3.055, 4.883, -0.200], [0.0798389, 0.440348, -0.5532573, 0.7025851], [-1, 1, 0, 1], [9E+09, 9E+09, 9E+09, 9E+09, 9E+09, 9E+09]], v30, z0, tNozzle, \Wobj := wobjFlatPlat;
		MoveJ [[-3.055, 4.883, 21.644], [0.0798389, 0.440348, -0.5532573, 0.7025851], [-1, 1, 0, 1], [9E+09, 9E+09, 9E+09, 9E+09, 9E+09, 9E+09]], v30, z0, tNozzle, \Wobj := wobjFlatPlat;
		MoveJ [[-3.557, 4.531, 21.644], [0.0423326, 0.4691694, -0.5290369, 0.7058385], [-1, 1, 0, 1], [9E+09, 9E+09, 9E+09, 9E+09, 9E+09, 9E+09]], v30, z0, tNozzle, \Wobj := wobjFlatPlat;
		MoveJ [[-3.557, 4.531, -0.200], [0.0423326, 0.4691694, -0.5290369, 0.7058385], [-1, 1, 0, 1], [9E+09, 9E+09, 9E+09, 9E+09, 9E+09, 9E+09]], v30, z0, tNozzle, \Wobj := wobjFlatPlat;
		MoveJ [[-4.018, 4.127, -0.200], [0.0047064, 0.496661, -0.5033169, 0.7070912], [-1, 1, 0, 1], [9E+09, 9E+09, 9E+09, 9E+09, 9E+09, 9E+09]], v30, z0, tNozzle, \Wobj := wobjFlatPlat;
		MoveJ [[-4.018, 4.127, 21.644], [0.0047064, 0.496661, -0.5033169, 0.7070912], [-1, 1, 0, 1], [9E+09, 9E+09, 9E+09, 9E+09, 9E+09, 9E+09]], v30, z0, tNozzle, \Wobj := wobjFlatPlat;
		MoveJ [[-4.434, 3.676, 21.644], [-0.0329332, 0.5227447, -0.4761702, 0.7063395], [-1, 1, 0, 1], [9E+09, 9E+09, 9E+09, 9E+09, 9E+09, 9E+09]], v30, z0, tNozzle, \Wobj := wobjFlatPlat;
		MoveJ [[-4.434, 3.676, -0.200], [-0.0329332, 0.5227447, -0.4761702, 0.7063395], [-1, 1, 0, 1], [9E+09, 9E+09, 9E+09, 9E+09, 9E+09, 9E+09]], v30, z0, tNozzle, \Wobj := wobjFlatPlat;
		MoveJ [[-4.800, 3.184, -0.200], [-0.0704795, 0.5473466, -0.4476737, 0.7035856], [-1, 1, 0, 1], [9E+09, 9E+09, 9E+09, 9E+09, 9E+09, 9E+09]], v30, z0, tNozzle, \Wobj := wobjFlatPlat;
		MoveJ [[-4.800, 3.184, 21.644], [-0.0704795, 0.5473466, -0.4476737, 0.7035856], [-1, 1, 0, 1], [9E+09, 9E+09, 9E+09, 9E+09, 9E+09, 9E+09]], v30, z0, tNozzle, \Wobj := wobjFlatPlat;
		MoveJ [[-5.111, 2.656, 21.644], [-0.1078259, 0.570397, -0.4179082, 0.6988373], [-1, 1, 0, 1], [9E+09, 9E+09, 9E+09, 9E+09, 9E+09, 9E+09]], v30, z0, tNozzle, \Wobj := wobjFlatPlat;
		MoveJ [[-5.111, 2.656, -0.200], [-0.1078259, 0.570397, -0.4179082, 0.6988373], [-1, 1, 0, 1], [9E+09, 9E+09, 9E+09, 9E+09, 9E+09, 9E+09]], v30, z0, tNozzle, \Wobj := wobjFlatPlat;
		MoveJ [[-5.364, 2.098, -0.200], [-0.1448668, 0.5918306, -0.3869582, 0.6921081], [-1, 1, 0, 1], [9E+09, 9E+09, 9E+09, 9E+09, 9E+09, 9E+09]], v30, z0, tNozzle, \Wobj := wobjFlatPlat;
		MoveJ [[-5.364, 2.098, 21.644], [-0.1448668, 0.5918306, -0.3869582, 0.6921081], [-1, 1, 0, 1], [9E+09, 9E+09, 9E+09, 9E+09, 9E+09, 9E+09]], v30, z0, tNozzle, \Wobj := wobjFlatPlat;
		MoveJ [[-5.557, 1.515, 21.644], [-0.1814969, 0.6115865, -0.3549112, 0.6834171], [-1, 1, 0, 1], [9E+09, 9E+09, 9E+09, 9E+09, 9E+09, 9E+09]], v30, z0, tNozzle, \Wobj := wobjFlatPlat;
		MoveJ [[-5.557, 1.515, -0.200], [-0.1814969, 0.6115865, -0.3549112, 0.6834171], [-1, 1, 0, 1], [9E+09, 9E+09, 9E+09, 9E+09, 9E+09, 9E+09]], v30, z0, tNozzle, \Wobj := wobjFlatPlat;
		MoveJ [[-5.687, 0.916, -0.200], [-0.2176126, 0.6296089, -0.3218582, 0.6727888], [-1, 1, 0, 1], [9E+09, 9E+09, 9E+09, 9E+09, 9E+09, 9E+09]], v30, z0, tNozzle, \Wobj := wobjFlatPlat;
		MoveJ [[-5.687, 0.916, 21.644], [-0.2176126, 0.6296089, -0.3218582, 0.6727888], [-1, 1, 0, 1], [9E+09, 9E+09, 9E+09, 9E+09, 9E+09, 9E+09]], v30, z0, tNozzle, \Wobj := wobjFlatPlat;
		MoveJ [[-5.752, 0.307, 21.644], [-0.2531115, 0.6458465, -0.2878929, 0.6602534], [-1, 1, 0, 1], [9E+09, 9E+09, 9E+09, 9E+09, 9E+09, 9E+09]], v30, z0, tNozzle, \Wobj := wobjFlatPlat;
		MoveJ [[-5.752, 0.307, -0.200], [-0.2531115, 0.6458465, -0.2878929, 0.6602534], [-1, 1, 0, 1], [9E+09, 9E+09, 9E+09, 9E+09, 9E+09, 9E+09]], v30, z0, tNozzle, \Wobj := wobjFlatPlat;
		MoveJ [[-5.752, -0.307, -0.200], [-0.2878929, 0.6602534, -0.2531115, 0.6458465], [-1, 1, -1, 1], [9E+09, 9E+09, 9E+09, 9E+09, 9E+09, 9E+09]], v30, z0, tNozzle, \Wobj := wobjFlatPlat;
		MoveJ [[-5.752, -0.307, 21.644], [-0.2878929, 0.6602534, -0.2531115, 0.6458465], [-1, 1, -1, 1], [9E+09, 9E+09, 9E+09, 9E+09, 9E+09, 9E+09]], v30, z0, tNozzle, \Wobj := wobjFlatPlat;
		MoveJ [[-5.687, -0.916, 21.644], [-0.3218582, 0.6727888, -0.2176126, 0.6296089], [-1, 1, -1, 1], [9E+09, 9E+09, 9E+09, 9E+09, 9E+09, 9E+09]], v30, z0, tNozzle, \Wobj := wobjFlatPlat;
		MoveJ [[-5.687, -0.916, -0.200], [-0.3218582, 0.6727888, -0.2176126, 0.6296089], [-1, 1, -1, 1], [9E+09, 9E+09, 9E+09, 9E+09, 9E+09, 9E+09]], v30, z0, tNozzle, \Wobj := wobjFlatPlat;
		MoveJ [[-5.557, -1.515, -0.200], [-0.3549112, 0.6834171, -0.1814969, 0.6115865], [-1, 1, -1, 1], [9E+09, 9E+09, 9E+09, 9E+09, 9E+09, 9E+09]], v30, z0, tNozzle, \Wobj := wobjFlatPlat;
		MoveJ [[-5.557, -1.515, 21.644], [-0.3549112, 0.6834171, -0.1814969, 0.6115865], [-1, 1, -1, 1], [9E+09, 9E+09, 9E+09, 9E+09, 9E+09, 9E+09]], v30, z0, tNozzle, \Wobj := wobjFlatPlat;
		MoveJ [[-5.364, -2.098, 21.644], [-0.3869582, 0.6921081, -0.1448668, 0.5918306], [-1, 1, -1, 1], [9E+09, 9E+09, 9E+09, 9E+09, 9E+09, 9E+09]], v30, z0, tNozzle, \Wobj := wobjFlatPlat;
		MoveJ [[-5.364, -2.098, -0.200], [-0.3869582, 0.6921081, -0.1448668, 0.5918306], [-1, 1, -1, 1], [9E+09, 9E+09, 9E+09, 9E+09, 9E+09, 9E+09]], v30, z0, tNozzle, \Wobj := wobjFlatPlat;
		MoveJ [[-5.111, -2.656, -0.200], [-0.4179082, 0.6988373, -0.1078259, 0.570397], [-1, 1, -1, 1], [9E+09, 9E+09, 9E+09, 9E+09, 9E+09, 9E+09]], v30, z0, tNozzle, \Wobj := wobjFlatPlat;
		MoveJ [[-5.111, -2.656, 21.644], [-0.4179082, 0.6988373, -0.1078259, 0.570397], [-1, 1, -1, 1], [9E+09, 9E+09, 9E+09, 9E+09, 9E+09, 9E+09]], v30, z0, tNozzle, \Wobj := wobjFlatPlat;
		MoveJ [[-4.800, -3.184, 21.644], [-0.4476737, 0.7035856, -0.0704795, 0.5473466], [-1, 1, -1, 1], [9E+09, 9E+09, 9E+09, 9E+09, 9E+09, 9E+09]], v30, z0, tNozzle, \Wobj := wobjFlatPlat;
		MoveJ [[-4.800, -3.184, -0.200], [-0.4476737, 0.7035856, -0.0704795, 0.5473466], [-1, 1, -1, 1], [9E+09, 9E+09, 9E+09, 9E+09, 9E+09, 9E+09]], v30, z0, tNozzle, \Wobj := wobjFlatPlat;
		MoveJ [[-4.434, -3.676, -0.200], [-0.4761702, 0.7063395, -0.0329332, 0.5227447], [-1, 1, -1, 1], [9E+09, 9E+09, 9E+09, 9E+09, 9E+09, 9E+09]], v30, z0, tNozzle, \Wobj := wobjFlatPlat;
		MoveJ [[-4.434, -3.676, 21.644], [-0.4761702, 0.7063395, -0.0329332, 0.5227447], [-1, 1, -1, 1], [9E+09, 9E+09, 9E+09, 9E+09, 9E+09, 9E+09]], v30, z0, tNozzle, \Wobj := wobjFlatPlat;
		MoveJ [[-4.018, -4.127, 21.644], [-0.5033169, 0.7070912, 0.0047064, 0.496661], [-1, 1, -1, 1], [9E+09, 9E+09, 9E+09, 9E+09, 9E+09, 9E+09]], v30, z0, tNozzle, \Wobj := wobjFlatPlat;
		MoveJ [[-4.018, -4.127, -0.200], [-0.5033169, 0.7070912, 0.0047064, 0.496661], [-1, 1, -1, 1], [9E+09, 9E+09, 9E+09, 9E+09, 9E+09, 9E+09]], v30, z0, tNozzle, \Wobj := wobjFlatPlat;
		MoveJ [[-3.557, -4.531, -0.200], [-0.5290369, 0.7058385, 0.0423326, 0.4691694], [-1, 1, -1, 1], [9E+09, 9E+09, 9E+09, 9E+09, 9E+09, 9E+09]], v30, z0, tNozzle, \Wobj := wobjFlatPlat;
		MoveJ [[-3.557, -4.531, 21.644], [-0.5290369, 0.7058385, 0.0423326, 0.4691694], [-1, 1, -1, 1], [9E+09, 9E+09, 9E+09, 9E+09, 9E+09, 9E+09]], v30, z0, tNozzle, \Wobj := wobjFlatPlat;
		MoveJ [[-3.055, -4.883, 21.644], [-0.5532573, 0.7025851, 0.0798389, 0.440348], [-1, 1, -1, 1], [9E+09, 9E+09, 9E+09, 9E+09, 9E+09, 9E+09]], v30, z0, tNozzle, \Wobj := wobjFlatPlat;
		MoveJ [[-3.055, -4.883, -0.200], [-0.5532573, 0.7025851, 0.0798389, 0.440348], [-1, 1, -1, 1], [9E+09, 9E+09, 9E+09, 9E+09, 9E+09, 9E+09]], v30, z0, tNozzle, \Wobj := wobjFlatPlat;
		MoveJ [[-2.519, -5.180, -0.200], [-0.5759095, 0.6973401, 0.1171188, 0.4102783], [-1, 1, -1, 1], [9E+09, 9E+09, 9E+09, 9E+09, 9E+09, 9E+09]], v30, z0, tNozzle, \Wobj := wobjFlatPlat;
		MoveJ [[-2.519, -5.180, 21.644], [-0.5759095, 0.6973401, 0.1171188, 0.4102783], [-1, 1, -1, 1], [9E+09, 9E+09, 9E+09, 9E+09, 9E+09, 9E+09]], v30, z0, tNozzle, \Wobj := wobjFlatPlat;
		MoveJ [[-1.954, -5.418, 21.644], [-0.5969292, 0.6901184, 0.1540668, 0.3790457], [-1, 1, -1, 1], [9E+09, 9E+09, 9E+09, 9E+09, 9E+09, 9E+09]], v30, z0, tNozzle, \Wobj := wobjFlatPlat;
		MoveJ [[-1.954, -5.418, -0.200], [-0.5969292, 0.6901184, 0.1540668, 0.3790457], [-1, 1, -1, 1], [9E+09, 9E+09, 9E+09, 9E+09, 9E+09, 9E+09]], v30, z0, tNozzle, \Wobj := wobjFlatPlat;
		MoveJ [[-1.367, -5.595, -0.200], [-0.6162568, 0.6809406, 0.1905781, 0.3467386], [-1, 1, -1, 1], [9E+09, 9E+09, 9E+09, 9E+09, 9E+09, 9E+09]], v30, z0, tNozzle, \Wobj := wobjFlatPlat;
		MoveJ [[-1.367, -5.595, 21.644], [-0.6162568, 0.6809406, 0.1905781, 0.3467386], [-1, 1, -1, 1], [9E+09, 9E+09, 9E+09, 9E+09, 9E+09, 9E+09]], v30, z0, tNozzle, \Wobj := wobjFlatPlat;
		MoveJ [[-0.764, -5.709, 21.644], [-0.6338375, 0.6698325, 0.2265491, 0.3134486], [-1, 1, -1, 1], [9E+09, 9E+09, 9E+09, 9E+09, 9E+09, 9E+09]], v30, z0, tNozzle, \Wobj := wobjFlatPlat;
		MoveJ [[-0.764, -5.709, -0.200], [-0.6338375, 0.6698325, 0.2265491, 0.3134486], [-1, 1, -1, 1], [9E+09, 9E+09, 9E+09, 9E+09, 9E+09, 9E+09]], v30, z0, tNozzle, \Wobj := wobjFlatPlat;
		MoveJ [[-0.153, -5.758, -0.200], [-0.6496216, 0.6568257, 0.2618779, 0.2792702], [-1, 1, -1, 1], [9E+09, 9E+09, 9E+09, 9E+09, 9E+09, 9E+09]], v30, z0, tNozzle, \Wobj := wobjFlatPlat;
		MoveJ [[-0.153, -5.758, 21.644], [-0.6496216, 0.6568257, 0.2618779, 0.2792702], [-1, 1, -1, 1], [9E+09, 9E+09, 9E+09, 9E+09, 9E+09, 9E+09]], v30, z0, tNozzle, \Wobj := wobjFlatPlat;
		MoveJ [[0.460, -5.742, 21.644], [-0.6635643, 0.6419571, 0.2964645, 0.2443001], [-1, 1, -2, 1], [9E+09, 9E+09, 9E+09, 9E+09, 9E+09, 9E+09]], v30, z0, tNozzle, \Wobj := wobjFlatPlat;
		MoveJ [[0.460, -5.742, -0.200], [-0.6635643, 0.6419571, 0.2964645, 0.2443001], [-1, 1, -2, 1], [9E+09, 9E+09, 9E+09, 9E+09, 9E+09, 9E+09]], v30, z0, tNozzle, \Wobj := wobjFlatPlat;
		MoveJ [[1.067, -5.660, -0.200], [-0.675626, 0.6252687, 0.3302106, 0.2086375], [-1, 1, -2, 1], [9E+09, 9E+09, 9E+09, 9E+09, 9E+09, 9E+09]], v30, z0, tNozzle, \Wobj := wobjFlatPlat;
		MoveJ [[1.067, -5.660, 21.644], [-0.675626, 0.6252687, 0.3302106, 0.2086375], [-1, 1, -2, 1], [9E+09, 9E+09, 9E+09, 9E+09, 9E+09, 9E+09]], v30, z0, tNozzle, \Wobj := wobjFlatPlat;
		MoveJ [[1.663, -5.515, 21.644], [-0.6857725, 0.606808, 0.3630208, 0.1723835], [-1, 1, -2, 1], [9E+09, 9E+09, 9E+09, 9E+09, 9E+09, 9E+09]], v30, z0, tNozzle, \Wobj := wobjFlatPlat;
		MoveJ [[1.663, -5.515, -0.200], [-0.6857725, 0.606808, 0.3630208, 0.1723835], [-1, 1, -2, 1], [9E+09, 9E+09, 9E+09, 9E+09, 9E+09, 9E+09]], v30, z0, tNozzle, \Wobj := wobjFlatPlat;
		MoveJ [[2.240, -5.307, -0.200], [-0.6939752, 0.5866272, 0.3948019, 0.1356409], [-1, 1, -2, 1], [9E+09, 9E+09, 9E+09, 9E+09, 9E+09, 9E+09]], v30, z0, tNozzle, \Wobj := wobjFlatPlat;
		MoveJ [[2.240, -5.307, 21.644], [-0.6939752, 0.5866272, 0.3948019, 0.1356409], [-1, 1, -2, 1], [9E+09, 9E+09, 9E+09, 9E+09, 9E+09, 9E+09]], v30, z0, tNozzle, \Wobj := wobjFlatPlat;
		MoveJ [[2.791, -5.039, 21.644], [-0.7002107, 0.5647836, 0.4254639, 0.0985138], [-1, 1, -2, 1], [9E+09, 9E+09, 9E+09, 9E+09, 9E+09, 9E+09]], v30, z0, tNozzle, \Wobj := wobjFlatPlat;
		MoveJ [[2.791, -5.039, -0.200], [-0.7002107, 0.5647836, 0.4254639, 0.0985138], [-1, 1, -2, 1], [9E+09, 9E+09, 9E+09, 9E+09, 9E+09, 9E+09]], v30, z0, tNozzle, \Wobj := wobjFlatPlat;
		MoveJ [[3.311, -4.713, -0.200], [-0.7044614, 0.541339, 0.4549199, 0.0611074], [-1, 1, -2, 1], [9E+09, 9E+09, 9E+09, 9E+09, 9E+09, 9E+09]], v30, z0, tNozzle, \Wobj := wobjFlatPlat;
		MoveJ [[3.311, -4.713, 21.644], [-0.7044614, 0.541339, 0.4549199, 0.0611074], [-1, 1, -2, 1], [9E+09, 9E+09, 9E+09, 9E+09, 9E+09, 9E+09]], v30, z0, tNozzle, \Wobj := wobjFlatPlat;
		MoveJ [[3.793, -4.335, 21.644], [-0.7067153, 0.5163599, 0.4830864, 0.0235278], [-1, 1, -2, 1], [9E+09, 9E+09, 9E+09, 9E+09, 9E+09, 9E+09]], v30, z0, tNozzle, \Wobj := wobjFlatPlat;
		MoveJ [[3.793, -4.335, -0.200], [-0.7067153, 0.5163599, 0.4830864, 0.0235278], [-1, 1, -2, 1], [9E+09, 9E+09, 9E+09, 9E+09, 9E+09, 9E+09]], v30, z0, tNozzle, \Wobj := wobjFlatPlat;
		MoveJ [[4.232, -3.907, -0.200], [-0.7069659, 0.4899172, 0.5098835, -0.0141184], [-1, 1, -2, 1], [9E+09, 9E+09, 9E+09, 9E+09, 9E+09, 9E+09]], v30, z0, tNozzle, \Wobj := wobjFlatPlat;
		MoveJ [[4.232, -3.907, 21.644], [-0.7069659, 0.4899172, 0.5098835, -0.0141184], [-1, 1, -2, 1], [9E+09, 9E+09, 9E+09, 9E+09, 9E+09, 9E+09]], v30, z0, tNozzle, \Wobj := wobjFlatPlat;
		MoveJ [[4.624, -3.435, 21.644], [-0.7052125, 0.4620857, 0.5352353, -0.0517247], [-1, 1, -2, 1], [9E+09, 9E+09, 9E+09, 9E+09, 9E+09, 9E+09]], v30, z0, tNozzle, \Wobj := wobjFlatPlat;
		MoveJ [[4.624, -3.435, -0.200], [-0.7052125, 0.4620857, 0.5352353, -0.0517247], [-1, 1, -2, 1], [9E+09, 9E+09, 9E+09, 9E+09, 9E+09, 9E+09]], v30, z0, tNozzle, \Wobj := wobjFlatPlat;
		MoveJ [[4.963, -2.924, -0.200], [-0.7014601, 0.4329444, 0.5590699, -0.0891843], [-1, 1, -2, 1], [9E+09, 9E+09, 9E+09, 9E+09, 9E+09, 9E+09]], v30, z0, tNozzle, \Wobj := wobjFlatPlat;
		MoveJ [[4.963, -2.924, 21.644], [-0.7014601, 0.4329444, 0.5590699, -0.0891843], [-1, 1, -2, 1], [9E+09, 9E+09, 9E+09, 9E+09, 9E+09, 9E+09]], v30, z0, tNozzle, \Wobj := wobjFlatPlat;
		MoveJ [[5.245, -2.380, 21.644], [-0.6957193, 0.4025759, 0.5813198, -0.1263911], [-1, 1, -2, 1], [9E+09, 9E+09, 9E+09, 9E+09, 9E+09, 9E+09]], v30, z0, tNozzle, \Wobj := wobjFlatPlat;
		MoveJ [[5.245, -2.380, -0.200], [-0.6957193, 0.4025759, 0.5813198, -0.1263911], [-1, 1, -2, 1], [9E+09, 9E+09, 9E+09, 9E+09, 9E+09, 9E+09]], v30, z0, tNozzle, \Wobj := wobjFlatPlat;
		MoveJ [[5.469, -1.809, -0.200], [-0.6880064, 0.3710662, 0.6019219, -0.1632397], [-1, 1, -2, 1], [9E+09, 9E+09, 9E+09, 9E+09, 9E+09, 9E+09]], v30, z0, tNozzle, \Wobj := wobjFlatPlat;
		MoveJ [[5.469, -1.809, 21.644], [-0.6880064, 0.3710662, 0.6019219, -0.1632397], [-1, 1, -2, 1], [9E+09, 9E+09, 9E+09, 9E+09, 9E+09, 9E+09]], v30, z0, tNozzle, \Wobj := wobjFlatPlat;
		MoveJ [[5.630, -1.218, 21.644], [-0.6783433, 0.3385047, 0.6208177, -0.1996255], [-1, 1, -2, 1], [9E+09, 9E+09, 9E+09, 9E+09, 9E+09, 9E+09]], v30, z0, tNozzle, \Wobj := wobjFlatPlat;
		MoveJ [[5.630, -1.218, -0.200], [-0.6783433, 0.3385047, 0.6208177, -0.1996255], [-1, 1, -2, 1], [9E+09, 9E+09, 9E+09, 9E+09, 9E+09, 9E+09]], v30, z0, tNozzle, \Wobj := wobjFlatPlat;
		MoveJ [[5.727, -0.612, -0.200], [-0.6667574, 0.3049836, 0.6379538, -0.2354455], [-1, 1, -2, 1], [9E+09, 9E+09, 9E+09, 9E+09, 9E+09, 9E+09]], v30, z0, tNozzle, \Wobj := wobjFlatPlat;
		MoveJ [[5.727, -0.612, 21.644], [-0.6667574, 0.3049836, 0.6379538, -0.2354455], [-1, 1, -2, 1], [9E+09, 9E+09, 9E+09, 9E+09, 9E+09, 9E+09]], v30, z0, tNozzle, \Wobj := wobjFlatPlat;
		MoveJ [[5.760, -0.000, 21.644], [-0.6532815, 0.2705981, 0.6532815, -0.2705981], [-1, 1, -2, 1], [9E+09, 9E+09, 9E+09, 9E+09, 9E+09, 9E+09]], v30, z0, tNozzle, \Wobj := wobjFlatPlat;
		WaitRob \InPos;
		SetDO DO6_Between_Layer_Retract, 1;
		SetDO DO5_Program_Feed, 0;
		MoveJ [[15.760, -0.000, 21.644], [-0.6532815, 0.2705981, 0.6532815, -0.2705981], [-1, 1, -2, 1], [9E+09, 9E+09, 9E+09, 9E+09, 9E+09, 9E+09]], v30, z0, tNozzle, \Wobj := wobjFlatPlat;
		MoveJ [[15.760, 0.000, 21.644], [0.6532815, -0.2705981, -0.6532815, 0.2705981], [-1, 1, 1, 1], [9E+09, 9E+09, 9E+09, 9E+09, 9E+09, 9E+09]], v30, z0, tNozzle, \Wobj := wobjFlatPlat;

		! Base Grip layer number 3 of 25
		MoveJ [[15.860, 0.000, -0.200], [0.6532815, -0.2705981, -0.6532815, 0.2705981], [-1, 1, 1, 1], [9E+09, 9E+09, 9E+09, 9E+09, 9E+09, 9E+09]], v30, z0, tNozzle, \Wobj := wobjFlatPlat;
		MoveJ [[5.860, 0.000, -0.200], [0.6532815, -0.2705981, -0.6532815, 0.2705981], [-1, 1, 1, 1], [9E+09, 9E+09, 9E+09, 9E+09, 9E+09, 9E+09]], v30, z0, tNozzle, \Wobj := wobjFlatPlat;
		WaitRob \InPos;
		SetDO DO6_Between_Layer_Retract, 0;
		SetDO DO5_Program_Feed, 1;
		MoveJ [[5.860, 0.000, 20.346], [0.6532815, -0.2705981, -0.6532815, 0.2705981], [-1, 1, 1, 1], [9E+09, 9E+09, 9E+09, 9E+09, 9E+09, 9E+09]], v30, z0, tNozzle, \Wobj := wobjFlatPlat;
		MoveJ [[5.828, 0.613, 20.346], [0.6382242, -0.2360371, -0.6665482, 0.3044174], [-1, 1, 1, 1], [9E+09, 9E+09, 9E+09, 9E+09, 9E+09, 9E+09]], v30, z0, tNozzle, \Wobj := wobjFlatPlat;
		MoveJ [[5.828, 0.613, -0.200], [0.6382242, -0.2360371, -0.6665482, 0.3044174], [-1, 1, 1, 1], [9E+09, 9E+09, 9E+09, 9E+09, 9E+09, 9E+09]], v30, z0, tNozzle, \Wobj := wobjFlatPlat;
		MoveJ [[5.732, 1.218, -0.200], [0.6214176, -0.2008292, -0.677988, 0.3374022], [-1, 1, 1, 1], [9E+09, 9E+09, 9E+09, 9E+09, 9E+09, 9E+09]], v30, z0, tNozzle, \Wobj := wobjFlatPlat;
		MoveJ [[5.732, 1.218, 20.346], [0.6214176, -0.2008292, -0.677988, 0.3374022], [-1, 1, 1, 1], [9E+09, 9E+09, 9E+09, 9E+09, 9E+09, 9E+09]], v30, z0, tNozzle, \Wobj := wobjFlatPlat;
		MoveJ [[5.573, 1.811, 20.346], [0.6029077, -0.1650708, -0.6875694, 0.3694623], [-1, 1, 1, 1], [9E+09, 9E+09, 9E+09, 9E+09, 9E+09, 9E+09]], v30, z0, tNozzle, \Wobj := wobjFlatPlat;
		MoveJ [[5.573, 1.811, -0.200], [0.6029077, -0.1650708, -0.6875694, 0.3694623], [-1, 1, 1, 1], [9E+09, 9E+09, 9E+09, 9E+09, 9E+09, 9E+09]], v30, z0, tNozzle, \Wobj := wobjFlatPlat;
		MoveJ [[5.353, 2.383, -0.200], [0.5827452, -0.12886, -0.6952662, 0.4005097], [-1, 1, 1, 1], [9E+09, 9E+09, 9E+09, 9E+09, 9E+09, 9E+09]], v30, z0, tNozzle, \Wobj := wobjFlatPlat;
		MoveJ [[5.353, 2.383, 20.346], [0.5827452, -0.12886, -0.6952662, 0.4005097], [-1, 1, 1, 1], [9E+09, 9E+09, 9E+09, 9E+09, 9E+09, 9E+09]], v30, z0, tNozzle, \Wobj := wobjFlatPlat;
		MoveJ [[5.075, 2.930, 20.346], [0.5609855, -0.092296, -0.7010574, 0.4304594], [-1, 1, 1, 1], [9E+09, 9E+09, 9E+09, 9E+09, 9E+09, 9E+09]], v30, z0, tNozzle, \Wobj := wobjFlatPlat;
		MoveJ [[5.075, 2.930, -0.200], [0.5609855, -0.092296, -0.7010574, 0.4304594], [-1, 1, 1, 1], [9E+09, 9E+09, 9E+09, 9E+09, 9E+09, 9E+09]], v30, z0, tNozzle, \Wobj := wobjFlatPlat;
		MoveJ [[4.741, 3.444, -0.200], [0.5376882, -0.055479, -0.704927, 0.4592292], [-1, 1, 1, 1], [9E+09, 9E+09, 9E+09, 9E+09, 9E+09, 9E+09]], v30, z0, tNozzle, \Wobj := wobjFlatPlat;
		MoveJ [[4.741, 3.444, 20.346], [0.5376882, -0.055479, -0.704927, 0.4592292], [-1, 1, 1, 1], [9E+09, 9E+09, 9E+09, 9E+09, 9E+09, 9E+09]], v30, z0, tNozzle, \Wobj := wobjFlatPlat;
		MoveJ [[4.355, 3.921, 20.346], [0.5129171, -0.0185099, -0.7068645, 0.4867402], [-1, 1, 1, 1], [9E+09, 9E+09, 9E+09, 9E+09, 9E+09, 9E+09]], v30, z0, tNozzle, \Wobj := wobjFlatPlat;
		MoveJ [[4.355, 3.921, -0.200], [0.5129171, -0.0185099, -0.7068645, 0.4867402], [-1, 1, 1, 1], [9E+09, 9E+09, 9E+09, 9E+09, 9E+09, 9E+09]], v30, z0, tNozzle, \Wobj := wobjFlatPlat;
		MoveJ [[3.921, 4.355, -0.200], [0.4867402, 0.0185099, -0.7068645, 0.5129172], [-1, 1, 1, 1], [9E+09, 9E+09, 9E+09, 9E+09, 9E+09, 9E+09]], v30, z0, tNozzle, \Wobj := wobjFlatPlat;
		MoveJ [[3.921, 4.355, 20.346], [0.4867402, 0.0185099, -0.7068645, 0.5129172], [-1, 1, 1, 1], [9E+09, 9E+09, 9E+09, 9E+09, 9E+09, 9E+09]], v30, z0, tNozzle, \Wobj := wobjFlatPlat;
		MoveJ [[3.444, 4.741, 20.346], [0.4592291, 0.0554789, -0.704927, 0.5376883], [-1, 1, 1, 1], [9E+09, 9E+09, 9E+09, 9E+09, 9E+09, 9E+09]], v30, z0, tNozzle, \Wobj := wobjFlatPlat;
		MoveJ [[3.444, 4.741, -0.200], [0.4592291, 0.0554789, -0.704927, 0.5376883], [-1, 1, 1, 1], [9E+09, 9E+09, 9E+09, 9E+09, 9E+09, 9E+09]], v30, z0, tNozzle, \Wobj := wobjFlatPlat;
		MoveJ [[2.930, 5.075, -0.200], [0.4304593, 0.0922959, -0.7010574, 0.5609856], [-1, 1, 1, 1], [9E+09, 9E+09, 9E+09, 9E+09, 9E+09, 9E+09]], v30, z0, tNozzle, \Wobj := wobjFlatPlat;
		MoveJ [[2.930, 5.075, 20.346], [0.4304593, 0.0922959, -0.7010574, 0.5609856], [-1, 1, 1, 1], [9E+09, 9E+09, 9E+09, 9E+09, 9E+09, 9E+09]], v30, z0, tNozzle, \Wobj := wobjFlatPlat;
		MoveJ [[2.383, 5.353, 20.346], [0.4005097, 0.1288599, -0.6952663, 0.5827453], [-1, 1, 1, 1], [9E+09, 9E+09, 9E+09, 9E+09, 9E+09, 9E+09]], v30, z0, tNozzle, \Wobj := wobjFlatPlat;
		MoveJ [[2.383, 5.353, -0.200], [0.4005097, 0.1288599, -0.6952663, 0.5827453], [-1, 1, 1, 1], [9E+09, 9E+09, 9E+09, 9E+09, 9E+09, 9E+09]], v30, z0, tNozzle, \Wobj := wobjFlatPlat;
		MoveJ [[1.811, 5.573, -0.200], [0.3694623, 0.1650708, -0.6875694, 0.6029077], [-1, 1, 1, 1], [9E+09, 9E+09, 9E+09, 9E+09, 9E+09, 9E+09]], v30, z0, tNozzle, \Wobj := wobjFlatPlat;
		MoveJ [[1.811, 5.573, 20.346], [0.3694623, 0.1650708, -0.6875694, 0.6029077], [-1, 1, 1, 1], [9E+09, 9E+09, 9E+09, 9E+09, 9E+09, 9E+09]], v30, z0, tNozzle, \Wobj := wobjFlatPlat;
		MoveJ [[1.218, 5.732, 20.346], [0.3374022, 0.2008291, -0.677988, 0.6214176], [-1, 1, 1, 1], [9E+09, 9E+09, 9E+09, 9E+09, 9E+09, 9E+09]], v30, z0, tNozzle, \Wobj := wobjFlatPlat;
		MoveJ [[1.218, 5.732, -0.200], [0.3374022, 0.2008291, -0.677988, 0.6214176], [-1, 1, 1, 1], [9E+09, 9E+09, 9E+09, 9E+09, 9E+09, 9E+09]], v30, z0, tNozzle, \Wobj := wobjFlatPlat;
		MoveJ [[0.613, 5.828, -0.200], [0.3044173, 0.2360371, -0.6665482, 0.6382242], [-1, 1, 1, 1], [9E+09, 9E+09, 9E+09, 9E+09, 9E+09, 9E+09]], v30, z0, tNozzle, \Wobj := wobjFlatPlat;
		MoveJ [[0.613, 5.828, 20.346], [0.3044173, 0.2360371, -0.6665482, 0.6382242], [-1, 1, 1, 1], [9E+09, 9E+09, 9E+09, 9E+09, 9E+09, 9E+09]], v30, z0, tNozzle, \Wobj := wobjFlatPlat;
		MoveJ [[0.000, 5.860, 20.346], [0.270598, 0.270598, -0.6532815, 0.6532815], [-1, 1, 0, 1], [9E+09, 9E+09, 9E+09, 9E+09, 9E+09, 9E+09]], v30, z0, tNozzle, \Wobj := wobjFlatPlat;
		MoveJ [[0.000, 5.860, -0.200], [0.270598, 0.270598, -0.6532815, 0.6532815], [-1, 1, 1, 1], [9E+09, 9E+09, 9E+09, 9E+09, 9E+09, 9E+09]], v30, z0, tNozzle, \Wobj := wobjFlatPlat;
		MoveJ [[-0.613, 5.828, -0.200], [0.2360371, 0.3044173, -0.6382242, 0.6665482], [-1, 1, 0, 1], [9E+09, 9E+09, 9E+09, 9E+09, 9E+09, 9E+09]], v30, z0, tNozzle, \Wobj := wobjFlatPlat;
		MoveJ [[-0.613, 5.828, 20.346], [0.2360371, 0.3044173, -0.6382242, 0.6665482], [-1, 1, 0, 1], [9E+09, 9E+09, 9E+09, 9E+09, 9E+09, 9E+09]], v30, z0, tNozzle, \Wobj := wobjFlatPlat;
		MoveJ [[-1.218, 5.732, 20.346], [0.2008291, 0.3374022, -0.6214176, 0.677988], [-1, 1, 0, 1], [9E+09, 9E+09, 9E+09, 9E+09, 9E+09, 9E+09]], v30, z0, tNozzle, \Wobj := wobjFlatPlat;
		MoveJ [[-1.218, 5.732, -0.200], [0.2008291, 0.3374022, -0.6214176, 0.677988], [-1, 1, 0, 1], [9E+09, 9E+09, 9E+09, 9E+09, 9E+09, 9E+09]], v30, z0, tNozzle, \Wobj := wobjFlatPlat;
		MoveJ [[-1.811, 5.573, -0.200], [0.1650708, 0.3694623, -0.6029077, 0.6875694], [-1, 1, 0, 1], [9E+09, 9E+09, 9E+09, 9E+09, 9E+09, 9E+09]], v30, z0, tNozzle, \Wobj := wobjFlatPlat;
		MoveJ [[-1.811, 5.573, 20.346], [0.1650708, 0.3694623, -0.6029077, 0.6875694], [-1, 1, 0, 1], [9E+09, 9E+09, 9E+09, 9E+09, 9E+09, 9E+09]], v30, z0, tNozzle, \Wobj := wobjFlatPlat;
		MoveJ [[-2.383, 5.353, 20.346], [0.1288599, 0.4005097, -0.5827453, 0.6952663], [-1, 1, 0, 1], [9E+09, 9E+09, 9E+09, 9E+09, 9E+09, 9E+09]], v30, z0, tNozzle, \Wobj := wobjFlatPlat;
		MoveJ [[-2.383, 5.353, -0.200], [0.1288599, 0.4005097, -0.5827453, 0.6952663], [-1, 1, 0, 1], [9E+09, 9E+09, 9E+09, 9E+09, 9E+09, 9E+09]], v30, z0, tNozzle, \Wobj := wobjFlatPlat;
		MoveJ [[-2.930, 5.075, -0.200], [0.0922959, 0.4304593, -0.5609856, 0.7010574], [-1, 1, 0, 1], [9E+09, 9E+09, 9E+09, 9E+09, 9E+09, 9E+09]], v30, z0, tNozzle, \Wobj := wobjFlatPlat;
		MoveJ [[-2.930, 5.075, 20.346], [0.0922959, 0.4304593, -0.5609856, 0.7010574], [-1, 1, 0, 1], [9E+09, 9E+09, 9E+09, 9E+09, 9E+09, 9E+09]], v30, z0, tNozzle, \Wobj := wobjFlatPlat;
		MoveJ [[-3.444, 4.741, 20.346], [0.0554789, 0.4592291, -0.5376883, 0.704927], [-1, 1, 0, 1], [9E+09, 9E+09, 9E+09, 9E+09, 9E+09, 9E+09]], v30, z0, tNozzle, \Wobj := wobjFlatPlat;
		MoveJ [[-3.444, 4.741, -0.200], [0.0554789, 0.4592291, -0.5376883, 0.704927], [-1, 1, 0, 1], [9E+09, 9E+09, 9E+09, 9E+09, 9E+09, 9E+09]], v30, z0, tNozzle, \Wobj := wobjFlatPlat;
		MoveJ [[-3.921, 4.355, -0.200], [0.0185099, 0.4867402, -0.5129172, 0.7068645], [-1, 1, 0, 1], [9E+09, 9E+09, 9E+09, 9E+09, 9E+09, 9E+09]], v30, z0, tNozzle, \Wobj := wobjFlatPlat;
		MoveJ [[-3.921, 4.355, 20.346], [0.0185099, 0.4867402, -0.5129172, 0.7068645], [-1, 1, 0, 1], [9E+09, 9E+09, 9E+09, 9E+09, 9E+09, 9E+09]], v30, z0, tNozzle, \Wobj := wobjFlatPlat;
		MoveJ [[-4.355, 3.921, 20.346], [-0.0185099, 0.5129171, -0.4867402, 0.7068645], [-1, 1, 0, 1], [9E+09, 9E+09, 9E+09, 9E+09, 9E+09, 9E+09]], v30, z0, tNozzle, \Wobj := wobjFlatPlat;
		MoveJ [[-4.355, 3.921, -0.200], [-0.0185099, 0.5129171, -0.4867402, 0.7068645], [-1, 1, 0, 1], [9E+09, 9E+09, 9E+09, 9E+09, 9E+09, 9E+09]], v30, z0, tNozzle, \Wobj := wobjFlatPlat;
		MoveJ [[-4.741, 3.444, -0.200], [-0.055479, 0.5376882, -0.4592292, 0.704927], [-1, 1, 0, 1], [9E+09, 9E+09, 9E+09, 9E+09, 9E+09, 9E+09]], v30, z0, tNozzle, \Wobj := wobjFlatPlat;
		MoveJ [[-4.741, 3.444, 20.346], [-0.055479, 0.5376882, -0.4592292, 0.704927], [-1, 1, 0, 1], [9E+09, 9E+09, 9E+09, 9E+09, 9E+09, 9E+09]], v30, z0, tNozzle, \Wobj := wobjFlatPlat;
		MoveJ [[-5.075, 2.930, 20.346], [-0.092296, 0.5609855, -0.4304594, 0.7010574], [-1, 1, 0, 1], [9E+09, 9E+09, 9E+09, 9E+09, 9E+09, 9E+09]], v30, z0, tNozzle, \Wobj := wobjFlatPlat;
		MoveJ [[-5.075, 2.930, -0.200], [-0.092296, 0.5609855, -0.4304594, 0.7010574], [-1, 1, 0, 1], [9E+09, 9E+09, 9E+09, 9E+09, 9E+09, 9E+09]], v30, z0, tNozzle, \Wobj := wobjFlatPlat;
		MoveJ [[-5.353, 2.383, -0.200], [-0.12886, 0.5827452, -0.4005097, 0.6952662], [-1, 1, 0, 1], [9E+09, 9E+09, 9E+09, 9E+09, 9E+09, 9E+09]], v30, z0, tNozzle, \Wobj := wobjFlatPlat;
		MoveJ [[-5.353, 2.383, 20.346], [-0.12886, 0.5827452, -0.4005097, 0.6952662], [-1, 1, 0, 1], [9E+09, 9E+09, 9E+09, 9E+09, 9E+09, 9E+09]], v30, z0, tNozzle, \Wobj := wobjFlatPlat;
		MoveJ [[-5.573, 1.811, 20.346], [-0.1650708, 0.6029077, -0.3694623, 0.6875694], [-1, 1, 0, 1], [9E+09, 9E+09, 9E+09, 9E+09, 9E+09, 9E+09]], v30, z0, tNozzle, \Wobj := wobjFlatPlat;
		MoveJ [[-5.573, 1.811, -0.200], [-0.1650708, 0.6029077, -0.3694623, 0.6875694], [-1, 1, 0, 1], [9E+09, 9E+09, 9E+09, 9E+09, 9E+09, 9E+09]], v30, z0, tNozzle, \Wobj := wobjFlatPlat;
		MoveJ [[-5.732, 1.218, -0.200], [-0.2008292, 0.6214176, -0.3374022, 0.677988], [-1, 1, 0, 1], [9E+09, 9E+09, 9E+09, 9E+09, 9E+09, 9E+09]], v30, z0, tNozzle, \Wobj := wobjFlatPlat;
		MoveJ [[-5.732, 1.218, 20.346], [-0.2008292, 0.6214176, -0.3374022, 0.677988], [-1, 1, 0, 1], [9E+09, 9E+09, 9E+09, 9E+09, 9E+09, 9E+09]], v30, z0, tNozzle, \Wobj := wobjFlatPlat;
		MoveJ [[-5.828, 0.613, 20.346], [-0.2360371, 0.6382242, -0.3044174, 0.6665482], [-1, 1, 0, 1], [9E+09, 9E+09, 9E+09, 9E+09, 9E+09, 9E+09]], v30, z0, tNozzle, \Wobj := wobjFlatPlat;
		MoveJ [[-5.828, 0.613, -0.200], [-0.2360371, 0.6382242, -0.3044174, 0.6665482], [-1, 1, 0, 1], [9E+09, 9E+09, 9E+09, 9E+09, 9E+09, 9E+09]], v30, z0, tNozzle, \Wobj := wobjFlatPlat;
		MoveJ [[-5.860, -0.000, -0.200], [-0.2705981, 0.6532815, -0.2705981, 0.6532815], [-1, 1, -1, 1], [9E+09, 9E+09, 9E+09, 9E+09, 9E+09, 9E+09]], v30, z0, tNozzle, \Wobj := wobjFlatPlat;
		MoveJ [[-5.860, -0.000, 20.346], [-0.2705981, 0.6532815, -0.2705981, 0.6532815], [-1, 1, -1, 1], [9E+09, 9E+09, 9E+09, 9E+09, 9E+09, 9E+09]], v30, z0, tNozzle, \Wobj := wobjFlatPlat;
		MoveJ [[-5.828, -0.613, 20.346], [-0.3044174, 0.6665482, -0.2360371, 0.6382242], [-1, 1, -1, 1], [9E+09, 9E+09, 9E+09, 9E+09, 9E+09, 9E+09]], v30, z0, tNozzle, \Wobj := wobjFlatPlat;
		MoveJ [[-5.828, -0.613, -0.200], [-0.3044174, 0.6665482, -0.2360371, 0.6382242], [-1, 1, -1, 1], [9E+09, 9E+09, 9E+09, 9E+09, 9E+09, 9E+09]], v30, z0, tNozzle, \Wobj := wobjFlatPlat;
		MoveJ [[-5.732, -1.218, -0.200], [-0.3374022, 0.677988, -0.2008292, 0.6214176], [-1, 1, -1, 1], [9E+09, 9E+09, 9E+09, 9E+09, 9E+09, 9E+09]], v30, z0, tNozzle, \Wobj := wobjFlatPlat;
		MoveJ [[-5.732, -1.218, 20.346], [-0.3374022, 0.677988, -0.2008292, 0.6214176], [-1, 1, -1, 1], [9E+09, 9E+09, 9E+09, 9E+09, 9E+09, 9E+09]], v30, z0, tNozzle, \Wobj := wobjFlatPlat;
		MoveJ [[-5.573, -1.811, 20.346], [-0.3694623, 0.6875694, -0.1650708, 0.6029077], [-1, 1, -1, 1], [9E+09, 9E+09, 9E+09, 9E+09, 9E+09, 9E+09]], v30, z0, tNozzle, \Wobj := wobjFlatPlat;
		MoveJ [[-5.573, -1.811, -0.200], [-0.3694623, 0.6875694, -0.1650708, 0.6029077], [-1, 1, -1, 1], [9E+09, 9E+09, 9E+09, 9E+09, 9E+09, 9E+09]], v30, z0, tNozzle, \Wobj := wobjFlatPlat;
		MoveJ [[-5.353, -2.383, -0.200], [-0.4005097, 0.6952662, -0.12886, 0.5827452], [-1, 1, -1, 1], [9E+09, 9E+09, 9E+09, 9E+09, 9E+09, 9E+09]], v30, z0, tNozzle, \Wobj := wobjFlatPlat;
		MoveJ [[-5.353, -2.383, 20.346], [-0.4005097, 0.6952662, -0.12886, 0.5827452], [-1, 1, -1, 1], [9E+09, 9E+09, 9E+09, 9E+09, 9E+09, 9E+09]], v30, z0, tNozzle, \Wobj := wobjFlatPlat;
		MoveJ [[-5.075, -2.930, 20.346], [-0.4304594, 0.7010574, -0.092296, 0.5609855], [-1, 1, -1, 1], [9E+09, 9E+09, 9E+09, 9E+09, 9E+09, 9E+09]], v30, z0, tNozzle, \Wobj := wobjFlatPlat;
		MoveJ [[-5.075, -2.930, -0.200], [-0.4304594, 0.7010574, -0.092296, 0.5609855], [-1, 1, -1, 1], [9E+09, 9E+09, 9E+09, 9E+09, 9E+09, 9E+09]], v30, z0, tNozzle, \Wobj := wobjFlatPlat;
		MoveJ [[-4.741, -3.444, -0.200], [-0.4592292, 0.704927, -0.055479, 0.5376882], [-1, 1, -1, 1], [9E+09, 9E+09, 9E+09, 9E+09, 9E+09, 9E+09]], v30, z0, tNozzle, \Wobj := wobjFlatPlat;
		MoveJ [[-4.741, -3.444, 20.346], [-0.4592292, 0.704927, -0.055479, 0.5376882], [-1, 1, -1, 1], [9E+09, 9E+09, 9E+09, 9E+09, 9E+09, 9E+09]], v30, z0, tNozzle, \Wobj := wobjFlatPlat;
		MoveJ [[-4.355, -3.921, 20.346], [-0.4867402, 0.7068645, -0.0185099, 0.5129171], [-1, 1, -1, 1], [9E+09, 9E+09, 9E+09, 9E+09, 9E+09, 9E+09]], v30, z0, tNozzle, \Wobj := wobjFlatPlat;
		MoveJ [[-4.355, -3.921, -0.200], [-0.4867402, 0.7068645, -0.0185099, 0.5129171], [-1, 1, -1, 1], [9E+09, 9E+09, 9E+09, 9E+09, 9E+09, 9E+09]], v30, z0, tNozzle, \Wobj := wobjFlatPlat;
		MoveJ [[-3.921, -4.355, -0.200], [-0.5129172, 0.7068645, 0.0185099, 0.4867402], [-1, 1, -1, 1], [9E+09, 9E+09, 9E+09, 9E+09, 9E+09, 9E+09]], v30, z0, tNozzle, \Wobj := wobjFlatPlat;
		MoveJ [[-3.921, -4.355, 20.346], [-0.5129172, 0.7068645, 0.0185099, 0.4867402], [-1, 1, -1, 1], [9E+09, 9E+09, 9E+09, 9E+09, 9E+09, 9E+09]], v30, z0, tNozzle, \Wobj := wobjFlatPlat;
		MoveJ [[-3.444, -4.741, 20.346], [-0.5376883, 0.704927, 0.0554789, 0.4592291], [-1, 1, -1, 1], [9E+09, 9E+09, 9E+09, 9E+09, 9E+09, 9E+09]], v30, z0, tNozzle, \Wobj := wobjFlatPlat;
		MoveJ [[-3.444, -4.741, -0.200], [-0.5376883, 0.704927, 0.0554789, 0.4592291], [-1, 1, -1, 1], [9E+09, 9E+09, 9E+09, 9E+09, 9E+09, 9E+09]], v30, z0, tNozzle, \Wobj := wobjFlatPlat;
		MoveJ [[-2.930, -5.075, -0.200], [-0.5609856, 0.7010574, 0.0922959, 0.4304593], [-1, 1, -1, 1], [9E+09, 9E+09, 9E+09, 9E+09, 9E+09, 9E+09]], v30, z0, tNozzle, \Wobj := wobjFlatPlat;
		MoveJ [[-2.930, -5.075, 20.346], [-0.5609856, 0.7010574, 0.0922959, 0.4304593], [-1, 1, -1, 1], [9E+09, 9E+09, 9E+09, 9E+09, 9E+09, 9E+09]], v30, z0, tNozzle, \Wobj := wobjFlatPlat;
		MoveJ [[-2.383, -5.353, 20.346], [-0.5827453, 0.6952663, 0.1288599, 0.4005097], [-1, 1, -1, 1], [9E+09, 9E+09, 9E+09, 9E+09, 9E+09, 9E+09]], v30, z0, tNozzle, \Wobj := wobjFlatPlat;
		MoveJ [[-2.383, -5.353, -0.200], [-0.5827453, 0.6952663, 0.1288599, 0.4005097], [-1, 1, -1, 1], [9E+09, 9E+09, 9E+09, 9E+09, 9E+09, 9E+09]], v30, z0, tNozzle, \Wobj := wobjFlatPlat;
		MoveJ [[-1.811, -5.573, -0.200], [-0.6029077, 0.6875694, 0.1650708, 0.3694623], [-1, 1, -1, 1], [9E+09, 9E+09, 9E+09, 9E+09, 9E+09, 9E+09]], v30, z0, tNozzle, \Wobj := wobjFlatPlat;
		MoveJ [[-1.811, -5.573, 20.346], [-0.6029077, 0.6875694, 0.1650708, 0.3694623], [-1, 1, -1, 1], [9E+09, 9E+09, 9E+09, 9E+09, 9E+09, 9E+09]], v30, z0, tNozzle, \Wobj := wobjFlatPlat;
		MoveJ [[-1.218, -5.732, 20.346], [-0.6214176, 0.677988, 0.2008291, 0.3374022], [-1, 1, -1, 1], [9E+09, 9E+09, 9E+09, 9E+09, 9E+09, 9E+09]], v30, z0, tNozzle, \Wobj := wobjFlatPlat;
		MoveJ [[-1.218, -5.732, -0.200], [-0.6214176, 0.677988, 0.2008291, 0.3374022], [-1, 1, -1, 1], [9E+09, 9E+09, 9E+09, 9E+09, 9E+09, 9E+09]], v30, z0, tNozzle, \Wobj := wobjFlatPlat;
		MoveJ [[-0.613, -5.828, -0.200], [-0.6382242, 0.6665482, 0.2360371, 0.3044173], [-1, 1, -1, 1], [9E+09, 9E+09, 9E+09, 9E+09, 9E+09, 9E+09]], v30, z0, tNozzle, \Wobj := wobjFlatPlat;
		MoveJ [[-0.613, -5.828, 20.346], [-0.6382242, 0.6665482, 0.2360371, 0.3044173], [-1, 1, -1, 1], [9E+09, 9E+09, 9E+09, 9E+09, 9E+09, 9E+09]], v30, z0, tNozzle, \Wobj := wobjFlatPlat;
		MoveJ [[-0.000, -5.860, 20.346], [-0.6532815, 0.6532815, 0.270598, 0.270598], [-1, 1, -2, 1], [9E+09, 9E+09, 9E+09, 9E+09, 9E+09, 9E+09]], v30, z0, tNozzle, \Wobj := wobjFlatPlat;
		MoveJ [[-0.000, -5.860, -0.200], [-0.6532815, 0.6532815, 0.270598, 0.270598], [-1, 1, -2, 1], [9E+09, 9E+09, 9E+09, 9E+09, 9E+09, 9E+09]], v30, z0, tNozzle, \Wobj := wobjFlatPlat;
		MoveJ [[0.613, -5.828, -0.200], [-0.6665482, 0.6382242, 0.3044173, 0.2360371], [-1, 1, -2, 1], [9E+09, 9E+09, 9E+09, 9E+09, 9E+09, 9E+09]], v30, z0, tNozzle, \Wobj := wobjFlatPlat;
		MoveJ [[0.613, -5.828, 20.346], [-0.6665482, 0.6382242, 0.3044173, 0.2360371], [-1, 1, -2, 1], [9E+09, 9E+09, 9E+09, 9E+09, 9E+09, 9E+09]], v30, z0, tNozzle, \Wobj := wobjFlatPlat;
		MoveJ [[1.218, -5.732, 20.346], [-0.677988, 0.6214176, 0.3374022, 0.2008291], [-1, 1, -2, 1], [9E+09, 9E+09, 9E+09, 9E+09, 9E+09, 9E+09]], v30, z0, tNozzle, \Wobj := wobjFlatPlat;
		MoveJ [[1.218, -5.732, -0.200], [-0.677988, 0.6214176, 0.3374022, 0.2008291], [-1, 1, -2, 1], [9E+09, 9E+09, 9E+09, 9E+09, 9E+09, 9E+09]], v30, z0, tNozzle, \Wobj := wobjFlatPlat;
		MoveJ [[1.811, -5.573, -0.200], [-0.6875694, 0.6029077, 0.3694623, 0.1650708], [-1, 1, -2, 1], [9E+09, 9E+09, 9E+09, 9E+09, 9E+09, 9E+09]], v30, z0, tNozzle, \Wobj := wobjFlatPlat;
		MoveJ [[1.811, -5.573, 20.346], [-0.6875694, 0.6029077, 0.3694623, 0.1650708], [-1, 1, -2, 1], [9E+09, 9E+09, 9E+09, 9E+09, 9E+09, 9E+09]], v30, z0, tNozzle, \Wobj := wobjFlatPlat;
		MoveJ [[2.383, -5.353, 20.346], [-0.6952663, 0.5827453, 0.4005097, 0.1288599], [-1, 1, -2, 1], [9E+09, 9E+09, 9E+09, 9E+09, 9E+09, 9E+09]], v30, z0, tNozzle, \Wobj := wobjFlatPlat;
		MoveJ [[2.383, -5.353, -0.200], [-0.6952663, 0.5827453, 0.4005097, 0.1288599], [-1, 1, -2, 1], [9E+09, 9E+09, 9E+09, 9E+09, 9E+09, 9E+09]], v30, z0, tNozzle, \Wobj := wobjFlatPlat;
		MoveJ [[2.930, -5.075, -0.200], [-0.7010574, 0.5609856, 0.4304593, 0.0922959], [-1, 1, -2, 1], [9E+09, 9E+09, 9E+09, 9E+09, 9E+09, 9E+09]], v30, z0, tNozzle, \Wobj := wobjFlatPlat;
		MoveJ [[2.930, -5.075, 20.346], [-0.7010574, 0.5609856, 0.4304593, 0.0922959], [-1, 1, -2, 1], [9E+09, 9E+09, 9E+09, 9E+09, 9E+09, 9E+09]], v30, z0, tNozzle, \Wobj := wobjFlatPlat;
		MoveJ [[3.444, -4.741, 20.346], [-0.704927, 0.5376883, 0.4592291, 0.0554789], [-1, 1, -2, 1], [9E+09, 9E+09, 9E+09, 9E+09, 9E+09, 9E+09]], v30, z0, tNozzle, \Wobj := wobjFlatPlat;
		MoveJ [[3.444, -4.741, -0.200], [-0.704927, 0.5376883, 0.4592291, 0.0554789], [-1, 1, -2, 1], [9E+09, 9E+09, 9E+09, 9E+09, 9E+09, 9E+09]], v30, z0, tNozzle, \Wobj := wobjFlatPlat;
		MoveJ [[3.921, -4.355, -0.200], [-0.7068645, 0.5129172, 0.4867402, 0.0185099], [-1, 1, -2, 1], [9E+09, 9E+09, 9E+09, 9E+09, 9E+09, 9E+09]], v30, z0, tNozzle, \Wobj := wobjFlatPlat;
		MoveJ [[3.921, -4.355, 20.346], [-0.7068645, 0.5129172, 0.4867402, 0.0185099], [-1, 1, -2, 1], [9E+09, 9E+09, 9E+09, 9E+09, 9E+09, 9E+09]], v30, z0, tNozzle, \Wobj := wobjFlatPlat;
		MoveJ [[4.355, -3.921, 20.346], [-0.7068645, 0.4867402, 0.5129171, -0.0185099], [-1, 1, -2, 1], [9E+09, 9E+09, 9E+09, 9E+09, 9E+09, 9E+09]], v30, z0, tNozzle, \Wobj := wobjFlatPlat;
		MoveJ [[4.355, -3.921, -0.200], [-0.7068645, 0.4867402, 0.5129171, -0.0185099], [-1, 1, -2, 1], [9E+09, 9E+09, 9E+09, 9E+09, 9E+09, 9E+09]], v30, z0, tNozzle, \Wobj := wobjFlatPlat;
		MoveJ [[4.741, -3.444, -0.200], [-0.704927, 0.4592292, 0.5376882, -0.055479], [-1, 1, -2, 1], [9E+09, 9E+09, 9E+09, 9E+09, 9E+09, 9E+09]], v30, z0, tNozzle, \Wobj := wobjFlatPlat;
		MoveJ [[4.741, -3.444, 20.346], [-0.704927, 0.4592292, 0.5376882, -0.055479], [-1, 1, -2, 1], [9E+09, 9E+09, 9E+09, 9E+09, 9E+09, 9E+09]], v30, z0, tNozzle, \Wobj := wobjFlatPlat;
		MoveJ [[5.075, -2.930, 20.346], [-0.7010574, 0.4304594, 0.5609855, -0.092296], [-1, 1, -2, 1], [9E+09, 9E+09, 9E+09, 9E+09, 9E+09, 9E+09]], v30, z0, tNozzle, \Wobj := wobjFlatPlat;
		MoveJ [[5.075, -2.930, -0.200], [-0.7010574, 0.4304594, 0.5609855, -0.092296], [-1, 1, -2, 1], [9E+09, 9E+09, 9E+09, 9E+09, 9E+09, 9E+09]], v30, z0, tNozzle, \Wobj := wobjFlatPlat;
		MoveJ [[5.353, -2.383, -0.200], [-0.6952662, 0.4005097, 0.5827452, -0.12886], [-1, 1, -2, 1], [9E+09, 9E+09, 9E+09, 9E+09, 9E+09, 9E+09]], v30, z0, tNozzle, \Wobj := wobjFlatPlat;
		MoveJ [[5.353, -2.383, 20.346], [-0.6952662, 0.4005097, 0.5827452, -0.12886], [-1, 1, -2, 1], [9E+09, 9E+09, 9E+09, 9E+09, 9E+09, 9E+09]], v30, z0, tNozzle, \Wobj := wobjFlatPlat;
		MoveJ [[5.573, -1.811, 20.346], [-0.6875694, 0.3694623, 0.6029077, -0.1650708], [-1, 1, -2, 1], [9E+09, 9E+09, 9E+09, 9E+09, 9E+09, 9E+09]], v30, z0, tNozzle, \Wobj := wobjFlatPlat;
		MoveJ [[5.573, -1.811, -0.200], [-0.6875694, 0.3694623, 0.6029077, -0.1650708], [-1, 1, -2, 1], [9E+09, 9E+09, 9E+09, 9E+09, 9E+09, 9E+09]], v30, z0, tNozzle, \Wobj := wobjFlatPlat;
		MoveJ [[5.732, -1.218, -0.200], [-0.677988, 0.3374022, 0.6214176, -0.2008292], [-1, 1, -2, 1], [9E+09, 9E+09, 9E+09, 9E+09, 9E+09, 9E+09]], v30, z0, tNozzle, \Wobj := wobjFlatPlat;
		MoveJ [[5.732, -1.218, 20.346], [-0.677988, 0.3374022, 0.6214176, -0.2008292], [-1, 1, -2, 1], [9E+09, 9E+09, 9E+09, 9E+09, 9E+09, 9E+09]], v30, z0, tNozzle, \Wobj := wobjFlatPlat;
		MoveJ [[5.828, -0.613, 20.346], [-0.6665482, 0.3044174, 0.6382242, -0.2360371], [-1, 1, -2, 1], [9E+09, 9E+09, 9E+09, 9E+09, 9E+09, 9E+09]], v30, z0, tNozzle, \Wobj := wobjFlatPlat;
		MoveJ [[5.828, -0.613, -0.200], [-0.6665482, 0.3044174, 0.6382242, -0.2360371], [-1, 1, -2, 1], [9E+09, 9E+09, 9E+09, 9E+09, 9E+09, 9E+09]], v30, z0, tNozzle, \Wobj := wobjFlatPlat;
		MoveJ [[5.860, -0.000, -0.200], [-0.6532815, 0.2705981, 0.6532815, -0.2705981], [-1, 1, -2, 1], [9E+09, 9E+09, 9E+09, 9E+09, 9E+09, 9E+09]], v30, z0, tNozzle, \Wobj := wobjFlatPlat;
		WaitRob \InPos;
		SetDO DO6_Between_Layer_Retract, 1;
		SetDO DO5_Program_Feed, 0;
		MoveJ [[15.860, -0.000, -0.200], [-0.6532815, 0.2705981, 0.6532815, -0.2705981], [-1, 1, -2, 1], [9E+09, 9E+09, 9E+09, 9E+09, 9E+09, 9E+09]], v30, z0, tNozzle, \Wobj := wobjFlatPlat;
		MoveJ [[15.860, 0.000, -0.200], [0.6532815, -0.2705981, -0.6532815, 0.2705981], [-1, 1, 1, 1], [9E+09, 9E+09, 9E+09, 9E+09, 9E+09, 9E+09]], v30, z0, tNozzle, \Wobj := wobjFlatPlat;

		! Base Grip layer number 4 of 25
		MoveJ [[15.960, 0.000, -0.200], [0.6532815, -0.2705981, -0.6532815, 0.2705981], [-1, 1, 1, 1], [9E+09, 9E+09, 9E+09, 9E+09, 9E+09, 9E+09]], v30, z0, tNozzle, \Wobj := wobjFlatPlat;
		MoveJ [[5.960, 0.000, -0.200], [0.6532815, -0.2705981, -0.6532815, 0.2705981], [-1, 1, 1, 1], [9E+09, 9E+09, 9E+09, 9E+09, 9E+09, 9E+09]], v30, z0, tNozzle, \Wobj := wobjFlatPlat;
		WaitRob \InPos;
		SetDO DO6_Between_Layer_Retract, 0;
		SetDO DO5_Program_Feed, 1;
		MoveJ [[5.960, 0.000, 19.356], [0.6532815, -0.2705981, -0.6532815, 0.2705981], [-1, 1, 1, 1], [9E+09, 9E+09, 9E+09, 9E+09, 9E+09, 9E+09]], v30, z0, tNozzle, \Wobj := wobjFlatPlat;
		MoveJ [[5.928, 0.613, 19.356], [0.6384853, -0.2366092, -0.6663454, 0.3038694], [-1, 1, 1, 1], [9E+09, 9E+09, 9E+09, 9E+09, 9E+09, 9E+09]], v30, z0, tNozzle, \Wobj := wobjFlatPlat;
		MoveJ [[5.928, 0.613, -0.200], [0.6384853, -0.2366092, -0.6663454, 0.3038694], [-1, 1, 1, 1], [9E+09, 9E+09, 9E+09, 9E+09, 9E+09, 9E+09]], v30, z0, tNozzle, \Wobj := wobjFlatPlat;
		MoveJ [[5.834, 1.219, -0.200], [0.6219959, -0.2019928, -0.6776422, 0.336335], [-1, 1, 1, 1], [9E+09, 9E+09, 9E+09, 9E+09, 9E+09, 9E+09]], v30, z0, tNozzle, \Wobj := wobjFlatPlat;
		MoveJ [[5.834, 1.219, 19.356], [0.6219959, -0.2019928, -0.6776422, 0.336335], [-1, 1, 1, 1], [9E+09, 9E+09, 9E+09, 9E+09, 9E+09, 9E+09]], v30, z0, tNozzle, \Wobj := wobjFlatPlat;
		MoveJ [[5.678, 1.813, 19.356], [0.603857, -0.1668408, -0.687142, 0.3679086], [-1, 1, 1, 1], [9E+09, 9E+09, 9E+09, 9E+09, 9E+09, 9E+09]], v30, z0, tNozzle, \Wobj := wobjFlatPlat;
		MoveJ [[5.678, 1.813, -0.200], [0.603857, -0.1668408, -0.687142, 0.3679086], [-1, 1, 1, 1], [9E+09, 9E+09, 9E+09, 9E+09, 9E+09, 9E+09]], v30, z0, tNozzle, \Wobj := wobjFlatPlat;
		MoveJ [[5.461, 2.387, -0.200], [0.5841169, -0.1312464, -0.6948197, 0.3985066], [-1, 1, 1, 1], [9E+09, 9E+09, 9E+09, 9E+09, 9E+09, 9E+09]], v30, z0, tNozzle, \Wobj := wobjFlatPlat;
		MoveJ [[5.461, 2.387, 19.356], [0.5841169, -0.1312464, -0.6948197, 0.3985066], [-1, 1, 1, 1], [9E+09, 9E+09, 9E+09, 9E+09, 9E+09, 9E+09]], v30, z0, tNozzle, \Wobj := wobjFlatPlat;
		MoveJ [[5.187, 2.936, 19.356], [0.5628278, -0.0953039, -0.7006548, 0.4280478], [-1, 1, 1, 1], [9E+09, 9E+09, 9E+09, 9E+09, 9E+09, 9E+09]], v30, z0, tNozzle, \Wobj := wobjFlatPlat;
		MoveJ [[5.187, 2.936, -0.200], [0.5628278, -0.0953039, -0.7006548, 0.4280478], [-1, 1, 1, 1], [9E+09, 9E+09, 9E+09, 9E+09, 9E+09, 9E+09]], v30, z0, tNozzle, \Wobj := wobjFlatPlat;
		MoveJ [[4.858, 3.453, -0.200], [0.5400462, -0.0591087, -0.704632, 0.4564539], [-1, 1, 1, 1], [9E+09, 9E+09, 9E+09, 9E+09, 9E+09, 9E+09]], v30, z0, tNozzle, \Wobj := wobjFlatPlat;
		MoveJ [[4.858, 3.453, 19.356], [0.5400462, -0.0591087, -0.704632, 0.4564539], [-1, 1, 1, 1], [9E+09, 9E+09, 9E+09, 9E+09, 9E+09, 9E+09]], v30, z0, tNozzle, \Wobj := wobjFlatPlat;
		MoveJ [[4.477, 3.935, 19.356], [0.5158324, -0.0227568, -0.7067405, 0.4836496], [-1, 1, 1, 1], [9E+09, 9E+09, 9E+09, 9E+09, 9E+09, 9E+09]], v30, z0, tNozzle, \Wobj := wobjFlatPlat;
		MoveJ [[4.477, 3.935, -0.200], [0.5158324, -0.0227568, -0.7067405, 0.4836496], [-1, 1, 1, 1], [9E+09, 9E+09, 9E+09, 9E+09, 9E+09, 9E+09]], v30, z0, tNozzle, \Wobj := wobjFlatPlat;
		MoveJ [[4.048, 4.374, -0.200], [0.4902508, 0.0136555, -0.7069749, 0.5095627], [-1, 1, 1, 1], [9E+09, 9E+09, 9E+09, 9E+09, 9E+09, 9E+09]], v30, z0, tNozzle, \Wobj := wobjFlatPlat;
		MoveJ [[4.048, 4.374, 19.356], [0.4902508, 0.0136555, -0.7069749, 0.5095627], [-1, 1, 1, 1], [9E+09, 9E+09, 9E+09, 9E+09, 9E+09, 9E+09]], v30, z0, tNozzle, \Wobj := wobjFlatPlat;
		MoveJ [[3.577, 4.767, 19.356], [0.4633691, 0.0500316, -0.7053346, 0.5341246], [-1, 1, 1, 1], [9E+09, 9E+09, 9E+09, 9E+09, 9E+09, 9E+09]], v30, z0, tNozzle, \Wobj := wobjFlatPlat;
		MoveJ [[3.577, 4.767, -0.200], [0.4633691, 0.0500316, -0.7053346, 0.5341246], [-1, 1, 1, 1], [9E+09, 9E+09, 9E+09, 9E+09, 9E+09, 9E+09]], v30, z0, tNozzle, \Wobj := wobjFlatPlat;
		MoveJ [[3.068, 5.110, -0.200], [0.4352587, 0.086275, -0.7018238, 0.5572701], [-1, 1, 1, 1], [9E+09, 9E+09, 9E+09, 9E+09, 9E+09, 9E+09]], v30, z0, tNozzle, \Wobj := wobjFlatPlat;
		MoveJ [[3.068, 5.110, 19.356], [0.4352587, 0.086275, -0.7018238, 0.5572701], [-1, 1, 1, 1], [9E+09, 9E+09, 9E+09, 9E+09, 9E+09, 9E+09]], v30, z0, tNozzle, \Wobj := wobjFlatPlat;
		MoveJ [[2.527, 5.398, 19.356], [0.405994, 0.1222896, -0.6964519, 0.5789378], [-1, 1, 1, 1], [9E+09, 9E+09, 9E+09, 9E+09, 9E+09, 9E+09]], v30, z0, tNozzle, \Wobj := wobjFlatPlat;
		MoveJ [[2.527, 5.398, -0.200], [0.405994, 0.1222896, -0.6964519, 0.5789378], [-1, 1, 1, 1], [9E+09, 9E+09, 9E+09, 9E+09, 9E+09, 9E+09]], v30, z0, tNozzle, \Wobj := wobjFlatPlat;
		MoveJ [[1.958, 5.629, -0.200], [0.3756527, 0.15798, -0.6892332, 0.5990702], [-1, 1, 1, 1], [9E+09, 9E+09, 9E+09, 9E+09, 9E+09, 9E+09]], v30, z0, tNozzle, \Wobj := wobjFlatPlat;
		MoveJ [[1.958, 5.629, 19.356], [0.3756527, 0.15798, -0.6892332, 0.5990702], [-1, 1, 1, 1], [9E+09, 9E+09, 9E+09, 9E+09, 9E+09, 9E+09]], v30, z0, tNozzle, \Wobj := wobjFlatPlat;
		MoveJ [[1.369, 5.801, 19.356], [0.3443152, 0.1932514, -0.6801867, 0.617614], [-1, 1, 1, 1], [9E+09, 9E+09, 9E+09, 9E+09, 9E+09, 9E+09]], v30, z0, tNozzle, \Wobj := wobjFlatPlat;
		MoveJ [[1.369, 5.801, -0.200], [0.3443152, 0.1932514, -0.6801867, 0.617614], [-1, 1, 1, 1], [9E+09, 9E+09, 9E+09, 9E+09, 9E+09, 9E+09]], v30, z0, tNozzle, \Wobj := wobjFlatPlat;
		MoveJ [[0.765, 5.911, -0.200], [0.3120647, 0.2280103, -0.6693365, 0.63452], [-1, 1, 1, 1], [9E+09, 9E+09, 9E+09, 9E+09, 9E+09, 9E+09]], v30, z0, tNozzle, \Wobj := wobjFlatPlat;
		MoveJ [[0.765, 5.911, 19.356], [0.3120647, 0.2280103, -0.6693365, 0.63452], [-1, 1, 1, 1], [9E+09, 9E+09, 9E+09, 9E+09, 9E+09, 9E+09]], v30, z0, tNozzle, \Wobj := wobjFlatPlat;
		MoveJ [[0.153, 5.958, 19.356], [0.2789866, 0.2621646, -0.6567113, 0.6497434], [-1, 1, 1, 1], [9E+09, 9E+09, 9E+09, 9E+09, 9E+09, 9E+09]], v30, z0, tNozzle, \Wobj := wobjFlatPlat;
		MoveJ [[0.153, 5.958, -0.200], [0.2789866, 0.2621646, -0.6567113, 0.6497434], [-1, 1, 1, 1], [9E+09, 9E+09, 9E+09, 9E+09, 9E+09, 9E+09]], v30, z0, tNozzle, \Wobj := wobjFlatPlat;
		MoveJ [[-0.460, 5.942, -0.200], [0.2451687, 0.2956237, -0.6423447, 0.6632438], [-1, 1, 0, 1], [9E+09, 9E+09, 9E+09, 9E+09, 9E+09, 9E+09]], v30, z0, tNozzle, \Wobj := wobjFlatPlat;
		MoveJ [[-0.460, 5.942, 19.356], [0.2451687, 0.2956237, -0.6423447, 0.6632438], [-1, 1, 0, 1], [9E+09, 9E+09, 9E+09, 9E+09, 9E+09, 9E+09]], v30, z0, tNozzle, \Wobj := wobjFlatPlat;
		MoveJ [[-1.069, 5.863, 19.356], [0.2107007, 0.3282988, -0.6262747, 0.6749854], [-1, 1, 0, 1], [9E+09, 9E+09, 9E+09, 9E+09, 9E+09, 9E+09]], v30, z0, tNozzle, \Wobj := wobjFlatPlat;
		MoveJ [[-1.069, 5.863, -0.200], [0.2107007, 0.3282988, -0.6262747, 0.6749854], [-1, 1, 0, 1], [9E+09, 9E+09, 9E+09, 9E+09, 9E+09, 9E+09]], v30, z0, tNozzle, \Wobj := wobjFlatPlat;
		MoveJ [[-1.666, 5.722, -0.200], [0.1756739, 0.3601033, -0.6085439, 0.684937], [-1, 1, 0, 1], [9E+09, 9E+09, 9E+09, 9E+09, 9E+09, 9E+09]], v30, z0, tNozzle, \Wobj := wobjFlatPlat;
		MoveJ [[-1.666, 5.722, 19.356], [0.1756739, 0.3601033, -0.6085439, 0.684937], [-1, 1, 0, 1], [9E+09, 9E+09, 9E+09, 9E+09, 9E+09, 9E+09]], v30, z0, tNozzle, \Wobj := wobjFlatPlat;
		MoveJ [[-2.245, 5.521, 19.356], [0.1401813, 0.390953, -0.5891993, 0.6930723], [-1, 1, 0, 1], [9E+09, 9E+09, 9E+09, 9E+09, 9E+09, 9E+09]], v30, z0, tNozzle, \Wobj := wobjFlatPlat;
		MoveJ [[-2.245, 5.521, -0.200], [0.1401813, 0.390953, -0.5891993, 0.6930723], [-1, 1, 0, 1], [9E+09, 9E+09, 9E+09, 9E+09, 9E+09, 9E+09]], v30, z0, tNozzle, \Wobj := wobjFlatPlat;
		MoveJ [[-2.801, 5.261, -0.200], [0.1043169, 0.4207658, -0.5682923, 0.6993697], [-1, 1, 0, 1], [9E+09, 9E+09, 9E+09, 9E+09, 9E+09, 9E+09]], v30, z0, tNozzle, \Wobj := wobjFlatPlat;
		MoveJ [[-2.801, 5.261, 19.356], [0.1043169, 0.4207658, -0.5682923, 0.6993697], [-1, 1, 0, 1], [9E+09, 9E+09, 9E+09, 9E+09, 9E+09, 9E+09]], v30, z0, tNozzle, \Wobj := wobjFlatPlat;
		MoveJ [[-3.327, 4.945, 19.356], [0.0681759, 0.4494629, -0.5458783, 0.7038125], [-1, 1, 0, 1], [9E+09, 9E+09, 9E+09, 9E+09, 9E+09, 9E+09]], v30, z0, tNozzle, \Wobj := wobjFlatPlat;
		MoveJ [[-3.327, 4.945, -0.200], [0.0681759, 0.4494629, -0.5458783, 0.7038125], [-1, 1, 0, 1], [9E+09, 9E+09, 9E+09, 9E+09, 9E+09, 9E+09]], v30, z0, tNozzle, \Wobj := wobjFlatPlat;
		MoveJ [[-3.818, 4.577, -0.200], [0.0318541, 0.4769681, -0.5220167, 0.706389], [-1, 1, 0, 1], [9E+09, 9E+09, 9E+09, 9E+09, 9E+09, 9E+09]], v30, z0, tNozzle, \Wobj := wobjFlatPlat;
		MoveJ [[-3.818, 4.577, 19.356], [0.0318541, 0.4769681, -0.5220167, 0.706389], [-1, 1, 0, 1], [9E+09, 9E+09, 9E+09, 9E+09, 9E+09, 9E+09]], v30, z0, tNozzle, \Wobj := wobjFlatPlat;
		MoveJ [[-4.268, 4.160, 19.356], [-0.0045521, 0.5032085, -0.4967709, 0.7070922], [-1, 1, 0, 1], [9E+09, 9E+09, 9E+09, 9E+09, 9E+09, 9E+09]], v30, z0, tNozzle, \Wobj := wobjFlatPlat;
		MoveJ [[-4.268, 4.160, -0.200], [-0.0045521, 0.5032085, -0.4967709, 0.7070922], [-1, 1, 0, 1], [9E+09, 9E+09, 9E+09, 9E+09, 9E+09, 9E+09]], v30, z0, tNozzle, \Wobj := wobjFlatPlat;
		MoveJ [[-4.673, 3.699, -0.200], [-0.0409463, 0.5281144, -0.4702077, 0.7059203], [-1, 1, 0, 1], [9E+09, 9E+09, 9E+09, 9E+09, 9E+09, 9E+09]], v30, z0, tNozzle, \Wobj := wobjFlatPlat;
		MoveJ [[-4.673, 3.699, 19.356], [-0.0409463, 0.5281144, -0.4702077, 0.7059203], [-1, 1, 0, 1], [9E+09, 9E+09, 9E+09, 9E+09, 9E+09, 9E+09]], v30, z0, tNozzle, \Wobj := wobjFlatPlat;
		MoveJ [[-5.029, 3.199, 19.356], [-0.0772319, 0.5516199, -0.4423975, 0.7028764], [-1, 1, 0, 1], [9E+09, 9E+09, 9E+09, 9E+09, 9E+09, 9E+09]], v30, z0, tNozzle, \Wobj := wobjFlatPlat;
		MoveJ [[-5.029, 3.199, -0.200], [-0.0772319, 0.5516199, -0.4423975, 0.7028764], [-1, 1, 0, 1], [9E+09, 9E+09, 9E+09, 9E+09, 9E+09, 9E+09]], v30, z0, tNozzle, \Wobj := wobjFlatPlat;
		MoveJ [[-5.331, 2.665, -0.200], [-0.1133127, 0.5736625, -0.4134142, 0.6979687], [-1, 1, 0, 1], [9E+09, 9E+09, 9E+09, 9E+09, 9E+09, 9E+09]], v30, z0, tNozzle, \Wobj := wobjFlatPlat;
		MoveJ [[-5.331, 2.665, 19.356], [-0.1133127, 0.5736625, -0.4134142, 0.6979687], [-1, 1, 0, 1], [9E+09, 9E+09, 9E+09, 9E+09, 9E+09, 9E+09]], v30, z0, tNozzle, \Wobj := wobjFlatPlat;
		MoveJ [[-5.577, 2.102, 19.356], [-0.1490931, 0.594184, -0.3833347, 0.69121], [-1, 1, 0, 1], [9E+09, 9E+09, 9E+09, 9E+09, 9E+09, 9E+09]], v30, z0, tNozzle, \Wobj := wobjFlatPlat;
		MoveJ [[-5.577, 2.102, -0.200], [-0.1490931, 0.594184, -0.3833347, 0.69121], [-1, 1, 0, 1], [9E+09, 9E+09, 9E+09, 9E+09, 9E+09, 9E+09]], v30, z0, tNozzle, \Wobj := wobjFlatPlat;
		MoveJ [[-5.763, 1.518, -0.200], [-0.184478, 0.6131297, -0.3522385, 0.6826184], [-1, 1, 0, 1], [9E+09, 9E+09, 9E+09, 9E+09, 9E+09, 9E+09]], v30, z0, tNozzle, \Wobj := wobjFlatPlat;
		MoveJ [[-5.763, 1.518, 19.356], [-0.184478, 0.6131297, -0.3522385, 0.6826184], [-1, 1, 0, 1], [9E+09, 9E+09, 9E+09, 9E+09, 9E+09, 9E+09]], v30, z0, tNozzle, \Wobj := wobjFlatPlat;
		MoveJ [[-5.889, 0.917, 19.356], [-0.2193737, 0.6304496, -0.3202083, 0.6722166], [-1, 1, 0, 1], [9E+09, 9E+09, 9E+09, 9E+09, 9E+09, 9E+09]], v30, z0, tNozzle, \Wobj := wobjFlatPlat;
		MoveJ [[-5.889, 0.917, -0.200], [-0.2193737, 0.6304496, -0.3202083, 0.6722166], [-1, 1, 0, 1], [9E+09, 9E+09, 9E+09, 9E+09, 9E+09, 9E+09]], v30, z0, tNozzle, \Wobj := wobjFlatPlat;
		MoveJ [[-5.952, 0.307, -0.200], [-0.2536878, 0.6460976, -0.287329, 0.6600323], [-1, 1, 0, 1], [9E+09, 9E+09, 9E+09, 9E+09, 9E+09, 9E+09]], v30, z0, tNozzle, \Wobj := wobjFlatPlat;
		MoveJ [[-5.952, 0.307, 19.356], [-0.2536878, 0.6460976, -0.287329, 0.6600323], [-1, 1, 0, 1], [9E+09, 9E+09, 9E+09, 9E+09, 9E+09, 9E+09]], v30, z0, tNozzle, \Wobj := wobjFlatPlat;
		MoveJ [[-5.952, -0.307, 19.356], [-0.287329, 0.6600323, -0.2536878, 0.6460976], [-1, 1, -1, 1], [9E+09, 9E+09, 9E+09, 9E+09, 9E+09, 9E+09]], v30, z0, tNozzle, \Wobj := wobjFlatPlat;
		MoveJ [[-5.952, -0.307, -0.200], [-0.287329, 0.6600323, -0.2536878, 0.6460976], [-1, 1, -1, 1], [9E+09, 9E+09, 9E+09, 9E+09, 9E+09, 9E+09]], v30, z0, tNozzle, \Wobj := wobjFlatPlat;
		MoveJ [[-5.889, -0.917, -0.200], [-0.3202083, 0.6722166, -0.2193737, 0.6304496], [-1, 1, -1, 1], [9E+09, 9E+09, 9E+09, 9E+09, 9E+09, 9E+09]], v30, z0, tNozzle, \Wobj := wobjFlatPlat;
		MoveJ [[-5.889, -0.917, 19.356], [-0.3202083, 0.6722166, -0.2193737, 0.6304496], [-1, 1, -1, 1], [9E+09, 9E+09, 9E+09, 9E+09, 9E+09, 9E+09]], v30, z0, tNozzle, \Wobj := wobjFlatPlat;
		MoveJ [[-5.763, -1.518, 19.356], [-0.3522385, 0.6826184, -0.184478, 0.6131297], [-1, 1, -1, 1], [9E+09, 9E+09, 9E+09, 9E+09, 9E+09, 9E+09]], v30, z0, tNozzle, \Wobj := wobjFlatPlat;
		MoveJ [[-5.763, -1.518, -0.200], [-0.3522385, 0.6826184, -0.184478, 0.6131297], [-1, 1, -1, 1], [9E+09, 9E+09, 9E+09, 9E+09, 9E+09, 9E+09]], v30, z0, tNozzle, \Wobj := wobjFlatPlat;
		MoveJ [[-5.577, -2.102, -0.200], [-0.3833347, 0.69121, -0.1490931, 0.594184], [-1, 1, -1, 1], [9E+09, 9E+09, 9E+09, 9E+09, 9E+09, 9E+09]], v30, z0, tNozzle, \Wobj := wobjFlatPlat;
		MoveJ [[-5.577, -2.102, 19.356], [-0.3833347, 0.69121, -0.1490931, 0.594184], [-1, 1, -1, 1], [9E+09, 9E+09, 9E+09, 9E+09, 9E+09, 9E+09]], v30, z0, tNozzle, \Wobj := wobjFlatPlat;
		MoveJ [[-5.331, -2.665, 19.356], [-0.4134142, 0.6979687, -0.1133127, 0.5736625], [-1, 1, -1, 1], [9E+09, 9E+09, 9E+09, 9E+09, 9E+09, 9E+09]], v30, z0, tNozzle, \Wobj := wobjFlatPlat;
		MoveJ [[-5.331, -2.665, -0.200], [-0.4134142, 0.6979687, -0.1133127, 0.5736625], [-1, 1, -1, 1], [9E+09, 9E+09, 9E+09, 9E+09, 9E+09, 9E+09]], v30, z0, tNozzle, \Wobj := wobjFlatPlat;
		MoveJ [[-5.029, -3.199, -0.200], [-0.4423975, 0.7028764, -0.0772319, 0.5516199], [-1, 1, -1, 1], [9E+09, 9E+09, 9E+09, 9E+09, 9E+09, 9E+09]], v30, z0, tNozzle, \Wobj := wobjFlatPlat;
		MoveJ [[-5.029, -3.199, 19.356], [-0.4423975, 0.7028764, -0.0772319, 0.5516199], [-1, 1, -1, 1], [9E+09, 9E+09, 9E+09, 9E+09, 9E+09, 9E+09]], v30, z0, tNozzle, \Wobj := wobjFlatPlat;
		MoveJ [[-4.673, -3.699, 19.356], [-0.4702077, 0.7059203, -0.0409463, 0.5281144], [-1, 1, -1, 1], [9E+09, 9E+09, 9E+09, 9E+09, 9E+09, 9E+09]], v30, z0, tNozzle, \Wobj := wobjFlatPlat;
		MoveJ [[-4.673, -3.699, -0.200], [-0.4702077, 0.7059203, -0.0409463, 0.5281144], [-1, 1, -1, 1], [9E+09, 9E+09, 9E+09, 9E+09, 9E+09, 9E+09]], v30, z0, tNozzle, \Wobj := wobjFlatPlat;
		MoveJ [[-4.268, -4.160, -0.200], [-0.4967709, 0.7070922, -0.0045521, 0.5032085], [-1, 1, -1, 1], [9E+09, 9E+09, 9E+09, 9E+09, 9E+09, 9E+09]], v30, z0, tNozzle, \Wobj := wobjFlatPlat;
		MoveJ [[-4.268, -4.160, 19.356], [-0.4967709, 0.7070922, -0.0045521, 0.5032085], [-1, 1, -1, 1], [9E+09, 9E+09, 9E+09, 9E+09, 9E+09, 9E+09]], v30, z0, tNozzle, \Wobj := wobjFlatPlat;
		MoveJ [[-3.818, -4.577, 19.356], [-0.5220167, 0.706389, 0.0318541, 0.4769681], [-1, 1, -1, 1], [9E+09, 9E+09, 9E+09, 9E+09, 9E+09, 9E+09]], v30, z0, tNozzle, \Wobj := wobjFlatPlat;
		MoveJ [[-3.818, -4.577, -0.200], [-0.5220167, 0.706389, 0.0318541, 0.4769681], [-1, 1, -1, 1], [9E+09, 9E+09, 9E+09, 9E+09, 9E+09, 9E+09]], v30, z0, tNozzle, \Wobj := wobjFlatPlat;
		MoveJ [[-3.327, -4.945, -0.200], [-0.5458783, 0.7038125, 0.0681759, 0.4494629], [-1, 1, -1, 1], [9E+09, 9E+09, 9E+09, 9E+09, 9E+09, 9E+09]], v30, z0, tNozzle, \Wobj := wobjFlatPlat;
		MoveJ [[-3.327, -4.945, 19.356], [-0.5458783, 0.7038125, 0.0681759, 0.4494629], [-1, 1, -1, 1], [9E+09, 9E+09, 9E+09, 9E+09, 9E+09, 9E+09]], v30, z0, tNozzle, \Wobj := wobjFlatPlat;
		MoveJ [[-2.801, -5.261, 19.356], [-0.5682923, 0.6993697, 0.1043169, 0.4207658], [-1, 1, -1, 1], [9E+09, 9E+09, 9E+09, 9E+09, 9E+09, 9E+09]], v30, z0, tNozzle, \Wobj := wobjFlatPlat;
		MoveJ [[-2.801, -5.261, -0.200], [-0.5682923, 0.6993697, 0.1043169, 0.4207658], [-1, 1, -1, 1], [9E+09, 9E+09, 9E+09, 9E+09, 9E+09, 9E+09]], v30, z0, tNozzle, \Wobj := wobjFlatPlat;
		MoveJ [[-2.245, -5.521, -0.200], [-0.5891993, 0.6930723, 0.1401813, 0.390953], [-1, 1, -1, 1], [9E+09, 9E+09, 9E+09, 9E+09, 9E+09, 9E+09]], v30, z0, tNozzle, \Wobj := wobjFlatPlat;
		MoveJ [[-2.245, -5.521, 19.356], [-0.5891993, 0.6930723, 0.1401813, 0.390953], [-1, 1, -1, 1], [9E+09, 9E+09, 9E+09, 9E+09, 9E+09, 9E+09]], v30, z0, tNozzle, \Wobj := wobjFlatPlat;
		MoveJ [[-1.666, -5.722, 19.356], [-0.6085439, 0.684937, 0.1756739, 0.3601033], [-1, 1, -1, 1], [9E+09, 9E+09, 9E+09, 9E+09, 9E+09, 9E+09]], v30, z0, tNozzle, \Wobj := wobjFlatPlat;
		MoveJ [[-1.666, -5.722, -0.200], [-0.6085439, 0.684937, 0.1756739, 0.3601033], [-1, 1, -1, 1], [9E+09, 9E+09, 9E+09, 9E+09, 9E+09, 9E+09]], v30, z0, tNozzle, \Wobj := wobjFlatPlat;
		MoveJ [[-1.069, -5.863, -0.200], [-0.6262747, 0.6749854, 0.2107007, 0.3282988], [-1, 1, -1, 1], [9E+09, 9E+09, 9E+09, 9E+09, 9E+09, 9E+09]], v30, z0, tNozzle, \Wobj := wobjFlatPlat;
		MoveJ [[-1.069, -5.863, 19.356], [-0.6262747, 0.6749854, 0.2107007, 0.3282988], [-1, 1, -1, 1], [9E+09, 9E+09, 9E+09, 9E+09, 9E+09, 9E+09]], v30, z0, tNozzle, \Wobj := wobjFlatPlat;
		MoveJ [[-0.460, -5.942, 19.356], [-0.6423447, 0.6632438, 0.2451687, 0.2956237], [-1, 1, -1, 1], [9E+09, 9E+09, 9E+09, 9E+09, 9E+09, 9E+09]], v30, z0, tNozzle, \Wobj := wobjFlatPlat;
		MoveJ [[-0.460, -5.942, -0.200], [-0.6423447, 0.6632438, 0.2451687, 0.2956237], [-1, 1, -1, 1], [9E+09, 9E+09, 9E+09, 9E+09, 9E+09, 9E+09]], v30, z0, tNozzle, \Wobj := wobjFlatPlat;
		MoveJ [[0.153, -5.958, -0.200], [-0.6567113, 0.6497434, 0.2789866, 0.2621646], [-1, 1, -2, 1], [9E+09, 9E+09, 9E+09, 9E+09, 9E+09, 9E+09]], v30, z0, tNozzle, \Wobj := wobjFlatPlat;
		MoveJ [[0.153, -5.958, 19.356], [-0.6567113, 0.6497434, 0.2789866, 0.2621646], [-1, 1, -2, 1], [9E+09, 9E+09, 9E+09, 9E+09, 9E+09, 9E+09]], v30, z0, tNozzle, \Wobj := wobjFlatPlat;
		MoveJ [[0.765, -5.911, 19.356], [-0.6693365, 0.63452, 0.3120647, 0.2280103], [-1, 1, -2, 1], [9E+09, 9E+09, 9E+09, 9E+09, 9E+09, 9E+09]], v30, z0, tNozzle, \Wobj := wobjFlatPlat;
		MoveJ [[0.765, -5.911, -0.200], [-0.6693365, 0.63452, 0.3120647, 0.2280103], [-1, 1, -2, 1], [9E+09, 9E+09, 9E+09, 9E+09, 9E+09, 9E+09]], v30, z0, tNozzle, \Wobj := wobjFlatPlat;
		MoveJ [[1.369, -5.801, -0.200], [-0.6801867, 0.617614, 0.3443152, 0.1932514], [-1, 1, -2, 1], [9E+09, 9E+09, 9E+09, 9E+09, 9E+09, 9E+09]], v30, z0, tNozzle, \Wobj := wobjFlatPlat;
		MoveJ [[1.369, -5.801, 19.356], [-0.6801867, 0.617614, 0.3443152, 0.1932514], [-1, 1, -2, 1], [9E+09, 9E+09, 9E+09, 9E+09, 9E+09, 9E+09]], v30, z0, tNozzle, \Wobj := wobjFlatPlat;
		MoveJ [[1.958, -5.629, 19.356], [-0.6892332, 0.5990702, 0.3756527, 0.15798], [-1, 1, -2, 1], [9E+09, 9E+09, 9E+09, 9E+09, 9E+09, 9E+09]], v30, z0, tNozzle, \Wobj := wobjFlatPlat;
		MoveJ [[1.958, -5.629, -0.200], [-0.6892332, 0.5990702, 0.3756527, 0.15798], [-1, 1, -2, 1], [9E+09, 9E+09, 9E+09, 9E+09, 9E+09, 9E+09]], v30, z0, tNozzle, \Wobj := wobjFlatPlat;
		MoveJ [[2.527, -5.398, -0.200], [-0.6964519, 0.5789378, 0.405994, 0.1222896], [-1, 1, -2, 1], [9E+09, 9E+09, 9E+09, 9E+09, 9E+09, 9E+09]], v30, z0, tNozzle, \Wobj := wobjFlatPlat;
		MoveJ [[2.527, -5.398, 19.356], [-0.6964519, 0.5789378, 0.405994, 0.1222896], [-1, 1, -2, 1], [9E+09, 9E+09, 9E+09, 9E+09, 9E+09, 9E+09]], v30, z0, tNozzle, \Wobj := wobjFlatPlat;
		MoveJ [[3.068, -5.110, 19.356], [-0.7018238, 0.5572701, 0.4352587, 0.086275], [-1, 1, -2, 1], [9E+09, 9E+09, 9E+09, 9E+09, 9E+09, 9E+09]], v30, z0, tNozzle, \Wobj := wobjFlatPlat;
		MoveJ [[3.068, -5.110, -0.200], [-0.7018238, 0.5572701, 0.4352587, 0.086275], [-1, 1, -2, 1], [9E+09, 9E+09, 9E+09, 9E+09, 9E+09, 9E+09]], v30, z0, tNozzle, \Wobj := wobjFlatPlat;
		MoveJ [[3.577, -4.767, -0.200], [-0.7053346, 0.5341246, 0.4633691, 0.0500316], [-1, 1, -2, 1], [9E+09, 9E+09, 9E+09, 9E+09, 9E+09, 9E+09]], v30, z0, tNozzle, \Wobj := wobjFlatPlat;
		MoveJ [[3.577, -4.767, 19.356], [-0.7053346, 0.5341246, 0.4633691, 0.0500316], [-1, 1, -2, 1], [9E+09, 9E+09, 9E+09, 9E+09, 9E+09, 9E+09]], v30, z0, tNozzle, \Wobj := wobjFlatPlat;
		MoveJ [[4.048, -4.374, 19.356], [-0.7069749, 0.5095627, 0.4902508, 0.0136555], [-1, 1, -2, 1], [9E+09, 9E+09, 9E+09, 9E+09, 9E+09, 9E+09]], v30, z0, tNozzle, \Wobj := wobjFlatPlat;
		MoveJ [[4.048, -4.374, -0.200], [-0.7069749, 0.5095627, 0.4902508, 0.0136555], [-1, 1, -2, 1], [9E+09, 9E+09, 9E+09, 9E+09, 9E+09, 9E+09]], v30, z0, tNozzle, \Wobj := wobjFlatPlat;
		MoveJ [[4.477, -3.935, -0.200], [-0.7067405, 0.4836496, 0.5158324, -0.0227568], [-1, 1, -2, 1], [9E+09, 9E+09, 9E+09, 9E+09, 9E+09, 9E+09]], v30, z0, tNozzle, \Wobj := wobjFlatPlat;
		MoveJ [[4.477, -3.935, 19.356], [-0.7067405, 0.4836496, 0.5158324, -0.0227568], [-1, 1, -2, 1], [9E+09, 9E+09, 9E+09, 9E+09, 9E+09, 9E+09]], v30, z0, tNozzle, \Wobj := wobjFlatPlat;
		MoveJ [[4.858, -3.453, 19.356], [-0.704632, 0.4564539, 0.5400462, -0.0591087], [-1, 1, -2, 1], [9E+09, 9E+09, 9E+09, 9E+09, 9E+09, 9E+09]], v30, z0, tNozzle, \Wobj := wobjFlatPlat;
		MoveJ [[4.858, -3.453, -0.200], [-0.704632, 0.4564539, 0.5400462, -0.0591087], [-1, 1, -2, 1], [9E+09, 9E+09, 9E+09, 9E+09, 9E+09, 9E+09]], v30, z0, tNozzle, \Wobj := wobjFlatPlat;
		MoveJ [[5.187, -2.936, -0.200], [-0.7006548, 0.4280478, 0.5628278, -0.0953039], [-1, 1, -2, 1], [9E+09, 9E+09, 9E+09, 9E+09, 9E+09, 9E+09]], v30, z0, tNozzle, \Wobj := wobjFlatPlat;
		MoveJ [[5.187, -2.936, 19.356], [-0.7006548, 0.4280478, 0.5628278, -0.0953039], [-1, 1, -2, 1], [9E+09, 9E+09, 9E+09, 9E+09, 9E+09, 9E+09]], v30, z0, tNozzle, \Wobj := wobjFlatPlat;
		MoveJ [[5.461, -2.387, 19.356], [-0.6948197, 0.3985066, 0.5841169, -0.1312464], [-1, 1, -2, 1], [9E+09, 9E+09, 9E+09, 9E+09, 9E+09, 9E+09]], v30, z0, tNozzle, \Wobj := wobjFlatPlat;
		MoveJ [[5.461, -2.387, -0.200], [-0.6948197, 0.3985066, 0.5841169, -0.1312464], [-1, 1, -2, 1], [9E+09, 9E+09, 9E+09, 9E+09, 9E+09, 9E+09]], v30, z0, tNozzle, \Wobj := wobjFlatPlat;
		MoveJ [[5.678, -1.813, -0.200], [-0.687142, 0.3679086, 0.603857, -0.1668408], [-1, 1, -2, 1], [9E+09, 9E+09, 9E+09, 9E+09, 9E+09, 9E+09]], v30, z0, tNozzle, \Wobj := wobjFlatPlat;
		MoveJ [[5.678, -1.813, 19.356], [-0.687142, 0.3679086, 0.603857, -0.1668408], [-1, 1, -2, 1], [9E+09, 9E+09, 9E+09, 9E+09, 9E+09, 9E+09]], v30, z0, tNozzle, \Wobj := wobjFlatPlat;
		MoveJ [[5.834, -1.219, 19.356], [-0.6776422, 0.336335, 0.6219959, -0.2019928], [-1, 1, -2, 1], [9E+09, 9E+09, 9E+09, 9E+09, 9E+09, 9E+09]], v30, z0, tNozzle, \Wobj := wobjFlatPlat;
		MoveJ [[5.834, -1.219, -0.200], [-0.6776422, 0.336335, 0.6219959, -0.2019928], [-1, 1, -2, 1], [9E+09, 9E+09, 9E+09, 9E+09, 9E+09, 9E+09]], v30, z0, tNozzle, \Wobj := wobjFlatPlat;
		MoveJ [[5.928, -0.613, -0.200], [-0.6663454, 0.3038694, 0.6384853, -0.2366092], [-1, 1, -2, 1], [9E+09, 9E+09, 9E+09, 9E+09, 9E+09, 9E+09]], v30, z0, tNozzle, \Wobj := wobjFlatPlat;
		MoveJ [[5.928, -0.613, 19.356], [-0.6663454, 0.3038694, 0.6384853, -0.2366092], [-1, 1, -2, 1], [9E+09, 9E+09, 9E+09, 9E+09, 9E+09, 9E+09]], v30, z0, tNozzle, \Wobj := wobjFlatPlat;
		MoveJ [[5.960, 0.000, 19.356], [-0.6532815, 0.2705981, 0.6532815, -0.2705981], [-1, 1, -3, 1], [9E+09, 9E+09, 9E+09, 9E+09, 9E+09, 9E+09]], v30, z0, tNozzle, \Wobj := wobjFlatPlat;
		WaitRob \InPos;
		SetDO DO6_Between_Layer_Retract, 1;
		SetDO DO5_Program_Feed, 0;
		MoveJ [[15.960, 0.000, 19.356], [-0.6532815, 0.2705981, 0.6532815, -0.2705981], [-1, 1, -3, 1], [9E+09, 9E+09, 9E+09, 9E+09, 9E+09, 9E+09]], v30, z0, tNozzle, \Wobj := wobjFlatPlat;
		MoveJ [[15.960, 0.000, 19.356], [0.6532815, -0.2705981, -0.6532815, 0.2705981], [-1, 1, 1, 1], [9E+09, 9E+09, 9E+09, 9E+09, 9E+09, 9E+09]], v30, z0, tNozzle, \Wobj := wobjFlatPlat;

		! Base Grip layer number 5 of 25
		MoveJ [[16.060, 0.000, -0.200], [0.6532815, -0.2705981, -0.6532815, 0.2705981], [-1, 1, 1, 1], [9E+09, 9E+09, 9E+09, 9E+09, 9E+09, 9E+09]], v30, z0, tNozzle, \Wobj := wobjFlatPlat;
		MoveJ [[6.060, 0.000, -0.200], [0.6532815, -0.2705981, -0.6532815, 0.2705981], [-1, 1, 1, 1], [9E+09, 9E+09, 9E+09, 9E+09, 9E+09, 9E+09]], v30, z0, tNozzle, \Wobj := wobjFlatPlat;
		WaitRob \InPos;
		SetDO DO6_Between_Layer_Retract, 0;
		SetDO DO5_Program_Feed, 1;
		MoveJ [[6.060, 0.000, 18.526], [0.6532815, -0.2705981, -0.6532815, 0.2705981], [-1, 1, 1, 1], [9E+09, 9E+09, 9E+09, 9E+09, 9E+09, 9E+09]], v30, z0, tNozzle, \Wobj := wobjFlatPlat;
		MoveJ [[6.029, 0.613, 18.526], [0.6387374, -0.2371626, -0.6661486, 0.303339], [-1, 1, 1, 1], [9E+09, 9E+09, 9E+09, 9E+09, 9E+09, 9E+09]], v30, z0, tNozzle, \Wobj := wobjFlatPlat;
		MoveJ [[6.029, 0.613, -0.200], [0.6387374, -0.2371626, -0.6661486, 0.303339], [-1, 1, 1, 1], [9E+09, 9E+09, 9E+09, 9E+09, 9E+09, 9E+09]], v30, z0, tNozzle, \Wobj := wobjFlatPlat;
		MoveJ [[5.936, 1.220, -0.200], [0.6225538, -0.2031184, -0.6773057, 0.3353011], [-1, 1, 1, 1], [9E+09, 9E+09, 9E+09, 9E+09, 9E+09, 9E+09]], v30, z0, tNozzle, \Wobj := wobjFlatPlat;
		MoveJ [[5.936, 1.220, 18.526], [0.6225538, -0.2031184, -0.6773057, 0.3353011], [-1, 1, 1, 1], [9E+09, 9E+09, 9E+09, 9E+09, 9E+09, 9E+09]], v30, z0, tNozzle, \Wobj := wobjFlatPlat;
		MoveJ [[5.782, 1.814, 18.526], [0.604772, -0.1685527, -0.6867241, 0.3664026], [-1, 1, 1, 1], [9E+09, 9E+09, 9E+09, 9E+09, 9E+09, 9E+09]], v30, z0, tNozzle, \Wobj := wobjFlatPlat;
		MoveJ [[5.782, 1.814, -0.200], [0.604772, -0.1685527, -0.6867241, 0.3664026], [-1, 1, 1, 1], [9E+09, 9E+09, 9E+09, 9E+09, 9E+09, 9E+09]], v30, z0, tNozzle, \Wobj := wobjFlatPlat;
		MoveJ [[5.569, 2.390, -0.200], [0.5854378, -0.1335543, -0.6943798, 0.3965635], [-1, 1, 1, 1], [9E+09, 9E+09, 9E+09, 9E+09, 9E+09, 9E+09]], v30, z0, tNozzle, \Wobj := wobjFlatPlat;
		MoveJ [[5.569, 2.390, 18.526], [0.5854378, -0.1335543, -0.6943798, 0.3965635], [-1, 1, 1, 1], [9E+09, 9E+09, 9E+09, 9E+09, 9E+09, 9E+09]], v30, z0, tNozzle, \Wobj := wobjFlatPlat;
		MoveJ [[5.299, 2.941, 18.526], [0.5646008, -0.0982132, -0.700253, 0.4257065], [-1, 1, 1, 1], [9E+09, 9E+09, 9E+09, 9E+09, 9E+09, 9E+09]], v30, z0, tNozzle, \Wobj := wobjFlatPlat;
		MoveJ [[5.299, 2.941, -0.200], [0.5646008, -0.0982132, -0.700253, 0.4257065], [-1, 1, 1, 1], [9E+09, 9E+09, 9E+09, 9E+09, 9E+09, 9E+09]], v30, z0, tNozzle, \Wobj := wobjFlatPlat;
		MoveJ [[4.974, 3.462, -0.200], [0.5423144, -0.0626199, -0.7043286, 0.4537567], [-1, 1, 1, 1], [9E+09, 9E+09, 9E+09, 9E+09, 9E+09, 9E+09]], v30, z0, tNozzle, \Wobj := wobjFlatPlat;
		MoveJ [[4.974, 3.462, 18.526], [0.5423144, -0.0626199, -0.7043286, 0.4537567], [-1, 1, 1, 1], [9E+09, 9E+09, 9E+09, 9E+09, 9E+09, 9E+09]], v30, z0, tNozzle, \Wobj := wobjFlatPlat;
		MoveJ [[4.598, 3.947, 18.526], [0.518636, -0.0268658, -0.7065963, 0.480642], [-1, 1, 1, 1], [9E+09, 9E+09, 9E+09, 9E+09, 9E+09, 9E+09]], v30, z0, tNozzle, \Wobj := wobjFlatPlat;
		MoveJ [[4.598, 3.947, -0.200], [0.518636, -0.0268658, -0.7065963, 0.480642], [-1, 1, 1, 1], [9E+09, 9E+09, 9E+09, 9E+09, 9E+09, 9E+09]], v30, z0, tNozzle, \Wobj := wobjFlatPlat;
		MoveJ [[4.175, 4.392, -0.200], [0.4936262, 0.0089571, -0.7070501, 0.5062936], [-1, 1, 1, 1], [9E+09, 9E+09, 9E+09, 9E+09, 9E+09, 9E+09]], v30, z0, tNozzle, \Wobj := wobjFlatPlat;
		MoveJ [[4.175, 4.392, 18.526], [0.4936262, 0.0089571, -0.7070501, 0.5062936], [-1, 1, 1, 1], [9E+09, 9E+09, 9E+09, 9E+09, 9E+09, 9E+09]], v30, z0, tNozzle, \Wobj := wobjFlatPlat;
		MoveJ [[3.709, 4.792, 18.526], [0.4673493, 0.0447571, -0.7056889, 0.5306456], [-1, 1, 1, 1], [9E+09, 9E+09, 9E+09, 9E+09, 9E+09, 9E+09]], v30, z0, tNozzle, \Wobj := wobjFlatPlat;
		MoveJ [[3.709, 4.792, -0.200], [0.4673493, 0.0447571, -0.7056889, 0.5306456], [-1, 1, 1, 1], [9E+09, 9E+09, 9E+09, 9E+09, 9E+09, 9E+09]], v30, z0, tNozzle, \Wobj := wobjFlatPlat;
		MoveJ [[3.206, 5.143, -0.200], [0.4398727, 0.0804423, -0.7025163, 0.5536353], [-1, 1, 1, 1], [9E+09, 9E+09, 9E+09, 9E+09, 9E+09, 9E+09]], v30, z0, tNozzle, \Wobj := wobjFlatPlat;
		MoveJ [[3.206, 5.143, 18.526], [0.4398727, 0.0804423, -0.7025163, 0.5536353], [-1, 1, 1, 1], [9E+09, 9E+09, 9E+09, 9E+09, 9E+09, 9E+09]], v30, z0, tNozzle, \Wobj := wobjFlatPlat;
		MoveJ [[2.669, 5.441, 18.526], [0.4112669, 0.1159209, -0.6975402, 0.5752039], [-1, 1, 1, 1], [9E+09, 9E+09, 9E+09, 9E+09, 9E+09, 9E+09]], v30, z0, tNozzle, \Wobj := wobjFlatPlat;
		MoveJ [[2.669, 5.441, -0.200], [0.4112669, 0.1159209, -0.6975402, 0.5752039], [-1, 1, 1, 1], [9E+09, 9E+09, 9E+09, 9E+09, 9E+09, 9E+09]], v30, z0, tNozzle, \Wobj := wobjFlatPlat;
		MoveJ [[2.105, 5.683, -0.200], [0.3816055, 0.1511019, -0.6907737, 0.595296], [-1, 1, 1, 1], [9E+09, 9E+09, 9E+09, 9E+09, 9E+09, 9E+09]], v30, z0, tNozzle, \Wobj := wobjFlatPlat;
		MoveJ [[2.105, 5.683, 18.526], [0.3816055, 0.1511019, -0.6907737, 0.595296], [-1, 1, 1, 1], [9E+09, 9E+09, 9E+09, 9E+09, 9E+09, 9E+09]], v30, z0, tNozzle, \Wobj := wobjFlatPlat;
		MoveJ [[1.519, 5.867, 18.526], [0.3509644, 0.1858951, -0.6822339, 0.6138599], [-1, 1, 1, 1], [9E+09, 9E+09, 9E+09, 9E+09, 9E+09, 9E+09]], v30, z0, tNozzle, \Wobj := wobjFlatPlat;
		MoveJ [[1.519, 5.867, -0.200], [0.3509644, 0.1858951, -0.6822339, 0.6138599], [-1, 1, 1, 1], [9E+09, 9E+09, 9E+09, 9E+09, 9E+09, 9E+09]], v30, z0, tNozzle, \Wobj := wobjFlatPlat;
		MoveJ [[0.918, 5.990, -0.200], [0.3194225, 0.2202111, -0.6719428, 0.6308481], [-1, 1, 1, 1], [9E+09, 9E+09, 9E+09, 9E+09, 9E+09, 9E+09]], v30, z0, tNozzle, \Wobj := wobjFlatPlat;
		MoveJ [[0.918, 5.990, 18.526], [0.3194225, 0.2202111, -0.6719428, 0.6308481], [-1, 1, 1, 1], [9E+09, 9E+09, 9E+09, 9E+09, 9E+09, 9E+09]], v30, z0, tNozzle, \Wobj := wobjFlatPlat;
		MoveJ [[0.307, 6.052, 18.526], [0.2870606, 0.2539618, -0.6599269, 0.6462169], [-1, 1, 1, 1], [9E+09, 9E+09, 9E+09, 9E+09, 9E+09, 9E+09]], v30, z0, tNozzle, \Wobj := wobjFlatPlat;
		MoveJ [[0.307, 6.052, -0.200], [0.2870606, 0.2539618, -0.6599269, 0.6462169], [-1, 1, 1, 1], [9E+09, 9E+09, 9E+09, 9E+09, 9E+09, 9E+09]], v30, z0, tNozzle, \Wobj := wobjFlatPlat;
		MoveJ [[-0.307, 6.052, -0.200], [0.2539618, 0.2870606, -0.6462169, 0.6599269], [-1, 1, 0, 1], [9E+09, 9E+09, 9E+09, 9E+09, 9E+09, 9E+09]], v30, z0, tNozzle, \Wobj := wobjFlatPlat;
		MoveJ [[-0.307, 6.052, 18.526], [0.2539618, 0.2870606, -0.6462169, 0.6599269], [-1, 1, 0, 1], [9E+09, 9E+09, 9E+09, 9E+09, 9E+09, 9E+09]], v30, z0, tNozzle, \Wobj := wobjFlatPlat;
		MoveJ [[-0.918, 5.990, 18.526], [0.2202111, 0.3194225, -0.6308481, 0.6719428], [-1, 1, 0, 1], [9E+09, 9E+09, 9E+09, 9E+09, 9E+09, 9E+09]], v30, z0, tNozzle, \Wobj := wobjFlatPlat;
		MoveJ [[-0.918, 5.990, -0.200], [0.2202111, 0.3194225, -0.6308481, 0.6719428], [-1, 1, 0, 1], [9E+09, 9E+09, 9E+09, 9E+09, 9E+09, 9E+09]], v30, z0, tNozzle, \Wobj := wobjFlatPlat;
		MoveJ [[-1.519, 5.867, -0.200], [0.1858951, 0.3509644, -0.6138599, 0.6822339], [-1, 1, 0, 1], [9E+09, 9E+09, 9E+09, 9E+09, 9E+09, 9E+09]], v30, z0, tNozzle, \Wobj := wobjFlatPlat;
		MoveJ [[-1.519, 5.867, 18.526], [0.1858951, 0.3509644, -0.6138599, 0.6822339], [-1, 1, 0, 1], [9E+09, 9E+09, 9E+09, 9E+09, 9E+09, 9E+09]], v30, z0, tNozzle, \Wobj := wobjFlatPlat;
		MoveJ [[-2.105, 5.683, 18.526], [0.1511019, 0.3816055, -0.595296, 0.6907737], [-1, 1, 0, 1], [9E+09, 9E+09, 9E+09, 9E+09, 9E+09, 9E+09]], v30, z0, tNozzle, \Wobj := wobjFlatPlat;
		MoveJ [[-2.105, 5.683, -0.200], [0.1511019, 0.3816055, -0.595296, 0.6907737], [-1, 1, 0, 1], [9E+09, 9E+09, 9E+09, 9E+09, 9E+09, 9E+09]], v30, z0, tNozzle, \Wobj := wobjFlatPlat;
		MoveJ [[-2.669, 5.441, -0.200], [0.1159209, 0.4112669, -0.5752039, 0.6975402], [-1, 1, 0, 1], [9E+09, 9E+09, 9E+09, 9E+09, 9E+09, 9E+09]], v30, z0, tNozzle, \Wobj := wobjFlatPlat;
		MoveJ [[-2.669, 5.441, 18.526], [0.1159209, 0.4112669, -0.5752039, 0.6975402], [-1, 1, 0, 1], [9E+09, 9E+09, 9E+09, 9E+09, 9E+09, 9E+09]], v30, z0, tNozzle, \Wobj := wobjFlatPlat;
		MoveJ [[-3.206, 5.143, 18.526], [0.0804423, 0.4398727, -0.5536353, 0.7025163], [-1, 1, 0, 1], [9E+09, 9E+09, 9E+09, 9E+09, 9E+09, 9E+09]], v30, z0, tNozzle, \Wobj := wobjFlatPlat;
		MoveJ [[-3.206, 5.143, -0.200], [0.0804423, 0.4398727, -0.5536353, 0.7025163], [-1, 1, 0, 1], [9E+09, 9E+09, 9E+09, 9E+09, 9E+09, 9E+09]], v30, z0, tNozzle, \Wobj := wobjFlatPlat;
		MoveJ [[-3.709, 4.792, -0.200], [0.0447571, 0.4673493, -0.5306456, 0.7056889], [-1, 1, 0, 1], [9E+09, 9E+09, 9E+09, 9E+09, 9E+09, 9E+09]], v30, z0, tNozzle, \Wobj := wobjFlatPlat;
		MoveJ [[-3.709, 4.792, 18.526], [0.0447571, 0.4673493, -0.5306456, 0.7056889], [-1, 1, 0, 1], [9E+09, 9E+09, 9E+09, 9E+09, 9E+09, 9E+09]], v30, z0, tNozzle, \Wobj := wobjFlatPlat;
		MoveJ [[-4.175, 4.392, 18.526], [0.0089571, 0.4936262, -0.5062936, 0.7070501], [-1, 1, 0, 1], [9E+09, 9E+09, 9E+09, 9E+09, 9E+09, 9E+09]], v30, z0, tNozzle, \Wobj := wobjFlatPlat;
		MoveJ [[-4.175, 4.392, -0.200], [0.0089571, 0.4936262, -0.5062936, 0.7070501], [-1, 1, 0, 1], [9E+09, 9E+09, 9E+09, 9E+09, 9E+09, 9E+09]], v30, z0, tNozzle, \Wobj := wobjFlatPlat;
		MoveJ [[-4.598, 3.947, -0.200], [-0.0268658, 0.518636, -0.480642, 0.7065963], [-1, 1, 0, 1], [9E+09, 9E+09, 9E+09, 9E+09, 9E+09, 9E+09]], v30, z0, tNozzle, \Wobj := wobjFlatPlat;
