MODULE MainModule
	VAR num zHeight;

	PROC main()
		SetDO DO4_Heat_Nozzle, 1;
		WaitDI DI3_Nozzle_At_Temp, 1;


		!Layer number 1 of 10
		SetDO DO6_Between_Layer_Retract, 1;
		WaitTime .1;
		SetDO DO5_Program_Feed, 1;
		WaitTime 4.5410834490864405;
		SetDO DO5_Program_Feed, 0;
		SetDO DO6_Between_Layer_Retract, 0;

		SetDO DO1_Auto_Mode, 1;
		MoveJ [[13.900, 0.000, -2.000], [0.6532815, -0.2705981, -0.6532815, 0.2705981], [-1, 1, 1, 1], [9E+09, 9E+09, 9E+09, 9E+09, 9E+09, 9E+09]], v30, z0, tNozzleAlCal, \Wobj := wobjAlWithButton;
		MoveJ [[3.900, 0.000, -2.000], [0.6532815, -0.2705981, -0.6532815, 0.2705981], [-1, 1, 1, 1], [9E+09, 9E+09, 9E+09, 9E+09, 9E+09, 9E+09]], v30, z0, tNozzleAlCal, \Wobj := wobjAlWithButton;
		WaitRob \InPos;
		SetDO DO6_Between_Layer_Retract, 0;
		SetDO DO5_Program_Feed, 1;
		MoveJ [[0.419, -3.877, 3.706], [0.666905, -0.6377623, -0.3053838, -0.235027], [-1, 1, 1, 1], [9E+09, 9E+09, 9E+09, 9E+09, 9E+09, 9E+09]], v30, z0, tNozzleAlCal, \Wobj := wobjAlWithButton;
		MoveJ [[-3.810, -0.834, 9.412], [0.3392835, -0.6785933, 0.1987741, -0.6203924], [-1, 1, 2, 1], [9E+09, 9E+09, 9E+09, 9E+09, 9E+09, 9E+09]], v30, z0, tNozzleAlCal, \Wobj := wobjAlWithButton;
		MoveJ [[-1.239, 3.698, 15.118], [-0.1619443, -0.3721985, 0.6012224, -0.6883125], [-1, 1, 3, 1], [9E+09, 9E+09, 9E+09, 9E+09, 9E+09, 9E+09]], v30, z0, tNozzleAlCal, \Wobj := wobjAlWithButton;
		MoveJ [[3.543, 1.629, 20.824], [-0.5803076, 0.1246446, 0.6960343, -0.4040336], [-1, 1, 4, 1], [9E+09, 9E+09, 9E+09, 9E+09, 9E+09, 9E+09]], v30, z0, tNozzleAlCal, \Wobj := wobjAlWithButton;
		MoveJ [[2.001, -3.348, 26.529], [-0.7017364, 0.557709, 0.4346961, 0.0869831], [-1, 1, 5, 1], [9E+09, 9E+09, 9E+09, 9E+09, 9E+09, 9E+09]], v30, z0, tNozzleAlCal, \Wobj := wobjAlWithButton;
		MoveJ [[-3.113, -2.349, 32.235], [-0.4640974, 0.7054022, -0.0490694, 0.5334919], [-1, 1, 6, 1], [9E+09, 9E+09, 9E+09, 9E+09, 9E+09, 9E+09]], v30, z0, tNozzleAlCal, \Wobj := wobjAlWithButton;
		MoveJ [[-2.670, 2.842, 37.941], [0.0110131, 0.4921519, -0.5077269, 0.707021], [-1, 1, 7, 1], [9E+09, 9E+09, 9E+09, 9E+09, 9E+09, 9E+09]], v30, z0, tNozzleAlCal, \Wobj := wobjAlWithButton;
		MoveJ [[2.539, 2.961, 43.647], [0.4804884, 0.027075, -0.7065883, 0.5187783], [-1, 1, 8, 1], [9E+09, 9E+09, 9E+09, 9E+09, 9E+09, 9E+09]], v30, z0, tNozzleAlCal, \Wobj := wobjAlWithButton;
		MoveJ [[3.216, -2.205, 49.353], [0.7041051, -0.4518558, -0.5438993, 0.0650846], [-1, 1, 9, 1], [9E+09, 9E+09, 9E+09, 9E+09, 9E+09, 9E+09]], v30, z0, tNozzleAlCal, \Wobj := wobjAlWithButton;
		MoveJ [[-1.847, -3.435, 55.059], [0.567442, -0.6995788, -0.1029053, -0.4219118], [-1, 1, 10, 1], [9E+09, 9E+09, 9E+09, 9E+09, 9E+09, 9E+09]], v30, z0, tNozzleAlCal, \Wobj := wobjAlWithButton;
		MoveJ [[-3.614, 1.467, 60.765], [0.1404275, -0.5893381, 0.3907437, -0.6930225], [-1, 1, 11, 1], [9E+09, 9E+09, 9E+09, 9E+09, 9E+09, 9E+09]], v30, z0, tNozzleAlCal, \Wobj := wobjAlWithButton;
		MoveJ [[1.070, 3.750, 66.471], [-0.3584416, -0.1775421, 0.6844552, -0.6095241], [-1, 1, 12, 1], [9E+09, 9E+09, 9E+09, 9E+09, 9E+09, 9E+09]], v30, z0, tNozzleAlCal, \Wobj := wobjAlWithButton;
		MoveJ [[3.844, -0.660, 72.176], [-0.6739017, 0.3250995, 0.6279413, -0.2141416], [-1, 1, 13, 1], [9E+09, 9E+09, 9E+09, 9E+09, 9E+09, 9E+09]], v30, z0, tNozzleAlCal, \Wobj := wobjAlWithButton;
		MoveJ [[-0.243, -3.892, 77.882], [-0.6445365, 0.6613927, 0.2501195, 0.2908139], [-1, 1, 14, 1], [9E+09, 9E+09, 9E+09, 9E+09, 9E+09, 9E+09]], v30, z0, tNozzleAlCal, \Wobj := wobjAlWithButton;
		MoveJ [[-3.896, -0.177, 83.588], [-0.2853719, 0.6592613, -0.2556846, 0.6469644], [-1, 1, 14, 1], [9E+09, 9E+09, 9E+09, 9E+09, 9E+09, 9E+09]], v30, z0, tNozzleAlCal, \Wobj := wobjAlWithButton;
		MoveJ [[-0.595, 3.854, 89.294], [0.2198132, 0.319796, -0.6306589, 0.6720731], [-1, 1, 15, 1], [9E+09, 9E+09, 9E+09, 9E+09, 9E+09, 9E+09]], v30, z0, tNozzleAlCal, \Wobj := wobjAlWithButton;
		MoveJ [[3.768, 1.006, 95.000], [0.6125232, -0.183304, -0.6829346, 0.3532922], [-1, 1, 16, 1], [9E+09, 9E+09, 9E+09, 9E+09, 9E+09, 9E+09]], v30, z0, tNozzleAlCal, \Wobj := wobjAlWithButton;
		MoveJ [[3.897, 0.143, 95.000], [0.6482279, -0.2586159, -0.6581169, 0.28249], [-1, 1, 16, 1], [9E+09, 9E+09, 9E+09, 9E+09, 9E+09, 9E+09]], v30, z0, tNozzleAlCal, \Wobj := wobjAlWithButton;
		MoveJ [[0.277, 3.890, 89.294], [0.2936793, 0.2471738, -0.6624992, 0.643236], [-1, 1, 16, 1], [9E+09, 9E+09, 9E+09, 9E+09, 9E+09, 9E+09]], v30, z0, tNozzleAlCal, \Wobj := wobjAlWithButton;
		MoveJ [[-3.838, 0.694, 83.588], [-0.2111405, 0.6264884, -0.3278908, 0.6748479], [-1, 1, 15, 1], [9E+09, 9E+09, 9E+09, 9E+09, 9E+09, 9E+09]], v30, z0, tNozzleAlCal, \Wobj := wobjAlWithButton;
		MoveJ [[-1.103, -3.741, 77.882], [-0.607923, 0.6852385, 0.1744944, 0.3611506], [-1, 1, 14, 1], [9E+09, 9E+09, 9E+09, 9E+09, 9E+09, 9E+09]], v30, z0, tNozzleAlCal, \Wobj := wobjAlWithButton;
		MoveJ [[3.601, -1.499, 72.176], [-0.6936405, 0.3933625, 0.5875934, -0.137342], [-1, 1, 13, 1], [9E+09, 9E+09, 9E+09, 9E+09, 9E+09, 9E+09]], v30, z0, tNozzleAlCal, \Wobj := wobjAlWithButton;
		MoveJ [[1.877, 3.418, 66.471], [-0.4244329, -0.099791, 0.7000299, -0.5655588], [-1, 1, 12, 1], [9E+09, 9E+09, 9E+09, 9E+09, 9E+09, 9E+09]], v30, z0, tNozzleAlCal, \Wobj := wobjAlWithButton;
		MoveJ [[-3.197, 2.234, 60.765], [0.0619506, -0.541883, 0.4542717, -0.7043878], [-1, 1, 11, 1], [9E+09, 9E+09, 9E+09, 9E+09, 9E+09, 9E+09]], v30, z0, tNozzleAlCal, \Wobj := wobjAlWithButton;
		MoveJ [[-2.565, -2.938, 55.059], [0.5166349, -0.7067018, -0.0239303, -0.4827923], [-1, 1, 10, 1], [9E+09, 9E+09, 9E+09, 9E+09, 9E+09, 9E+09]], v30, z0, tNozzleAlCal, \Wobj := wobjAlWithButton;
		MoveJ [[2.645, -2.866, 49.353], [0.706965, -0.509912, -0.4898875, -0.0141594], [-1, 1, 9, 1], [9E+09, 9E+09, 9E+09, 9E+09, 9E+09, 9E+09]], v30, z0, tNozzleAlCal, \Wobj := wobjAlWithButton;
		MoveJ [[3.134, 2.322, 43.647], [0.5355519, -0.0522081, -0.7051768, 0.4617187], [-1, 1, 8, 1], [9E+09, 9E+09, 9E+09, 9E+09, 9E+09, 9E+09]], v30, z0, tNozzleAlCal, \Wobj := wobjAlWithButton;
		MoveJ [[-1.971, 3.365, 37.941], [0.0901051, 0.4322099, -0.5596379, 0.7013424], [-1, 1, 7, 1], [9E+09, 9E+09, 9E+09, 9E+09, 9E+09, 9E+09]], v30, z0, tNozzleAlCal, \Wobj := wobjAlWithButton;
		MoveJ [[-3.558, -1.598, 32.235], [-0.4014471, 0.6954727, -0.1277409, 0.5820999], [-1, 1, 6, 1], [9E+09, 9E+09, 9E+09, 9E+09, 9E+09, 9E+09]], v30, z0, tNozzleAlCal, \Wobj := wobjAlWithButton;
		MoveJ [[1.206, -3.709, 26.529], [-0.687585, 0.6028728, 0.3695193, 0.1650058], [-1, 1, 5, 1], [9E+09, 9E+09, 9E+09, 9E+09, 9E+09, 9E+09]], v30, z0, tNozzleAlCal, \Wobj := wobjAlWithButton;
		MoveJ [[3.817, 0.800, 20.824], [-0.6218962, 0.201792, 0.677702, -0.3365193], [-1, 1, 4, 1], [9E+09, 9E+09, 9E+09, 9E+09, 9E+09, 9E+09]], v30, z0, tNozzleAlCal, \Wobj := wobjAlWithButton;
		MoveJ [[-0.385, 3.881, 15.118], [-0.2379925, -0.3025426, 0.639115, -0.6658525], [-1, 1, 3, 1], [9E+09, 9E+09, 9E+09, 9E+09, 9E+09, 9E+09]], v30, z0, tNozzleAlCal, \Wobj := wobjAlWithButton;
		MoveJ [[-3.900, 0.035, 9.412], [0.2676882, -0.6520708, 0.2735026, -0.6544792], [-1, 1, 3, 1], [9E+09, 9E+09, 9E+09, 9E+09, 9E+09, 9E+09]], v30, z0, tNozzleAlCal, \Wobj := wobjAlWithButton;
		MoveJ [[-0.454, -3.873, 3.706], [0.636397, -0.6679443, -0.2320569, -0.3082189], [-1, 1, 2, 1], [9E+09, 9E+09, 9E+09, 9E+09, 9E+09, 9E+09]], v30, z0, tNozzleAlCal, \Wobj := wobjAlWithButton;
		MoveJ [[3.802, -0.868, -2.000], [0.6794712, -0.342041, -0.6188764, 0.1957523], [-1, 1, 1, 1], [9E+09, 9E+09, 9E+09, 9E+09, 9E+09, 9E+09]], v30, z0, tNozzleAlCal, \Wobj := wobjAlWithButton;
		MoveJ [[3.514, -1.692, -2.000], [0.6971161, -0.4091825, -0.5766886, 0.1184448], [-1, 1, 1, 1], [9E+09, 9E+09, 9E+09, 9E+09, 9E+09, 9E+09]], v30, z0, tNozzleAlCal, \Wobj := wobjAlWithButton;
		MoveJ [[-1.304, -3.675, 3.706], [0.5978859, -0.6897266, -0.1558117, -0.3775348], [-1, 1, 2, 1], [9E+09, 9E+09, 9E+09, 9E+09, 9E+09, 9E+09]], v30, z0, tNozzleAlCal, \Wobj := wobjAlWithButton;
		MoveJ [[-3.794, 0.902, 9.412], [0.1927266, -0.6173482, 0.3447917, -0.6803356], [-1, 1, 3, 1], [9E+09, 9E+09, 9E+09, 9E+09, 9E+09, 9E+09]], v30, z0, tNozzleAlCal, \Wobj := wobjAlWithButton;
		MoveJ [[0.488, 3.869, 15.118], [-0.3110479, -0.2290821, 0.6689704, -0.6350191], [-1, 1, 4, 1], [9E+09, 9E+09, 9E+09, 9E+09, 9E+09, 9E+09]], v30, z0, tNozzleAlCal, \Wobj := wobjAlWithButton;
		MoveJ [[3.899, -0.069, 20.824], [-0.655664, 0.2764017, 0.6508472, -0.264773], [-1, 1, 5, 1], [9E+09, 9E+09, 9E+09, 9E+09, 9E+09, 9E+09]], v30, z0, tNozzleAlCal, \Wobj := wobjAlWithButton;
		MoveJ [[0.350, -3.884, 26.529], [-0.6647868, 0.6404551, 0.2996955, 0.2409533], [-1, 1, 5, 1], [9E+09, 9E+09, 9E+09, 9E+09, 9E+09, 9E+09]], v30, z0, tNozzleAlCal, \Wobj := wobjAlWithButton;
		MoveJ [[-3.824, -0.766, 32.235], [-0.3337484, 0.6767973, -0.2048059, 0.6233876], [-1, 1, 6, 1], [9E+09, 9E+09, 9E+09, 9E+09, 9E+09, 9E+09]], v30, z0, tNozzleAlCal, \Wobj := wobjAlWithButton;
		MoveJ [[-1.173, 3.719, 37.941], [0.168064, 0.3668327, -0.6045112, 0.6868439], [-1, 1, 7, 1], [9E+09, 9E+09, 9E+09, 9E+09, 9E+09, 9E+09]], v30, z0, tNozzleAlCal, \Wobj := wobjAlWithButton;
		MoveJ [[3.572, 1.566, 43.647], [0.5838806, -0.1308345, -0.6948974, 0.3988527], [-1, 1, 8, 1], [9E+09, 9E+09, 9E+09, 9E+09, 9E+09, 9E+09]], v30, z0, tNozzleAlCal, \Wobj := wobjAlWithButton;
		MoveJ [[1.941, -3.383, 49.353], [0.7009344, -0.5615558, -0.4297152, -0.0932253], [-1, 1, 9, 1], [9E+09, 9E+09, 9E+09, 9E+09, 9E+09, 9E+09]], v30, z0, tNozzleAlCal, \Wobj := wobjAlWithButton;
		MoveJ [[-3.154, -2.294, 55.059], [0.4593308, -0.7049375, 0.0553457, -0.5376014], [-1, 1, 10, 1], [9E+09, 9E+09, 9E+09, 9E+09, 9E+09, 9E+09]], v30, z0, tNozzleAlCal, \Wobj := wobjAlWithButton;
		MoveJ [[-2.619, 2.889, 60.765], [-0.0173053, -0.4876135, 0.512087, -0.706895], [-1, 1, 11, 1], [9E+09, 9E+09, 9E+09, 9E+09, 9E+09, 9E+09]], v30, z0, tNozzleAlCal, \Wobj := wobjAlWithButton;
		MoveJ [[2.591, 2.915, 66.471], [-0.4850866, -0.0207851, 0.7068013, -0.5144813], [-1, 1, 12, 1], [9E+09, 9E+09, 9E+09, 9E+09, 9E+09, 9E+09]], v30, z0, tNozzleAlCal, \Wobj := wobjAlWithButton;
		MoveJ [[3.177, -2.262, 72.176], [-0.7046565, 0.4566787, 0.5398561, -0.0588154], [-1, 1, 13, 1], [9E+09, 9E+09, 9E+09, 9E+09, 9E+09, 9E+09]], v30, z0, tNozzleAlCal, \Wobj := wobjAlWithButton;
		MoveJ [[-1.908, -3.402, 77.882], [-0.5636644, 0.700467, 0.0966748, 0.4269455], [-1, 1, 14, 1], [9E+09, 9E+09, 9E+09, 9E+09, 9E+09, 9E+09]], v30, z0, tNozzleAlCal, \Wobj := wobjAlWithButton;
		MoveJ [[-3.587, 1.531, 83.588], [-0.1342539, 0.585837, -0.3959735, 0.6942449], [-1, 1, 15, 1], [9E+09, 9E+09, 9E+09, 9E+09, 9E+09, 9E+09]], v30, z0, tNozzleAlCal, \Wobj := wobjAlWithButton;
		MoveJ [[1.136, 3.731, 89.294], [0.3638523, 0.1714432, -0.6860082, 0.6063098], [-1, 1, 16, 1], [9E+09, 9E+09, 9E+09, 9E+09, 9E+09, 9E+09]], v30, z0, tNozzleAlCal, \Wobj := wobjAlWithButton;
		MoveJ [[3.831, -0.728, 95.000], [0.6757809, -0.3306755, -0.625023, 0.2081352], [-1, 1, 17, 1], [9E+09, 9E+09, 9E+09, 9E+09, 9E+09, 9E+09]], v30, z0, tNozzleAlCal, \Wobj := wobjAlWithButton;
		MoveJ [[3.573, -1.563, 95.000], [0.6948354, -0.3985766, -0.5840691, 0.1311631], [-1, 1, 17, 1], [9E+09, 9E+09, 9E+09, 9E+09, 9E+09, 9E+09]], v30, z0, tNozzleAlCal, \Wobj := wobjAlWithButton;
		MoveJ [[1.938, 3.384, 89.294], [0.4294497, 0.0935567, -0.7008903, 0.5617589], [-1, 1, 16, 1], [9E+09, 9E+09, 9E+09, 9E+09, 9E+09, 9E+09]], v30, z0, tNozzleAlCal, \Wobj := wobjAlWithButton;
		MoveJ [[-3.156, 2.291, 83.588], [-0.055679, 0.5378185, -0.4590766, 0.7049113], [-1, 1, 15, 1], [9E+09, 9E+09, 9E+09, 9E+09, 9E+09, 9E+09]], v30, z0, tNozzleAlCal, \Wobj := wobjAlWithButton;
		MoveJ [[-2.617, -2.892, 77.882], [-0.5123175, 0.7068868, 0.0176395, 0.4873713], [-1, 1, 14, 1], [9E+09, 9E+09, 9E+09, 9E+09, 9E+09, 9E+09]], v30, z0, tNozzleAlCal, \Wobj := wobjAlWithButton;
		MoveJ [[2.594, -2.913, 72.176], [-0.706811, 0.5142519, 0.4853298, 0.0204509], [-1, 1, 13, 1], [9E+09, 9E+09, 9E+09, 9E+09, 9E+09, 9E+09]], v30, z0, tNozzleAlCal, \Wobj := wobjAlWithButton;
		MoveJ [[3.175, 2.265, 66.471], [-0.5396401, 0.0584822, 0.7046842, -0.4569339], [-1, 1, 12, 1], [9E+09, 9E+09, 9E+09, 9E+09, 9E+09, 9E+09]], v30, z0, tNozzleAlCal, \Wobj := wobjAlWithButton;
		MoveJ [[-1.911, 3.400, 60.765], [-0.0963436, -0.4272119, 0.5634625, -0.7005126], [-1, 1, 11, 1], [9E+09, 9E+09, 9E+09, 9E+09, 9E+09, 9E+09]], v30, z0, tNozzleAlCal, \Wobj := wobjAlWithButton;
		MoveJ [[-3.586, -1.534, 55.059], [0.3962504, -0.6943083, 0.1339257, -0.5856498], [-1, 1, 10, 1], [9E+09, 9E+09, 9E+09, 9E+09, 9E+09, 9E+09]], v30, z0, tNozzleAlCal, \Wobj := wobjAlWithButton;
		MoveJ [[1.140, -3.730, 49.353], [0.6860892, -0.6061377, -0.3641389, -0.1711189], [-1, 1, 9, 1], [9E+09, 9E+09, 9E+09, 9E+09, 9E+09, 9E+09]], v30, z0, tNozzleAlCal, \Wobj := wobjAlWithButton;
		MoveJ [[3.831, 0.732, 43.647], [0.6248666, -0.2078157, -0.6758792, 0.3309709], [-1, 1, 8, 1], [9E+09, 9E+09, 9E+09, 9E+09, 9E+09, 9E+09]], v30, z0, tNozzleAlCal, \Wobj := wobjAlWithButton;
		MoveJ [[-0.316, 3.887, 37.941], [0.2439093, 0.2968424, -0.6417824, 0.663708], [-1, 1, 7, 1], [9E+09, 9E+09, 9E+09, 9E+09, 9E+09, 9E+09]], v30, z0, tNozzleAlCal, \Wobj := wobjAlWithButton;
		MoveJ [[-3.899, 0.104, 32.235], [-0.2618526, 0.6496108, -0.2792954, 0.6568358], [-1, 1, 7, 1], [9E+09, 9E+09, 9E+09, 9E+09, 9E+09, 9E+09]], v30, z0, tNozzleAlCal, \Wobj := wobjAlWithButton;
		MoveJ [[-0.523, -3.865, 26.529], [-0.6336286, 0.6699833, 0.2261028, 0.3138708], [-1, 1, 6, 1], [9E+09, 9E+09, 9E+09, 9E+09, 9E+09, 9E+09]], v30, z0, tNozzleAlCal, \Wobj := wobjAlWithButton;
		MoveJ [[3.786, -0.935, 20.824], [-0.6811865, 0.3475355, 0.6158077, -0.1896971], [-1, 1, 5, 1], [9E+09, 9E+09, 9E+09, 9E+09, 9E+09, 9E+09]], v30, z0, tNozzleAlCal, \Wobj := wobjAlWithButton;
		MoveJ [[1.337, 3.664, 15.118], [-0.3801917, -0.1527408, 0.6904131, -0.5961999], [-1, 1, 4, 1], [9E+09, 9E+09, 9E+09, 9E+09, 9E+09, 9E+09]], v30, z0, tNozzleAlCal, \Wobj := wobjAlWithButton;
		MoveJ [[-3.499, 1.723, 9.412], [0.1153414, -0.574862, 0.4117448, -0.6976363], [-1, 1, 3, 1], [9E+09, 9E+09, 9E+09, 9E+09, 9E+09, 9E+09]], v30, z0, tNozzleAlCal, \Wobj := wobjAlWithButton;
		MoveJ [[-2.090, -3.293, 3.706], [0.551856, -0.7028351, -0.0776071, -0.4421029], [-1, 1, 2, 1], [9E+09, 9E+09, 9E+09, 9E+09, 9E+09, 9E+09]], v30, z0, tNozzleAlCal, \Wobj := wobjAlWithButton;
		MoveJ [[3.049, -2.432, -2.000], [0.7059944, -0.4711782, -0.5272486, 0.0396478], [-1, 1, 1, 1], [9E+09, 9E+09, 9E+09, 9E+09, 9E+09, 9E+09]], v30, z0, tNozzleAlCal, \Wobj := wobjAlWithButton;
		MoveJ [[2.432, -3.049, -2.000], [0.7059944, -0.5272487, -0.4711782, -0.0396478], [-1, 1, 1, 1], [9E+09, 9E+09, 9E+09, 9E+09, 9E+09, 9E+09]], v30, z0, tNozzleAlCal, \Wobj := wobjAlWithButton;
		MoveJ [[-2.770, -2.745, 3.706], [0.4988863, -0.7071051, 0.0015734, -0.5011113], [-1, 1, 2, 1], [9E+09, 9E+09, 9E+09, 9E+09, 9E+09, 9E+09]], v30, z0, tNozzleAlCal, \Wobj := wobjAlWithButton;
		MoveJ [[-3.027, 2.459, 9.412], [0.0365057, -0.5251466, 0.4735199, -0.7061639], [-1, 1, 3, 1], [9E+09, 9E+09, 9E+09, 9E+09, 9E+09, 9E+09]], v30, z0, tNozzleAlCal, \Wobj := wobjAlWithButton;
		MoveJ [[2.119, 3.274, 15.118], [-0.4445543, -0.0744786, 0.7031735, -0.5498832], [-1, 1, 4, 1], [9E+09, 9E+09, 9E+09, 9E+09, 9E+09, 9E+09]], v30, z0, tNozzleAlCal, \Wobj := wobjAlWithButton;
		MoveJ [[3.483, -1.754, 20.824], [-0.6981427, 0.4142989, 0.573024, -0.1122357], [-1, 1, 5, 1], [9E+09, 9E+09, 9E+09, 9E+09, 9E+09, 9E+09]], v30, z0, tNozzleAlCal, \Wobj := wobjAlWithButton;
		MoveJ [[-1.370, -3.652, 26.529], [-0.5945021, 0.691086, 0.1496668, 0.3828411], [-1, 1, 6, 1], [9E+09, 9E+09, 9E+09, 9E+09, 9E+09, 9E+09]], v30, z0, tNozzleAlCal, \Wobj := wobjAlWithButton;
		MoveJ [[-3.778, 0.969, 32.235], [-0.1866639, 0.614255, -0.3502725, 0.6820239], [-1, 1, 7, 1], [9E+09, 9E+09, 9E+09, 9E+09, 9E+09, 9E+09]], v30, z0, tNozzleAlCal, \Wobj := wobjAlWithButton;
		MoveJ [[0.557, 3.860, 37.941], [0.3166874, 0.2231191, -0.6709828, 0.6322255], [-1, 1, 8, 1], [9E+09, 9E+09, 9E+09, 9E+09, 9E+09, 9E+09]], v30, z0, tNozzleAlCal, \Wobj := wobjAlWithButton;
		MoveJ [[3.898, -0.139, 43.647], [0.6579946, -0.2821835, -0.6483614, 0.258927], [-1, 1, 9, 1], [9E+09, 9E+09, 9E+09, 9E+09, 9E+09, 9E+09]], v30, z0, tNozzleAlCal, \Wobj := wobjAlWithButton;
		MoveJ [[0.281, -3.890, 49.353], [0.662616, -0.643097, -0.2939834, -0.2468605], [-1, 1, 9, 1], [9E+09, 9E+09, 9E+09, 9E+09, 9E+09, 9E+09]], v30, z0, tNozzleAlCal, \Wobj := wobjAlWithButton;
		MoveJ [[-3.837, -0.698, 55.059], [0.3281869, -0.6749477, 0.2108214, -0.6263333], [-1, 1, 10, 1], [9E+09, 9E+09, 9E+09, 9E+09, 9E+09, 9E+09]], v30, z0, tNozzleAlCal, \Wobj := wobjAlWithButton;
		MoveJ [[-1.106, 3.740, 60.765], [-0.1741704, -0.3614379, 0.6077522, -0.6853209], [-1, 1, 11, 1], [9E+09, 9E+09, 9E+09, 9E+09, 9E+09, 9E+09]], v30, z0, tNozzleAlCal, \Wobj := wobjAlWithButton;
		MoveJ [[3.599, 1.502, 66.471], [-0.5874074, 0.1370141, 0.6937054, -0.3936403], [-1, 1, 12, 1], [9E+09, 9E+09, 9E+09, 9E+09, 9E+09, 9E+09]], v30, z0, tNozzleAlCal, \Wobj := wobjAlWithButton;
		MoveJ [[1.881, -3.417, 72.176], [-0.700077, 0.5653581, 0.4247002, 0.0994601], [-1, 1, 13, 1], [9E+09, 9E+09, 9E+09, 9E+09, 9E+09, 9E+09]], v30, z0, tNozzleAlCal, \Wobj := wobjAlWithButton;
		MoveJ [[-3.195, -2.237, 77.882], [-0.4545279, 0.704417, -0.0616176, 0.5416682], [-1, 1, 14, 1], [9E+09, 9E+09, 9E+09, 9E+09, 9E+09, 9E+09]], v30, z0, tNozzleAlCal, \Wobj := wobjAlWithButton;
		MoveJ [[-2.568, 2.936, 83.588], [0.0235962, 0.4830365, -0.5164066, 0.706713], [-1, 1, 15, 1], [9E+09, 9E+09, 9E+09, 9E+09, 9E+09, 9E+09]], v30, z0, tNozzleAlCal, \Wobj := wobjAlWithButton;
		MoveJ [[2.642, 2.868, 89.294], [0.4896464, 0.0144936, -0.7069583, 0.5101436], [-1, 1, 16, 1], [9E+09, 9E+09, 9E+09, 9E+09, 9E+09, 9E+09]], v30, z0, tNozzleAlCal, \Wobj := wobjAlWithButton;
		MoveJ [[3.136, -2.319, 95.000], [0.7051521, -0.4614655, -0.5357702, 0.0525414], [-1, 1, 17, 1], [9E+09, 9E+09, 9E+09, 9E+09, 9E+09, 9E+09]], v30, z0, tNozzleAlCal, \Wobj := wobjAlWithButton;
		MoveJ [[2.541, -2.958, 95.000], [0.706601, -0.5185511, -0.4807336, -0.0267409], [-1, 1, 17, 1], [9E+09, 9E+09, 9E+09, 9E+09, 9E+09, 9E+09]], v30, z0, tNozzleAlCal, \Wobj := wobjAlWithButton;
		MoveJ [[3.214, 2.209, 89.294], [0.5436856, -0.0647518, -0.7041358, 0.4521129], [-1, 1, 16, 1], [9E+09, 9E+09, 9E+09, 9E+09, 9E+09, 9E+09]], v30, z0, tNozzleAlCal, \Wobj := wobjAlWithButton;
		MoveJ [[-1.850, 3.433, 83.588], [0.1025745, 0.4221801, -0.5672425, 0.6996274], [-1, 1, 15, 1], [9E+09, 9E+09, 9E+09, 9E+09, 9E+09, 9E+09]], v30, z0, tNozzleAlCal, \Wobj := wobjAlWithButton;
		MoveJ [[-3.612, -1.470, 77.882], [-0.3910223, 0.6930888, -0.1400998, 0.5891533], [-1, 1, 14, 1], [9E+09, 9E+09, 9E+09, 9E+09, 9E+09, 9E+09]], v30, z0, tNozzleAlCal, \Wobj := wobjAlWithButton;
		MoveJ [[1.073, -3.749, 72.176], [-0.684539, 0.6093546, 0.3587298, 0.1772184], [-1, 1, 13, 1], [9E+09, 9E+09, 9E+09, 9E+09, 9E+09, 9E+09]], v30, z0, tNozzleAlCal, \Wobj := wobjAlWithButton;
		MoveJ [[3.843, 0.664, 66.471], [-0.6277876, 0.2138229, 0.6740028, -0.3253964], [-1, 1, 12, 1], [9E+09, 9E+09, 9E+09, 9E+09, 9E+09, 9E+09]], v30, z0, tNozzleAlCal, \Wobj := wobjAlWithButton;
		MoveJ [[-0.247, 3.892, 60.765], [-0.2498068, -0.2911186, 0.6443989, -0.6615108], [-1, 1, 11, 1], [9E+09, 9E+09, 9E+09, 9E+09, 9E+09, 9E+09]], v30, z0, tNozzleAlCal, \Wobj := wobjAlWithButton;
		MoveJ [[-3.896, 0.173, 55.059], [0.2559963, -0.6470992, 0.285066, -0.6591403], [-1, 1, 11, 1], [9E+09, 9E+09, 9E+09, 9E+09, 9E+09, 9E+09]], v30, z0, tNozzleAlCal, \Wobj := wobjAlWithButton;
		MoveJ [[-0.591, -3.855, 49.353], [0.63081, -0.6719691, -0.2201309, -0.3194978], [-1, 1, 10, 1], [9E+09, 9E+09, 9E+09, 9E+09, 9E+09, 9E+09]], v30, z0, tNozzleAlCal, \Wobj := wobjAlWithButton;
		MoveJ [[3.769, -1.003, 43.647], [0.6828479, -0.3530026, -0.6126901, 0.1836269], [-1, 1, 9, 1], [9E+09, 9E+09, 9E+09, 9E+09, 9E+09, 9E+09]], v30, z0, tNozzleAlCal, \Wobj := wobjAlWithButton;
		MoveJ [[1.402, 3.639, 37.941], [0.385483, 0.1465899, -0.6917452, 0.5927925], [-1, 1, 8, 1], [9E+09, 9E+09, 9E+09, 9E+09, 9E+09, 9E+09]], v30, z0, tNozzleAlCal, \Wobj := wobjAlWithButton;
		MoveJ [[-3.467, 1.785, 32.235], [-0.1091277, 0.5711746, -0.4168448, 0.6986352], [-1, 1, 7, 1], [9E+09, 9E+09, 9E+09, 9E+09, 9E+09, 9E+09]], v30, z0, tNozzleAlCal, \Wobj := wobjAlWithButton;
		MoveJ [[-2.148, -3.255, 26.529], [-0.5478994, 0.703498, 0.0713487, 0.446997], [-1, 1, 6, 1], [9E+09, 9E+09, 9E+09, 9E+09, 9E+09, 9E+09]], v30, z0, tNozzleAlCal, \Wobj := wobjAlWithButton;
		MoveJ [[3.005, -2.485, 20.824], [-0.7063193, 0.4758522, 0.5230342, -0.0333628], [-1, 1, 5, 1], [9E+09, 9E+09, 9E+09, 9E+09, 9E+09, 9E+09]], v30, z0, tNozzleAlCal, \Wobj := wobjAlWithButton;
		MoveJ [[2.794, 2.721, 15.118], [-0.5033265, 0.0047201, 0.7070911, -0.4966513], [-1, 1, 4, 1], [9E+09, 9E+09, 9E+09, 9E+09, 9E+09, 9E+09]], v30, z0, tNozzleAlCal, \Wobj := wobjAlWithButton;
		MoveJ [[-2.404, 3.071, 9.412], [-0.0427891, -0.4688272, 0.5293403, -0.705811], [-1, 1, 3, 1], [9E+09, 9E+09, 9E+09, 9E+09, 9E+09, 9E+09]], v30, z0, tNozzleAlCal, \Wobj := wobjAlWithButton;
		MoveJ [[-3.311, -2.060, 3.706], [0.4396427, -0.7024828, 0.0807342, -0.553818], [-1, 1, 2, 1], [9E+09, 9E+09, 9E+09, 9E+09, 9E+09, 9E+09]], v30, z0, tNozzleAlCal, \Wobj := wobjAlWithButton;
		MoveJ [[1.692, -3.514, -2.000], [0.6971161, -0.5766887, -0.4091824, -0.1184448], [-1, 1, 1, 1], [9E+09, 9E+09, 9E+09, 9E+09, 9E+09, 9E+09]], v30, z0, tNozzleAlCal, \Wobj := wobjAlWithButton;
		MoveJ [[0.868, -3.802, -2.000], [0.6794712, -0.6188765, -0.3420409, -0.1957522], [-1, 1, 1, 1], [9E+09, 9E+09, 9E+09, 9E+09, 9E+09, 9E+09]], v30, z0, tNozzleAlCal, \Wobj := wobjAlWithButton;
		MoveJ [[-3.687, -1.272, 3.706], [0.3748704, -0.6890263, 0.1588796, -0.59956], [-1, 1, 2, 1], [9E+09, 9E+09, 9E+09, 9E+09, 9E+09, 9E+09]], v30, z0, tNozzleAlCal, \Wobj := wobjAlWithButton;
		MoveJ [[-1.661, 3.529, 9.412], [-0.1215459, -0.406612, 0.5785039, -0.6965821], [-1, 1, 3, 1], [9E+09, 9E+09, 9E+09, 9E+09, 9E+09, 9E+09]], v30, z0, tNozzleAlCal, \Wobj := wobjAlWithButton;
		MoveJ [[3.330, 2.031, 15.118], [-0.555769, 0.0838595, 0.7021165, -0.4371738], [-1, 1, 4, 1], [9E+09, 9E+09, 9E+09, 9E+09, 9E+09, 9E+09]], v30, z0, tNozzleAlCal, \Wobj := wobjAlWithButton;
		MoveJ [[2.377, -3.092, 20.824], [-0.7056136, 0.5314214, 0.4664669, 0.0459297], [-1, 1, 5, 1], [9E+09, 9E+09, 9E+09, 9E+09, 9E+09, 9E+09]], v30, z0, tNozzleAlCal, \Wobj := wobjAlWithButton;
		MoveJ [[-2.818, -2.696, 26.529], [-0.4944065, 0.7070631, -0.0078667, 0.5055316], [-1, 1, 6, 1], [9E+09, 9E+09, 9E+09, 9E+09, 9E+09, 9E+09]], v30, z0, tNozzleAlCal, \Wobj := wobjAlWithButton;
		MoveJ [[-2.983, 2.512, 32.235], [-0.0302192, 0.5209114, -0.4781751, 0.7064608], [-1, 1, 7, 1], [9E+09, 9E+09, 9E+09, 9E+09, 9E+09, 9E+09]], v30, z0, tNozzleAlCal, \Wobj := wobjAlWithButton;
		MoveJ [[2.177, 3.236, 37.941], [0.4494308, 0.0682173, -0.7038085, 0.5459047], [-1, 1, 8, 1], [9E+09, 9E+09, 9E+09, 9E+09, 9E+09, 9E+09]], v30, z0, tNozzleAlCal, \Wobj := wobjAlWithButton;
		MoveJ [[3.451, -1.816, 43.647], [0.699114, -0.4193825, -0.5693139, 0.1060176], [-1, 1, 9, 1], [9E+09, 9E+09, 9E+09, 9E+09, 9E+09, 9E+09]], v30, z0, tNozzleAlCal, \Wobj := wobjAlWithButton;
		MoveJ [[-1.434, -3.627, 49.353], [0.5910712, -0.6923907, -0.1435101, -0.3881172], [-1, 1, 10, 1], [9E+09, 9E+09, 9E+09, 9E+09, 9E+09, 9E+09]], v30, z0, tNozzleAlCal, \Wobj := wobjAlWithButton;
		MoveJ [[-3.760, 1.036, 55.059], [0.1805863, -0.6111132, 0.3557257, -0.6836583], [-1, 1, 11, 1], [9E+09, 9E+09, 9E+09, 9E+09, 9E+09, 9E+09]], v30, z0, tNozzleAlCal, \Wobj := wobjAlWithButton;
		MoveJ [[0.626, 3.849, 60.765], [-0.3223018, -0.2171383, 0.672942, -0.6293819], [-1, 1, 12, 1], [9E+09, 9E+09, 9E+09, 9E+09, 9E+09, 9E+09]], v30, z0, tNozzleAlCal, \Wobj := wobjAlWithButton;
		MoveJ [[3.894, -0.208, 66.471], [-0.660273, 0.2879428, 0.6458243, -0.2530604], [-1, 1, 13, 1], [9E+09, 9E+09, 9E+09, 9E+09, 9E+09, 9E+09]], v30, z0, tNozzleAlCal, \Wobj := wobjAlWithButton;
		MoveJ [[0.212, -3.894, 72.176], [-0.6603926, 0.6456881, 0.2882481, 0.2527482], [-1, 1, 13, 1], [9E+09, 9E+09, 9E+09, 9E+09, 9E+09, 9E+09]], v30, z0, tNozzleAlCal, \Wobj := wobjAlWithButton;
		MoveJ [[-3.849, -0.629, 77.882], [-0.3225994, 0.6730446, -0.2168202, 0.6292294], [-1, 1, 14, 1], [9E+09, 9E+09, 9E+09, 9E+09, 9E+09, 9E+09]], v30, z0, tNozzleAlCal, \Wobj := wobjAlWithButton;
		MoveJ [[-1.040, 3.759, 83.588], [0.180263, 0.3560145, -0.610945, 0.6837436], [-1, 1, 15, 1], [9E+09, 9E+09, 9E+09, 9E+09, 9E+09, 9E+09]], v30, z0, tNozzleAlCal, \Wobj := wobjAlWithButton;
		MoveJ [[3.625, 1.438, 89.294], [0.5908876, -0.1431828, -0.6924585, 0.3883966], [-1, 1, 16, 1], [9E+09, 9E+09, 9E+09, 9E+09, 9E+09, 9E+09]], v30, z0, tNozzleAlCal, \Wobj := wobjAlWithButton;
		MoveJ [[1.819, -3.450, 95.000], [0.699164, -0.5691156, -0.4196516, -0.105687], [-1, 1, 17, 1], [9E+09, 9E+09, 9E+09, 9E+09, 9E+09, 9E+09]], v30, z0, tNozzleAlCal, \Wobj := wobjAlWithButton;
		MoveJ [[1.006, -3.768, 95.000], [0.6829346, -0.6125232, -0.3532922, -0.183304], [-1, 1, 17, 1], [9E+09, 9E+09, 9E+09, 9E+09, 9E+09, 9E+09]], v30, z0, tNozzleAlCal, \Wobj := wobjAlWithButton;
		MoveJ [[3.854, 0.595, 89.294], [0.6306588, -0.2198133, -0.672073, 0.319796], [-1, 1, 16, 1], [9E+09, 9E+09, 9E+09, 9E+09, 9E+09, 9E+09]], v30, z0, tNozzleAlCal, \Wobj := wobjAlWithButton;
		MoveJ [[-0.177, 3.896, 83.588], [0.2556845, 0.2853718, -0.6469644, 0.6592613], [-1, 1, 15, 1], [9E+09, 9E+09, 9E+09, 9E+09, 9E+09, 9E+09]], v30, z0, tNozzleAlCal, \Wobj := wobjAlWithButton;
		MoveJ [[-3.892, 0.243, 77.882], [-0.2501196, 0.6445365, -0.290814, 0.6613926], [-1, 1, 15, 1], [9E+09, 9E+09, 9E+09, 9E+09, 9E+09, 9E+09]], v30, z0, tNozzleAlCal, \Wobj := wobjAlWithButton;
		MoveJ [[-0.660, -3.844, 72.176], [-0.6279414, 0.6739017, 0.2141415, 0.3250995], [-1, 1, 14, 1], [9E+09, 9E+09, 9E+09, 9E+09, 9E+09, 9E+09]], v30, z0, tNozzleAlCal, \Wobj := wobjAlWithButton;
		MoveJ [[3.750, -1.070, 66.471], [-0.6844551, 0.3584417, 0.6095241, -0.1775421], [-1, 1, 13, 1], [9E+09, 9E+09, 9E+09, 9E+09, 9E+09, 9E+09]], v30, z0, tNozzleAlCal, \Wobj := wobjAlWithButton;
		MoveJ [[1.467, 3.614, 60.765], [-0.3907437, -0.1404274, 0.6930225, -0.5893381], [-1, 1, 12, 1], [9E+09, 9E+09, 9E+09, 9E+09, 9E+09, 9E+09]], v30, z0, tNozzleAlCal, \Wobj := wobjAlWithButton;
		MoveJ [[-3.435, 1.847, 55.059], [0.1029054, -0.567442, 0.4219119, -0.6995788], [-1, 1, 11, 1], [9E+09, 9E+09, 9E+09, 9E+09, 9E+09, 9E+09]], v30, z0, tNozzleAlCal, \Wobj := wobjAlWithButton;
		MoveJ [[-2.205, -3.216, 49.353], [0.5438993, -0.7041051, -0.0650846, -0.4518557], [-1, 1, 10, 1], [9E+09, 9E+09, 9E+09, 9E+09, 9E+09, 9E+09]], v30, z0, tNozzleAlCal, \Wobj := wobjAlWithButton;
		MoveJ [[2.961, -2.539, 43.647], [0.7065883, -0.4804885, -0.5187783, 0.027075], [-1, 1, 9, 1], [9E+09, 9E+09, 9E+09, 9E+09, 9E+09, 9E+09]], v30, z0, tNozzleAlCal, \Wobj := wobjAlWithButton;
		MoveJ [[2.842, 2.670, 37.941], [0.5077268, -0.0110132, -0.707021, 0.4921519], [-1, 1, 8, 1], [9E+09, 9E+09, 9E+09, 9E+09, 9E+09, 9E+09]], v30, z0, tNozzleAlCal, \Wobj := wobjAlWithButton;
		MoveJ [[-2.349, 3.113, 32.235], [0.0490693, 0.4640974, -0.533492, 0.7054022], [-1, 1, 7, 1], [9E+09, 9E+09, 9E+09, 9E+09, 9E+09, 9E+09]], v30, z0, tNozzleAlCal, \Wobj := wobjAlWithButton;
		MoveJ [[-3.348, -2.001, 26.529], [-0.4346962, 0.7017364, -0.0869832, 0.5577089], [-1, 1, 6, 1], [9E+09, 9E+09, 9E+09, 9E+09, 9E+09, 9E+09]], v30, z0, tNozzleAlCal, \Wobj := wobjAlWithButton;
		MoveJ [[1.629, -3.543, 20.824], [-0.6960343, 0.5803076, 0.4040335, 0.1246445], [-1, 1, 5, 1], [9E+09, 9E+09, 9E+09, 9E+09, 9E+09, 9E+09]], v30, z0, tNozzleAlCal, \Wobj := wobjAlWithButton;
		MoveJ [[3.698, 1.239, 15.118], [-0.6012223, 0.1619443, 0.6883125, -0.3721986], [-1, 1, 4, 1], [9E+09, 9E+09, 9E+09, 9E+09, 9E+09, 9E+09]], v30, z0, tNozzleAlCal, \Wobj := wobjAlWithButton;
		MoveJ [[-0.834, 3.810, 9.412], [-0.1987741, -0.3392834, 0.6203925, -0.6785933], [-1, 1, 3, 1], [9E+09, 9E+09, 9E+09, 9E+09, 9E+09, 9E+09]], v30, z0, tNozzleAlCal, \Wobj := wobjAlWithButton;
		MoveJ [[-3.877, -0.419, 3.706], [0.3053839, -0.666905, 0.2350271, -0.6377623], [-1, 1, 2, 1], [9E+09, 9E+09, 9E+09, 9E+09, 9E+09, 9E+09]], v30, z0, tNozzleAlCal, \Wobj := wobjAlWithButton;
		MoveJ [[0.000, -3.900, -2.000], [0.6532815, -0.6532815, -0.270598, -0.270598], [-1, 1, 1, 1], [9E+09, 9E+09, 9E+09, 9E+09, 9E+09, 9E+09]], v30, z0, tNozzleAlCal, \Wobj := wobjAlWithButton;
		MoveJ [[-0.868, -3.802, -2.000], [0.6188765, -0.6794712, -0.1957522, -0.3420409], [-1, 1, 2, 1], [9E+09, 9E+09, 9E+09, 9E+09, 9E+09, 9E+09]], v30, z0, tNozzleAlCal, \Wobj := wobjAlWithButton;
		MoveJ [[-3.873, 0.454, 3.706], [0.232057, -0.636397, 0.308219, -0.6679443], [-1, 1, 3, 1], [9E+09, 9E+09, 9E+09, 9E+09, 9E+09, 9E+09]], v30, z0, tNozzleAlCal, \Wobj := wobjAlWithButton;
		MoveJ [[0.035, 3.900, 9.412], [-0.2735026, -0.2676881, 0.6544793, -0.6520709], [-1, 1, 4, 1], [9E+09, 9E+09, 9E+09, 9E+09, 9E+09, 9E+09]], v30, z0, tNozzleAlCal, \Wobj := wobjAlWithButton;
		MoveJ [[3.881, 0.385, 15.118], [-0.639115, 0.2379926, 0.6658525, -0.3025427], [-1, 1, 4, 1], [9E+09, 9E+09, 9E+09, 9E+09, 9E+09, 9E+09]], v30, z0, tNozzleAlCal, \Wobj := wobjAlWithButton;
		MoveJ [[0.800, -3.817, 20.824], [-0.677702, 0.6218962, 0.3365192, 0.2017919], [-1, 1, 5, 1], [9E+09, 9E+09, 9E+09, 9E+09, 9E+09, 9E+09]], v30, z0, tNozzleAlCal, \Wobj := wobjAlWithButton;
		MoveJ [[-3.709, -1.206, 26.529], [-0.3695193, 0.687585, -0.1650058, 0.6028727], [-1, 1, 6, 1], [9E+09, 9E+09, 9E+09, 9E+09, 9E+09, 9E+09]], v30, z0, tNozzleAlCal, \Wobj := wobjAlWithButton;
		MoveJ [[-1.598, 3.558, 32.235], [0.1277408, 0.4014471, -0.5820999, 0.6954727], [-1, 1, 7, 1], [9E+09, 9E+09, 9E+09, 9E+09, 9E+09, 9E+09]], v30, z0, tNozzleAlCal, \Wobj := wobjAlWithButton;
		MoveJ [[3.365, 1.971, 37.941], [0.5596379, -0.0901052, -0.7013424, 0.43221], [-1, 1, 8, 1], [9E+09, 9E+09, 9E+09, 9E+09, 9E+09, 9E+09]], v30, z0, tNozzleAlCal, \Wobj := wobjAlWithButton;
		MoveJ [[2.322, -3.134, 43.647], [0.7051768, -0.535552, -0.4617186, -0.052208], [-1, 1, 9, 1], [9E+09, 9E+09, 9E+09, 9E+09, 9E+09, 9E+09]], v30, z0, tNozzleAlCal, \Wobj := wobjAlWithButton;
		MoveJ [[-2.866, -2.645, 49.353], [0.4898876, -0.706965, 0.0141594, -0.509912], [-1, 1, 10, 1], [9E+09, 9E+09, 9E+09, 9E+09, 9E+09, 9E+09]], v30, z0, tNozzleAlCal, \Wobj := wobjAlWithButton;
		MoveJ [[-2.938, 2.565, 55.059], [0.0239303, -0.5166349, 0.4827924, -0.7067018], [-1, 1, 11, 1], [9E+09, 9E+09, 9E+09, 9E+09, 9E+09, 9E+09]], v30, z0, tNozzleAlCal, \Wobj := wobjAlWithButton;
		MoveJ [[2.234, 3.197, 60.765], [-0.4542717, -0.0619505, 0.7043878, -0.5418831], [-1, 1, 12, 1], [9E+09, 9E+09, 9E+09, 9E+09, 9E+09, 9E+09]], v30, z0, tNozzleAlCal, \Wobj := wobjAlWithButton;
		MoveJ [[3.418, -1.877, 66.471], [-0.7000298, 0.4244329, 0.5655588, -0.0997911], [-1, 1, 13, 1], [9E+09, 9E+09, 9E+09, 9E+09, 9E+09, 9E+09]], v30, z0, tNozzleAlCal, \Wobj := wobjAlWithButton;
		MoveJ [[-1.499, -3.601, 72.176], [-0.5875934, 0.6936406, 0.137342, 0.3933624], [-1, 1, 14, 1], [9E+09, 9E+09, 9E+09, 9E+09, 9E+09, 9E+09]], v30, z0, tNozzleAlCal, \Wobj := wobjAlWithButton;
		MoveJ [[-3.741, 1.103, 77.882], [-0.1744944, 0.6079229, -0.3611506, 0.6852385], [-1, 1, 15, 1], [9E+09, 9E+09, 9E+09, 9E+09, 9E+09, 9E+09]], v30, z0, tNozzleAlCal, \Wobj := wobjAlWithButton;
		MoveJ [[0.694, 3.838, 83.588], [0.3278907, 0.2111404, -0.674848, 0.6264884], [-1, 1, 16, 1], [9E+09, 9E+09, 9E+09, 9E+09, 9E+09, 9E+09]], v30, z0, tNozzleAlCal, \Wobj := wobjAlWithButton;
		MoveJ [[3.890, -0.277, 89.294], [0.6624992, -0.2936794, -0.6432359, 0.2471738], [-1, 1, 17, 1], [9E+09, 9E+09, 9E+09, 9E+09, 9E+09, 9E+09]], v30, z0, tNozzleAlCal, \Wobj := wobjAlWithButton;
		MoveJ [[0.143, -3.897, 95.000], [0.6581169, -0.648228, -0.2824899, -0.2586158], [-1, 1, 17, 1], [9E+09, 9E+09, 9E+09, 9E+09, 9E+09, 9E+09]], v30, z0, tNozzleAlCal, \Wobj := wobjAlWithButton;
		MoveJ [[-0.728, -3.831, 95.000], [0.6250231, -0.6757809, -0.2081351, -0.3306754], [-1, 1, 18, 1], [9E+09, 9E+09, 9E+09, 9E+09, 9E+09, 9E+09]], v30, z0, tNozzleAlCal, \Wobj := wobjAlWithButton;
		MoveJ [[3.731, -1.136, 89.294], [0.6860082, -0.3638524, -0.6063097, 0.1714433], [-1, 1, 17, 1], [9E+09, 9E+09, 9E+09, 9E+09, 9E+09, 9E+09]], v30, z0, tNozzleAlCal, \Wobj := wobjAlWithButton;
		MoveJ [[1.531, 3.587, 83.588], [0.3959734, 0.1342538, -0.6942449, 0.5858371], [-1, 1, 16, 1], [9E+09, 9E+09, 9E+09, 9E+09, 9E+09, 9E+09]], v30, z0, tNozzleAlCal, \Wobj := wobjAlWithButton;
		MoveJ [[-3.402, 1.908, 77.882], [-0.0966749, 0.5636644, -0.4269456, 0.700467], [-1, 1, 15, 1], [9E+09, 9E+09, 9E+09, 9E+09, 9E+09, 9E+09]], v30, z0, tNozzleAlCal, \Wobj := wobjAlWithButton;
		MoveJ [[-2.262, -3.177, 72.176], [-0.5398561, 0.7046565, 0.0588153, 0.4566787], [-1, 1, 14, 1], [9E+09, 9E+09, 9E+09, 9E+09, 9E+09, 9E+09]], v30, z0, tNozzleAlCal, \Wobj := wobjAlWithButton;
		MoveJ [[2.915, -2.591, 66.471], [-0.7068013, 0.4850867, 0.5144813, -0.0207852], [-1, 1, 13, 1], [9E+09, 9E+09, 9E+09, 9E+09, 9E+09, 9E+09]], v30, z0, tNozzleAlCal, \Wobj := wobjAlWithButton;
		MoveJ [[2.889, 2.619, 60.765], [-0.512087, 0.0173054, 0.706895, -0.4876136], [-1, 1, 12, 1], [9E+09, 9E+09, 9E+09, 9E+09, 9E+09, 9E+09]], v30, z0, tNozzleAlCal, \Wobj := wobjAlWithButton;
		MoveJ [[-2.294, 3.154, 55.059], [-0.0553456, -0.4593308, 0.5376014, -0.7049375], [-1, 1, 11, 1], [9E+09, 9E+09, 9E+09, 9E+09, 9E+09, 9E+09]], v30, z0, tNozzleAlCal, \Wobj := wobjAlWithButton;
		MoveJ [[-3.383, -1.941, 49.353], [0.4297153, -0.7009344, 0.0932254, -0.5615557], [-1, 1, 10, 1], [9E+09, 9E+09, 9E+09, 9E+09, 9E+09, 9E+09]], v30, z0, tNozzleAlCal, \Wobj := wobjAlWithButton;
		MoveJ [[1.566, -3.572, 43.647], [0.6948974, -0.5838806, -0.3988527, -0.1308345], [-1, 1, 9, 1], [9E+09, 9E+09, 9E+09, 9E+09, 9E+09, 9E+09]], v30, z0, tNozzleAlCal, \Wobj := wobjAlWithButton;
		MoveJ [[3.719, 1.173, 37.941], [0.6045112, -0.1680641, -0.6868439, 0.3668328], [-1, 1, 8, 1], [9E+09, 9E+09, 9E+09, 9E+09, 9E+09, 9E+09]], v30, z0, tNozzleAlCal, \Wobj := wobjAlWithButton;
		MoveJ [[-0.766, 3.824, 32.235], [0.2048058, 0.3337483, -0.6233876, 0.6767973], [-1, 1, 7, 1], [9E+09, 9E+09, 9E+09, 9E+09, 9E+09, 9E+09]], v30, z0, tNozzleAlCal, \Wobj := wobjAlWithButton;
		MoveJ [[-3.884, -0.350, 26.529], [-0.2996955, 0.6647868, -0.2409534, 0.640455], [-1, 1, 6, 1], [9E+09, 9E+09, 9E+09, 9E+09, 9E+09, 9E+09]], v30, z0, tNozzleAlCal, \Wobj := wobjAlWithButton;
		MoveJ [[-0.069, -3.899, 20.824], [-0.6508473, 0.655664, 0.264773, 0.2764017], [-1, 1, 6, 1], [9E+09, 9E+09, 9E+09, 9E+09, 9E+09, 9E+09]], v30, z0, tNozzleAlCal, \Wobj := wobjAlWithButton;
		MoveJ [[3.869, -0.488, 15.118], [-0.6689704, 0.311048, 0.6350191, -0.2290822], [-1, 1, 5, 1], [9E+09, 9E+09, 9E+09, 9E+09, 9E+09, 9E+09]], v30, z0, tNozzleAlCal, \Wobj := wobjAlWithButton;
		MoveJ [[0.902, 3.794, 9.412], [-0.3447916, -0.1927265, 0.6803356, -0.6173482], [-1, 1, 4, 1], [9E+09, 9E+09, 9E+09, 9E+09, 9E+09, 9E+09]], v30, z0, tNozzleAlCal, \Wobj := wobjAlWithButton;
		MoveJ [[-3.675, 1.304, 3.706], [0.1558118, -0.5978859, 0.3775348, -0.6897266], [-1, 1, 3, 1], [9E+09, 9E+09, 9E+09, 9E+09, 9E+09, 9E+09]], v30, z0, tNozzleAlCal, \Wobj := wobjAlWithButton;
		MoveJ [[-1.692, -3.514, -2.000], [0.5766887, -0.6971161, -0.1184448, -0.4091824], [-1, 1, 2, 1], [9E+09, 9E+09, 9E+09, 9E+09, 9E+09, 9E+09]], v30, z0, tNozzleAlCal, \Wobj := wobjAlWithButton;
		MoveJ [[-2.432, -3.049, -2.000], [0.5272487, -0.7059944, -0.0396478, -0.4711782], [-1, 1, 2, 1], [9E+09, 9E+09, 9E+09, 9E+09, 9E+09, 9E+09]], v30, z0, tNozzleAlCal, \Wobj := wobjAlWithButton;
		MoveJ [[-3.293, 2.090, 3.706], [0.0776072, -0.551856, 0.4421029, -0.7028351], [-1, 1, 3, 1], [9E+09, 9E+09, 9E+09, 9E+09, 9E+09, 9E+09]], v30, z0, tNozzleAlCal, \Wobj := wobjAlWithButton;
		MoveJ [[1.723, 3.499, 9.412], [-0.4117447, -0.1153413, 0.6976363, -0.574862], [-1, 1, 4, 1], [9E+09, 9E+09, 9E+09, 9E+09, 9E+09, 9E+09]], v30, z0, tNozzleAlCal, \Wobj := wobjAlWithButton;
		MoveJ [[3.664, -1.337, 15.118], [-0.6904131, 0.3801918, 0.5961999, -0.1527409], [-1, 1, 5, 1], [9E+09, 9E+09, 9E+09, 9E+09, 9E+09, 9E+09]], v30, z0, tNozzleAlCal, \Wobj := wobjAlWithButton;
		MoveJ [[-0.935, -3.786, 20.824], [-0.6158077, 0.6811865, 0.189697, 0.3475355], [-1, 1, 6, 1], [9E+09, 9E+09, 9E+09, 9E+09, 9E+09, 9E+09]], v30, z0, tNozzleAlCal, \Wobj := wobjAlWithButton;
		MoveJ [[-3.865, 0.523, 26.529], [-0.2261029, 0.6336286, -0.3138708, 0.6699832], [-1, 1, 7, 1], [9E+09, 9E+09, 9E+09, 9E+09, 9E+09, 9E+09]], v30, z0, tNozzleAlCal, \Wobj := wobjAlWithButton;
		MoveJ [[0.104, 3.899, 32.235], [0.2792953, 0.2618525, -0.6568358, 0.6496108], [-1, 1, 8, 1], [9E+09, 9E+09, 9E+09, 9E+09, 9E+09, 9E+09]], v30, z0, tNozzleAlCal, \Wobj := wobjAlWithButton;
		MoveJ [[3.887, 0.316, 37.941], [0.6417824, -0.2439094, -0.663708, 0.2968425], [-1, 1, 8, 1], [9E+09, 9E+09, 9E+09, 9E+09, 9E+09, 9E+09]], v30, z0, tNozzleAlCal, \Wobj := wobjAlWithButton;
		MoveJ [[0.732, -3.831, 43.647], [0.6758792, -0.6248667, -0.3309709, -0.2078156], [-1, 1, 9, 1], [9E+09, 9E+09, 9E+09, 9E+09, 9E+09, 9E+09]], v30, z0, tNozzleAlCal, \Wobj := wobjAlWithButton;
		MoveJ [[-3.730, -1.140, 49.353], [0.364139, -0.6860892, 0.171119, -0.6061376], [-1, 1, 10, 1], [9E+09, 9E+09, 9E+09, 9E+09, 9E+09, 9E+09]], v30, z0, tNozzleAlCal, \Wobj := wobjAlWithButton;
		MoveJ [[-1.534, 3.586, 55.059], [-0.1339256, -0.3962503, 0.5856498, -0.6943083], [-1, 1, 11, 1], [9E+09, 9E+09, 9E+09, 9E+09, 9E+09, 9E+09]], v30, z0, tNozzleAlCal, \Wobj := wobjAlWithButton;
		MoveJ [[3.400, 1.911, 60.765], [-0.5634625, 0.0963437, 0.7005126, -0.427212], [-1, 1, 12, 1], [9E+09, 9E+09, 9E+09, 9E+09, 9E+09, 9E+09]], v30, z0, tNozzleAlCal, \Wobj := wobjAlWithButton;
		MoveJ [[2.265, -3.175, 66.471], [-0.7046842, 0.5396402, 0.4569338, 0.0584821], [-1, 1, 13, 1], [9E+09, 9E+09, 9E+09, 9E+09, 9E+09, 9E+09]], v30, z0, tNozzleAlCal, \Wobj := wobjAlWithButton;
		MoveJ [[-2.913, -2.594, 72.176], [-0.4853299, 0.706811, -0.020451, 0.5142519], [-1, 1, 14, 1], [9E+09, 9E+09, 9E+09, 9E+09, 9E+09, 9E+09]], v30, z0, tNozzleAlCal, \Wobj := wobjAlWithButton;
		MoveJ [[-2.892, 2.617, 77.882], [-0.0176396, 0.5123174, -0.4873714, 0.7068868], [-1, 1, 15, 1], [9E+09, 9E+09, 9E+09, 9E+09, 9E+09, 9E+09]], v30, z0, tNozzleAlCal, \Wobj := wobjAlWithButton;
		MoveJ [[2.291, 3.156, 83.588], [0.4590766, 0.0556789, -0.7049113, 0.5378185], [-1, 1, 16, 1], [9E+09, 9E+09, 9E+09, 9E+09, 9E+09, 9E+09]], v30, z0, tNozzleAlCal, \Wobj := wobjAlWithButton;
		MoveJ [[3.384, -1.938, 89.294], [0.7008903, -0.4294497, -0.5617588, 0.0935567], [-1, 1, 17, 1], [9E+09, 9E+09, 9E+09, 9E+09, 9E+09, 9E+09]], v30, z0, tNozzleAlCal, \Wobj := wobjAlWithButton;
		MoveJ [[-1.563, -3.573, 95.000], [0.5840691, -0.6948355, -0.131163, -0.3985766], [-1, 1, 18, 1], [9E+09, 9E+09, 9E+09, 9E+09, 9E+09, 9E+09]], v30, z0, tNozzleAlCal, \Wobj := wobjAlWithButton;
		MoveJ [[-2.319, -3.136, 95.000], [0.5357702, -0.7051521, -0.0525414, -0.4614654], [-1, 1, 18, 1], [9E+09, 9E+09, 9E+09, 9E+09, 9E+09, 9E+09]], v30, z0, tNozzleAlCal, \Wobj := wobjAlWithButton;
		MoveJ [[2.868, -2.642, 89.294], [0.7069583, -0.4896465, -0.5101435, 0.0144937], [-1, 1, 17, 1], [9E+09, 9E+09, 9E+09, 9E+09, 9E+09, 9E+09]], v30, z0, tNozzleAlCal, \Wobj := wobjAlWithButton;
		MoveJ [[2.936, 2.568, 83.588], [0.5164066, -0.0235962, -0.706713, 0.4830366], [-1, 1, 16, 1], [9E+09, 9E+09, 9E+09, 9E+09, 9E+09, 9E+09]], v30, z0, tNozzleAlCal, \Wobj := wobjAlWithButton;
		MoveJ [[-2.237, 3.195, 77.882], [0.0616175, 0.4545278, -0.5416683, 0.704417], [-1, 1, 15, 1], [9E+09, 9E+09, 9E+09, 9E+09, 9E+09, 9E+09]], v30, z0, tNozzleAlCal, \Wobj := wobjAlWithButton;
		MoveJ [[-3.417, -1.881, 72.176], [-0.4247003, 0.7000769, -0.0994602, 0.5653581], [-1, 1, 14, 1], [9E+09, 9E+09, 9E+09, 9E+09, 9E+09, 9E+09]], v30, z0, tNozzleAlCal, \Wobj := wobjAlWithButton;
		MoveJ [[1.502, -3.599, 66.471], [-0.6937054, 0.5874074, 0.3936402, 0.137014], [-1, 1, 13, 1], [9E+09, 9E+09, 9E+09, 9E+09, 9E+09, 9E+09]], v30, z0, tNozzleAlCal, \Wobj := wobjAlWithButton;
		MoveJ [[3.740, 1.106, 60.765], [-0.6077521, 0.1741705, 0.6853209, -0.361438], [-1, 1, 12, 1], [9E+09, 9E+09, 9E+09, 9E+09, 9E+09, 9E+09]], v30, z0, tNozzleAlCal, \Wobj := wobjAlWithButton;
		MoveJ [[-0.698, 3.837, 55.059], [-0.2108213, -0.3281868, 0.6263333, -0.6749477], [-1, 1, 11, 1], [9E+09, 9E+09, 9E+09, 9E+09, 9E+09, 9E+09]], v30, z0, tNozzleAlCal, \Wobj := wobjAlWithButton;
		MoveJ [[-3.890, -0.281, 49.353], [0.2939835, -0.6626159, 0.2468606, -0.643097], [-1, 1, 10, 1], [9E+09, 9E+09, 9E+09, 9E+09, 9E+09, 9E+09]], v30, z0, tNozzleAlCal, \Wobj := wobjAlWithButton;
		MoveJ [[-0.139, -3.898, 43.647], [0.6483615, -0.6579946, -0.2589269, -0.2821834], [-1, 1, 10, 1], [9E+09, 9E+09, 9E+09, 9E+09, 9E+09, 9E+09]], v30, z0, tNozzleAlCal, \Wobj := wobjAlWithButton;
		MoveJ [[3.860, -0.557, 37.941], [0.6709828, -0.3166875, -0.6322255, 0.2231191], [-1, 1, 9, 1], [9E+09, 9E+09, 9E+09, 9E+09, 9E+09, 9E+09]], v30, z0, tNozzleAlCal, \Wobj := wobjAlWithButton;
		MoveJ [[0.969, 3.778, 32.235], [0.3502725, 0.1866638, -0.682024, 0.614255], [-1, 1, 8, 1], [9E+09, 9E+09, 9E+09, 9E+09, 9E+09, 9E+09]], v30, z0, tNozzleAlCal, \Wobj := wobjAlWithButton;
		MoveJ [[-3.652, 1.370, 26.529], [-0.1496669, 0.594502, -0.3828412, 0.691086], [-1, 1, 7, 1], [9E+09, 9E+09, 9E+09, 9E+09, 9E+09, 9E+09]], v30, z0, tNozzleAlCal, \Wobj := wobjAlWithButton;
		MoveJ [[-1.754, -3.483, 20.824], [-0.573024, 0.6981427, 0.1122356, 0.4142988], [-1, 1, 6, 1], [9E+09, 9E+09, 9E+09, 9E+09, 9E+09, 9E+09]], v30, z0, tNozzleAlCal, \Wobj := wobjAlWithButton;
		MoveJ [[3.274, -2.119, 15.118], [-0.7031735, 0.4445544, 0.5498831, -0.0744787], [-1, 1, 5, 1], [9E+09, 9E+09, 9E+09, 9E+09, 9E+09, 9E+09]], v30, z0, tNozzleAlCal, \Wobj := wobjAlWithButton;
		MoveJ [[2.459, 3.027, 9.412], [-0.4735198, -0.0365056, 0.7061639, -0.5251466], [-1, 1, 4, 1], [9E+09, 9E+09, 9E+09, 9E+09, 9E+09, 9E+09]], v30, z0, tNozzleAlCal, \Wobj := wobjAlWithButton;
		MoveJ [[-2.745, 2.770, 3.706], [-0.0015733, -0.4988862, 0.5011114, -0.7071051], [-1, 1, 3, 1], [9E+09, 9E+09, 9E+09, 9E+09, 9E+09, 9E+09]], v30, z0, tNozzleAlCal, \Wobj := wobjAlWithButton;
		MoveJ [[-3.049, -2.432, -2.000], [0.4711782, -0.7059944, 0.0396478, -0.5272486], [-1, 1, 2, 1], [9E+09, 9E+09, 9E+09, 9E+09, 9E+09, 9E+09]], v30, z0, tNozzleAlCal, \Wobj := wobjAlWithButton;
		MoveJ [[-3.514, -1.692, -2.000], [0.4091825, -0.6971161, 0.1184448, -0.5766886], [-1, 1, 2, 1], [9E+09, 9E+09, 9E+09, 9E+09, 9E+09, 9E+09]], v30, z0, tNozzleAlCal, \Wobj := wobjAlWithButton;
		MoveJ [[-2.060, 3.311, 3.706], [-0.0807341, -0.4396427, 0.553818, -0.7024828], [-1, 1, 3, 1], [9E+09, 9E+09, 9E+09, 9E+09, 9E+09, 9E+09]], v30, z0, tNozzleAlCal, \Wobj := wobjAlWithButton;
		MoveJ [[3.071, 2.404, 9.412], [-0.5293402, 0.0427892, 0.705811, -0.4688272], [-1, 1, 4, 1], [9E+09, 9E+09, 9E+09, 9E+09, 9E+09, 9E+09]], v30, z0, tNozzleAlCal, \Wobj := wobjAlWithButton;
		MoveJ [[2.721, -2.794, 15.118], [-0.7070911, 0.5033265, 0.4966513, 0.00472], [-1, 1, 5, 1], [9E+09, 9E+09, 9E+09, 9E+09, 9E+09, 9E+09]], v30, z0, tNozzleAlCal, \Wobj := wobjAlWithButton;
		MoveJ [[-2.485, -3.005, 20.824], [-0.5230342, 0.7063193, 0.0333627, 0.4758521], [-1, 1, 6, 1], [9E+09, 9E+09, 9E+09, 9E+09, 9E+09, 9E+09]], v30, z0, tNozzleAlCal, \Wobj := wobjAlWithButton;
		MoveJ [[-3.255, 2.148, 26.529], [-0.0713487, 0.5478993, -0.4469971, 0.703498], [-1, 1, 7, 1], [9E+09, 9E+09, 9E+09, 9E+09, 9E+09, 9E+09]], v30, z0, tNozzleAlCal, \Wobj := wobjAlWithButton;
		MoveJ [[1.785, 3.467, 32.235], [0.4168448, 0.1091276, -0.6986352, 0.5711747], [-1, 1, 8, 1], [9E+09, 9E+09, 9E+09, 9E+09, 9E+09, 9E+09]], v30, z0, tNozzleAlCal, \Wobj := wobjAlWithButton;
		MoveJ [[3.639, -1.402, 37.941], [0.6917452, -0.385483, -0.5927925, 0.14659], [-1, 1, 9, 1], [9E+09, 9E+09, 9E+09, 9E+09, 9E+09, 9E+09]], v30, z0, tNozzleAlCal, \Wobj := wobjAlWithButton;
		MoveJ [[-1.003, -3.769, 43.647], [0.6126902, -0.6828479, -0.1836268, -0.3530025], [-1, 1, 10, 1], [9E+09, 9E+09, 9E+09, 9E+09, 9E+09, 9E+09]], v30, z0, tNozzleAlCal, \Wobj := wobjAlWithButton;
		MoveJ [[-3.855, 0.591, 49.353], [0.220131, -0.6308099, 0.3194978, -0.6719691], [-1, 1, 11, 1], [9E+09, 9E+09, 9E+09, 9E+09, 9E+09, 9E+09]], v30, z0, tNozzleAlCal, \Wobj := wobjAlWithButton;
		MoveJ [[0.173, 3.896, 55.059], [-0.2850659, -0.2559962, 0.6591404, -0.6470993], [-1, 1, 12, 1], [9E+09, 9E+09, 9E+09, 9E+09, 9E+09, 9E+09]], v30, z0, tNozzleAlCal, \Wobj := wobjAlWithButton;
		MoveJ [[3.892, 0.247, 60.765], [-0.6443989, 0.2498069, 0.6615108, -0.2911187], [-1, 1, 12, 1], [9E+09, 9E+09, 9E+09, 9E+09, 9E+09, 9E+09]], v30, z0, tNozzleAlCal, \Wobj := wobjAlWithButton;
		MoveJ [[0.664, -3.843, 66.471], [-0.6740028, 0.6277876, 0.3253963, 0.2138229], [-1, 1, 13, 1], [9E+09, 9E+09, 9E+09, 9E+09, 9E+09, 9E+09]], v30, z0, tNozzleAlCal, \Wobj := wobjAlWithButton;
		MoveJ [[-3.749, -1.073, 72.176], [-0.3587298, 0.684539, -0.1772185, 0.6093545], [-1, 1, 14, 1], [9E+09, 9E+09, 9E+09, 9E+09, 9E+09, 9E+09]], v30, z0, tNozzleAlCal, \Wobj := wobjAlWithButton;
		MoveJ [[-1.470, 3.612, 77.882], [0.1400998, 0.3910222, -0.5891533, 0.6930888], [-1, 1, 15, 1], [9E+09, 9E+09, 9E+09, 9E+09, 9E+09, 9E+09]], v30, z0, tNozzleAlCal, \Wobj := wobjAlWithButton;
		MoveJ [[3.433, 1.850, 83.588], [0.5672424, -0.1025746, -0.6996274, 0.4221801], [-1, 1, 16, 1], [9E+09, 9E+09, 9E+09, 9E+09, 9E+09, 9E+09]], v30, z0, tNozzleAlCal, \Wobj := wobjAlWithButton;
		MoveJ [[2.209, -3.214, 89.294], [0.7041358, -0.5436856, -0.4521128, -0.0647517], [-1, 1, 17, 1], [9E+09, 9E+09, 9E+09, 9E+09, 9E+09, 9E+09]], v30, z0, tNozzleAlCal, \Wobj := wobjAlWithButton;
		MoveJ [[-2.958, -2.541, 95.000], [0.4807337, -0.706601, 0.026741, -0.518551], [-1, 1, 18, 1], [9E+09, 9E+09, 9E+09, 9E+09, 9E+09, 9E+09]], v30, z0, tNozzleAlCal, \Wobj := wobjAlWithButton;
		MoveJ [[-3.450, -1.819, 95.000], [0.4196516, -0.699164, 0.1056871, -0.5691156], [-1, 1, 18, 1], [9E+09, 9E+09, 9E+09, 9E+09, 9E+09, 9E+09]], v30, z0, tNozzleAlCal, \Wobj := wobjAlWithButton;
		MoveJ [[1.438, -3.625, 89.294], [0.6924585, -0.5908876, -0.3883965, -0.1431827], [-1, 1, 17, 1], [9E+09, 9E+09, 9E+09, 9E+09, 9E+09, 9E+09]], v30, z0, tNozzleAlCal, \Wobj := wobjAlWithButton;
		MoveJ [[3.759, 1.040, 83.588], [0.6109449, -0.1802631, -0.6837436, 0.3560145], [-1, 1, 16, 1], [9E+09, 9E+09, 9E+09, 9E+09, 9E+09, 9E+09]], v30, z0, tNozzleAlCal, \Wobj := wobjAlWithButton;
		MoveJ [[-0.629, 3.849, 77.882], [0.2168202, 0.3225993, -0.6292295, 0.6730446], [-1, 1, 15, 1], [9E+09, 9E+09, 9E+09, 9E+09, 9E+09, 9E+09]], v30, z0, tNozzleAlCal, \Wobj := wobjAlWithButton;
		MoveJ [[-3.894, -0.212, 72.176], [-0.2882481, 0.6603926, -0.2527483, 0.6456881], [-1, 1, 14, 1], [9E+09, 9E+09, 9E+09, 9E+09, 9E+09, 9E+09]], v30, z0, tNozzleAlCal, \Wobj := wobjAlWithButton;
		MoveJ [[-0.208, -3.894, 66.471], [-0.6458243, 0.660273, 0.2530604, 0.2879428], [-1, 1, 14, 1], [9E+09, 9E+09, 9E+09, 9E+09, 9E+09, 9E+09]], v30, z0, tNozzleAlCal, \Wobj := wobjAlWithButton;
		MoveJ [[3.849, -0.626, 60.765], [-0.672942, 0.3223019, 0.6293819, -0.2171384], [-1, 1, 13, 1], [9E+09, 9E+09, 9E+09, 9E+09, 9E+09, 9E+09]], v30, z0, tNozzleAlCal, \Wobj := wobjAlWithButton;
		MoveJ [[1.036, 3.760, 55.059], [-0.3557256, -0.1805862, 0.6836583, -0.6111132], [-1, 1, 12, 1], [9E+09, 9E+09, 9E+09, 9E+09, 9E+09, 9E+09]], v30, z0, tNozzleAlCal, \Wobj := wobjAlWithButton;
		MoveJ [[-3.627, 1.434, 49.353], [0.1435102, -0.5910711, 0.3881172, -0.6923907], [-1, 1, 11, 1], [9E+09, 9E+09, 9E+09, 9E+09, 9E+09, 9E+09]], v30, z0, tNozzleAlCal, \Wobj := wobjAlWithButton;
		MoveJ [[-1.816, -3.451, 43.647], [0.569314, -0.699114, -0.1060175, -0.4193825], [-1, 1, 10, 1], [9E+09, 9E+09, 9E+09, 9E+09, 9E+09, 9E+09]], v30, z0, tNozzleAlCal, \Wobj := wobjAlWithButton;
		MoveJ [[3.236, -2.177, 37.941], [0.7038085, -0.4494309, -0.5459047, 0.0682174], [-1, 1, 9, 1], [9E+09, 9E+09, 9E+09, 9E+09, 9E+09, 9E+09]], v30, z0, tNozzleAlCal, \Wobj := wobjAlWithButton;
		MoveJ [[2.512, 2.983, 32.235], [0.478175, 0.0302191, -0.7064608, 0.5209114], [-1, 1, 8, 1], [9E+09, 9E+09, 9E+09, 9E+09, 9E+09, 9E+09]], v30, z0, tNozzleAlCal, \Wobj := wobjAlWithButton;
		MoveJ [[-2.696, 2.818, 26.529], [0.0078667, 0.4944065, -0.5055317, 0.7070631], [-1, 1, 7, 1], [9E+09, 9E+09, 9E+09, 9E+09, 9E+09, 9E+09]], v30, z0, tNozzleAlCal, \Wobj := wobjAlWithButton;
		MoveJ [[-3.092, -2.377, 20.824], [-0.4664669, 0.7056136, -0.0459298, 0.5314213], [-1, 1, 6, 1], [9E+09, 9E+09, 9E+09, 9E+09, 9E+09, 9E+09]], v30, z0, tNozzleAlCal, \Wobj := wobjAlWithButton;
		MoveJ [[2.031, -3.330, 15.118], [-0.7021165, 0.555769, 0.4371737, 0.0838594], [-1, 1, 5, 1], [9E+09, 9E+09, 9E+09, 9E+09, 9E+09, 9E+09]], v30, z0, tNozzleAlCal, \Wobj := wobjAlWithButton;
		MoveJ [[3.529, 1.661, 9.412], [-0.5785038, 0.1215459, 0.6965821, -0.406612], [-1, 1, 4, 1], [9E+09, 9E+09, 9E+09, 9E+09, 9E+09, 9E+09]], v30, z0, tNozzleAlCal, \Wobj := wobjAlWithButton;
		MoveJ [[-1.272, 3.687, 3.706], [-0.1588796, -0.3748703, 0.5995601, -0.6890264], [-1, 1, 3, 1], [9E+09, 9E+09, 9E+09, 9E+09, 9E+09, 9E+09]], v30, z0, tNozzleAlCal, \Wobj := wobjAlWithButton;
		MoveJ [[-3.802, -0.868, -2.000], [0.342041, -0.6794712, 0.1957523, -0.6188764], [-1, 1, 2, 1], [9E+09, 9E+09, 9E+09, 9E+09, 9E+09, 9E+09]], v30, z0, tNozzleAlCal, \Wobj := wobjAlWithButton;
		MoveJ [[-3.900, -0.000, -2.000], [0.2705981, -0.6532815, 0.2705981, -0.6532815], [-1, 1, 2, 1], [9E+09, 9E+09, 9E+09, 9E+09, 9E+09, 9E+09]], v30, z0, tNozzleAlCal, \Wobj := wobjAlWithButton;
		MoveJ [[-0.419, 3.877, 3.706], [-0.235027, -0.3053838, 0.6377623, -0.666905], [-1, 1, 3, 1], [9E+09, 9E+09, 9E+09, 9E+09, 9E+09, 9E+09]], v30, z0, tNozzleAlCal, \Wobj := wobjAlWithButton;
		MoveJ [[3.810, 0.834, 9.412], [-0.6203924, 0.1987741, 0.6785933, -0.3392835], [-1, 1, 4, 1], [9E+09, 9E+09, 9E+09, 9E+09, 9E+09, 9E+09]], v30, z0, tNozzleAlCal, \Wobj := wobjAlWithButton;
		MoveJ [[1.239, -3.698, 15.118], [-0.6883125, 0.6012224, 0.3721985, 0.1619443], [-1, 1, 5, 1], [9E+09, 9E+09, 9E+09, 9E+09, 9E+09, 9E+09]], v30, z0, tNozzleAlCal, \Wobj := wobjAlWithButton;
		MoveJ [[-3.543, -1.629, 20.824], [-0.4040336, 0.6960343, -0.1246446, 0.5803076], [-1, 1, 6, 1], [9E+09, 9E+09, 9E+09, 9E+09, 9E+09, 9E+09]], v30, z0, tNozzleAlCal, \Wobj := wobjAlWithButton;
		MoveJ [[-2.001, 3.348, 26.529], [0.0869831, 0.4346961, -0.557709, 0.7017364], [-1, 1, 7, 1], [9E+09, 9E+09, 9E+09, 9E+09, 9E+09, 9E+09]], v30, z0, tNozzleAlCal, \Wobj := wobjAlWithButton;
		MoveJ [[3.113, 2.349, 32.235], [0.5334919, -0.0490694, -0.7054022, 0.4640974], [-1, 1, 8, 1], [9E+09, 9E+09, 9E+09, 9E+09, 9E+09, 9E+09]], v30, z0, tNozzleAlCal, \Wobj := wobjAlWithButton;
		MoveJ [[2.670, -2.842, 37.941], [0.707021, -0.5077269, -0.4921519, -0.0110131], [-1, 1, 9, 1], [9E+09, 9E+09, 9E+09, 9E+09, 9E+09, 9E+09]], v30, z0, tNozzleAlCal, \Wobj := wobjAlWithButton;
		MoveJ [[-2.539, -2.961, 43.647], [0.5187783, -0.7065883, -0.027075, -0.4804884], [-1, 1, 10, 1], [9E+09, 9E+09, 9E+09, 9E+09, 9E+09, 9E+09]], v30, z0, tNozzleAlCal, \Wobj := wobjAlWithButton;
		MoveJ [[-3.216, 2.205, 49.353], [0.0650846, -0.5438993, 0.4518558, -0.7041051], [-1, 1, 11, 1], [9E+09, 9E+09, 9E+09, 9E+09, 9E+09, 9E+09]], v30, z0, tNozzleAlCal, \Wobj := wobjAlWithButton;
		MoveJ [[1.847, 3.435, 55.059], [-0.4219118, -0.1029053, 0.6995788, -0.567442], [-1, 1, 12, 1], [9E+09, 9E+09, 9E+09, 9E+09, 9E+09, 9E+09]], v30, z0, tNozzleAlCal, \Wobj := wobjAlWithButton;
		MoveJ [[3.614, -1.467, 60.765], [-0.6930225, 0.3907437, 0.5893381, -0.1404275], [-1, 1, 13, 1], [9E+09, 9E+09, 9E+09, 9E+09, 9E+09, 9E+09]], v30, z0, tNozzleAlCal, \Wobj := wobjAlWithButton;
		MoveJ [[-1.070, -3.750, 66.471], [-0.6095241, 0.6844552, 0.1775421, 0.3584416], [-1, 1, 14, 1], [9E+09, 9E+09, 9E+09, 9E+09, 9E+09, 9E+09]], v30, z0, tNozzleAlCal, \Wobj := wobjAlWithButton;
		MoveJ [[-3.844, 0.660, 72.176], [-0.2141416, 0.6279413, -0.3250995, 0.6739017], [-1, 1, 15, 1], [9E+09, 9E+09, 9E+09, 9E+09, 9E+09, 9E+09]], v30, z0, tNozzleAlCal, \Wobj := wobjAlWithButton;
		MoveJ [[0.243, 3.892, 77.882], [0.2908139, 0.2501195, -0.6613927, 0.6445365], [-1, 1, 16, 1], [9E+09, 9E+09, 9E+09, 9E+09, 9E+09, 9E+09]], v30, z0, tNozzleAlCal, \Wobj := wobjAlWithButton;
		MoveJ [[3.896, 0.177, 83.588], [0.6469644, -0.2556846, -0.6592613, 0.2853719], [-1, 1, 16, 1], [9E+09, 9E+09, 9E+09, 9E+09, 9E+09, 9E+09]], v30, z0, tNozzleAlCal, \Wobj := wobjAlWithButton;
		MoveJ [[0.595, -3.854, 89.294], [0.6720731, -0.6306589, -0.319796, -0.2198132], [-1, 1, 17, 1], [9E+09, 9E+09, 9E+09, 9E+09, 9E+09, 9E+09]], v30, z0, tNozzleAlCal, \Wobj := wobjAlWithButton;
		MoveJ [[-3.768, -1.006, 95.000], [0.3532922, -0.6829346, 0.183304, -0.6125232], [-1, 1, 18, 1], [9E+09, 9E+09, 9E+09, 9E+09, 9E+09, 9E+09]], v30, z0, tNozzleAlCal, \Wobj := wobjAlWithButton;
		MoveJ [[-3.897, -0.143, 95.000], [0.28249, -0.6581169, 0.2586159, -0.6482279], [-1, 1, 18, 1], [9E+09, 9E+09, 9E+09, 9E+09, 9E+09, 9E+09]], v30, z0, tNozzleAlCal, \Wobj := wobjAlWithButton;
		MoveJ [[-0.277, -3.890, 89.294], [0.643236, -0.6624992, -0.2471738, -0.2936793], [-1, 1, 18, 1], [9E+09, 9E+09, 9E+09, 9E+09, 9E+09, 9E+09]], v30, z0, tNozzleAlCal, \Wobj := wobjAlWithButton;
		MoveJ [[3.838, -0.694, 83.588], [0.6748479, -0.3278908, -0.6264884, 0.2111405], [-1, 1, 17, 1], [9E+09, 9E+09, 9E+09, 9E+09, 9E+09, 9E+09]], v30, z0, tNozzleAlCal, \Wobj := wobjAlWithButton;
		MoveJ [[1.103, 3.741, 77.882], [0.3611506, 0.1744944, -0.6852385, 0.607923], [-1, 1, 16, 1], [9E+09, 9E+09, 9E+09, 9E+09, 9E+09, 9E+09]], v30, z0, tNozzleAlCal, \Wobj := wobjAlWithButton;
		MoveJ [[-3.601, 1.499, 72.176], [-0.137342, 0.5875934, -0.3933625, 0.6936405], [-1, 1, 15, 1], [9E+09, 9E+09, 9E+09, 9E+09, 9E+09, 9E+09]], v30, z0, tNozzleAlCal, \Wobj := wobjAlWithButton;
		MoveJ [[-1.877, -3.418, 66.471], [-0.5655588, 0.7000299, 0.099791, 0.4244329], [-1, 1, 14, 1], [9E+09, 9E+09, 9E+09, 9E+09, 9E+09, 9E+09]], v30, z0, tNozzleAlCal, \Wobj := wobjAlWithButton;
		MoveJ [[3.197, -2.234, 60.765], [-0.7043878, 0.4542717, 0.541883, -0.0619506], [-1, 1, 13, 1], [9E+09, 9E+09, 9E+09, 9E+09, 9E+09, 9E+09]], v30, z0, tNozzleAlCal, \Wobj := wobjAlWithButton;
		MoveJ [[2.565, 2.938, 55.059], [-0.4827923, -0.0239303, 0.7067018, -0.5166349], [-1, 1, 12, 1], [9E+09, 9E+09, 9E+09, 9E+09, 9E+09, 9E+09]], v30, z0, tNozzleAlCal, \Wobj := wobjAlWithButton;
		MoveJ [[-2.645, 2.866, 49.353], [-0.0141594, -0.4898875, 0.509912, -0.706965], [-1, 1, 11, 1], [9E+09, 9E+09, 9E+09, 9E+09, 9E+09, 9E+09]], v30, z0, tNozzleAlCal, \Wobj := wobjAlWithButton;
		MoveJ [[-3.134, -2.322, 43.647], [0.4617187, -0.7051768, 0.0522081, -0.5355519], [-1, 1, 10, 1], [9E+09, 9E+09, 9E+09, 9E+09, 9E+09, 9E+09]], v30, z0, tNozzleAlCal, \Wobj := wobjAlWithButton;
		MoveJ [[1.971, -3.365, 37.941], [0.7013424, -0.5596379, -0.4322099, -0.0901051], [-1, 1, 9, 1], [9E+09, 9E+09, 9E+09, 9E+09, 9E+09, 9E+09]], v30, z0, tNozzleAlCal, \Wobj := wobjAlWithButton;
		MoveJ [[3.558, 1.598, 32.235], [0.5820999, -0.1277409, -0.6954727, 0.4014471], [-1, 1, 8, 1], [9E+09, 9E+09, 9E+09, 9E+09, 9E+09, 9E+09]], v30, z0, tNozzleAlCal, \Wobj := wobjAlWithButton;
		MoveJ [[-1.206, 3.709, 26.529], [0.1650058, 0.3695193, -0.6028728, 0.687585], [-1, 1, 7, 1], [9E+09, 9E+09, 9E+09, 9E+09, 9E+09, 9E+09]], v30, z0, tNozzleAlCal, \Wobj := wobjAlWithButton;
		MoveJ [[-3.817, -0.800, 20.824], [-0.3365193, 0.677702, -0.201792, 0.6218962], [-1, 1, 6, 1], [9E+09, 9E+09, 9E+09, 9E+09, 9E+09, 9E+09]], v30, z0, tNozzleAlCal, \Wobj := wobjAlWithButton;
		MoveJ [[0.385, -3.881, 15.118], [-0.6658525, 0.639115, 0.3025426, 0.2379925], [-1, 1, 5, 1], [9E+09, 9E+09, 9E+09, 9E+09, 9E+09, 9E+09]], v30, z0, tNozzleAlCal, \Wobj := wobjAlWithButton;
		MoveJ [[3.900, -0.035, 9.412], [-0.6544792, 0.2735026, 0.6520708, -0.2676882], [-1, 1, 5, 1], [9E+09, 9E+09, 9E+09, 9E+09, 9E+09, 9E+09]], v30, z0, tNozzleAlCal, \Wobj := wobjAlWithButton;
		MoveJ [[0.454, 3.873, 3.706], [-0.3082189, -0.2320569, 0.6679443, -0.636397], [-1, 1, 4, 1], [9E+09, 9E+09, 9E+09, 9E+09, 9E+09, 9E+09]], v30, z0, tNozzleAlCal, \Wobj := wobjAlWithButton;
		MoveJ [[-3.802, 0.868, -2.000], [0.1957523, -0.6188764, 0.342041, -0.6794712], [-1, 1, 3, 1], [9E+09, 9E+09, 9E+09, 9E+09, 9E+09, 9E+09]], v30, z0, tNozzleAlCal, \Wobj := wobjAlWithButton;
		MoveJ [[-3.514, 1.692, -2.000], [0.1184448, -0.5766886, 0.4091825, -0.6971161], [-1, 1, 3, 1], [9E+09, 9E+09, 9E+09, 9E+09, 9E+09, 9E+09]], v30, z0, tNozzleAlCal, \Wobj := wobjAlWithButton;
		MoveJ [[1.304, 3.675, 3.706], [-0.3775348, -0.1558117, 0.6897266, -0.5978859], [-1, 1, 4, 1], [9E+09, 9E+09, 9E+09, 9E+09, 9E+09, 9E+09]], v30, z0, tNozzleAlCal, \Wobj := wobjAlWithButton;
		MoveJ [[3.794, -0.902, 9.412], [-0.6803356, 0.3447917, 0.6173482, -0.1927266], [-1, 1, 5, 1], [9E+09, 9E+09, 9E+09, 9E+09, 9E+09, 9E+09]], v30, z0, tNozzleAlCal, \Wobj := wobjAlWithButton;
		MoveJ [[-0.488, -3.869, 15.118], [-0.6350191, 0.6689704, 0.2290821, 0.3110479], [-1, 1, 6, 1], [9E+09, 9E+09, 9E+09, 9E+09, 9E+09, 9E+09]], v30, z0, tNozzleAlCal, \Wobj := wobjAlWithButton;
		MoveJ [[-3.899, 0.069, 20.824], [-0.264773, 0.6508472, -0.2764017, 0.655664], [-1, 1, 7, 1], [9E+09, 9E+09, 9E+09, 9E+09, 9E+09, 9E+09]], v30, z0, tNozzleAlCal, \Wobj := wobjAlWithButton;
		MoveJ [[-0.350, 3.884, 26.529], [0.2409533, 0.2996955, -0.6404551, 0.6647868], [-1, 1, 7, 1], [9E+09, 9E+09, 9E+09, 9E+09, 9E+09, 9E+09]], v30, z0, tNozzleAlCal, \Wobj := wobjAlWithButton;
		MoveJ [[3.824, 0.766, 32.235], [0.6233876, -0.2048059, -0.6767973, 0.3337484], [-1, 1, 8, 1], [9E+09, 9E+09, 9E+09, 9E+09, 9E+09, 9E+09]], v30, z0, tNozzleAlCal, \Wobj := wobjAlWithButton;
		MoveJ [[1.173, -3.719, 37.941], [0.6868439, -0.6045112, -0.3668327, -0.168064], [-1, 1, 9, 1], [9E+09, 9E+09, 9E+09, 9E+09, 9E+09, 9E+09]], v30, z0, tNozzleAlCal, \Wobj := wobjAlWithButton;
		MoveJ [[-3.572, -1.566, 43.647], [0.3988527, -0.6948974, 0.1308345, -0.5838806], [-1, 1, 10, 1], [9E+09, 9E+09, 9E+09, 9E+09, 9E+09, 9E+09]], v30, z0, tNozzleAlCal, \Wobj := wobjAlWithButton;
		MoveJ [[-1.941, 3.383, 49.353], [-0.0932253, -0.4297152, 0.5615558, -0.7009344], [-1, 1, 11, 1], [9E+09, 9E+09, 9E+09, 9E+09, 9E+09, 9E+09]], v30, z0, tNozzleAlCal, \Wobj := wobjAlWithButton;
		MoveJ [[3.154, 2.294, 55.059], [-0.5376014, 0.0553457, 0.7049375, -0.4593308], [-1, 1, 12, 1], [9E+09, 9E+09, 9E+09, 9E+09, 9E+09, 9E+09]], v30, z0, tNozzleAlCal, \Wobj := wobjAlWithButton;
		MoveJ [[2.619, -2.889, 60.765], [-0.706895, 0.512087, 0.4876135, 0.0173053], [-1, 1, 13, 1], [9E+09, 9E+09, 9E+09, 9E+09, 9E+09, 9E+09]], v30, z0, tNozzleAlCal, \Wobj := wobjAlWithButton;
		MoveJ [[-2.591, -2.915, 66.471], [-0.5144813, 0.7068013, 0.0207851, 0.4850866], [-1, 1, 14, 1], [9E+09, 9E+09, 9E+09, 9E+09, 9E+09, 9E+09]], v30, z0, tNozzleAlCal, \Wobj := wobjAlWithButton;
		MoveJ [[-3.177, 2.262, 72.176], [-0.0588154, 0.5398561, -0.4566787, 0.7046565], [-1, 1, 15, 1], [9E+09, 9E+09, 9E+09, 9E+09, 9E+09, 9E+09]], v30, z0, tNozzleAlCal, \Wobj := wobjAlWithButton;
		MoveJ [[1.908, 3.402, 77.882], [0.4269455, 0.0966748, -0.700467, 0.5636644], [-1, 1, 16, 1], [9E+09, 9E+09, 9E+09, 9E+09, 9E+09, 9E+09]], v30, z0, tNozzleAlCal, \Wobj := wobjAlWithButton;
		MoveJ [[3.587, -1.531, 83.588], [0.6942449, -0.3959735, -0.585837, 0.1342539], [-1, 1, 17, 1], [9E+09, 9E+09, 9E+09, 9E+09, 9E+09, 9E+09]], v30, z0, tNozzleAlCal, \Wobj := wobjAlWithButton;
		MoveJ [[-1.136, -3.731, 89.294], [0.6063098, -0.6860082, -0.1714432, -0.3638523], [-1, 1, 18, 1], [9E+09, 9E+09, 9E+09, 9E+09, 9E+09, 9E+09]], v30, z0, tNozzleAlCal, \Wobj := wobjAlWithButton;
		MoveJ [[-3.831, 0.728, 95.000], [0.2081352, -0.625023, 0.3306755, -0.6757809], [-1, 1, 19, 1], [9E+09, 9E+09, 9E+09, 9E+09, 9E+09, 9E+09]], v30, z0, tNozzleAlCal, \Wobj := wobjAlWithButton;
		MoveJ [[-3.573, 1.563, 95.000], [0.1311631, -0.5840691, 0.3985766, -0.6948354], [-1, 1, 19, 1], [9E+09, 9E+09, 9E+09, 9E+09, 9E+09, 9E+09]], v30, z0, tNozzleAlCal, \Wobj := wobjAlWithButton;
		MoveJ [[-1.938, -3.384, 89.294], [0.5617589, -0.7008903, -0.0935567, -0.4294497], [-1, 1, 18, 1], [9E+09, 9E+09, 9E+09, 9E+09, 9E+09, 9E+09]], v30, z0, tNozzleAlCal, \Wobj := wobjAlWithButton;
		MoveJ [[3.156, -2.291, 83.588], [0.7049113, -0.4590766, -0.5378185, 0.055679], [-1, 1, 17, 1], [9E+09, 9E+09, 9E+09, 9E+09, 9E+09, 9E+09]], v30, z0, tNozzleAlCal, \Wobj := wobjAlWithButton;
		MoveJ [[2.617, 2.892, 77.882], [0.4873713, 0.0176395, -0.7068868, 0.5123175], [-1, 1, 16, 1], [9E+09, 9E+09, 9E+09, 9E+09, 9E+09, 9E+09]], v30, z0, tNozzleAlCal, \Wobj := wobjAlWithButton;
		MoveJ [[-2.594, 2.913, 72.176], [0.0204509, 0.4853298, -0.5142519, 0.706811], [-1, 1, 15, 1], [9E+09, 9E+09, 9E+09, 9E+09, 9E+09, 9E+09]], v30, z0, tNozzleAlCal, \Wobj := wobjAlWithButton;
		MoveJ [[-3.175, -2.265, 66.471], [-0.4569339, 0.7046842, -0.0584822, 0.5396401], [-1, 1, 14, 1], [9E+09, 9E+09, 9E+09, 9E+09, 9E+09, 9E+09]], v30, z0, tNozzleAlCal, \Wobj := wobjAlWithButton;
		MoveJ [[1.911, -3.400, 60.765], [-0.7005126, 0.5634625, 0.4272119, 0.0963436], [-1, 1, 13, 1], [9E+09, 9E+09, 9E+09, 9E+09, 9E+09, 9E+09]], v30, z0, tNozzleAlCal, \Wobj := wobjAlWithButton;
		MoveJ [[3.586, 1.534, 55.059], [-0.5856498, 0.1339257, 0.6943083, -0.3962504], [-1, 1, 12, 1], [9E+09, 9E+09, 9E+09, 9E+09, 9E+09, 9E+09]], v30, z0, tNozzleAlCal, \Wobj := wobjAlWithButton;
		MoveJ [[-1.140, 3.730, 49.353], [-0.1711189, -0.3641389, 0.6061377, -0.6860892], [-1, 1, 11, 1], [9E+09, 9E+09, 9E+09, 9E+09, 9E+09, 9E+09]], v30, z0, tNozzleAlCal, \Wobj := wobjAlWithButton;
		MoveJ [[-3.831, -0.732, 43.647], [0.3309709, -0.6758792, 0.2078157, -0.6248666], [-1, 1, 10, 1], [9E+09, 9E+09, 9E+09, 9E+09, 9E+09, 9E+09]], v30, z0, tNozzleAlCal, \Wobj := wobjAlWithButton;
		MoveJ [[0.316, -3.887, 37.941], [0.663708, -0.6417824, -0.2968424, -0.2439093], [-1, 1, 9, 1], [9E+09, 9E+09, 9E+09, 9E+09, 9E+09, 9E+09]], v30, z0, tNozzleAlCal, \Wobj := wobjAlWithButton;
		MoveJ [[3.899, -0.104, 32.235], [0.6568358, -0.2792954, -0.6496108, 0.2618526], [-1, 1, 9, 1], [9E+09, 9E+09, 9E+09, 9E+09, 9E+09, 9E+09]], v30, z0, tNozzleAlCal, \Wobj := wobjAlWithButton;
		MoveJ [[0.523, 3.865, 26.529], [0.3138708, 0.2261028, -0.6699833, 0.6336286], [-1, 1, 8, 1], [9E+09, 9E+09, 9E+09, 9E+09, 9E+09, 9E+09]], v30, z0, tNozzleAlCal, \Wobj := wobjAlWithButton;
		MoveJ [[-3.786, 0.935, 20.824], [-0.1896971, 0.6158077, -0.3475355, 0.6811865], [-1, 1, 7, 1], [9E+09, 9E+09, 9E+09, 9E+09, 9E+09, 9E+09]], v30, z0, tNozzleAlCal, \Wobj := wobjAlWithButton;
		MoveJ [[-1.337, -3.664, 15.118], [-0.5961999, 0.6904131, 0.1527408, 0.3801917], [-1, 1, 6, 1], [9E+09, 9E+09, 9E+09, 9E+09, 9E+09, 9E+09]], v30, z0, tNozzleAlCal, \Wobj := wobjAlWithButton;
		MoveJ [[3.499, -1.723, 9.412], [-0.6976363, 0.4117448, 0.574862, -0.1153414], [-1, 1, 5, 1], [9E+09, 9E+09, 9E+09, 9E+09, 9E+09, 9E+09]], v30, z0, tNozzleAlCal, \Wobj := wobjAlWithButton;
		MoveJ [[2.090, 3.293, 3.706], [-0.4421029, -0.0776071, 0.7028351, -0.551856], [-1, 1, 4, 1], [9E+09, 9E+09, 9E+09, 9E+09, 9E+09, 9E+09]], v30, z0, tNozzleAlCal, \Wobj := wobjAlWithButton;
		MoveJ [[-3.049, 2.432, -2.000], [0.0396478, -0.5272486, 0.4711782, -0.7059944], [-1, 1, 3, 1], [9E+09, 9E+09, 9E+09, 9E+09, 9E+09, 9E+09]], v30, z0, tNozzleAlCal, \Wobj := wobjAlWithButton;
		MoveJ [[-2.432, 3.049, -2.000], [-0.0396478, -0.4711782, 0.5272487, -0.7059944], [-1, 1, 3, 1], [9E+09, 9E+09, 9E+09, 9E+09, 9E+09, 9E+09]], v30, z0, tNozzleAlCal, \Wobj := wobjAlWithButton;
		MoveJ [[2.770, 2.745, 3.706], [-0.5011113, 0.0015734, 0.7071051, -0.4988863], [-1, 1, 4, 1], [9E+09, 9E+09, 9E+09, 9E+09, 9E+09, 9E+09]], v30, z0, tNozzleAlCal, \Wobj := wobjAlWithButton;
		MoveJ [[3.027, -2.459, 9.412], [-0.7061639, 0.4735199, 0.5251466, -0.0365057], [-1, 1, 5, 1], [9E+09, 9E+09, 9E+09, 9E+09, 9E+09, 9E+09]], v30, z0, tNozzleAlCal, \Wobj := wobjAlWithButton;
		MoveJ [[-2.119, -3.274, 15.118], [-0.5498832, 0.7031735, 0.0744786, 0.4445543], [-1, 1, 6, 1], [9E+09, 9E+09, 9E+09, 9E+09, 9E+09, 9E+09]], v30, z0, tNozzleAlCal, \Wobj := wobjAlWithButton;
		MoveJ [[-3.483, 1.754, 20.824], [-0.1122357, 0.573024, -0.4142989, 0.6981427], [-1, 1, 7, 1], [9E+09, 9E+09, 9E+09, 9E+09, 9E+09, 9E+09]], v30, z0, tNozzleAlCal, \Wobj := wobjAlWithButton;
		MoveJ [[1.370, 3.652, 26.529], [0.3828411, 0.1496668, -0.691086, 0.5945021], [-1, 1, 8, 1], [9E+09, 9E+09, 9E+09, 9E+09, 9E+09, 9E+09]], v30, z0, tNozzleAlCal, \Wobj := wobjAlWithButton;
		MoveJ [[3.778, -0.969, 32.235], [0.6820239, -0.3502725, -0.614255, 0.1866639], [-1, 1, 9, 1], [9E+09, 9E+09, 9E+09, 9E+09, 9E+09, 9E+09]], v30, z0, tNozzleAlCal, \Wobj := wobjAlWithButton;
		MoveJ [[-0.557, -3.860, 37.941], [0.6322255, -0.6709828, -0.2231191, -0.3166874], [-1, 1, 10, 1], [9E+09, 9E+09, 9E+09, 9E+09, 9E+09, 9E+09]], v30, z0, tNozzleAlCal, \Wobj := wobjAlWithButton;
		MoveJ [[-3.898, 0.139, 43.647], [0.258927, -0.6483614, 0.2821835, -0.6579946], [-1, 1, 11, 1], [9E+09, 9E+09, 9E+09, 9E+09, 9E+09, 9E+09]], v30, z0, tNozzleAlCal, \Wobj := wobjAlWithButton;
		MoveJ [[-0.281, 3.890, 49.353], [-0.2468605, -0.2939834, 0.643097, -0.662616], [-1, 1, 11, 1], [9E+09, 9E+09, 9E+09, 9E+09, 9E+09, 9E+09]], v30, z0, tNozzleAlCal, \Wobj := wobjAlWithButton;
		MoveJ [[3.837, 0.698, 55.059], [-0.6263333, 0.2108214, 0.6749477, -0.3281869], [-1, 1, 12, 1], [9E+09, 9E+09, 9E+09, 9E+09, 9E+09, 9E+09]], v30, z0, tNozzleAlCal, \Wobj := wobjAlWithButton;
		MoveJ [[1.106, -3.740, 60.765], [-0.6853209, 0.6077522, 0.3614379, 0.1741704], [-1, 1, 13, 1], [9E+09, 9E+09, 9E+09, 9E+09, 9E+09, 9E+09]], v30, z0, tNozzleAlCal, \Wobj := wobjAlWithButton;
		MoveJ [[-3.599, -1.502, 66.471], [-0.3936403, 0.6937054, -0.1370141, 0.5874074], [-1, 1, 14, 1], [9E+09, 9E+09, 9E+09, 9E+09, 9E+09, 9E+09]], v30, z0, tNozzleAlCal, \Wobj := wobjAlWithButton;
		MoveJ [[-1.881, 3.417, 72.176], [0.0994601, 0.4247002, -0.5653581, 0.700077], [-1, 1, 15, 1], [9E+09, 9E+09, 9E+09, 9E+09, 9E+09, 9E+09]], v30, z0, tNozzleAlCal, \Wobj := wobjAlWithButton;
		MoveJ [[3.195, 2.237, 77.882], [0.5416682, -0.0616176, -0.704417, 0.4545279], [-1, 1, 16, 1], [9E+09, 9E+09, 9E+09, 9E+09, 9E+09, 9E+09]], v30, z0, tNozzleAlCal, \Wobj := wobjAlWithButton;
		MoveJ [[2.568, -2.936, 83.588], [0.706713, -0.5164066, -0.4830365, -0.0235962], [-1, 1, 17, 1], [9E+09, 9E+09, 9E+09, 9E+09, 9E+09, 9E+09]], v30, z0, tNozzleAlCal, \Wobj := wobjAlWithButton;
		MoveJ [[-2.642, -2.868, 89.294], [0.5101436, -0.7069583, -0.0144936, -0.4896464], [-1, 1, 18, 1], [9E+09, 9E+09, 9E+09, 9E+09, 9E+09, 9E+09]], v30, z0, tNozzleAlCal, \Wobj := wobjAlWithButton;
		MoveJ [[-3.136, 2.319, 95.000], [0.0525414, -0.5357702, 0.4614655, -0.7051521], [-1, 1, 19, 1], [9E+09, 9E+09, 9E+09, 9E+09, 9E+09, 9E+09]], v30, z0, tNozzleAlCal, \Wobj := wobjAlWithButton;
		MoveJ [[-2.541, 2.958, 95.000], [-0.0267409, -0.4807336, 0.5185511, -0.706601], [-1, 1, 19, 1], [9E+09, 9E+09, 9E+09, 9E+09, 9E+09, 9E+09]], v30, z0, tNozzleAlCal, \Wobj := wobjAlWithButton;
		MoveJ [[-3.214, -2.209, 89.294], [0.4521129, -0.7041358, 0.0647518, -0.5436856], [-1, 1, 18, 1], [9E+09, 9E+09, 9E+09, 9E+09, 9E+09, 9E+09]], v30, z0, tNozzleAlCal, \Wobj := wobjAlWithButton;
		MoveJ [[1.850, -3.433, 83.588], [0.6996274, -0.5672425, -0.4221801, -0.1025745], [-1, 1, 17, 1], [9E+09, 9E+09, 9E+09, 9E+09, 9E+09, 9E+09]], v30, z0, tNozzleAlCal, \Wobj := wobjAlWithButton;
		MoveJ [[3.612, 1.470, 77.882], [0.5891533, -0.1400998, -0.6930888, 0.3910223], [-1, 1, 16, 1], [9E+09, 9E+09, 9E+09, 9E+09, 9E+09, 9E+09]], v30, z0, tNozzleAlCal, \Wobj := wobjAlWithButton;
		MoveJ [[-1.073, 3.749, 72.176], [0.1772184, 0.3587298, -0.6093546, 0.684539], [-1, 1, 15, 1], [9E+09, 9E+09, 9E+09, 9E+09, 9E+09, 9E+09]], v30, z0, tNozzleAlCal, \Wobj := wobjAlWithButton;
		MoveJ [[-3.843, -0.664, 66.471], [-0.3253964, 0.6740028, -0.2138229, 0.6277876], [-1, 1, 14, 1], [9E+09, 9E+09, 9E+09, 9E+09, 9E+09, 9E+09]], v30, z0, tNozzleAlCal, \Wobj := wobjAlWithButton;
		MoveJ [[0.247, -3.892, 60.765], [-0.6615108, 0.6443989, 0.2911186, 0.2498068], [-1, 1, 13, 1], [9E+09, 9E+09, 9E+09, 9E+09, 9E+09, 9E+09]], v30, z0, tNozzleAlCal, \Wobj := wobjAlWithButton;
		MoveJ [[3.896, -0.173, 55.059], [-0.6591403, 0.285066, 0.6470992, -0.2559963], [-1, 1, 13, 1], [9E+09, 9E+09, 9E+09, 9E+09, 9E+09, 9E+09]], v30, z0, tNozzleAlCal, \Wobj := wobjAlWithButton;
		MoveJ [[0.591, 3.855, 49.353], [-0.3194978, -0.2201309, 0.6719691, -0.63081], [-1, 1, 12, 1], [9E+09, 9E+09, 9E+09, 9E+09, 9E+09, 9E+09]], v30, z0, tNozzleAlCal, \Wobj := wobjAlWithButton;
		MoveJ [[-3.769, 1.003, 43.647], [0.1836269, -0.6126901, 0.3530026, -0.6828479], [-1, 1, 11, 1], [9E+09, 9E+09, 9E+09, 9E+09, 9E+09, 9E+09]], v30, z0, tNozzleAlCal, \Wobj := wobjAlWithButton;
		MoveJ [[-1.402, -3.639, 37.941], [0.5927925, -0.6917452, -0.1465899, -0.385483], [-1, 1, 10, 1], [9E+09, 9E+09, 9E+09, 9E+09, 9E+09, 9E+09]], v30, z0, tNozzleAlCal, \Wobj := wobjAlWithButton;
		MoveJ [[3.467, -1.785, 32.235], [0.6986352, -0.4168448, -0.5711746, 0.1091277], [-1, 1, 9, 1], [9E+09, 9E+09, 9E+09, 9E+09, 9E+09, 9E+09]], v30, z0, tNozzleAlCal, \Wobj := wobjAlWithButton;
		MoveJ [[2.148, 3.255, 26.529], [0.446997, 0.0713487, -0.703498, 0.5478994], [-1, 1, 8, 1], [9E+09, 9E+09, 9E+09, 9E+09, 9E+09, 9E+09]], v30, z0, tNozzleAlCal, \Wobj := wobjAlWithButton;
		MoveJ [[-3.005, 2.485, 20.824], [-0.0333628, 0.5230342, -0.4758522, 0.7063193], [-1, 1, 7, 1], [9E+09, 9E+09, 9E+09, 9E+09, 9E+09, 9E+09]], v30, z0, tNozzleAlCal, \Wobj := wobjAlWithButton;
		MoveJ [[-2.794, -2.721, 15.118], [-0.4966513, 0.7070911, -0.0047201, 0.5033265], [-1, 1, 6, 1], [9E+09, 9E+09, 9E+09, 9E+09, 9E+09, 9E+09]], v30, z0, tNozzleAlCal, \Wobj := wobjAlWithButton;
		MoveJ [[2.404, -3.071, 9.412], [-0.705811, 0.5293403, 0.4688272, 0.0427891], [-1, 1, 5, 1], [9E+09, 9E+09, 9E+09, 9E+09, 9E+09, 9E+09]], v30, z0, tNozzleAlCal, \Wobj := wobjAlWithButton;
		MoveJ [[3.311, 2.060, 3.706], [-0.553818, 0.0807342, 0.7024828, -0.4396427], [-1, 1, 4, 1], [9E+09, 9E+09, 9E+09, 9E+09, 9E+09, 9E+09]], v30, z0, tNozzleAlCal, \Wobj := wobjAlWithButton;
		MoveJ [[-1.692, 3.514, -2.000], [-0.1184448, -0.4091824, 0.5766887, -0.6971161], [-1, 1, 3, 1], [9E+09, 9E+09, 9E+09, 9E+09, 9E+09, 9E+09]], v30, z0, tNozzleAlCal, \Wobj := wobjAlWithButton;
		MoveJ [[-0.868, 3.802, -2.000], [-0.1957522, -0.3420409, 0.6188765, -0.6794712], [-1, 1, 3, 1], [9E+09, 9E+09, 9E+09, 9E+09, 9E+09, 9E+09]], v30, z0, tNozzleAlCal, \Wobj := wobjAlWithButton;
		MoveJ [[3.687, 1.272, 3.706], [-0.59956, 0.1588796, 0.6890263, -0.3748704], [-1, 1, 4, 1], [9E+09, 9E+09, 9E+09, 9E+09, 9E+09, 9E+09]], v30, z0, tNozzleAlCal, \Wobj := wobjAlWithButton;
		MoveJ [[1.661, -3.529, 9.412], [-0.6965821, 0.5785039, 0.406612, 0.1215459], [-1, 1, 5, 1], [9E+09, 9E+09, 9E+09, 9E+09, 9E+09, 9E+09]], v30, z0, tNozzleAlCal, \Wobj := wobjAlWithButton;
		MoveJ [[-3.330, -2.031, 15.118], [-0.4371738, 0.7021165, -0.0838595, 0.555769], [-1, 1, 6, 1], [9E+09, 9E+09, 9E+09, 9E+09, 9E+09, 9E+09]], v30, z0, tNozzleAlCal, \Wobj := wobjAlWithButton;
		MoveJ [[-2.377, 3.092, 20.824], [0.0459297, 0.4664669, -0.5314214, 0.7056136], [-1, 1, 7, 1], [9E+09, 9E+09, 9E+09, 9E+09, 9E+09, 9E+09]], v30, z0, tNozzleAlCal, \Wobj := wobjAlWithButton;
		MoveJ [[2.818, 2.696, 26.529], [0.5055316, -0.0078667, -0.7070631, 0.4944065], [-1, 1, 8, 1], [9E+09, 9E+09, 9E+09, 9E+09, 9E+09, 9E+09]], v30, z0, tNozzleAlCal, \Wobj := wobjAlWithButton;
		MoveJ [[2.983, -2.512, 32.235], [0.7064608, -0.4781751, -0.5209114, 0.0302192], [-1, 1, 9, 1], [9E+09, 9E+09, 9E+09, 9E+09, 9E+09, 9E+09]], v30, z0, tNozzleAlCal, \Wobj := wobjAlWithButton;
		MoveJ [[-2.177, -3.236, 37.941], [0.5459047, -0.7038085, -0.0682173, -0.4494308], [-1, 1, 10, 1], [9E+09, 9E+09, 9E+09, 9E+09, 9E+09, 9E+09]], v30, z0, tNozzleAlCal, \Wobj := wobjAlWithButton;
		MoveJ [[-3.451, 1.816, 43.647], [0.1060176, -0.5693139, 0.4193825, -0.699114], [-1, 1, 11, 1], [9E+09, 9E+09, 9E+09, 9E+09, 9E+09, 9E+09]], v30, z0, tNozzleAlCal, \Wobj := wobjAlWithButton;
		MoveJ [[1.434, 3.627, 49.353], [-0.3881172, -0.1435101, 0.6923907, -0.5910712], [-1, 1, 12, 1], [9E+09, 9E+09, 9E+09, 9E+09, 9E+09, 9E+09]], v30, z0, tNozzleAlCal, \Wobj := wobjAlWithButton;
		MoveJ [[3.760, -1.036, 55.059], [-0.6836583, 0.3557257, 0.6111132, -0.1805863], [-1, 1, 13, 1], [9E+09, 9E+09, 9E+09, 9E+09, 9E+09, 9E+09]], v30, z0, tNozzleAlCal, \Wobj := wobjAlWithButton;
		MoveJ [[-0.626, -3.849, 60.765], [-0.6293819, 0.672942, 0.2171383, 0.3223018], [-1, 1, 14, 1], [9E+09, 9E+09, 9E+09, 9E+09, 9E+09, 9E+09]], v30, z0, tNozzleAlCal, \Wobj := wobjAlWithButton;
		MoveJ [[-3.894, 0.208, 66.471], [-0.2530604, 0.6458243, -0.2879428, 0.660273], [-1, 1, 15, 1], [9E+09, 9E+09, 9E+09, 9E+09, 9E+09, 9E+09]], v30, z0, tNozzleAlCal, \Wobj := wobjAlWithButton;
		MoveJ [[-0.212, 3.894, 72.176], [0.2527482, 0.2882481, -0.6456881, 0.6603926], [-1, 1, 15, 1], [9E+09, 9E+09, 9E+09, 9E+09, 9E+09, 9E+09]], v30, z0, tNozzleAlCal, \Wobj := wobjAlWithButton;
		MoveJ [[3.849, 0.629, 77.882], [0.6292294, -0.2168202, -0.6730446, 0.3225994], [-1, 1, 16, 1], [9E+09, 9E+09, 9E+09, 9E+09, 9E+09, 9E+09]], v30, z0, tNozzleAlCal, \Wobj := wobjAlWithButton;
		MoveJ [[1.040, -3.759, 83.588], [0.6837436, -0.610945, -0.3560145, -0.180263], [-1, 1, 17, 1], [9E+09, 9E+09, 9E+09, 9E+09, 9E+09, 9E+09]], v30, z0, tNozzleAlCal, \Wobj := wobjAlWithButton;
		MoveJ [[-3.625, -1.438, 89.294], [0.3883966, -0.6924585, 0.1431828, -0.5908876], [-1, 1, 18, 1], [9E+09, 9E+09, 9E+09, 9E+09, 9E+09, 9E+09]], v30, z0, tNozzleAlCal, \Wobj := wobjAlWithButton;
		MoveJ [[-1.819, 3.450, 95.000], [-0.105687, -0.4196516, 0.5691156, -0.699164], [-1, 1, 19, 1], [9E+09, 9E+09, 9E+09, 9E+09, 9E+09, 9E+09]], v30, z0, tNozzleAlCal, \Wobj := wobjAlWithButton;
		MoveJ [[-1.006, 3.768, 95.000], [-0.183304, -0.3532922, 0.6125232, -0.6829346], [-1, 1, 19, 1], [9E+09, 9E+09, 9E+09, 9E+09, 9E+09, 9E+09]], v30, z0, tNozzleAlCal, \Wobj := wobjAlWithButton;
		MoveJ [[-3.854, -0.595, 89.294], [0.319796, -0.672073, 0.2198133, -0.6306588], [-1, 1, 18, 1], [9E+09, 9E+09, 9E+09, 9E+09, 9E+09, 9E+09]], v30, z0, tNozzleAlCal, \Wobj := wobjAlWithButton;
		MoveJ [[0.177, -3.896, 83.588], [0.6592613, -0.6469644, -0.2853718, -0.2556845], [-1, 1, 17, 1], [9E+09, 9E+09, 9E+09, 9E+09, 9E+09, 9E+09]], v30, z0, tNozzleAlCal, \Wobj := wobjAlWithButton;
		MoveJ [[3.892, -0.243, 77.882], [0.6613926, -0.290814, -0.6445365, 0.2501196], [-1, 1, 17, 1], [9E+09, 9E+09, 9E+09, 9E+09, 9E+09, 9E+09]], v30, z0, tNozzleAlCal, \Wobj := wobjAlWithButton;
		MoveJ [[0.660, 3.844, 72.176], [0.3250995, 0.2141415, -0.6739017, 0.6279414], [-1, 1, 16, 1], [9E+09, 9E+09, 9E+09, 9E+09, 9E+09, 9E+09]], v30, z0, tNozzleAlCal, \Wobj := wobjAlWithButton;
		MoveJ [[-3.750, 1.070, 66.471], [-0.1775421, 0.6095241, -0.3584417, 0.6844551], [-1, 1, 15, 1], [9E+09, 9E+09, 9E+09, 9E+09, 9E+09, 9E+09]], v30, z0, tNozzleAlCal, \Wobj := wobjAlWithButton;
		MoveJ [[-1.467, -3.614, 60.765], [-0.5893381, 0.6930225, 0.1404274, 0.3907437], [-1, 1, 14, 1], [9E+09, 9E+09, 9E+09, 9E+09, 9E+09, 9E+09]], v30, z0, tNozzleAlCal, \Wobj := wobjAlWithButton;
		MoveJ [[3.435, -1.847, 55.059], [-0.6995788, 0.4219119, 0.567442, -0.1029054], [-1, 1, 13, 1], [9E+09, 9E+09, 9E+09, 9E+09, 9E+09, 9E+09]], v30, z0, tNozzleAlCal, \Wobj := wobjAlWithButton;
		MoveJ [[2.205, 3.216, 49.353], [-0.4518557, -0.0650846, 0.7041051, -0.5438993], [-1, 1, 12, 1], [9E+09, 9E+09, 9E+09, 9E+09, 9E+09, 9E+09]], v30, z0, tNozzleAlCal, \Wobj := wobjAlWithButton;
		MoveJ [[-2.961, 2.539, 43.647], [0.027075, -0.5187783, 0.4804885, -0.7065883], [-1, 1, 11, 1], [9E+09, 9E+09, 9E+09, 9E+09, 9E+09, 9E+09]], v30, z0, tNozzleAlCal, \Wobj := wobjAlWithButton;
		MoveJ [[-2.842, -2.670, 37.941], [0.4921519, -0.707021, 0.0110132, -0.5077268], [-1, 1, 10, 1], [9E+09, 9E+09, 9E+09, 9E+09, 9E+09, 9E+09]], v30, z0, tNozzleAlCal, \Wobj := wobjAlWithButton;
		MoveJ [[2.349, -3.113, 32.235], [0.7054022, -0.533492, -0.4640974, -0.0490693], [-1, 1, 9, 1], [9E+09, 9E+09, 9E+09, 9E+09, 9E+09, 9E+09]], v30, z0, tNozzleAlCal, \Wobj := wobjAlWithButton;
		MoveJ [[3.348, 2.001, 26.529], [0.5577089, -0.0869832, -0.7017364, 0.4346962], [-1, 1, 8, 1], [9E+09, 9E+09, 9E+09, 9E+09, 9E+09, 9E+09]], v30, z0, tNozzleAlCal, \Wobj := wobjAlWithButton;
		MoveJ [[-1.629, 3.543, 20.824], [0.1246445, 0.4040335, -0.5803076, 0.6960343], [-1, 1, 7, 1], [9E+09, 9E+09, 9E+09, 9E+09, 9E+09, 9E+09]], v30, z0, tNozzleAlCal, \Wobj := wobjAlWithButton;
		MoveJ [[-3.698, -1.239, 15.118], [-0.3721986, 0.6883125, -0.1619443, 0.6012223], [-1, 1, 6, 1], [9E+09, 9E+09, 9E+09, 9E+09, 9E+09, 9E+09]], v30, z0, tNozzleAlCal, \Wobj := wobjAlWithButton;
		MoveJ [[0.834, -3.810, 9.412], [-0.6785933, 0.6203925, 0.3392834, 0.1987741], [-1, 1, 5, 1], [9E+09, 9E+09, 9E+09, 9E+09, 9E+09, 9E+09]], v30, z0, tNozzleAlCal, \Wobj := wobjAlWithButton;
		MoveJ [[3.877, 0.419, 3.706], [-0.6377623, 0.2350271, 0.666905, -0.3053839], [-1, 1, 4, 1], [9E+09, 9E+09, 9E+09, 9E+09, 9E+09, 9E+09]], v30, z0, tNozzleAlCal, \Wobj := wobjAlWithButton;
		MoveJ [[-0.000, 3.900, -2.000], [-0.270598, -0.270598, 0.6532815, -0.6532815], [-1, 1, 3, 1], [9E+09, 9E+09, 9E+09, 9E+09, 9E+09, 9E+09]], v30, z0, tNozzleAlCal, \Wobj := wobjAlWithButton;
		MoveJ [[0.868, 3.802, -2.000], [-0.3420409, -0.1957522, 0.6794712, -0.6188765], [-1, 1, 4, 1], [9E+09, 9E+09, 9E+09, 9E+09, 9E+09, 9E+09]], v30, z0, tNozzleAlCal, \Wobj := wobjAlWithButton;
		MoveJ [[3.873, -0.454, 3.706], [-0.6679443, 0.308219, 0.636397, -0.232057], [-1, 1, 5, 1], [9E+09, 9E+09, 9E+09, 9E+09, 9E+09, 9E+09]], v30, z0, tNozzleAlCal, \Wobj := wobjAlWithButton;
		MoveJ [[-0.035, -3.900, 9.412], [-0.6520709, 0.6544793, 0.2676881, 0.2735026], [-1, 1, 6, 1], [9E+09, 9E+09, 9E+09, 9E+09, 9E+09, 9E+09]], v30, z0, tNozzleAlCal, \Wobj := wobjAlWithButton;
		MoveJ [[-3.881, -0.385, 15.118], [-0.3025427, 0.6658525, -0.2379926, 0.639115], [-1, 1, 6, 1], [9E+09, 9E+09, 9E+09, 9E+09, 9E+09, 9E+09]], v30, z0, tNozzleAlCal, \Wobj := wobjAlWithButton;
		MoveJ [[-0.800, 3.817, 20.824], [0.2017919, 0.3365192, -0.6218962, 0.677702], [-1, 1, 7, 1], [9E+09, 9E+09, 9E+09, 9E+09, 9E+09, 9E+09]], v30, z0, tNozzleAlCal, \Wobj := wobjAlWithButton;
		MoveJ [[3.709, 1.206, 26.529], [0.6028727, -0.1650058, -0.687585, 0.3695193], [-1, 1, 8, 1], [9E+09, 9E+09, 9E+09, 9E+09, 9E+09, 9E+09]], v30, z0, tNozzleAlCal, \Wobj := wobjAlWithButton;
		MoveJ [[1.598, -3.558, 32.235], [0.6954727, -0.5820999, -0.4014471, -0.1277408], [-1, 1, 9, 1], [9E+09, 9E+09, 9E+09, 9E+09, 9E+09, 9E+09]], v30, z0, tNozzleAlCal, \Wobj := wobjAlWithButton;
		MoveJ [[-3.365, -1.971, 37.941], [0.43221, -0.7013424, 0.0901052, -0.5596379], [-1, 1, 10, 1], [9E+09, 9E+09, 9E+09, 9E+09, 9E+09, 9E+09]], v30, z0, tNozzleAlCal, \Wobj := wobjAlWithButton;
		MoveJ [[-2.322, 3.134, 43.647], [-0.052208, -0.4617186, 0.535552, -0.7051768], [-1, 1, 11, 1], [9E+09, 9E+09, 9E+09, 9E+09, 9E+09, 9E+09]], v30, z0, tNozzleAlCal, \Wobj := wobjAlWithButton;
		MoveJ [[2.866, 2.645, 49.353], [-0.509912, 0.0141594, 0.706965, -0.4898876], [-1, 1, 12, 1], [9E+09, 9E+09, 9E+09, 9E+09, 9E+09, 9E+09]], v30, z0, tNozzleAlCal, \Wobj := wobjAlWithButton;
		MoveJ [[2.938, -2.565, 55.059], [-0.7067018, 0.4827924, 0.5166349, -0.0239303], [-1, 1, 13, 1], [9E+09, 9E+09, 9E+09, 9E+09, 9E+09, 9E+09]], v30, z0, tNozzleAlCal, \Wobj := wobjAlWithButton;
		MoveJ [[-2.234, -3.197, 60.765], [-0.5418831, 0.7043878, 0.0619505, 0.4542717], [-1, 1, 14, 1], [9E+09, 9E+09, 9E+09, 9E+09, 9E+09, 9E+09]], v30, z0, tNozzleAlCal, \Wobj := wobjAlWithButton;
		MoveJ [[-3.418, 1.877, 66.471], [-0.0997911, 0.5655588, -0.4244329, 0.7000298], [-1, 1, 15, 1], [9E+09, 9E+09, 9E+09, 9E+09, 9E+09, 9E+09]], v30, z0, tNozzleAlCal, \Wobj := wobjAlWithButton;
		MoveJ [[1.499, 3.601, 72.176], [0.3933624, 0.137342, -0.6936406, 0.5875934], [-1, 1, 16, 1], [9E+09, 9E+09, 9E+09, 9E+09, 9E+09, 9E+09]], v30, z0, tNozzleAlCal, \Wobj := wobjAlWithButton;
		MoveJ [[3.741, -1.103, 77.882], [0.6852385, -0.3611506, -0.6079229, 0.1744944], [-1, 1, 17, 1], [9E+09, 9E+09, 9E+09, 9E+09, 9E+09, 9E+09]], v30, z0, tNozzleAlCal, \Wobj := wobjAlWithButton;
		MoveJ [[-0.694, -3.838, 83.588], [0.6264884, -0.674848, -0.2111404, -0.3278907], [-1, 1, 18, 1], [9E+09, 9E+09, 9E+09, 9E+09, 9E+09, 9E+09]], v30, z0, tNozzleAlCal, \Wobj := wobjAlWithButton;
		MoveJ [[-3.890, 0.277, 89.294], [0.2471738, -0.6432359, 0.2936794, -0.6624992], [-1, 1, 19, 1], [9E+09, 9E+09, 9E+09, 9E+09, 9E+09, 9E+09]], v30, z0, tNozzleAlCal, \Wobj := wobjAlWithButton;
		MoveJ [[-0.143, 3.897, 95.000], [-0.2586158, -0.2824899, 0.648228, -0.6581169], [-1, 1, 19, 1], [9E+09, 9E+09, 9E+09, 9E+09, 9E+09, 9E+09]], v30, z0, tNozzleAlCal, \Wobj := wobjAlWithButton;
		MoveJ [[0.728, 3.831, 95.000], [-0.3306754, -0.2081351, 0.6757809, -0.6250231], [-1, 1, 20, 1], [9E+09, 9E+09, 9E+09, 9E+09, 9E+09, 9E+09]], v30, z0, tNozzleAlCal, \Wobj := wobjAlWithButton;
		MoveJ [[-3.731, 1.136, 89.294], [0.1714433, -0.6063097, 0.3638524, -0.6860082], [-1, 1, 19, 1], [9E+09, 9E+09, 9E+09, 9E+09, 9E+09, 9E+09]], v30, z0, tNozzleAlCal, \Wobj := wobjAlWithButton;
		MoveJ [[-1.531, -3.587, 83.588], [0.5858371, -0.6942449, -0.1342538, -0.3959734], [-1, 1, 18, 1], [9E+09, 9E+09, 9E+09, 9E+09, 9E+09, 9E+09]], v30, z0, tNozzleAlCal, \Wobj := wobjAlWithButton;
		MoveJ [[3.402, -1.908, 77.882], [0.700467, -0.4269456, -0.5636644, 0.0966749], [-1, 1, 17, 1], [9E+09, 9E+09, 9E+09, 9E+09, 9E+09, 9E+09]], v30, z0, tNozzleAlCal, \Wobj := wobjAlWithButton;
		MoveJ [[2.262, 3.177, 72.176], [0.4566787, 0.0588153, -0.7046565, 0.5398561], [-1, 1, 16, 1], [9E+09, 9E+09, 9E+09, 9E+09, 9E+09, 9E+09]], v30, z0, tNozzleAlCal, \Wobj := wobjAlWithButton;
		MoveJ [[-2.915, 2.591, 66.471], [-0.0207852, 0.5144813, -0.4850867, 0.7068013], [-1, 1, 15, 1], [9E+09, 9E+09, 9E+09, 9E+09, 9E+09, 9E+09]], v30, z0, tNozzleAlCal, \Wobj := wobjAlWithButton;
		MoveJ [[-2.889, -2.619, 60.765], [-0.4876136, 0.706895, -0.0173054, 0.512087], [-1, 1, 14, 1], [9E+09, 9E+09, 9E+09, 9E+09, 9E+09, 9E+09]], v30, z0, tNozzleAlCal, \Wobj := wobjAlWithButton;
		MoveJ [[2.294, -3.154, 55.059], [-0.7049375, 0.5376014, 0.4593308, 0.0553456], [-1, 1, 13, 1], [9E+09, 9E+09, 9E+09, 9E+09, 9E+09, 9E+09]], v30, z0, tNozzleAlCal, \Wobj := wobjAlWithButton;
		MoveJ [[3.383, 1.941, 49.353], [-0.5615557, 0.0932254, 0.7009344, -0.4297153], [-1, 1, 12, 1], [9E+09, 9E+09, 9E+09, 9E+09, 9E+09, 9E+09]], v30, z0, tNozzleAlCal, \Wobj := wobjAlWithButton;
		MoveJ [[-1.566, 3.572, 43.647], [-0.1308345, -0.3988527, 0.5838806, -0.6948974], [-1, 1, 11, 1], [9E+09, 9E+09, 9E+09, 9E+09, 9E+09, 9E+09]], v30, z0, tNozzleAlCal, \Wobj := wobjAlWithButton;
		MoveJ [[-3.719, -1.173, 37.941], [0.3668328, -0.6868439, 0.1680641, -0.6045112], [-1, 1, 10, 1], [9E+09, 9E+09, 9E+09, 9E+09, 9E+09, 9E+09]], v30, z0, tNozzleAlCal, \Wobj := wobjAlWithButton;
		MoveJ [[0.766, -3.824, 32.235], [0.6767973, -0.6233876, -0.3337483, -0.2048058], [-1, 1, 9, 1], [9E+09, 9E+09, 9E+09, 9E+09, 9E+09, 9E+09]], v30, z0, tNozzleAlCal, \Wobj := wobjAlWithButton;
		MoveJ [[3.884, 0.350, 26.529], [0.640455, -0.2409534, -0.6647868, 0.2996955], [-1, 1, 8, 1], [9E+09, 9E+09, 9E+09, 9E+09, 9E+09, 9E+09]], v30, z0, tNozzleAlCal, \Wobj := wobjAlWithButton;
		MoveJ [[0.069, 3.899, 20.824], [0.2764017, 0.264773, -0.655664, 0.6508473], [-1, 1, 8, 1], [9E+09, 9E+09, 9E+09, 9E+09, 9E+09, 9E+09]], v30, z0, tNozzleAlCal, \Wobj := wobjAlWithButton;
		MoveJ [[-3.869, 0.488, 15.118], [-0.2290822, 0.6350191, -0.311048, 0.6689704], [-1, 1, 7, 1], [9E+09, 9E+09, 9E+09, 9E+09, 9E+09, 9E+09]], v30, z0, tNozzleAlCal, \Wobj := wobjAlWithButton;
		MoveJ [[-0.902, -3.794, 9.412], [-0.6173482, 0.6803356, 0.1927265, 0.3447916], [-1, 1, 6, 1], [9E+09, 9E+09, 9E+09, 9E+09, 9E+09, 9E+09]], v30, z0, tNozzleAlCal, \Wobj := wobjAlWithButton;
		MoveJ [[3.675, -1.304, 3.706], [-0.6897266, 0.3775348, 0.5978859, -0.1558118], [-1, 1, 5, 1], [9E+09, 9E+09, 9E+09, 9E+09, 9E+09, 9E+09]], v30, z0, tNozzleAlCal, \Wobj := wobjAlWithButton;
		MoveJ [[1.692, 3.514, -2.000], [-0.4091824, -0.1184448, 0.6971161, -0.5766887], [-1, 1, 4, 1], [9E+09, 9E+09, 9E+09, 9E+09, 9E+09, 9E+09]], v30, z0, tNozzleAlCal, \Wobj := wobjAlWithButton;
		MoveJ [[2.432, 3.049, -2.000], [-0.4711782, -0.0396478, 0.7059944, -0.5272487], [-1, 1, 4, 1], [9E+09, 9E+09, 9E+09, 9E+09, 9E+09, 9E+09]], v30, z0, tNozzleAlCal, \Wobj := wobjAlWithButton;
		MoveJ [[3.293, -2.090, 3.706], [-0.7028351, 0.4421029, 0.551856, -0.0776072], [-1, 1, 5, 1], [9E+09, 9E+09, 9E+09, 9E+09, 9E+09, 9E+09]], v30, z0, tNozzleAlCal, \Wobj := wobjAlWithButton;
		MoveJ [[-1.723, -3.499, 9.412], [-0.574862, 0.6976363, 0.1153413, 0.4117447], [-1, 1, 6, 1], [9E+09, 9E+09, 9E+09, 9E+09, 9E+09, 9E+09]], v30, z0, tNozzleAlCal, \Wobj := wobjAlWithButton;
		MoveJ [[-3.664, 1.337, 15.118], [-0.1527409, 0.5961999, -0.3801918, 0.6904131], [-1, 1, 7, 1], [9E+09, 9E+09, 9E+09, 9E+09, 9E+09, 9E+09]], v30, z0, tNozzleAlCal, \Wobj := wobjAlWithButton;
		MoveJ [[0.935, 3.786, 20.824], [0.3475355, 0.189697, -0.6811865, 0.6158077], [-1, 1, 8, 1], [9E+09, 9E+09, 9E+09, 9E+09, 9E+09, 9E+09]], v30, z0, tNozzleAlCal, \Wobj := wobjAlWithButton;
		MoveJ [[3.865, -0.523, 26.529], [0.6699832, -0.3138708, -0.6336286, 0.2261029], [-1, 1, 9, 1], [9E+09, 9E+09, 9E+09, 9E+09, 9E+09, 9E+09]], v30, z0, tNozzleAlCal, \Wobj := wobjAlWithButton;
		MoveJ [[-0.104, -3.899, 32.235], [0.6496108, -0.6568358, -0.2618525, -0.2792953], [-1, 1, 10, 1], [9E+09, 9E+09, 9E+09, 9E+09, 9E+09, 9E+09]], v30, z0, tNozzleAlCal, \Wobj := wobjAlWithButton;
		MoveJ [[-3.887, -0.316, 37.941], [0.2968425, -0.663708, 0.2439094, -0.6417824], [-1, 1, 10, 1], [9E+09, 9E+09, 9E+09, 9E+09, 9E+09, 9E+09]], v30, z0, tNozzleAlCal, \Wobj := wobjAlWithButton;
		MoveJ [[-0.732, 3.831, 43.647], [-0.2078156, -0.3309709, 0.6248667, -0.6758792], [-1, 1, 11, 1], [9E+09, 9E+09, 9E+09, 9E+09, 9E+09, 9E+09]], v30, z0, tNozzleAlCal, \Wobj := wobjAlWithButton;
		MoveJ [[3.730, 1.140, 49.353], [-0.6061376, 0.171119, 0.6860892, -0.364139], [-1, 1, 12, 1], [9E+09, 9E+09, 9E+09, 9E+09, 9E+09, 9E+09]], v30, z0, tNozzleAlCal, \Wobj := wobjAlWithButton;
		MoveJ [[1.534, -3.586, 55.059], [-0.6943083, 0.5856498, 0.3962503, 0.1339256], [-1, 1, 13, 1], [9E+09, 9E+09, 9E+09, 9E+09, 9E+09, 9E+09]], v30, z0, tNozzleAlCal, \Wobj := wobjAlWithButton;
		MoveJ [[-3.400, -1.911, 60.765], [-0.427212, 0.7005126, -0.0963437, 0.5634625], [-1, 1, 14, 1], [9E+09, 9E+09, 9E+09, 9E+09, 9E+09, 9E+09]], v30, z0, tNozzleAlCal, \Wobj := wobjAlWithButton;
		MoveJ [[-2.265, 3.175, 66.471], [0.0584821, 0.4569338, -0.5396402, 0.7046842], [-1, 1, 15, 1], [9E+09, 9E+09, 9E+09, 9E+09, 9E+09, 9E+09]], v30, z0, tNozzleAlCal, \Wobj := wobjAlWithButton;
		MoveJ [[2.913, 2.594, 72.176], [0.5142519, -0.020451, -0.706811, 0.4853299], [-1, 1, 16, 1], [9E+09, 9E+09, 9E+09, 9E+09, 9E+09, 9E+09]], v30, z0, tNozzleAlCal, \Wobj := wobjAlWithButton;
		MoveJ [[2.892, -2.617, 77.882], [0.7068868, -0.4873714, -0.5123174, 0.0176396], [-1, 1, 17, 1], [9E+09, 9E+09, 9E+09, 9E+09, 9E+09, 9E+09]], v30, z0, tNozzleAlCal, \Wobj := wobjAlWithButton;
		MoveJ [[-2.291, -3.156, 83.588], [0.5378185, -0.7049113, -0.0556789, -0.4590766], [-1, 1, 18, 1], [9E+09, 9E+09, 9E+09, 9E+09, 9E+09, 9E+09]], v30, z0, tNozzleAlCal, \Wobj := wobjAlWithButton;
		MoveJ [[-3.384, 1.938, 89.294], [0.0935567, -0.5617588, 0.4294497, -0.7008903], [-1, 1, 19, 1], [9E+09, 9E+09, 9E+09, 9E+09, 9E+09, 9E+09]], v30, z0, tNozzleAlCal, \Wobj := wobjAlWithButton;
		MoveJ [[1.563, 3.573, 95.000], [-0.3985766, -0.131163, 0.6948355, -0.5840691], [-1, 1, 20, 1], [9E+09, 9E+09, 9E+09, 9E+09, 9E+09, 9E+09]], v30, z0, tNozzleAlCal, \Wobj := wobjAlWithButton;
		MoveJ [[2.319, 3.136, 95.000], [-0.4614654, -0.0525414, 0.7051521, -0.5357702], [-1, 1, 20, 1], [9E+09, 9E+09, 9E+09, 9E+09, 9E+09, 9E+09]], v30, z0, tNozzleAlCal, \Wobj := wobjAlWithButton;
		MoveJ [[-2.868, 2.642, 89.294], [0.0144937, -0.5101435, 0.4896465, -0.7069583], [-1, 1, 19, 1], [9E+09, 9E+09, 9E+09, 9E+09, 9E+09, 9E+09]], v30, z0, tNozzleAlCal, \Wobj := wobjAlWithButton;
		MoveJ [[-2.936, -2.568, 83.588], [0.4830366, -0.706713, 0.0235962, -0.5164066], [-1, 1, 18, 1], [9E+09, 9E+09, 9E+09, 9E+09, 9E+09, 9E+09]], v30, z0, tNozzleAlCal, \Wobj := wobjAlWithButton;
		MoveJ [[2.237, -3.195, 77.882], [0.704417, -0.5416683, -0.4545278, -0.0616175], [-1, 1, 17, 1], [9E+09, 9E+09, 9E+09, 9E+09, 9E+09, 9E+09]], v30, z0, tNozzleAlCal, \Wobj := wobjAlWithButton;
		MoveJ [[3.417, 1.881, 72.176], [0.5653581, -0.0994602, -0.7000769, 0.4247003], [-1, 1, 16, 1], [9E+09, 9E+09, 9E+09, 9E+09, 9E+09, 9E+09]], v30, z0, tNozzleAlCal, \Wobj := wobjAlWithButton;
		MoveJ [[-1.502, 3.599, 66.471], [0.137014, 0.3936402, -0.5874074, 0.6937054], [-1, 1, 15, 1], [9E+09, 9E+09, 9E+09, 9E+09, 9E+09, 9E+09]], v30, z0, tNozzleAlCal, \Wobj := wobjAlWithButton;
		MoveJ [[-3.740, -1.106, 60.765], [-0.361438, 0.6853209, -0.1741705, 0.6077521], [-1, 1, 14, 1], [9E+09, 9E+09, 9E+09, 9E+09, 9E+09, 9E+09]], v30, z0, tNozzleAlCal, \Wobj := wobjAlWithButton;
		MoveJ [[0.698, -3.837, 55.059], [-0.6749477, 0.6263333, 0.3281868, 0.2108213], [-1, 1, 13, 1], [9E+09, 9E+09, 9E+09, 9E+09, 9E+09, 9E+09]], v30, z0, tNozzleAlCal, \Wobj := wobjAlWithButton;
		MoveJ [[3.890, 0.281, 49.353], [-0.643097, 0.2468606, 0.6626159, -0.2939835], [-1, 1, 12, 1], [9E+09, 9E+09, 9E+09, 9E+09, 9E+09, 9E+09]], v30, z0, tNozzleAlCal, \Wobj := wobjAlWithButton;
		MoveJ [[0.139, 3.898, 43.647], [-0.2821834, -0.2589269, 0.6579946, -0.6483615], [-1, 1, 12, 1], [9E+09, 9E+09, 9E+09, 9E+09, 9E+09, 9E+09]], v30, z0, tNozzleAlCal, \Wobj := wobjAlWithButton;
		MoveJ [[-3.860, 0.557, 37.941], [0.2231191, -0.6322255, 0.3166875, -0.6709828], [-1, 1, 11, 1], [9E+09, 9E+09, 9E+09, 9E+09, 9E+09, 9E+09]], v30, z0, tNozzleAlCal, \Wobj := wobjAlWithButton;
		MoveJ [[-0.969, -3.778, 32.235], [0.614255, -0.682024, -0.1866638, -0.3502725], [-1, 1, 10, 1], [9E+09, 9E+09, 9E+09, 9E+09, 9E+09, 9E+09]], v30, z0, tNozzleAlCal, \Wobj := wobjAlWithButton;
		MoveJ [[3.652, -1.370, 26.529], [0.691086, -0.3828412, -0.594502, 0.1496669], [-1, 1, 9, 1], [9E+09, 9E+09, 9E+09, 9E+09, 9E+09, 9E+09]], v30, z0, tNozzleAlCal, \Wobj := wobjAlWithButton;
		MoveJ [[1.754, 3.483, 20.824], [0.4142988, 0.1122356, -0.6981427, 0.573024], [-1, 1, 8, 1], [9E+09, 9E+09, 9E+09, 9E+09, 9E+09, 9E+09]], v30, z0, tNozzleAlCal, \Wobj := wobjAlWithButton;
		MoveJ [[-3.274, 2.119, 15.118], [-0.0744787, 0.5498831, -0.4445544, 0.7031735], [-1, 1, 7, 1], [9E+09, 9E+09, 9E+09, 9E+09, 9E+09, 9E+09]], v30, z0, tNozzleAlCal, \Wobj := wobjAlWithButton;
		MoveJ [[-2.459, -3.027, 9.412], [-0.5251466, 0.7061639, 0.0365056, 0.4735198], [-1, 1, 6, 1], [9E+09, 9E+09, 9E+09, 9E+09, 9E+09, 9E+09]], v30, z0, tNozzleAlCal, \Wobj := wobjAlWithButton;
		MoveJ [[2.745, -2.770, 3.706], [-0.7071051, 0.5011114, 0.4988862, 0.0015733], [-1, 1, 5, 1], [9E+09, 9E+09, 9E+09, 9E+09, 9E+09, 9E+09]], v30, z0, tNozzleAlCal, \Wobj := wobjAlWithButton;
		MoveJ [[3.049, 2.432, -2.000], [-0.5272486, 0.0396478, 0.7059944, -0.4711782], [-1, 1, 4, 1], [9E+09, 9E+09, 9E+09, 9E+09, 9E+09, 9E+09]], v30, z0, tNozzleAlCal, \Wobj := wobjAlWithButton;
		MoveJ [[3.514, 1.692, -2.000], [-0.5766886, 0.1184448, 0.6971161, -0.4091825], [-1, 1, 4, 1], [9E+09, 9E+09, 9E+09, 9E+09, 9E+09, 9E+09]], v30, z0, tNozzleAlCal, \Wobj := wobjAlWithButton;
		MoveJ [[2.060, -3.311, 3.706], [-0.7024828, 0.553818, 0.4396427, 0.0807341], [-1, 1, 5, 1], [9E+09, 9E+09, 9E+09, 9E+09, 9E+09, 9E+09]], v30, z0, tNozzleAlCal, \Wobj := wobjAlWithButton;
		MoveJ [[-3.071, -2.404, 9.412], [-0.4688272, 0.705811, -0.0427892, 0.5293402], [-1, 1, 6, 1], [9E+09, 9E+09, 9E+09, 9E+09, 9E+09, 9E+09]], v30, z0, tNozzleAlCal, \Wobj := wobjAlWithButton;
		MoveJ [[-2.721, 2.794, 15.118], [0.00472, 0.4966513, -0.5033265, 0.7070911], [-1, 1, 7, 1], [9E+09, 9E+09, 9E+09, 9E+09, 9E+09, 9E+09]], v30, z0, tNozzleAlCal, \Wobj := wobjAlWithButton;
		MoveJ [[2.485, 3.005, 20.824], [0.4758521, 0.0333627, -0.7063193, 0.5230342], [-1, 1, 8, 1], [9E+09, 9E+09, 9E+09, 9E+09, 9E+09, 9E+09]], v30, z0, tNozzleAlCal, \Wobj := wobjAlWithButton;
		MoveJ [[3.255, -2.148, 26.529], [0.703498, -0.4469971, -0.5478993, 0.0713487], [-1, 1, 9, 1], [9E+09, 9E+09, 9E+09, 9E+09, 9E+09, 9E+09]], v30, z0, tNozzleAlCal, \Wobj := wobjAlWithButton;
		MoveJ [[-1.785, -3.467, 32.235], [0.5711747, -0.6986352, -0.1091276, -0.4168448], [-1, 1, 10, 1], [9E+09, 9E+09, 9E+09, 9E+09, 9E+09, 9E+09]], v30, z0, tNozzleAlCal, \Wobj := wobjAlWithButton;
		MoveJ [[-3.639, 1.402, 37.941], [0.14659, -0.5927925, 0.385483, -0.6917452], [-1, 1, 11, 1], [9E+09, 9E+09, 9E+09, 9E+09, 9E+09, 9E+09]], v30, z0, tNozzleAlCal, \Wobj := wobjAlWithButton;
		MoveJ [[1.003, 3.769, 43.647], [-0.3530025, -0.1836268, 0.6828479, -0.6126902], [-1, 1, 12, 1], [9E+09, 9E+09, 9E+09, 9E+09, 9E+09, 9E+09]], v30, z0, tNozzleAlCal, \Wobj := wobjAlWithButton;
		MoveJ [[3.855, -0.591, 49.353], [-0.6719691, 0.3194978, 0.6308099, -0.220131], [-1, 1, 13, 1], [9E+09, 9E+09, 9E+09, 9E+09, 9E+09, 9E+09]], v30, z0, tNozzleAlCal, \Wobj := wobjAlWithButton;
		MoveJ [[-0.173, -3.896, 55.059], [-0.6470993, 0.6591404, 0.2559962, 0.2850659], [-1, 1, 14, 1], [9E+09, 9E+09, 9E+09, 9E+09, 9E+09, 9E+09]], v30, z0, tNozzleAlCal, \Wobj := wobjAlWithButton;
		MoveJ [[-3.892, -0.247, 60.765], [-0.2911187, 0.6615108, -0.2498069, 0.6443989], [-1, 1, 14, 1], [9E+09, 9E+09, 9E+09, 9E+09, 9E+09, 9E+09]], v30, z0, tNozzleAlCal, \Wobj := wobjAlWithButton;
		MoveJ [[-0.664, 3.843, 66.471], [0.2138229, 0.3253963, -0.6277876, 0.6740028], [-1, 1, 15, 1], [9E+09, 9E+09, 9E+09, 9E+09, 9E+09, 9E+09]], v30, z0, tNozzleAlCal, \Wobj := wobjAlWithButton;
		MoveJ [[3.749, 1.073, 72.176], [0.6093545, -0.1772185, -0.684539, 0.3587298], [-1, 1, 16, 1], [9E+09, 9E+09, 9E+09, 9E+09, 9E+09, 9E+09]], v30, z0, tNozzleAlCal, \Wobj := wobjAlWithButton;
		MoveJ [[1.470, -3.612, 77.882], [0.6930888, -0.5891533, -0.3910222, -0.1400998], [-1, 1, 17, 1], [9E+09, 9E+09, 9E+09, 9E+09, 9E+09, 9E+09]], v30, z0, tNozzleAlCal, \Wobj := wobjAlWithButton;
		MoveJ [[-3.433, -1.850, 83.588], [0.4221801, -0.6996274, 0.1025746, -0.5672424], [-1, 1, 18, 1], [9E+09, 9E+09, 9E+09, 9E+09, 9E+09, 9E+09]], v30, z0, tNozzleAlCal, \Wobj := wobjAlWithButton;
		MoveJ [[-2.209, 3.214, 89.294], [-0.0647517, -0.4521128, 0.5436856, -0.7041358], [-1, 1, 19, 1], [9E+09, 9E+09, 9E+09, 9E+09, 9E+09, 9E+09]], v30, z0, tNozzleAlCal, \Wobj := wobjAlWithButton;
		MoveJ [[2.958, 2.541, 95.000], [-0.518551, 0.026741, 0.706601, -0.4807337], [-1, 1, 20, 1], [9E+09, 9E+09, 9E+09, 9E+09, 9E+09, 9E+09]], v30, z0, tNozzleAlCal, \Wobj := wobjAlWithButton;
		MoveJ [[3.450, 1.819, 95.000], [-0.5691156, 0.1056871, 0.699164, -0.4196516], [-1, 1, 20, 1], [9E+09, 9E+09, 9E+09, 9E+09, 9E+09, 9E+09]], v30, z0, tNozzleAlCal, \Wobj := wobjAlWithButton;
		MoveJ [[-1.438, 3.625, 89.294], [-0.1431827, -0.3883965, 0.5908876, -0.6924585], [-1, 1, 19, 1], [9E+09, 9E+09, 9E+09, 9E+09, 9E+09, 9E+09]], v30, z0, tNozzleAlCal, \Wobj := wobjAlWithButton;
		MoveJ [[-3.759, -1.040, 83.588], [0.3560145, -0.6837436, 0.1802631, -0.6109449], [-1, 1, 18, 1], [9E+09, 9E+09, 9E+09, 9E+09, 9E+09, 9E+09]], v30, z0, tNozzleAlCal, \Wobj := wobjAlWithButton;
		MoveJ [[0.629, -3.849, 77.882], [0.6730446, -0.6292295, -0.3225993, -0.2168202], [-1, 1, 17, 1], [9E+09, 9E+09, 9E+09, 9E+09, 9E+09, 9E+09]], v30, z0, tNozzleAlCal, \Wobj := wobjAlWithButton;
		MoveJ [[3.894, 0.212, 72.176], [0.6456881, -0.2527483, -0.6603926, 0.2882481], [-1, 1, 16, 1], [9E+09, 9E+09, 9E+09, 9E+09, 9E+09, 9E+09]], v30, z0, tNozzleAlCal, \Wobj := wobjAlWithButton;
		MoveJ [[0.208, 3.894, 66.471], [0.2879428, 0.2530604, -0.660273, 0.6458243], [-1, 1, 16, 1], [9E+09, 9E+09, 9E+09, 9E+09, 9E+09, 9E+09]], v30, z0, tNozzleAlCal, \Wobj := wobjAlWithButton;
		MoveJ [[-3.849, 0.626, 60.765], [-0.2171384, 0.6293819, -0.3223019, 0.672942], [-1, 1, 15, 1], [9E+09, 9E+09, 9E+09, 9E+09, 9E+09, 9E+09]], v30, z0, tNozzleAlCal, \Wobj := wobjAlWithButton;
		MoveJ [[-1.036, -3.760, 55.059], [-0.6111132, 0.6836583, 0.1805862, 0.3557256], [-1, 1, 14, 1], [9E+09, 9E+09, 9E+09, 9E+09, 9E+09, 9E+09]], v30, z0, tNozzleAlCal, \Wobj := wobjAlWithButton;
		MoveJ [[3.627, -1.434, 49.353], [-0.6923907, 0.3881172, 0.5910711, -0.1435102], [-1, 1, 13, 1], [9E+09, 9E+09, 9E+09, 9E+09, 9E+09, 9E+09]], v30, z0, tNozzleAlCal, \Wobj := wobjAlWithButton;
		MoveJ [[1.816, 3.451, 43.647], [-0.4193825, -0.1060175, 0.699114, -0.569314], [-1, 1, 12, 1], [9E+09, 9E+09, 9E+09, 9E+09, 9E+09, 9E+09]], v30, z0, tNozzleAlCal, \Wobj := wobjAlWithButton;
		MoveJ [[-3.236, 2.177, 37.941], [0.0682174, -0.5459047, 0.4494309, -0.7038085], [-1, 1, 11, 1], [9E+09, 9E+09, 9E+09, 9E+09, 9E+09, 9E+09]], v30, z0, tNozzleAlCal, \Wobj := wobjAlWithButton;
		MoveJ [[-2.512, -2.983, 32.235], [0.5209114, -0.7064608, -0.0302191, -0.478175], [-1, 1, 10, 1], [9E+09, 9E+09, 9E+09, 9E+09, 9E+09, 9E+09]], v30, z0, tNozzleAlCal, \Wobj := wobjAlWithButton;
		MoveJ [[2.696, -2.818, 26.529], [0.7070631, -0.5055317, -0.4944065, -0.0078667], [-1, 1, 9, 1], [9E+09, 9E+09, 9E+09, 9E+09, 9E+09, 9E+09]], v30, z0, tNozzleAlCal, \Wobj := wobjAlWithButton;
		MoveJ [[3.092, 2.377, 20.824], [0.5314213, -0.0459298, -0.7056136, 0.4664669], [-1, 1, 8, 1], [9E+09, 9E+09, 9E+09, 9E+09, 9E+09, 9E+09]], v30, z0, tNozzleAlCal, \Wobj := wobjAlWithButton;
		MoveJ [[-2.031, 3.330, 15.118], [0.0838594, 0.4371737, -0.555769, 0.7021165], [-1, 1, 7, 1], [9E+09, 9E+09, 9E+09, 9E+09, 9E+09, 9E+09]], v30, z0, tNozzleAlCal, \Wobj := wobjAlWithButton;
		MoveJ [[-3.529, -1.661, 9.412], [-0.406612, 0.6965821, -0.1215459, 0.5785038], [-1, 1, 6, 1], [9E+09, 9E+09, 9E+09, 9E+09, 9E+09, 9E+09]], v30, z0, tNozzleAlCal, \Wobj := wobjAlWithButton;
		MoveJ [[1.272, -3.687, 3.706], [-0.6890264, 0.5995601, 0.3748703, 0.1588796], [-1, 1, 5, 1], [9E+09, 9E+09, 9E+09, 9E+09, 9E+09, 9E+09]], v30, z0, tNozzleAlCal, \Wobj := wobjAlWithButton;
		MoveJ [[3.802, 0.868, -2.000], [-0.6188764, 0.1957523, 0.6794712, -0.342041], [-1, 1, 4, 1], [9E+09, 9E+09, 9E+09, 9E+09, 9E+09, 9E+09]], v30, z0, tNozzleAlCal, \Wobj := wobjAlWithButton;
		MoveJ [[3.900, 0.000, -2.000], [-0.6532815, 0.2705981, 0.6532815, -0.2705981], [-1, 1, 4, 1], [9E+09, 9E+09, 9E+09, 9E+09, 9E+09, 9E+09]], v30, z0, tNozzleAlCal, \Wobj := wobjAlWithButton;
		WaitRob \InPos;
		SetDO DO6_Between_Layer_Retract, 1;
		SetDO DO5_Program_Feed, 0;
		MoveJ [[13.900, 0.000, -2.000], [-0.6532815, 0.2705981, 0.6532815, -0.2705981], [-1, 1, 4, 1], [9E+09, 9E+09, 9E+09, 9E+09, 9E+09, 9E+09]], v60, z0, tNozzleAlCal, \Wobj := wobjAlWithButton;
		MoveJ [[13.900, 0.000, -2.000], [0.6532815, -0.2705981, -0.6532815, 0.2705981], [-1, 1, 1, 1], [9E+09, 9E+09, 9E+09, 9E+09, 9E+09, 9E+09]], v100, z0, tNozzleAlCal, \Wobj := wobjAlWithButton;


		!Layer number 2 of 10
		SetDO DO1_Auto_Mode, 1;
		MoveJ [[14.100, 0.000, -2.000], [0.6532815, -0.2705981, -0.6532815, 0.2705981], [-1, 1, 1, 1], [9E+09, 9E+09, 9E+09, 9E+09, 9E+09, 9E+09]], v30, z0, tNozzleAlCal, \Wobj := wobjAlWithButton;
		MoveJ [[4.100, 0.000, -2.000], [0.6532815, -0.2705981, -0.6532815, 0.2705981], [-1, 1, 1, 1], [9E+09, 9E+09, 9E+09, 9E+09, 9E+09, 9E+09]], v30, z0, tNozzleAlCal, \Wobj := wobjAlWithButton;
		WaitRob \InPos;
		SetDO DO6_Between_Layer_Retract, 0;
		SetDO DO5_Program_Feed, 1;
		MoveJ [[0.377, 4.083, 4.062], [0.3003962, 0.2402256, -0.6650502, 0.6401267], [-1, 1, 1, 1], [9E+09, 9E+09, 9E+09, 9E+09, 9E+09, 9E+09]], v30, z0, tNozzleAlCal, \Wobj := wobjAlWithButton;
		MoveJ [[-4.031, 0.751, 10.125], [-0.2093435, 0.6256134, -0.3295571, 0.6754075], [-1, 1, 0, 1], [9E+09, 9E+09, 9E+09, 9E+09, 9E+09, 9E+09]], v30, z0, tNozzleAlCal, \Wobj := wobjAlWithButton;
		MoveJ [[-1.119, -3.944, 16.188], [-0.6097727, 0.6843318, 0.1780171, 0.3580185], [-1, 1, -1, 1], [9E+09, 9E+09, 9E+09, 9E+09, 9E+09, 9E+09]], v30, z0, tNozzleAlCal, \Wobj := wobjAlWithButton;
		MoveJ [[3.825, -1.477, 22.250], [-0.6918038, 0.3857203, 0.5926381, -0.146313], [-1, 1, -2, 1], [9E+09, 9E+09, 9E+09, 9E+09, 9E+09, 9E+09]], v30, z0, tNozzleAlCal, \Wobj := wobjAlWithButton;
		MoveJ [[1.823, 3.673, 28.312], [-0.4126035, -0.1142983, 0.697808, -0.5742459], [-1, 1, -3, 1], [9E+09, 9E+09, 9E+09, 9E+09, 9E+09, 9E+09]], v30, z0, tNozzleAlCal, \Wobj := wobjAlWithButton;
		MoveJ [[-3.489, 2.153, 34.375], [0.0820413, -0.5546351, 0.4386114, -0.7023313], [-1, 1, -4, 1], [9E+09, 9E+09, 9E+09, 9E+09, 9E+09, 9E+09]], v30, z0, tNozzleAlCal, \Wobj := wobjAlWithButton;
		MoveJ [[-2.465, -3.276, 40.438], [0.5338475, -0.7053644, -0.04961, -0.4636883], [-1, 1, -5, 1], [9E+09, 9E+09, 9E+09, 9E+09, 9E+09, 9E+09]], v30, z0, tNozzleAlCal, \Wobj := wobjAlWithButton;
