MODULE MainModule
	PROC main()
		MoveJ [[7.500, 0.000, 15.000], [0.6532815, -0.2705981, -0.6532815, 0.2705981], [-1, 1, 1, 1], [9E+09, 9E+09, 9E+09, 9E+09, 9E+09, 9E+09]], v100, z0, tNozzle, \Wobj := wobjFlatPlat;
		MoveJ [[1.063, 7.424, 25.714], [0.3163314, 0.2234968, -0.6708571, 0.6324037], [-1, 1, 1, 1], [9E+09, 9E+09, 9E+09, 9E+09, 9E+09, 9E+09]], v100, z0, tNozzle, \Wobj := wobjFlatPlat;
		MoveJ [[-7.199, 2.105, 36.429], [-0.1752659, 0.6083292, -0.3604659, 0.6850415], [-1, 1, 0, 1], [9E+09, 9E+09, 9E+09, 9E+09, 9E+09, 9E+09]], v100, z0, tNozzle, \Wobj := wobjFlatPlat;
		MoveJ [[-3.104, -6.828, 47.143], [-0.5811797, 0.6957632, 0.1261489, 0.4027781], [-1, 1, -1, 1], [9E+09, 9E+09, 9E+09, 9E+09, 9E+09, 9E+09]], v100, z0, tNozzle, \Wobj := wobjFlatPlat;
		MoveJ [[6.319, -4.040, 57.857], [-0.7029679, 0.4430544, 0.5510924, -0.0763944], [-1, 1, -2, 1], [9E+09, 9E+09, 9E+09, 9E+09, 9E+09, 9E+09]], v100, z0, tNozzle, \Wobj := wobjFlatPlat;
		MoveJ [[4.895, 5.682, 68.571], [-0.4810911, -0.0262536, 0.7066193, -0.5182195], [-1, 1, -3, 1], [9E+09, 9E+09, 9E+09, 9E+09, 9E+09, 9E+09]], v100, z0, tNozzle, \Wobj := wobjFlatPlat;
		MoveJ [[-4.931, 5.651, 79.286], [-0.0240197, -0.4827269, 0.516696, -0.7066987], [-1, 1, -4, 1], [9E+09, 9E+09, 9E+09, 9E+09, 9E+09, 9E+09]], v100, z0, tNozzle, \Wobj := wobjFlatPlat;
		MoveJ [[-6.293, -4.080, 90.000], [0.4447943, -0.7032059, 0.0741718, -0.549689], [-1, 1, -5, 1], [9E+09, 9E+09, 9E+09, 9E+09, 9E+09, 9E+09]], v100, z0, tNozzle, \Wobj := wobjFlatPlat;
		MoveJ [[-6.007, -4.490, 90.000], [0.4628668, -0.7052872, 0.0506948, -0.53456], [-1, 1, -5, 1], [9E+09, 9E+09, 9E+09, 9E+09, 9E+09, 9E+09]], v100, z0, tNozzle, \Wobj := wobjFlatPlat;
		MoveJ [[-5.296, 5.310, 79.286], [-0.0004541, -0.4996788, 0.5003211, -0.7071067], [-1, 1, -4, 1], [9E+09, 9E+09, 9E+09, 9E+09, 9E+09, 9E+09]], v100, z0, tNozzle, \Wobj := wobjFlatPlat;
		MoveJ [[4.506, 5.996, 68.571], [-0.4635531, -0.0497887, 0.7053518, -0.533965], [-1, 1, -3, 1], [9E+09, 9E+09, 9E+09, 9E+09, 9E+09, 9E+09]], v100, z0, tNozzle, \Wobj := wobjFlatPlat;
		MoveJ [[6.574, -3.610, 57.857], [-0.7000314, 0.424442, 0.565552, -0.0997799], [-1, 1, -2, 1], [9E+09, 9E+09, 9E+09, 9E+09, 9E+09, 9E+09]], v100, z0, tNozzle, \Wobj := wobjFlatPlat;
		MoveJ [[-2.642, -7.019, 47.143], [-0.5942803, 0.6911726, 0.1492667, 0.3831853], [-1, 1, -1, 1], [9E+09, 9E+09, 9E+09, 9E+09, 9E+09, 9E+09]], v100, z0, tNozzle, \Wobj := wobjFlatPlat;
		MoveJ [[-7.323, 1.620, 36.429], [-0.197999, 0.6200046, -0.3399917, 0.6788199], [-1, 1, 0, 1], [9E+09, 9E+09, 9E+09, 9E+09, 9E+09, 9E+09]], v100, z0, tNozzle, \Wobj := wobjFlatPlat;
		MoveJ [[0.566, 7.479, 25.714], [0.2950795, 0.2457304, -0.6630359, 0.6425949], [-1, 1, 1, 1], [9E+09, 9E+09, 9E+09, 9E+09, 9E+09, 9E+09]], v100, z0, tNozzle, \Wobj := wobjFlatPlat;
		MoveJ [[7.483, 0.500, 15.000], [0.6439003, -0.2486758, -0.6619369, 0.2922198], [-1, 1, 1, 1], [9E+09, 9E+09, 9E+09, 9E+09, 9E+09, 9E+09]], v100, z0, tNozzle, \Wobj := wobjFlatPlat;
		MoveJ [[7.433, 0.997, 15.000], [0.6338038, -0.2264771, -0.6698568, 0.3135168], [-1, 1, 1, 1], [9E+09, 9E+09, 9E+09, 9E+09, 9E+09, 9E+09]], v100, z0, tNozzle, \Wobj := wobjFlatPlat;
		MoveJ [[0.067, 7.500, 25.714], [0.2734997, 0.267691, -0.6544781, 0.6520721], [-1, 1, 1, 1], [9E+09, 9E+09, 9E+09, 9E+09, 9E+09, 9E+09]], v100, z0, tNozzle, \Wobj := wobjFlatPlat;
		MoveJ [[-7.415, 1.129, 36.429], [-0.2205122, 0.6309911, -0.3191399, 0.671844], [-1, 1, 0, 1], [9E+09, 9E+09, 9E+09, 9E+09, 9E+09, 9E+09]], v100, z0, tNozzle, \Wobj := wobjFlatPlat;
		MoveJ [[-2.169, -7.180, 47.143], [-0.6067207, 0.685814, 0.1722186, 0.3631667], [-1, 1, -1, 1], [9E+09, 9E+09, 9E+09, 9E+09, 9E+09, 9E+09]], v100, z0, tNozzle, \Wobj := wobjFlatPlat;
		MoveJ [[6.800, -3.164, 57.857], [-0.6963172, 0.405358, 0.5793833, -0.1230546], [-1, 1, -2, 1], [9E+09, 9E+09, 9E+09, 9E+09, 9E+09, 9E+09]], v100, z0, tNozzle, \Wobj := wobjFlatPlat;
		MoveJ [[4.096, 6.283, 68.571], [-0.4455, -0.0732684, 0.7033006, -0.5491173], [-1, 1, -3, 1], [9E+09, 9E+09, 9E+09, 9E+09, 9E+09, 9E+09]], v100, z0, tNozzle, \Wobj := wobjFlatPlat;
		MoveJ [[-5.638, 4.945, 79.286], [0.023112, -0.5160755, 0.4833903, -0.706729], [-1, 1, -4, 1], [9E+09, 9E+09, 9E+09, 9E+09, 9E+09, 9E+09]], v100, z0, tNozzle, \Wobj := wobjFlatPlat;
		MoveJ [[-5.695, -4.881, 90.000], [0.4804251, -0.706585, 0.0271614, -0.518837], [-1, 1, -5, 1], [9E+09, 9E+09, 9E+09, 9E+09, 9E+09, 9E+09]], v100, z0, tNozzle, \Wobj := wobjFlatPlat;
		MoveJ [[-5.357, -5.249, 90.000], [0.4974496, -0.7070977, 0.0035978, -0.5025375], [-1, 1, -5, 1], [9E+09, 9E+09, 9E+09, 9E+09, 9E+09, 9E+09]], v100, z0, tNozzle, \Wobj := wobjFlatPlat;
		MoveJ [[-5.955, 4.559, 79.286], [0.0466524, -0.5318988, 0.4659224, -0.7055662], [-1, 1, -4, 1], [9E+09, 9E+09, 9E+09, 9E+09, 9E+09, 9E+09]], v100, z0, tNozzle, \Wobj := wobjFlatPlat;
		MoveJ [[3.669, 6.541, 68.571], [-0.426952, -0.0966667, 0.7004681, -0.5636595], [-1, 1, -3, 1], [9E+09, 9E+09, 9E+09, 9E+09, 9E+09, 9E+09]], v100, z0, tNozzle, \Wobj := wobjFlatPlat;
		MoveJ [[6.995, -2.704, 57.857], [-0.6918293, 0.3858236, 0.5925709, -0.1461925], [-1, 1, -2, 1], [9E+09, 9E+09, 9E+09, 9E+09, 9E+09, 9E+09]], v100, z0, tNozzle, \Wobj := wobjFlatPlat;
		MoveJ [[-1.686, -7.308, 47.143], [-0.618487, 0.6796934, 0.1949791, 0.3427447], [-1, 1, -1, 1], [9E+09, 9E+09, 9E+09, 9E+09, 9E+09, 9E+09]], v100, z0, tNozzle, \Wobj := wobjFlatPlat;
		MoveJ [[-7.473, 0.633, 36.429], [-0.2427804, 0.6412766, -0.2979335, 0.6641218], [-1, 1, 0, 1], [9E+09, 9E+09, 9E+09, 9E+09, 9E+09, 9E+09]], v100, z0, tNozzle, \Wobj := wobjFlatPlat;
		MoveJ [[-0.433, 7.487, 25.714], [0.2516161, 0.2893542, -0.6451931, 0.6608248], [-1, 1, 0, 1], [9E+09, 9E+09, 9E+09, 9E+09, 9E+09, 9E+09]], v100, z0, tNozzle, \Wobj := wobjFlatPlat;
		MoveJ [[7.350, 1.490, 15.000], [0.6230031, -0.2040269, -0.6770325, 0.3344656], [-1, 1, 1, 1], [9E+09, 9E+09, 9E+09, 9E+09, 9E+09, 9E+09]], v100, z0, tNozzle, \Wobj := wobjFlatPlat;
		MoveJ [[7.235, 1.976, 15.000], [0.6115102, -0.18135, -0.6834561, 0.3550427], [-1, 1, 1, 1], [9E+09, 9E+09, 9E+09, 9E+09, 9E+09, 9E+09]], v100, z0, tNozzle, \Wobj := wobjFlatPlat;
		MoveJ [[-0.931, 7.442, 25.714], [0.2294529, 0.3106959, -0.6351914, 0.6688434], [-1, 1, 0, 1], [9E+09, 9E+09, 9E+09, 9E+09, 9E+09, 9E+09]], v100, z0, tNozzle, \Wobj := wobjFlatPlat;
		MoveJ [[-7.499, 0.133, 36.429], [-0.2647788, 0.6508497, -0.276396, 0.6556617], [-1, 1, 0, 1], [9E+09, 9E+09, 9E+09, 9E+09, 9E+09, 9E+09]], v100, z0, tNozzle, \Wobj := wobjFlatPlat;
		MoveJ [[-1.195, -7.404, 47.143], [-0.6295661, 0.6728178, 0.2175231, 0.3219419], [-1, 1, -1, 1], [9E+09, 9E+09, 9E+09, 9E+09, 9E+09, 9E+09]], v100, z0, tNozzle, \Wobj := wobjFlatPlat;
		MoveJ [[7.160, -2.232, 57.857], [-0.6865728, 0.3658605, 0.6051001, -0.169168], [-1, 1, -2, 1], [9E+09, 9E+09, 9E+09, 9E+09, 9E+09, 9E+09]], v100, z0, tNozzle, \Wobj := wobjFlatPlat;
		MoveJ [[3.225, 6.771, 68.571], [-0.4079297, -0.1199576, 0.6968574, -0.5775755], [-1, 1, -3, 1], [9E+09, 9E+09, 9E+09, 9E+09, 9E+09, 9E+09]], v100, z0, tNozzle, \Wobj := wobjFlatPlat;
		MoveJ [[-6.246, 4.152, 79.286], [0.070141, -0.5471312, 0.4479369, -0.7036194], [-1, 1, -4, 1], [9E+09, 9E+09, 9E+09, 9E+09, 9E+09, 9E+09]], v100, z0, tNozzle, \Wobj := wobjFlatPlat;
		MoveJ [[-4.995, -5.594, 90.000], [0.5139214, -0.7068248, -0.0199697, -0.4856798], [-1, 1, -5, 1], [9E+09, 9E+09, 9E+09, 9E+09, 9E+09, 9E+09]], v100, z0, tNozzle, \Wobj := wobjFlatPlat;
		MoveJ [[-4.612, -5.915, 90.000], [0.5298222, -0.7057666, -0.0435151, -0.4682825], [-1, 1, -5, 1], [9E+09, 9E+09, 9E+09, 9E+09, 9E+09, 9E+09]], v100, z0, tNozzle, \Wobj := wobjFlatPlat;
		MoveJ [[-6.509, 3.727, 79.286], [0.0935517, -0.5617557, 0.4294538, -0.700891], [-1, 1, -4, 1], [9E+09, 9E+09, 9E+09, 9E+09, 9E+09, 9E+09]], v100, z0, tNozzle, \Wobj := wobjFlatPlat;
		MoveJ [[2.767, 6.971, 68.571], [-0.3884541, -0.1431152, 0.6924724, -0.5908498], [-1, 1, -3, 1], [9E+09, 9E+09, 9E+09, 9E+09, 9E+09, 9E+09]], v100, z0, tNozzle, \Wobj := wobjFlatPlat;
		MoveJ [[7.293, -1.750, 57.857], [-0.6805535, 0.345491, 0.616957, -0.1919555], [-1, 1, -2, 1], [9E+09, 9E+09, 9E+09, 9E+09, 9E+09, 9E+09]], v100, z0, tNozzle, \Wobj := wobjFlatPlat;
		MoveJ [[-0.699, -7.467, 47.143], [-0.6399458, 0.6651946, 0.2398254, 0.3007814], [-1, 1, -1, 1], [9E+09, 9E+09, 9E+09, 9E+09, 9E+09, 9E+09]], v100, z0, tNozzle, \Wobj := wobjFlatPlat;
		MoveJ [[-7.491, -0.366, 36.429], [-0.286483, 0.6596996, -0.2545515, 0.6464731], [-1, 1, -1, 1], [9E+09, 9E+09, 9E+09, 9E+09, 9E+09, 9E+09]], v100, z0, tNozzle, \Wobj := wobjFlatPlat;
		MoveJ [[-1.425, 7.363, 25.714], [0.2070348, 0.3316925, -0.6244839, 0.6761188], [-1, 1, 0, 1], [9E+09, 9E+09, 9E+09, 9E+09, 9E+09, 9E+09]], v100, z0, tNozzle, \Wobj := wobjFlatPlat;
		MoveJ [[7.087, 2.454, 15.000], [0.599338, -0.1584716, -0.6891203, 0.3752254], [-1, 1, 1, 1], [9E+09, 9E+09, 9E+09, 9E+09, 9E+09, 9E+09]], v100, z0, tNozzle, \Wobj := wobjFlatPlat;
		MoveJ [[6.908, 2.921, 15.000], [0.5864998, -0.1354172, -0.6940189, 0.3949912], [-1, 1, 1, 1], [9E+09, 9E+09, 9E+09, 9E+09, 9E+09, 9E+09]], v100, z0, tNozzle, \Wobj := wobjFlatPlat;
		MoveJ [[-1.912, 7.252, 25.714], [0.1843866, 0.3523205, -0.6130826, 0.6826431], [-1, 1, 0, 1], [9E+09, 9E+09, 9E+09, 9E+09, 9E+09, 9E+09]], v100, z0, tNozzle, \Wobj := wobjFlatPlat;
		MoveJ [[-7.450, -0.865, 36.429], [-0.307869, 0.6678166, -0.2324242, 0.6365664], [-1, 1, -1, 1], [9E+09, 9E+09, 9E+09, 9E+09, 9E+09, 9E+09]], v100, z0, tNozzle, \Wobj := wobjFlatPlat;
		MoveJ [[-0.200, -7.497, 47.143], [-0.6496145, 0.6568324, 0.2618612, 0.2792867], [-1, 1, -1, 1], [9E+09, 9E+09, 9E+09, 9E+09, 9E+09, 9E+09]], v100, z0, tNozzle, \Wobj := wobjFlatPlat;
		MoveJ [[7.393, -1.261, 57.857], [-0.6737782, 0.3247377, 0.6281286, -0.2145298], [-1, 1, -2, 1], [9E+09, 9E+09, 9E+09, 9E+09, 9E+09, 9E+09]], v100, z0, tNozzle, \Wobj := wobjFlatPlat;
		MoveJ [[2.296, 7.140, 68.571], [-0.368547, -0.1661139, 0.6873181, -0.6034676], [-1, 1, -3, 1], [9E+09, 9E+09, 9E+09, 9E+09, 9E+09, 9E+09]], v100, z0, tNozzle, \Wobj := wobjFlatPlat;
		MoveJ [[-6.742, 3.285, 79.286], [0.1168584, -0.5757562, 0.4104935, -0.6973838], [-1, 1, -4, 1], [9E+09, 9E+09, 9E+09, 9E+09, 9E+09, 9E+09]], v100, z0, tNozzle, \Wobj := wobjFlatPlat;
		MoveJ [[-4.207, -6.209, 90.000], [0.5451344, -0.7039243, -0.0670121, -0.4503649], [-1, 1, -5, 1], [9E+09, 9E+09, 9E+09, 9E+09, 9E+09, 9E+09]], v100, z0, tNozzle, \Wobj := wobjFlatPlat;
		MoveJ [[-3.784, -6.475, 90.000], [0.559841, -0.7012999, -0.0904347, -0.4319469], [-1, 1, -5, 1], [9E+09, 9E+09, 9E+09, 9E+09, 9E+09, 9E+09]], v100, z0, tNozzle, \Wobj := wobjFlatPlat;
		MoveJ [[-6.946, 2.828, 79.286], [0.1400353, -0.5891169, 0.3910771, -0.6931018], [-1, 1, -4, 1], [9E+09, 9E+09, 9E+09, 9E+09, 9E+09, 9E+09]], v100, z0, tNozzle, \Wobj := wobjFlatPlat;
		MoveJ [[1.815, 7.277, 68.571], [-0.3482304, -0.188928, 0.6814002, -0.615415], [-1, 1, -3, 1], [9E+09, 9E+09, 9E+09, 9E+09, 9E+09, 9E+09]], v100, z0, tNozzle, \Wobj := wobjFlatPlat;
		MoveJ [[7.461, -0.765, 57.857], [-0.6662542, 0.3036236, 0.6386022, -0.2368658], [-1, 1, -2, 1], [9E+09, 9E+09, 9E+09, 9E+09, 9E+09, 9E+09]], v100, z0, tNozzle, \Wobj := wobjFlatPlat;
		MoveJ [[0.300, -7.494, 47.143], [-0.6585614, 0.6477404, 0.2836061, 0.2574818], [-1, 1, -2, 1], [9E+09, 9E+09, 9E+09, 9E+09, 9E+09, 9E+09]], v100, z0, tNozzle, \Wobj := wobjFlatPlat;
		MoveJ [[-7.376, -1.359, 36.429], [-0.3289129, 0.6751917, -0.2100386, 0.6259523], [-1, 1, -1, 1], [9E+09, 9E+09, 9E+09, 9E+09, 9E+09, 9E+09]], v100, z0, tNozzle, \Wobj := wobjFlatPlat;
		MoveJ [[-2.391, 7.109, 25.714], [0.1615336, 0.3725571, -0.6010002, 0.688409], [-1, 1, 0, 1], [9E+09, 9E+09, 9E+09, 9E+09, 9E+09, 9E+09]], v100, z0, tNozzle, \Wobj := wobjFlatPlat;
		MoveJ [[6.698, 3.374, 15.000], [0.5730101, -0.1122123, -0.6981464, 0.4143181], [-1, 1, 1, 1], [9E+09, 9E+09, 9E+09, 9E+09, 9E+09, 9E+09]], v100, z0, tNozzle, \Wobj := wobjFlatPlat;
		MoveJ [[6.458, 3.813, 15.000], [0.5588837, -0.0888827, -0.7014983, 0.4331848], [-1, 1, 1, 1], [9E+09, 9E+09, 9E+09, 9E+09, 9E+09, 9E+09]], v100, z0, tNozzle, \Wobj := wobjFlatPlat;
		MoveJ [[-2.859, 6.934, 25.714], [0.1385012, 0.3923797, -0.5882501, 0.69341], [-1, 1, 0, 1], [9E+09, 9E+09, 9E+09, 9E+09, 9E+09, 9E+09]], v100, z0, tNozzle, \Wobj := wobjFlatPlat;
		MoveJ [[-7.269, -1.847, 36.429], [-0.3495914, 0.6818166, -0.1874197, 0.6146429], [-1, 1, -1, 1], [9E+09, 9E+09, 9E+09, 9E+09, 9E+09, 9E+09]], v100, z0, tNozzle, \Wobj := wobjFlatPlat;
		MoveJ [[0.798, -7.457, 47.143], [-0.6667767, 0.6379288, 0.3050359, 0.2353908], [-1, 1, -2, 1], [9E+09, 9E+09, 9E+09, 9E+09, 9E+09, 9E+09]], v100, z0, tNozzle, \Wobj := wobjFlatPlat;
		MoveJ [[7.495, -0.267, 57.857], [-0.65799, 0.2821721, 0.6483664, -0.2589385], [-1, 1, -2, 1], [9E+09, 9E+09, 9E+09, 9E+09, 9E+09, 9E+09]], v100, z0, tNozzle, \Wobj := wobjFlatPlat;
		MoveJ [[1.326, 7.382, 68.571], [-0.3275269, -0.2115322, 0.6747253, -0.6266787], [-1, 1, -3, 1], [9E+09, 9E+09, 9E+09, 9E+09, 9E+09, 9E+09]], v100, z0, tNozzle, \Wobj := wobjFlatPlat;
		MoveJ [[-7.119, 2.359, 79.286], [0.1630567, -0.6018231, 0.3712263, -0.6880498], [-1, 1, -4, 1], [9E+09, 9E+09, 9E+09, 9E+09, 9E+09, 9E+09]], v100, z0, tNozzle, \Wobj := wobjFlatPlat;
		MoveJ [[-3.345, -6.713, 90.000], [0.5739256, -0.6978964, -0.1137568, -0.413049], [-1, 1, -5, 1], [9E+09, 9E+09, 9E+09, 9E+09, 9E+09, 9E+09]], v100, z0, tNozzle, \Wobj := wobjFlatPlat;
		MoveJ [[-2.890, -6.921, 90.000], [0.5873725, -0.6937176, -0.1369525, -0.3936923], [-1, 1, -5, 1], [9E+09, 9E+09, 9E+09, 9E+09, 9E+09, 9E+09]], v100, z0, tNozzle, \Wobj := wobjFlatPlat;
		MoveJ [[-7.261, 1.880, 79.286], [0.1858968, -0.6138607, 0.350963, -0.6822334], [-1, 1, -4, 1], [9E+09, 9E+09, 9E+09, 9E+09, 9E+09, 9E+09]], v100, z0, tNozzle, \Wobj := wobjFlatPlat;
		MoveJ [[0.832, 7.454, 68.571], [-0.3064596, -0.2339013, 0.6673007, -0.6372461], [-1, 1, -3, 1], [9E+09, 9E+09, 9E+09, 9E+09, 9E+09, 9E+09]], v100, z0, tNozzle, \Wobj := wobjFlatPlat;
		MoveJ [[7.496, 0.233, 57.857], [-0.6489948, 0.2604071, 0.6574102, -0.2807236], [-1, 1, -3, 1], [9E+09, 9E+09, 9E+09, 9E+09, 9E+09, 9E+09]], v100, z0, tNozzle, \Wobj := wobjFlatPlat;
		MoveJ [[1.293, -7.388, 47.143], [-0.6742513, 0.6274085, 0.3261268, 0.2130382], [-1, 1, -2, 1], [9E+09, 9E+09, 9E+09, 9E+09, 9E+09, 9E+09]], v100, z0, tNozzle, \Wobj := wobjFlatPlat;
		MoveJ [[-7.130, -2.328, 36.429], [-0.3698815, 0.687684, -0.1645926, 0.6026506], [-1, 1, -1, 1], [9E+09, 9E+09, 9E+09, 9E+09, 9E+09, 9E+09]], v100, z0, tNozzle, \Wobj := wobjFlatPlat;
		MoveJ [[-3.315, 6.728, 25.714], [0.1153149, 0.4117665, -0.5748464, 0.6976407], [-1, 1, 0, 1], [9E+09, 9E+09, 9E+09, 9E+09, 9E+09, 9E+09]], v100, z0, tNozzle, \Wobj := wobjFlatPlat;
		MoveJ [[6.190, 4.235, 15.000], [0.5441364, -0.0654544, -0.7040709, 0.4515701], [-1, 1, 1, 1], [9E+09, 9E+09, 9E+09, 9E+09, 9E+09, 9E+09]], v100, z0, tNozzle, \Wobj := wobjFlatPlat;
		MoveJ [[5.894, 4.638, 15.000], [0.5287846, -0.0419533, -0.7058612, 0.4694538], [-1, 1, 1, 1], [9E+09, 9E+09, 9E+09, 9E+09, 9E+09, 9E+09]], v100, z0, tNozzle, \Wobj := wobjFlatPlat;
		MoveJ [[-3.755, 6.492, 25.714], [0.0920004, 0.4306957, -0.5608041, 0.7010963], [-1, 1, 0, 1], [9E+09, 9E+09, 9E+09, 9E+09, 9E+09, 9E+09]], v100, z0, tNozzle, \Wobj := wobjFlatPlat;
		MoveJ [[-6.959, -2.797, 36.429], [-0.3897607, 0.6927874, -0.1415826, 0.5899887], [-1, 1, -1, 1], [9E+09, 9E+09, 9E+09, 9E+09, 9E+09, 9E+09]], v100, z0, tNozzle, \Wobj := wobjFlatPlat;
		MoveJ [[1.783, -7.285, 47.143], [-0.6809767, 0.616191, 0.3468554, 0.190449], [-1, 1, -2, 1], [9E+09, 9E+09, 9E+09, 9E+09, 9E+09, 9E+09]], v100, z0, tNozzle, \Wobj := wobjFlatPlat;
		MoveJ [[7.464, 0.732, 57.857], [-0.6392786, 0.2383529, 0.6657236, -0.3021968], [-1, 1, -3, 1], [9E+09, 9E+09, 9E+09, 9E+09, 9E+09, 9E+09]], v100, z0, tNozzle, \Wobj := wobjFlatPlat;
		MoveJ [[0.333, 7.493, 68.571], [-0.2850517, -0.2560106, 0.6591347, -0.6471055], [-1, 1, -3, 1], [9E+09, 9E+09, 9E+09, 9E+09, 9E+09, 9E+09]], v100, z0, tNozzle, \Wobj := wobjFlatPlat;
		MoveJ [[-7.370, 1.392, 79.286], [0.2085305, -0.6252163, 0.3303098, -0.675659], [-1, 1, -4, 1], [9E+09, 9E+09, 9E+09, 9E+09, 9E+09, 9E+09]], v100, z0, tNozzle, \Wobj := wobjFlatPlat;
		MoveJ [[-2.423, -7.098, 90.000], [0.6001668, -0.688768, -0.1599961, -0.3738981], [-1, 1, -5, 1], [9E+09, 9E+09, 9E+09, 9E+09, 9E+09, 9E+09]], v100, z0, tNozzle, \Wobj := wobjFlatPlat;
		MoveJ [[-1.944, -7.244, 90.000], [0.6122944, -0.6830531, -0.1828619, -0.3536886], [-1, 1, -5, 1], [9E+09, 9E+09, 9E+09, 9E+09, 9E+09, 9E+09]], v100, z0, tNozzle, \Wobj := wobjFlatPlat;
		MoveJ [[-7.446, 0.898, 79.286], [0.2309324, -0.6358773, 0.3092897, -0.6683339], [-1, 1, -4, 1], [9E+09, 9E+09, 9E+09, 9E+09, 9E+09, 9E+09]], v100, z0, tNozzle, \Wobj := wobjFlatPlat;
		MoveJ [[-0.167, 7.498, 68.571], [-0.2633272, -0.2778355, 0.6502365, -0.656246], [-1, 1, -4, 1], [9E+09, 9E+09, 9E+09, 9E+09, 9E+09, 9E+09]], v100, z0, tNozzle, \Wobj := wobjFlatPlat;
		MoveJ [[7.399, 1.228, 57.857], [-0.6288521, 0.2160338, 0.6732975, -0.3233343], [-1, 1, -3, 1], [9E+09, 9E+09, 9E+09, 9E+09, 9E+09, 9E+09]], v100, z0, tNozzle, \Wobj := wobjFlatPlat;
		MoveJ [[2.264, -7.150, 47.143], [-0.6869455, 0.604289, 0.3671986, 0.1676482], [-1, 1, -2, 1], [9E+09, 9E+09, 9E+09, 9E+09, 9E+09, 9E+09]], v100, z0, tNozzle, \Wobj := wobjFlatPlat;
		MoveJ [[-6.757, -3.255, 36.429], [-0.4092068, 0.6971211, -0.1184153, 0.5766713], [-1, 1, -1, 1], [9E+09, 9E+09, 9E+09, 9E+09, 9E+09, 9E+09]], v100, z0, tNozzle, \Wobj := wobjFlatPlat;
		MoveJ [[-4.180, 6.227, 25.714], [0.0685838, 0.4491465, -0.5461387, 0.7037729], [-1, 1, 0, 1], [9E+09, 9E+09, 9E+09, 9E+09, 9E+09, 9E+09]], v100, z0, tNozzle, \Wobj := wobjFlatPlat;
		MoveJ [[5.572, 5.020, 15.000], [0.5128453, -0.0184057, -0.7068672, 0.4868159], [-1, 1, 1, 1], [9E+09, 9E+09, 9E+09, 9E+09, 9E+09, 9E+09]], v100, z0, tNozzle, \Wobj := wobjFlatPlat;
		MoveJ [[5.225, 5.380, 15.000], [0.4963362, 0.0051624, -0.707088, 0.5036372], [-1, 1, 1, 1], [9E+09, 9E+09, 9E+09, 9E+09, 9E+09, 9E+09]], v100, z0, tNozzle, \Wobj := wobjFlatPlat;
		MoveJ [[-4.585, 5.935, 25.714], [0.0450909, 0.4670982, -0.5308665, 0.7056677], [-1, 1, 0, 1], [9E+09, 9E+09, 9E+09, 9E+09, 9E+09, 9E+09]], v100, z0, tNozzle, \Wobj := wobjFlatPlat;
		MoveJ [[-6.525, -3.698, 36.429], [-0.4281983, 0.7006803, -0.0951165, 0.5627133], [-1, 1, -1, 1], [9E+09, 9E+09, 9E+09, 9E+09, 9E+09, 9E+09]], v100, z0, tNozzle, \Wobj := wobjFlatPlat;
		MoveJ [[2.735, -6.983, 47.143], [-0.6921511, 0.5917157, 0.3871338, 0.1446611], [-1, 1, -2, 1], [9E+09, 9E+09, 9E+09, 9E+09, 9E+09, 9E+09]], v100, z0, tNozzle, \Wobj := wobjFlatPlat;
		MoveJ [[7.301, 1.718, 57.857], [-0.617727, 0.1934747, 0.6801232, -0.3441126], [-1, 1, -3, 1], [9E+09, 9E+09, 9E+09, 9E+09, 9E+09, 9E+09]], v100, z0, tNozzle, \Wobj := wobjFlatPlat;
		MoveJ [[-0.666, 7.470, 68.571], [-0.2413101, -0.2993517, 0.6406158, -0.6646574], [-1, 1, -4, 1], [9E+09, 9E+09, 9E+09, 9E+09, 9E+09, 9E+09]], v100, z0, tNozzle, \Wobj := wobjFlatPlat;
		MoveJ [[-7.489, 0.400, 79.286], [0.2530778, -0.6458318, 0.2879259, -0.6602664], [-1, 1, -4, 1], [9E+09, 9E+09, 9E+09, 9E+09, 9E+09, 9E+09]], v100, z0, tNozzle, \Wobj := wobjFlatPlat;
		MoveJ [[-1.457, -7.357, 90.000], [0.6237417, -0.6765794, -0.2055245, -0.3330861], [-1, 1, -5, 1], [9E+09, 9E+09, 9E+09, 9E+09, 9E+09, 9E+09]], v100, z0, tNozzle, \Wobj := wobjFlatPlat;
		MoveJ [[-0.964, -7.438, 90.000], [0.634496, -0.669354, -0.2279588, -0.3121135], [-1, 1, -5, 1], [9E+09, 9E+09, 9E+09, 9E+09, 9E+09, 9E+09]], v100, z0, tNozzle, \Wobj := wobjFlatPlat;
		MoveJ [[-7.499, -0.100, 79.286], [0.274942, -0.6550688, 0.2662422, -0.6514652], [-1, 1, -5, 1], [9E+09, 9E+09, 9E+09, 9E+09, 9E+09, 9E+09]], v100, z0, tNozzle, \Wobj := wobjFlatPlat;
		MoveJ [[-1.162, 7.409, 68.571], [-0.2190249, -0.3205353, 0.6302834, -0.6723304], [-1, 1, -4, 1], [9E+09, 9E+09, 9E+09, 9E+09, 9E+09, 9E+09]], v100, z0, tNozzle, \Wobj := wobjFlatPlat;
		MoveJ [[7.170, 2.200, 57.857], [-0.6059155, 0.1707006, 0.6861934, -0.3645085], [-1, 1, -3, 1], [9E+09, 9E+09, 9E+09, 9E+09, 9E+09, 9E+09]], v100, z0, tNozzle, \Wobj := wobjFlatPlat;
		MoveJ [[3.194, -6.786, 47.143], [-0.6965878, 0.5784849, 0.406639, 0.1215133], [-1, 1, -2, 1], [9E+09, 9E+09, 9E+09, 9E+09, 9E+09, 9E+09]], v100, z0, tNozzle, \Wobj := wobjFlatPlat;
		MoveJ [[-6.264, -4.124, 36.429], [-0.4467141, 0.703461, -0.071712, 0.5481301], [-1, 1, -1, 1], [9E+09, 9E+09, 9E+09, 9E+09, 9E+09, 9E+09]], v100, z0, tNozzle, \Wobj := wobjFlatPlat;
		MoveJ [[-4.970, 5.617, 25.714], [0.021548, 0.484531, -0.5150046, 0.7067784], [-1, 1, 0, 1], [9E+09, 9E+09, 9E+09, 9E+09, 9E+09, 9E+09]], v100, z0, tNozzle, \Wobj := wobjFlatPlat;
		MoveJ [[4.855, 5.716, 15.000], [0.4792757, 0.0287248, -0.7065231, 0.5198989], [-1, 1, 1, 1], [9E+09, 9E+09, 9E+09, 9E+09, 9E+09, 9E+09]], v100, z0, tNozzle, \Wobj := wobjFlatPlat;
		MoveJ [[4.464, 6.027, 15.000], [0.4616827, 0.0522553, -0.7051733, 0.535583], [-1, 1, 1, 1], [9E+09, 9E+09, 9E+09, 9E+09, 9E+09, 9E+09]], v100, z0, tNozzle, \Wobj := wobjFlatPlat;
		MoveJ [[-5.333, 5.273, 25.714], [-0.0020189, 0.5014255, -0.4985704, 0.7071039], [-1, 1, 0, 1], [9E+09, 9E+09, 9E+09, 9E+09, 9E+09, 9E+09]], v100, z0, tNozzle, \Wobj := wobjFlatPlat;
		MoveJ [[-5.976, -4.532, 36.429], [-0.4647336, 0.7054602, -0.0482278, 0.5329378], [-1, 1, -1, 1], [9E+09, 9E+09, 9E+09, 9E+09, 9E+09, 9E+09]], v100, z0, tNozzle, \Wobj := wobjFlatPlat;
		MoveJ [[3.639, -6.558, 47.143], [-0.7002505, 0.5646114, 0.4256924, 0.0982305], [-1, 1, -2, 1], [9E+09, 9E+09, 9E+09, 9E+09, 9E+09, 9E+09]], v100, z0, tNozzle, \Wobj := wobjFlatPlat;
		MoveJ [[7.007, 2.673, 57.857], [-0.5934309, 0.1477369, 0.6915012, -0.3844994], [-1, 1, -3, 1], [9E+09, 9E+09, 9E+09, 9E+09, 9E+09, 9E+09]], v100, z0, tNozzle, \Wobj := wobjFlatPlat;
		MoveJ [[-1.653, 7.316, 68.571], [-0.1964964, -0.3413628, 0.6192507, -0.6792564], [-1, 1, -4, 1], [9E+09, 9E+09, 9E+09, 9E+09, 9E+09, 9E+09]], v100, z0, tNozzle, \Wobj := wobjFlatPlat;
		MoveJ [[-7.476, -0.599, 79.286], [0.2965008, -0.663578, 0.2442627, -0.6419403], [-1, 1, -5, 1], [9E+09, 9E+09, 9E+09, 9E+09, 9E+09, 9E+09]], v100, z0, tNozzle, \Wobj := wobjFlatPlat;
		MoveJ [[-0.467, -7.485, 90.000], [0.6445454, -0.661385, -0.2501399, -0.2907942], [-1, 1, -5, 1], [9E+09, 9E+09, 9E+09, 9E+09, 9E+09, 9E+09]], v100, z0, tNozzle, \Wobj := wobjFlatPlat;
		MoveJ [[0.033, -7.500, 90.000], [0.6538787, -0.6526811, -0.272043, -0.2691517], [-1, 1, -6, 1], [9E+09, 9E+09, 9E+09, 9E+09, 9E+09, 9E+09]], v100, z0, tNozzle, \Wobj := wobjFlatPlat;
		MoveJ [[-7.419, -1.096, 79.286], [0.3177301, -0.67135, 0.2220118, -0.6317022], [-1, 1, -5, 1], [9E+09, 9E+09, 9E+09, 9E+09, 9E+09, 9E+09]], v100, z0, tNozzle, \Wobj := wobjFlatPlat;
		MoveJ [[-2.137, 7.189, 68.571], [-0.1737495, -0.3618111, 0.6075301, -0.6854277], [-1, 1, -4, 1], [9E+09, 9E+09, 9E+09, 9E+09, 9E+09, 9E+09]], v100, z0, tNozzle, \Wobj := wobjFlatPlat;
		MoveJ [[6.814, 3.134, 57.857], [-0.580287, 0.1246091, 0.6960407, -0.4040632], [-1, 1, -3, 1], [9E+09, 9E+09, 9E+09, 9E+09, 9E+09, 9E+09]], v100, z0, tNozzle, \Wobj := wobjFlatPlat;
		MoveJ [[4.068, -6.301, 47.143], [-0.7031353, 0.5501107, 0.4442728, 0.0748386], [-1, 1, -2, 1], [9E+09, 9E+09, 9E+09, 9E+09, 9E+09, 9E+09]], v100, z0, tNozzle, \Wobj := wobjFlatPlat;
		MoveJ [[-5.660, -4.920, 36.429], [-0.4822367, 0.7066756, -0.02469, 0.5171535], [-1, 1, -1, 1], [9E+09, 9E+09, 9E+09, 9E+09, 9E+09, 9E+09]], v100, z0, tNozzle, \Wobj := wobjFlatPlat;
		MoveJ [[-5.673, 4.906, 25.714], [-0.0255836, 0.5177629, -0.4815824, 0.7066439], [-1, 1, 0, 1], [9E+09, 9E+09, 9E+09, 9E+09, 9E+09, 9E+09]], v100, z0, tNozzle, \Wobj := wobjFlatPlat;
		MoveJ [[4.052, 6.311, 15.000], [0.4435768, 0.0757277, -0.7030401, 0.550672], [-1, 1, 1, 1], [9E+09, 9E+09, 9E+09, 9E+09, 9E+09, 9E+09]], v100, z0, tNozzle, \Wobj := wobjFlatPlat;
		MoveJ [[3.623, 6.567, 15.000], [0.4249781, 0.0991159, -0.7001258, 0.5651493], [-1, 1, 1, 1], [9E+09, 9E+09, 9E+09, 9E+09, 9E+09, 9E+09]], v100, z0, tNozzle, \Wobj := wobjFlatPlat;
		MoveJ [[-5.987, 4.517, 25.714], [-0.0491198, 0.5335251, -0.4640593, 0.7053987], [-1, 1, 0, 1], [9E+09, 9E+09, 9E+09, 9E+09, 9E+09, 9E+09]], v100, z0, tNozzle, \Wobj := wobjFlatPlat;
		MoveJ [[-5.320, -5.286, 36.429], [-0.4992041, 0.7071059, -0.0011248, 0.5007947], [-1, 1, -1, 1], [9E+09, 9E+09, 9E+09, 9E+09, 9E+09, 9E+09]], v100, z0, tNozzle, \Wobj := wobjFlatPlat;
		MoveJ [[4.479, -6.016, 47.143], [-0.7052389, 0.5349987, 0.4623596, 0.0513635], [-1, 1, -2, 1], [9E+09, 9E+09, 9E+09, 9E+09, 9E+09, 9E+09]], v100, z0, tNozzle, \Wobj := wobjFlatPlat;
		MoveJ [[6.590, 3.581, 57.857], [-0.5664983, 0.1013428, 0.6998069, -0.4231781], [-1, 1, -3, 1], [9E+09, 9E+09, 9E+09, 9E+09, 9E+09, 9E+09]], v100, z0, tNozzle, \Wobj := wobjFlatPlat;
		MoveJ [[-2.611, 7.031, 68.571], [-0.1508096, -0.3818573, 0.5951345, -0.6908375], [-1, 1, -4, 1], [9E+09, 9E+09, 9E+09, 9E+09, 9E+09, 9E+09]], v100, z0, tNozzle, \Wobj := wobjFlatPlat;
		MoveJ [[-7.330, -1.588, 79.286], [0.3386065, -0.6783761, 0.1995143, -0.6207622], [-1, 1, -5, 1], [9E+09, 9E+09, 9E+09, 9E+09, 9E+09, 9E+09]], v100, z0, tNozzle, \Wobj := wobjFlatPlat;
		MoveJ [[0.533, -7.481, 90.000], [0.6624856, -0.6432521, -0.2936439, -0.2472103], [-1, 1, -6, 1], [9E+09, 9E+09, 9E+09, 9E+09, 9E+09, 9E+09]], v100, z0, tNozzle, \Wobj := wobjFlatPlat;
		MoveJ [[1.030, -7.429, 90.000], [0.6703564, -0.6331085, -0.3149185, -0.2249942], [-1, 1, -6, 1], [9E+09, 9E+09, 9E+09, 9E+09, 9E+09, 9E+09]], v100, z0, tNozzle, \Wobj := wobjFlatPlat;
		MoveJ [[-7.208, -2.073, 79.286], [0.3591066, -0.6846485, 0.1767951, -0.6091326], [-1, 1, -5, 1], [9E+09, 9E+09, 9E+09, 9E+09, 9E+09, 9E+09]], v100, z0, tNozzle, \Wobj := wobjFlatPlat;
		MoveJ [[-3.073, 6.841, 68.571], [-0.1277022, -0.4014793, 0.5820776, -0.6954798], [-1, 1, -4, 1], [9E+09, 9E+09, 9E+09, 9E+09, 9E+09, 9E+09]], v100, z0, tNozzle, \Wobj := wobjFlatPlat;
		MoveJ [[6.337, 4.012, 57.857], [-0.5520803, 0.0779639, 0.7027956, -0.4418228], [-1, 1, -3, 1], [9E+09, 9E+09, 9E+09, 9E+09, 9E+09, 9E+09]], v100, z0, tNozzle, \Wobj := wobjFlatPlat;
		MoveJ [[4.870, -5.704, 47.143], [-0.7065589, 0.5192924, 0.4799328, 0.0278314], [-1, 1, -2, 1], [9E+09, 9E+09, 9E+09, 9E+09, 9E+09, 9E+09]], v100, z0, tNozzle, \Wobj := wobjFlatPlat;
		MoveJ [[-4.956, -5.629, 36.429], [-0.5156169, 0.7067506, 0.0224417, 0.4838794], [-1, 1, -1, 1], [9E+09, 9E+09, 9E+09, 9E+09, 9E+09, 9E+09]], v100, z0, tNozzle, \Wobj := wobjFlatPlat;
		MoveJ [[-6.275, 4.108, 25.714], [-0.0726014, 0.5486945, -0.4460206, 0.7033698], [-1, 1, 0, 1], [9E+09, 9E+09, 9E+09, 9E+09, 9E+09, 9E+09]], v100, z0, tNozzle, \Wobj := wobjFlatPlat;
		MoveJ [[3.177, 6.794, 15.000], [0.4059072, 0.1223941, -0.6964336, 0.5789986], [-1, 1, 1, 1], [9E+09, 9E+09, 9E+09, 9E+09, 9E+09, 9E+09]], v100, z0, tNozzle, \Wobj := wobjFlatPlat;
		MoveJ [[2.718, 6.990, 15.000], [0.3863853, 0.1455362, -0.6919677, 0.5922047], [-1, 1, 1, 1], [9E+09, 9E+09, 9E+09, 9E+09, 9E+09, 9E+09]], v100, z0, tNozzle, \Wobj := wobjFlatPlat;
		MoveJ [[-6.534, 3.681, 25.714], [-0.0960024, 0.5632543, -0.4274865, 0.7005595], [-1, 1, 0, 1], [9E+09, 9E+09, 9E+09, 9E+09, 9E+09, 9E+09]], v100, z0, tNozzle, \Wobj := wobjFlatPlat;
		MoveJ [[-4.570, -5.947, 36.429], [-0.5314568, 0.7056101, 0.0459832, 0.4664266], [-1, 1, -1, 1], [9E+09, 9E+09, 9E+09, 9E+09, 9E+09, 9E+09]], v100, z0, tNozzle, \Wobj := wobjFlatPlat;
		MoveJ [[5.239, -5.367, 47.143], [-0.7070939, 0.5030091, 0.4969727, 0.0042683], [-1, 1, -2, 1], [9E+09, 9E+09, 9E+09, 9E+09, 9E+09, 9E+09]], v100, z0, tNozzle, \Wobj := wobjFlatPlat;
		MoveJ [[6.055, 4.425, 57.857], [-0.5370489, 0.0544984, 0.7050035, -0.4599766], [-1, 1, -3, 1], [9E+09, 9E+09, 9E+09, 9E+09, 9E+09, 9E+09]], v100, z0, tNozzle, \Wobj := wobjFlatPlat;
		MoveJ [[-3.522, 6.621, 68.571], [-0.1044529, -0.4206553, 0.5683741, -0.6993494], [-1, 1, -4, 1], [9E+09, 9E+09, 9E+09, 9E+09, 9E+09, 9E+09]], v100, z0, tNozzle, \Wobj := wobjFlatPlat;
		MoveJ [[-7.054, -2.548, 79.286], [0.3792078, -0.6901602, 0.1538795, -0.5968262], [-1, 1, -5, 1], [9E+09, 9E+09, 9E+09, 9E+09, 9E+09, 9E+09]], v100, z0, tNozzle, \Wobj := wobjFlatPlat;
		MoveJ [[1.523, -7.344, 90.000], [0.6774824, -0.6222615, -0.3358433, -0.2025282], [-1, 1, -6, 1], [9E+09, 9E+09, 9E+09, 9E+09, 9E+09, 9E+09]], v100, z0, tNozzle, \Wobj := wobjFlatPlat;
		MoveJ [[2.008, -7.226, 90.000], [0.6838557, -0.6107231, -0.3563949, -0.1798371], [-1, 1, -6, 1], [9E+09, 9E+09, 9E+09, 9E+09, 9E+09, 9E+09]], v100, z0, tNozzle, \Wobj := wobjFlatPlat;
		MoveJ [[-6.868, -3.012, 79.286], [0.3988877, -0.6949052, 0.130793, -0.5838567], [-1, 1, -5, 1], [9E+09, 9E+09, 9E+09, 9E+09, 9E+09, 9E+09]], v100, z0, tNozzle, \Wobj := wobjFlatPlat;
		MoveJ [[-3.956, 6.372, 68.571], [-0.0810875, -0.4393639, 0.5540392, -0.7024421], [-1, 1, -4, 1], [9E+09, 9E+09, 9E+09, 9E+09, 9E+09, 9E+09]], v100, z0, tNozzle, \Wobj := wobjFlatPlat;
		MoveJ [[5.747, 4.819, 57.857], [-0.5214209, 0.0309724, 0.7064282, -0.4776194], [-1, 1, -3, 1], [9E+09, 9E+09, 9E+09, 9E+09, 9E+09, 9E+09]], v100, z0, tNozzle, \Wobj := wobjFlatPlat;
		MoveJ [[5.585, -5.006, 47.143], [-0.7068434, 0.486167, 0.5134605, -0.0192995], [-1, 1, -2, 1], [9E+09, 9E+09, 9E+09, 9E+09, 9E+09, 9E+09]], v100, z0, tNozzle, \Wobj := wobjFlatPlat;
		MoveJ [[-4.164, -6.238, 36.429], [-0.5467062, 0.7036856, 0.0694736, 0.4484555], [-1, 1, -1, 1], [9E+09, 9E+09, 9E+09, 9E+09, 9E+09, 9E+09]], v100, z0, tNozzle, \Wobj := wobjFlatPlat;
		MoveJ [[-6.765, 3.238, 25.714], [-0.1192968, 0.5771883, -0.4084773, 0.6969708], [-1, 1, 0, 1], [9E+09, 9E+09, 9E+09, 9E+09, 9E+09, 9E+09]], v100, z0, tNozzle, \Wobj := wobjFlatPlat;
		MoveJ [[2.246, 7.156, 15.000], [0.3664342, 0.1685167, -0.686733, 0.6047529], [-1, 1, 1, 1], [9E+09, 9E+09, 9E+09, 9E+09, 9E+09, 9E+09]], v100, z0, tNozzle, \Wobj := wobjFlatPlat;
		MoveJ [[1.764, 7.290, 15.000], [0.3460759, 0.19131, -0.6807353, 0.6166292], [-1, 1, 1, 1], [9E+09, 9E+09, 9E+09, 9E+09, 9E+09, 9E+09]], v100, z0, tNozzle, \Wobj := wobjFlatPlat;
		MoveJ [[-6.966, 2.780, 25.714], [-0.1424585, 0.5904811, -0.3890144, 0.6926078], [-1, 1, 0, 1], [9E+09, 9E+09, 9E+09, 9E+09, 9E+09, 9E+09]], v100, z0, tNozzle, \Wobj := wobjFlatPlat;
		MoveJ [[-3.739, -6.502, 36.429], [-0.5613483, 0.7009794, 0.0928869, 0.4299863], [-1, 1, -1, 1], [9E+09, 9E+09, 9E+09, 9E+09, 9E+09, 9E+09]], v100, z0, tNozzle, \Wobj := wobjFlatPlat;
		MoveJ [[5.906, -4.623, 47.143], [-0.7058075, 0.4687848, 0.5293778, -0.0428458], [-1, 1, -2, 1], [9E+09, 9E+09, 9E+09, 9E+09, 9E+09, 9E+09]], v100, z0, tNozzle, \Wobj := wobjFlatPlat;
		MoveJ [[5.413, 5.191, 57.857], [-0.5052135, 0.0074119, 0.707068, -0.4947316], [-1, 1, -3, 1], [9E+09, 9E+09, 9E+09, 9E+09, 9E+09, 9E+09]], v100, z0, tNozzle, \Wobj := wobjFlatPlat;
		MoveJ [[-4.371, 6.094, 68.571], [-0.0576321, -0.4575844, 0.5390886, -0.7047543], [-1, 1, -4, 1], [9E+09, 9E+09, 9E+09, 9E+09, 9E+09, 9E+09]], v100, z0, tNozzle, \Wobj := wobjFlatPlat;
		MoveJ [[-6.653, -3.463, 79.286], [0.4181244, -0.6988781, 0.1075611, -0.5702386], [-1, 1, -5, 1], [9E+09, 9E+09, 9E+09, 9E+09, 9E+09, 9E+09]], v100, z0, tNozzle, \Wobj := wobjFlatPlat;
		MoveJ [[2.485, -7.076, 90.000], [0.6894693, -0.5985062, -0.3765506, -0.1569462], [-1, 1, -6, 1], [9E+09, 9E+09, 9E+09, 9E+09, 9E+09, 9E+09]], v100, z0, tNozzle, \Wobj := wobjFlatPlat;
		MoveJ [[2.951, -6.895, 90.000], [0.6943169, -0.5856244, -0.396288, -0.133881], [-1, 1, -6, 1], [9E+09, 9E+09, 9E+09, 9E+09, 9E+09, 9E+09]], v100, z0, tNozzle, \Wobj := wobjFlatPlat;
		MoveJ [[-6.407, -3.899, 79.286], [0.4368965, -0.7020746, 0.0842097, -0.5559869], [-1, 1, -5, 1], [9E+09, 9E+09, 9E+09, 9E+09, 9E+09, 9E+09]], v100, z0, tNozzle, \Wobj := wobjFlatPlat;
		MoveJ [[-4.768, 5.790, 68.571], [-0.0341126, -0.4752965, 0.5235392, -0.7062835], [-1, 1, -4, 1], [9E+09, 9E+09, 9E+09, 9E+09, 9E+09, 9E+09]], v100, z0, tNozzle, \Wobj := wobjFlatPlat;
		MoveJ [[5.055, 5.540, 57.857], [-0.4884449, -0.0161567, 0.7069222, -0.5112941], [-1, 1, -3, 1], [9E+09, 9E+09, 9E+09, 9E+09, 9E+09, 9E+09]], v100, z0, tNozzle, \Wobj := wobjFlatPlat;
		MoveJ [[6.201, -4.219, 47.143], [-0.7039875, 0.4508817, 0.544707, -0.0663446], [-1, 1, -2, 1], [9E+09, 9E+09, 9E+09, 9E+09, 9E+09, 9E+09]], v100, z0, tNozzle, \Wobj := wobjFlatPlat;
		MoveJ [[-3.298, -6.736, 36.429], [-0.5753666, 0.6974943, 0.1161969, 0.4110393], [-1, 1, -1, 1], [9E+09, 9E+09, 9E+09, 9E+09, 9E+09, 9E+09]], v100, z0, tNozzle, \Wobj := wobjFlatPlat;
		MoveJ [[-7.136, 2.310, 25.714], [-0.1654621, 0.6031178, -0.3691192, 0.6874753], [-1, 1, 0, 1], [9E+09, 9E+09, 9E+09, 9E+09, 9E+09, 9E+09]], v100, z0, tNozzle, \Wobj := wobjFlatPlat;
		MoveJ [[1.275, 7.391, 15.000], [0.3253332, 0.2138907, -0.6739813, 0.6278203], [-1, 1, 1, 1], [9E+09, 9E+09, 9E+09, 9E+09, 9E+09, 9E+09]], v100, z0, tNozzle, \Wobj := wobjFlatPlat;
		MoveJ [[0.780, 7.459, 15.000], [0.304229, 0.2362337, -0.6664786, 0.638314], [-1, 1, 1, 1], [9E+09, 9E+09, 9E+09, 9E+09, 9E+09, 9E+09]], v100, z0, tNozzle, \Wobj := wobjFlatPlat;
		MoveJ [[-7.274, 1.829, 25.714], [-0.1882817, 0.6150844, -0.348814, 0.6815791], [-1, 1, 0, 1], [9E+09, 9E+09, 9E+09, 9E+09, 9E+09, 9E+09]], v100, z0, tNozzle, \Wobj := wobjFlatPlat;
		MoveJ [[-2.842, -6.941, 36.429], [-0.5887458, 0.6932343, 0.1393779, 0.3916356], [-1, 1, -1, 1], [9E+09, 9E+09, 9E+09, 9E+09, 9E+09, 9E+09]], v100, z0, tNozzle, \Wobj := wobjFlatPlat;
		MoveJ [[6.468, -3.797, 47.143], [-0.7013854, 0.4324777, 0.559431, -0.0897696], [-1, 1, -2, 1], [9E+09, 9E+09, 9E+09, 9E+09, 9E+09, 9E+09]], v100, z0, tNozzle, \Wobj := wobjFlatPlat;
		MoveJ [[4.675, 5.865, 57.857], [-0.4711336, -0.0397075, 0.7059911, -0.5272885], [-1, 1, -3, 1], [9E+09, 9E+09, 9E+09, 9E+09, 9E+09, 9E+09]], v100, z0, tNozzle, \Wobj := wobjFlatPlat;
		MoveJ [[-5.143, 5.459, 68.571], [-0.0105553, -0.4924806, 0.5074081, -0.707028], [-1, 1, -4, 1], [9E+09, 9E+09, 9E+09, 9E+09, 9E+09, 9E+09]], v100, z0, tNozzle, \Wobj := wobjFlatPlat;
		MoveJ [[-6.133, -4.317, 79.286], [0.4551833, -0.7044911, 0.0607648, -0.5411176], [-1, 1, -5, 1], [9E+09, 9E+09, 9E+09, 9E+09, 9E+09, 9E+09]], v100, z0, tNozzle, \Wobj := wobjFlatPlat;
		MoveJ [[3.404, -6.683, 90.000], [0.6983931, -0.5720919, -0.415585, -0.110667], [-1, 1, -6, 1], [9E+09, 9E+09, 9E+09, 9E+09, 9E+09, 9E+09]], v100, z0, tNozzle, \Wobj := wobjFlatPlat;
		MoveJ [[3.842, -6.441, 90.000], [0.7016933, -0.5579238, -0.4344204, -0.0873301], [-1, 1, -6, 1], [9E+09, 9E+09, 9E+09, 9E+09, 9E+09, 9E+09]], v100, z0, tNozzle, \Wobj := wobjFlatPlat;
		MoveJ [[-5.832, -4.716, 79.286], [0.4729643, -0.7061249, 0.0372523, -0.525647], [-1, 1, -5, 1], [9E+09, 9E+09, 9E+09, 9E+09, 9E+09, 9E+09]], v100, z0, tNozzle, \Wobj := wobjFlatPlat;
		MoveJ [[-5.495, 5.105, 68.571], [0.0130138, -0.5091175, 0.4907132, -0.7069871], [-1, 1, -4, 1], [9E+09, 9E+09, 9E+09, 9E+09, 9E+09, 9E+09]], v100, z0, tNozzle, \Wobj := wobjFlatPlat;
		MoveJ [[4.274, 6.163, 57.857], [-0.4532988, -0.0632141, 0.7042755, -0.5426972], [-1, 1, -3, 1], [9E+09, 9E+09, 9E+09, 9E+09, 9E+09, 9E+09]], v100, z0, tNozzle, \Wobj := wobjFlatPlat;
		MoveJ [[6.707, -3.357, 47.143], [-0.698004, 0.4135932, 0.5735335, -0.113095], [-1, 1, -2, 1], [9E+09, 9E+09, 9E+09, 9E+09, 9E+09, 9E+09]], v100, z0, tNozzle, \Wobj := wobjFlatPlat;
		MoveJ [[-2.373, -7.115, 36.429], [-0.6014708, 0.6882042, 0.162404, 0.3717968], [-1, 1, -1, 1], [9E+09, 9E+09, 9E+09, 9E+09, 9E+09, 9E+09]], v100, z0, tNozzle, \Wobj := wobjFlatPlat;
		MoveJ [[-7.379, 1.340, 25.714], [-0.2108923, 0.6263677, -0.3281212, 0.6749256], [-1, 1, 0, 1], [9E+09, 9E+09, 9E+09, 9E+09, 9E+09, 9E+09]], v100, z0, tNozzle, \Wobj := wobjFlatPlat;
		MoveJ [[0.281, 7.495, 15.000], [0.2827868, 0.2583143, -0.6582353, 0.6480985], [-1, 1, 1, 1], [9E+09, 9E+09, 9E+09, 9E+09, 9E+09, 9E+09]], v100, z0, tNozzle, \Wobj := wobjFlatPlat;
		MoveJ [[-0.219, 7.497, 15.000], [0.2610304, 0.280108, -0.6492608, 0.657163], [-1, 1, 0, 1], [9E+09, 9E+09, 9E+09, 9E+09, 9E+09, 9E+09]], v100, z0, tNozzle, \Wobj := wobjFlatPlat;
		MoveJ [[-7.452, 0.846, 25.714], [-0.2332685, 0.6369551, -0.3070638, 0.6675222], [-1, 1, 0, 1], [9E+09, 9E+09, 9E+09, 9E+09, 9E+09, 9E+09]], v100, z0, tNozzle, \Wobj := wobjFlatPlat;
		MoveJ [[-1.894, -7.257, 36.429], [-0.6135277, 0.6824094, 0.1852497, 0.351545], [-1, 1, -1, 1], [9E+09, 9E+09, 9E+09, 9E+09, 9E+09, 9E+09]], v100, z0, tNozzle, \Wobj := wobjFlatPlat;
		MoveJ [[6.915, -2.903, 47.143], [-0.6938471, 0.3942492, 0.5869988, -0.1362946], [-1, 1, -2, 1], [9E+09, 9E+09, 9E+09, 9E+09, 9E+09, 9E+09]], v100, z0, tNozzle, \Wobj := wobjFlatPlat;
		MoveJ [[3.854, 6.434, 57.857], [-0.4349605, -0.0866505, 0.7017776, -0.5575029], [-1, 1, -3, 1], [9E+09, 9E+09, 9E+09, 9E+09, 9E+09, 9E+09]], v100, z0, tNozzle, \Wobj := wobjFlatPlat;
		MoveJ [[-5.823, 4.727, 68.571], [0.0365685, -0.5251887, 0.4734732, -0.7061606], [-1, 1, -4, 1], [9E+09, 9E+09, 9E+09, 9E+09, 9E+09, 9E+09]], v100, z0, tNozzle, \Wobj := wobjFlatPlat;
		MoveJ [[-5.505, -5.094, 79.286], [0.4902199, -0.7069741, 0.0136985, -0.5095924], [-1, 1, -5, 1], [9E+09, 9E+09, 9E+09, 9E+09, 9E+09, 9E+09]], v100, z0, tNozzle, \Wobj := wobjFlatPlat;
		MoveJ [[4.262, -6.171, 90.000], [0.704214, -0.5431359, -0.4527731, -0.0638961], [-1, 1, -6, 1], [9E+09, 9E+09, 9E+09, 9E+09, 9E+09, 9E+09]], v100, z0, tNozzle, \Wobj := wobjFlatPlat;
		MoveJ [[4.664, -5.874, 90.000], [0.7059523, -0.5277446, -0.4706227, -0.0403912], [-1, 1, -6, 1], [9E+09, 9E+09, 9E+09, 9E+09, 9E+09, 9E+09]], v100, z0, tNozzle, \Wobj := wobjFlatPlat;
		MoveJ [[-5.153, -5.449, 79.286], [0.5069309, -0.7070379, -0.0098705, -0.4929717], [-1, 1, -5, 1], [9E+09, 9E+09, 9E+09, 9E+09, 9E+09, 9E+09]], v100, z0, tNozzle, \Wobj := wobjFlatPlat;
		MoveJ [[-6.125, 4.329, 68.571], [0.0600825, -0.5406765, 0.4557071, -0.7045496], [-1, 1, -4, 1], [9E+09, 9E+09, 9E+09, 9E+09, 9E+09, 9E+09]], v100, z0, tNozzle, \Wobj := wobjFlatPlat;
		MoveJ [[3.417, 6.676, 57.857], [-0.4161389, -0.1099906, 0.6984999, -0.5716892], [-1, 1, -3, 1], [9E+09, 9E+09, 9E+09, 9E+09, 9E+09, 9E+09]], v100, z0, tNozzle, \Wobj := wobjFlatPlat;
		MoveJ [[7.093, -2.436, 47.143], [-0.6889194, 0.3744672, 0.5998119, -0.1593429], [-1, 1, -2, 1], [9E+09, 9E+09, 9E+09, 9E+09, 9E+09, 9E+09]], v100, z0, tNozzle, \Wobj := wobjFlatPlat;
		MoveJ [[-1.406, -7.367, 36.429], [-0.6249028, 0.6758565, 0.2078895, 0.3309025], [-1, 1, -1, 1], [9E+09, 9E+09, 9E+09, 9E+09, 9E+09, 9E+09]], v100, z0, tNozzle, \Wobj := wobjFlatPlat;
		MoveJ [[-7.492, 0.348, 25.714], [-0.2553855, 0.6468349, -0.2856654, 0.6593772], [-1, 1, 0, 1], [9E+09, 9E+09, 9E+09, 9E+09, 9E+09, 9E+09]], v100, z0, tNozzle, \Wobj := wobjFlatPlat;
		MoveJ [[-0.718, 7.466, 15.000], [0.238984, 0.3015904, -0.6395649, 0.6654973], [-1, 1, 0, 1], [9E+09, 9E+09, 9E+09, 9E+09, 9E+09, 9E+09]], v100, z0, tNozzle, \Wobj := wobjFlatPlat;
		MoveJ [[-1.214, 7.401, 15.000], [0.2166721, 0.3227377, -0.6291585, 0.6730923], [-1, 1, 0, 1], [9E+09, 9E+09, 9E+09, 9E+09, 9E+09, 9E+09]], v100, z0, tNozzle, \Wobj := wobjFlatPlat;
		MoveJ [[-7.498, -0.152, 25.714], [-0.2772188, 0.655996, -0.2639495, 0.6504996], [-1, 1, -1, 1], [9E+09, 9E+09, 9E+09, 9E+09, 9E+09, 9E+09]], v100, z0, tNozzle, \Wobj := wobjFlatPlat;
		MoveJ [[-0.912, -7.444, 36.429], [-0.6355837, 0.6685527, 0.2302984, 0.3098925], [-1, 1, -1, 1], [9E+09, 9E+09, 9E+09, 9E+09, 9E+09, 9E+09]], v100, z0, tNozzle, \Wobj := wobjFlatPlat;
		MoveJ [[7.240, -1.958, 47.143], [-0.6832262, 0.3542692, 0.6119587, -0.1822141], [-1, 1, -2, 1], [9E+09, 9E+09, 9E+09, 9E+09, 9E+09, 9E+09]], v100, z0, tNozzle, \Wobj := wobjFlatPlat;
		MoveJ [[2.965, 6.889, 57.857], [-0.3968549, -0.1332085, 0.6944462, -0.5852403], [-1, 1, -3, 1], [9E+09, 9E+09, 9E+09, 9E+09, 9E+09, 9E+09]], v100, z0, tNozzle, \Wobj := wobjFlatPlat;
		MoveJ [[-6.399, 3.911, 68.571], [0.0835298, -0.5555636, 0.4374348, -0.7021558], [-1, 1, -4, 1], [9E+09, 9E+09, 9E+09, 9E+09, 9E+09, 9E+09]], v100, z0, tNozzle, \Wobj := wobjFlatPlat;
		MoveJ [[-4.779, -5.780, 79.286], [0.5230786, -0.7063162, -0.0334286, -0.4758033], [-1, 1, -5, 1], [9E+09, 9E+09, 9E+09, 9E+09, 9E+09, 9E+09]], v100, z0, tNozzle, \Wobj := wobjFlatPlat;
		MoveJ [[5.045, -5.550, 90.000], [0.7069062, -0.5117669, -0.4879495, -0.0168413], [-1, 1, -6, 1], [9E+09, 9E+09, 9E+09, 9E+09, 9E+09, 9E+09]], v100, z0, tNozzle, \Wobj := wobjFlatPlat;
		MoveJ [[5.403, -5.201, 90.000], [0.7070748, -0.4952206, -0.5047342, 0.0067272], [-1, 1, -6, 1], [9E+09, 9E+09, 9E+09, 9E+09, 9E+09, 9E+09]], v100, z0, tNozzle, \Wobj := wobjFlatPlat;
		MoveJ [[-4.383, -6.086, 79.286], [0.5386452, -0.7048098, -0.0569496, -0.4581063], [-1, 1, -5, 1], [9E+09, 9E+09, 9E+09, 9E+09, 9E+09, 9E+09]], v100, z0, tNozzle, \Wobj := wobjFlatPlat;
		MoveJ [[-6.646, 3.476, 68.571], [0.1068842, -0.5698334, 0.4186764, -0.698982], [-1, 1, -4, 1], [9E+09, 9E+09, 9E+09, 9E+09, 9E+09, 9E+09]], v100, z0, tNozzle, \Wobj := wobjFlatPlat;
		MoveJ [[2.499, 7.071, 57.857], [-0.3771301, -0.1562784, 0.689621, -0.5981413], [-1, 1, -3, 1], [9E+09, 9E+09, 9E+09, 9E+09, 9E+09, 9E+09]], v100, z0, tNozzle, \Wobj := wobjFlatPlat;
		MoveJ [[7.354, -1.471, 47.143], [-0.676774, 0.3336775, 0.6234255, -0.2048828], [-1, 1, -2, 1], [9E+09, 9E+09, 9E+09, 9E+09, 9E+09, 9E+09]], v100, z0, tNozzle, \Wobj := wobjFlatPlat;
		MoveJ [[-0.414, -7.489, 36.429], [-0.6455585, 0.6605061, 0.2524515, 0.2885381], [-1, 1, -1, 1], [9E+09, 9E+09, 9E+09, 9E+09, 9E+09, 9E+09]], v100, z0, tNozzle, \Wobj := wobjFlatPlat;
		MoveJ [[-7.472, -0.652, 25.714], [-0.2987441, 0.6644282, -0.2419404, 0.6408994], [-1, 1, -1, 1], [9E+09, 9E+09, 9E+09, 9E+09, 9E+09, 9E+09]], v100, z0, tNozzle, \Wobj := wobjFlatPlat;
		MoveJ [[-1.704, 7.304, 15.000], [0.1941195, 0.3435265, -0.6180531, 0.6799395], [-1, 1, 0, 1], [9E+09, 9E+09, 9E+09, 9E+09, 9E+09, 9E+09]], v100, z0, tNozzle, \Wobj := wobjFlatPlat;
		MoveJ [[-2.187, 7.174, 15.000], [0.1713512, 0.3639336, -0.606261, 0.6860312], [-1, 1, 0, 1], [9E+09, 9E+09, 9E+09, 9E+09, 9E+09, 9E+09]], v100, z0, tNozzle, \Wobj := wobjFlatPlat;
		MoveJ [[-7.412, -1.148, 25.714], [-0.3199375, 0.6721223, -0.2196625, 0.6305871], [-1, 1, -1, 1], [9E+09, 9E+09, 9E+09, 9E+09, 9E+09, 9E+09]], v100, z0, tNozzle, \Wobj := wobjFlatPlat;
		MoveJ [[0.086, -7.500, 36.429], [-0.6548161, 0.6517257, 0.274324, 0.2668632], [-1, 1, -2, 1], [9E+09, 9E+09, 9E+09, 9E+09, 9E+09, 9E+09]], v100, z0, tNozzle, \Wobj := wobjFlatPlat;
		MoveJ [[7.436, -0.978, 47.143], [-0.6695699, 0.3127152, 0.6341997, -0.227324], [-1, 1, -2, 1], [9E+09, 9E+09, 9E+09, 9E+09, 9E+09, 9E+09]], v100, z0, tNozzle, \Wobj := wobjFlatPlat;
		MoveJ [[2.022, 7.222, 57.857], [-0.3569862, -0.1791747, 0.6840296, -0.6103777], [-1, 1, -3, 1], [9E+09, 9E+09, 9E+09, 9E+09, 9E+09, 9E+09]], v100, z0, tNozzle, \Wobj := wobjFlatPlat;
		MoveJ [[-6.863, 3.026, 68.571], [0.1301199, -0.5834702, 0.3994529, -0.6950315], [-1, 1, -4, 1], [9E+09, 9E+09, 9E+09, 9E+09, 9E+09, 9E+09]], v100, z0, tNozzle, \Wobj := wobjFlatPlat;
		MoveJ [[-3.968, -6.364, 79.286], [0.5536134, -0.7025203, -0.0804072, -0.4399003], [-1, 1, -5, 1], [9E+09, 9E+09, 9E+09, 9E+09, 9E+09, 9E+09]], v100, z0, tNozzle, \Wobj := wobjFlatPlat;
		MoveJ [[5.738, -4.830, 90.000], [0.7064578, -0.4781242, -0.5209581, 0.0302883], [-1, 1, -6, 1], [9E+09, 9E+09, 9E+09, 9E+09, 9E+09, 9E+09]], v100, z0, tNozzle, \Wobj := wobjFlatPlat;
		MoveJ [[6.047, -4.437, 90.000], [0.705056, -0.4604965, -0.5366032, 0.0538157], [-1, 1, -6, 1], [9E+09, 9E+09, 9E+09, 9E+09, 9E+09, 9E+09]], v100, z0, tNozzle, \Wobj := wobjFlatPlat;
		MoveJ [[-3.535, -6.615, 79.286], [0.5679665, -0.6994503, -0.1037756, -0.4212056], [-1, 1, -5, 1], [9E+09, 9E+09, 9E+09, 9E+09, 9E+09, 9E+09]], v100, z0, tNozzle, \Wobj := wobjFlatPlat;
		MoveJ [[-7.049, 2.562, 68.571], [0.1532111, -0.5964587, 0.3797856, -0.6903089], [-1, 1, -4, 1], [9E+09, 9E+09, 9E+09, 9E+09, 9E+09, 9E+09]], v100, z0, tNozzle, \Wobj := wobjFlatPlat;
		MoveJ [[1.537, 7.341, 57.857], [-0.3364458, -0.201872, 0.6776782, -0.6219359], [-1, 1, -3, 1], [9E+09, 9E+09, 9E+09, 9E+09, 9E+09, 9E+09]], v100, z0, tNozzle, \Wobj := wobjFlatPlat;
		MoveJ [[7.485, -0.481, 47.143], [-0.6616219, 0.2914054, 0.6442693, -0.2495126], [-1, 1, -2, 1], [9E+09, 9E+09, 9E+09, 9E+09, 9E+09, 9E+09]], v100, z0, tNozzle, \Wobj := wobjFlatPlat;
		MoveJ [[0.585, -7.477, 36.429], [-0.6633461, 0.6422212, 0.2958918, 0.2448918], [-1, 1, -2, 1], [9E+09, 9E+09, 9E+09, 9E+09, 9E+09, 9E+09]], v100, z0, tNozzle, \Wobj := wobjFlatPlat;
		MoveJ [[-7.319, -1.639, 25.714], [-0.3407755, 0.6790697, -0.1971405, 0.6195742], [-1, 1, -1, 1], [9E+09, 9E+09, 9E+09, 9E+09, 9E+09, 9E+09]], v100, z0, tNozzle, \Wobj := wobjFlatPlat;
		MoveJ [[-2.660, 7.013, 15.000], [0.1483926, 0.3839364, -0.5937953, 0.6913608], [-1, 1, 0, 1], [9E+09, 9E+09, 9E+09, 9E+09, 9E+09, 9E+09]], v100, z0, tNozzle, \Wobj := wobjFlatPlat;
		MoveJ [[-3.121, 6.820, 15.000], [0.1252691, 0.4035126, -0.58067, 0.6959222], [-1, 1, 0, 1], [9E+09, 9E+09, 9E+09, 9E+09, 9E+09, 9E+09]], v100, z0, tNozzle, \Wobj := wobjFlatPlat;
		MoveJ [[-7.193, -2.123, 25.714], [-0.3612348, 0.6852626, -0.1743996, 0.6078729], [-1, 1, -1, 1], [9E+09, 9E+09, 9E+09, 9E+09, 9E+09, 9E+09]], v100, z0, tNozzle, \Wobj := wobjFlatPlat;
		MoveJ [[1.082, -7.422, 36.429], [-0.6711392, 0.6320032, 0.3171308, 0.2226483], [-1, 1, -2, 1], [9E+09, 9E+09, 9E+09, 9E+09, 9E+09, 9E+09]], v100, z0, tNozzle, \Wobj := wobjFlatPlat;
		MoveJ [[7.500, 0.019, 47.143], [-0.6529388, 0.2697718, 0.6536231, -0.271424], [-1, 1, -3, 1], [9E+09, 9E+09, 9E+09, 9E+09, 9E+09, 9E+09]], v100, z0, tNozzle, \Wobj := wobjFlatPlat;
		MoveJ [[1.044, 7.427, 57.857], [-0.3155315, -0.2243449, 0.6705739, -0.6328032], [-1, 1, -3, 1], [9E+09, 9E+09, 9E+09, 9E+09, 9E+09, 9E+09]], v100, z0, tNozzle, \Wobj := wobjFlatPlat;
		MoveJ [[-7.204, 2.087, 68.571], [0.176132, -0.6087845, 0.3596964, -0.6848194], [-1, 1, -4, 1], [9E+09, 9E+09, 9E+09, 9E+09, 9E+09, 9E+09]], v100, z0, tNozzle, \Wobj := wobjFlatPlat;
		MoveJ [[-3.087, -6.835, 79.286], [0.5816886, -0.6956032, -0.1270286, -0.4020429], [-1, 1, -5, 1], [9E+09, 9E+09, 9E+09, 9E+09, 9E+09, 9E+09]], v100, z0, tNozzle, \Wobj := wobjFlatPlat;
		MoveJ [[6.329, -4.024, 90.000], [0.7028708, -0.4423572, -0.5516522, 0.0772833], [-1, 1, -6, 1], [9E+09, 9E+09, 9E+09, 9E+09, 9E+09, 9E+09]], v100, z0, tNozzle, \Wobj := wobjFlatPlat;
		MoveJ [[6.583, -3.594, 90.000], [0.6999047, -0.4237265, -0.5660882, 0.100665], [-1, 1, -6, 1], [9E+09, 9E+09, 9E+09, 9E+09, 9E+09, 9E+09]], v100, z0, tNozzle, \Wobj := wobjFlatPlat;
		MoveJ [[-2.624, -7.026, 79.286], [0.5947644, -0.6909833, -0.1501405, -0.3824335], [-1, 1, -5, 1], [9E+09, 9E+09, 9E+09, 9E+09, 9E+09, 9E+09]], v100, z0, tNozzle, \Wobj := wobjFlatPlat;
		MoveJ [[-7.327, 1.602, 68.571], [0.1988572, -0.620434, 0.3392075, -0.678569], [-1, 1, -4, 1], [9E+09, 9E+09, 9E+09, 9E+09, 9E+09, 9E+09]], v100, z0, tNozzle, \Wobj := wobjFlatPlat;
		MoveJ [[0.547, 7.480, 57.857], [-0.2942667, -0.2465686, 0.6627247, -0.6429675], [-1, 1, -3, 1], [9E+09, 9E+09, 9E+09, 9E+09, 9E+09, 9E+09]], v100, z0, tNozzle, \Wobj := wobjFlatPlat;
		MoveJ [[7.482, 0.519, 47.143], [-0.6435303, 0.2478386, 0.6622508, -0.2930338], [-1, 1, -3, 1], [9E+09, 9E+09, 9E+09, 9E+09, 9E+09, 9E+09]], v100, z0, tNozzle, \Wobj := wobjFlatPlat;
		MoveJ [[1.574, -7.333, 36.429], [-0.6781866, 0.6210831, 0.3380175, 0.2001575], [-1, 1, -2, 1], [9E+09, 9E+09, 9E+09, 9E+09, 9E+09, 9E+09]], v100, z0, tNozzle, \Wobj := wobjFlatPlat;
		MoveJ [[-7.036, -2.597, 25.714], [-0.3812928, 0.6906942, -0.1514648, 0.5954963], [-1, 1, -1, 1], [9E+09, 9E+09, 9E+09, 9E+09, 9E+09, 9E+09]], v100, z0, tNozzle, \Wobj := wobjFlatPlat;
		MoveJ [[-3.568, 6.597, 15.000], [0.1020064, 0.4226406, -0.5668995, 0.6997105], [-1, 1, 0, 1], [9E+09, 9E+09, 9E+09, 9E+09, 9E+09, 9E+09]], v100, z0, tNozzle, \Wobj := wobjFlatPlat;
		MoveJ [[-4.000, 6.344, 15.000], [0.0786303, 0.4412989, -0.5524991, 0.7027214], [-1, 1, 0, 1], [9E+09, 9E+09, 9E+09, 9E+09, 9E+09, 9E+09]], v100, z0, tNozzle, \Wobj := wobjFlatPlat;
		MoveJ [[-6.847, -3.060, 25.714], [-0.4009272, 0.6953584, -0.1283618, 0.5824581], [-1, 1, -1, 1], [9E+09, 9E+09, 9E+09, 9E+09, 9E+09, 9E+09]], v100, z0, tNozzle, \Wobj := wobjFlatPlat;
		MoveJ [[2.059, -7.212, 36.429], [-0.6844805, 0.6094729, 0.3585287, 0.1774443], [-1, 1, -2, 1], [9E+09, 9E+09, 9E+09, 9E+09, 9E+09, 9E+09]], v100, z0, tNozzle, \Wobj := wobjFlatPlat;
		MoveJ [[7.431, 1.016, 47.143], [-0.6334068, 0.2256299, 0.6701427, -0.314318], [-1, 1, -3, 1], [9E+09, 9E+09, 9E+09, 9E+09, 9E+09, 9E+09]], v100, z0, tNozzle, \Wobj := wobjFlatPlat;
		MoveJ [[0.048, 7.500, 57.857], [-0.2726749, -0.2685184, 0.6541391, -0.6524174], [-1, 1, -3, 1], [9E+09, 9E+09, 9E+09, 9E+09, 9E+09, 9E+09]], v100, z0, tNozzle, \Wobj := wobjFlatPlat;
		MoveJ [[-7.417, 1.110, 68.571], [0.2213616, -0.6313942, 0.3183417, -0.6715647], [-1, 1, -4, 1], [9E+09, 9E+09, 9E+09, 9E+09, 9E+09, 9E+09]], v100, z0, tNozzle, \Wobj := wobjFlatPlat;
		MoveJ [[-2.150, -7.185, 79.286], [0.6071794, -0.6855957, -0.1730856, -0.3623992], [-1, 1, -5, 1], [9E+09, 9E+09, 9E+09, 9E+09, 9E+09, 9E+09]], v100, z0, tNozzle, \Wobj := wobjFlatPlat;
		MoveJ [[6.808, -3.147, 90.000], [0.696161, -0.404625, -0.5798954, 0.123935], [-1, 1, -6, 1], [9E+09, 9E+09, 9E+09, 9E+09, 9E+09, 9E+09]], v100, z0, tNozzle, \Wobj := wobjFlatPlat;
		MoveJ [[7.002, -2.687, 90.000], [0.6916439, -0.385074, -0.5930583, 0.1470672], [-1, 1, -6, 1], [9E+09, 9E+09, 9E+09, 9E+09, 9E+09, 9E+09]], v100, z0, tNozzle, \Wobj := wobjFlatPlat;
		MoveJ [[-1.667, -7.312, 79.286], [0.6189199, -0.6794464, -0.1958384, -0.3419624], [-1, 1, -5, 1], [9E+09, 9E+09, 9E+09, 9E+09, 9E+09, 9E+09]], v100, z0, tNozzle, \Wobj := wobjFlatPlat;
		MoveJ [[-7.475, 0.614, 68.571], [0.2436199, -0.6416528, 0.2971223, -0.6638143], [-1, 1, -4, 1], [9E+09, 9E+09, 9E+09, 9E+09, 9E+09, 9E+09]], v100, z0, tNozzle, \Wobj := wobjFlatPlat;
		MoveJ [[-0.452, 7.486, 57.857], [-0.2507802, -0.2901698, 0.6448267, -0.6611424], [-1, 1, -4, 1], [9E+09, 9E+09, 9E+09, 9E+09, 9E+09, 9E+09]], v100, z0, tNozzle, \Wobj := wobjFlatPlat;
		MoveJ [[7.347, 1.509, 47.143], [-0.6225797, 0.2031706, 0.67729, -0.3352531], [-1, 1, -3, 1], [9E+09, 9E+09, 9E+09, 9E+09, 9E+09, 9E+09]], v100, z0, tNozzle, \Wobj := wobjFlatPlat;
		MoveJ [[2.535, -7.059, 36.429], [-0.690014, 0.5971856, 0.3786415, 0.1545339], [-1, 1, -2, 1], [9E+09, 9E+09, 9E+09, 9E+09, 9E+09, 9E+09]], v100, z0, tNozzle, \Wobj := wobjFlatPlat;
		MoveJ [[-6.628, -3.510, 25.714], [-0.4201162, 0.6992501, -0.1051162, 0.5687728], [-1, 1, -1, 1], [9E+09, 9E+09, 9E+09, 9E+09, 9E+09, 9E+09]], v100, z0, tNozzle, \Wobj := wobjFlatPlat;
		MoveJ [[-4.414, 6.064, 15.000], [0.0551669, 0.459467, -0.537485, 0.7049515], [-1, 1, 0, 1], [9E+09, 9E+09, 9E+09, 9E+09, 9E+09, 9E+09]], v100, z0, tNozzle, \Wobj := wobjFlatPlat;
		MoveJ [[-4.808, 5.756, 15.000], [0.0316423, 0.4771246, -0.5218737, 0.7063985], [-1, 1, 0, 1], [9E+09, 9E+09, 9E+09, 9E+09, 9E+09, 9E+09]], v100, z0, tNozzle, \Wobj := wobjFlatPlat;
		MoveJ [[-6.380, -3.943, 25.714], [-0.4388384, 0.7023648, -0.0817538, 0.5544555], [-1, 1, -1, 1], [9E+09, 9E+09, 9E+09, 9E+09, 9E+09, 9E+09]], v100, z0, tNozzle, \Wobj := wobjFlatPlat;
		MoveJ [[2.999, -6.874, 36.429], [-0.6947809, 0.5842348, 0.3983337, 0.1314519], [-1, 1, -2, 1], [9E+09, 9E+09, 9E+09, 9E+09, 9E+09, 9E+09]], v100, z0, tNozzle, \Wobj := wobjFlatPlat;
		MoveJ [[7.230, 1.995, 47.143], [-0.6110608, 0.1804856, 0.6836849, -0.3558157], [-1, 1, -3, 1], [9E+09, 9E+09, 9E+09, 9E+09, 9E+09, 9E+09]], v100, z0, tNozzle, \Wobj := wobjFlatPlat;
		MoveJ [[-0.950, 7.440, 57.857], [-0.2286069, -0.3114989, 0.634798, -0.669133], [-1, 1, -4, 1], [9E+09, 9E+09, 9E+09, 9E+09, 9E+09, 9E+09]], v100, z0, tNozzle, \Wobj := wobjFlatPlat;
		MoveJ [[-7.499, 0.114, 68.571], [0.2656077, -0.6511986, 0.2755728, -0.6553264], [-1, 1, -4, 1], [9E+09, 9E+09, 9E+09, 9E+09, 9E+09, 9E+09]], v100, z0, tNozzle, \Wobj := wobjFlatPlat;
		MoveJ [[-1.176, -7.407, 79.286], [0.6299727, -0.6725422, -0.2183737, -0.3211456], [-1, 1, -5, 1], [9E+09, 9E+09, 9E+09, 9E+09, 9E+09, 9E+09]], v100, z0, tNozzle, \Wobj := wobjFlatPlat;
		MoveJ [[7.166, -2.214, 90.000], [0.6863584, -0.3650951, -0.6055622, 0.170036], [-1, 1, -6, 1], [9E+09, 9E+09, 9E+09, 9E+09, 9E+09, 9E+09]], v100, z0, tNozzle, \Wobj := wobjFlatPlat;
		MoveJ [[7.297, -1.732, 90.000], [0.6803103, -0.3447106, -0.6173934, 0.1928159], [-1, 1, -6, 1], [9E+09, 9E+09, 9E+09, 9E+09, 9E+09, 9E+09]], v100, z0, tNozzle, \Wobj := wobjFlatPlat;
		MoveJ [[-0.680, -7.469, 79.286], [0.6403256, -0.6648908, -0.2406663, -0.299972], [-1, 1, -5, 1], [9E+09, 9E+09, 9E+09, 9E+09, 9E+09, 9E+09]], v100, z0, tNozzle, \Wobj := wobjFlatPlat;
		MoveJ [[-7.490, -0.385, 68.571], [0.2873003, -0.660021, 0.2537171, -0.6461104], [-1, 1, -5, 1], [9E+09, 9E+09, 9E+09, 9E+09, 9E+09, 9E+09]], v100, z0, tNozzle, \Wobj := wobjFlatPlat;
		MoveJ [[-1.443, 7.360, 57.857], [-0.2061796, -0.3324818, 0.624064, -0.6763801], [-1, 1, -4, 1], [9E+09, 9E+09, 9E+09, 9E+09, 9E+09, 9E+09]], v100, z0, tNozzle, \Wobj := wobjFlatPlat;
		MoveJ [[7.081, 2.472, 47.143], [-0.598863, 0.1576001, 0.6893201, -0.3759829], [-1, 1, -3, 1], [9E+09, 9E+09, 9E+09, 9E+09, 9E+09, 9E+09]], v100, z0, tNozzle, \Wobj := wobjFlatPlat;
		MoveJ [[3.451, -6.659, 36.429], [-0.6987758, 0.5706349, 0.4175833, 0.1082238], [-1, 1, -2, 1], [9E+09, 9E+09, 9E+09, 9E+09, 9E+09, 9E+09]], v100, z0, tNozzle, \Wobj := wobjFlatPlat;
		MoveJ [[-6.103, -4.360, 25.714], [-0.457073, 0.7046993, -0.0583005, 0.5395223], [-1, 1, -1, 1], [9E+09, 9E+09, 9E+09, 9E+09, 9E+09, 9E+09]], v100, z0, tNozzle, \Wobj := wobjFlatPlat;
		MoveJ [[-5.181, 5.423, 15.000], [0.0080824, 0.4942522, -0.5056826, 0.7070606], [-1, 1, 0, 1], [9E+09, 9E+09, 9E+09, 9E+09, 9E+09, 9E+09]], v100, z0, tNozzle, \Wobj := wobjFlatPlat;
		MoveJ [[-5.530, 5.066, 15.000], [-0.0154864, 0.5108306, -0.4889296, 0.7069372], [-1, 1, 0, 1], [9E+09, 9E+09, 9E+09, 9E+09, 9E+09, 9E+09]], v100, z0, tNozzle, \Wobj := wobjFlatPlat;
		MoveJ [[-5.799, -4.757, 25.714], [-0.4747999, 0.7062508, -0.0347825, 0.5239896], [-1, 1, -1, 1], [9E+09, 9E+09, 9E+09, 9E+09, 9E+09, 9E+09]], v100, z0, tNozzle, \Wobj := wobjFlatPlat;
		MoveJ [[3.887, -6.414, 36.429], [-0.7019945, 0.5564011, 0.436369, 0.0848754], [-1, 1, -2, 1], [9E+09, 9E+09, 9E+09, 9E+09, 9E+09, 9E+09]], v100, z0, tNozzle, \Wobj := wobjFlatPlat;
		MoveJ [[6.901, 2.938, 47.143], [-0.5859999, 0.1345395, 0.6941896, -0.3957325], [-1, 1, -3, 1], [9E+09, 9E+09, 9E+09, 9E+09, 9E+09, 9E+09]], v100, z0, tNozzle, \Wobj := wobjFlatPlat;
		MoveJ [[-1.930, 7.247, 57.857], [-0.1835233, -0.3530954, 0.6126367, -0.6828757], [-1, 1, -4, 1], [9E+09, 9E+09, 9E+09, 9E+09, 9E+09, 9E+09]], v100, z0, tNozzle, \Wobj := wobjFlatPlat;
		MoveJ [[-7.448, -0.884, 68.571], [0.3086737, -0.66811, 0.2315796, -0.6361765], [-1, 1, -5, 1], [9E+09, 9E+09, 9E+09, 9E+09, 9E+09, 9E+09]], v100, z0, tNozzle, \Wobj := wobjFlatPlat;
		MoveJ [[-0.181, -7.498, 79.286], [0.6499671, -0.6565007, -0.2626915, -0.2784651], [-1, 1, -5, 1], [9E+09, 9E+09, 9E+09, 9E+09, 9E+09, 9E+09]], v100, z0, tNozzle, \Wobj := wobjFlatPlat;
		MoveJ [[7.396, -1.242, 90.000], [0.6735064, -0.3239432, -0.6285387, 0.2153816], [-1, 1, -6, 1], [9E+09, 9E+09, 9E+09, 9E+09, 9E+09, 9E+09]], v100, z0, tNozzle, \Wobj := wobjFlatPlat;
		MoveJ [[7.463, -0.747, 90.000], [0.6659542, -0.3028158, -0.6389856, 0.237708], [-1, 1, -6, 1], [9E+09, 9E+09, 9E+09, 9E+09, 9E+09, 9E+09]], v100, z0, tNozzle, \Wobj := wobjFlatPlat;
		MoveJ [[0.319, -7.493, 79.286], [0.6588865, -0.6473813, -0.2844249, -0.2566488], [-1, 1, -6, 1], [9E+09, 9E+09, 9E+09, 9E+09, 9E+09, 9E+09]], v100, z0, tNozzle, \Wobj := wobjFlatPlat;
		MoveJ [[-7.372, -1.378, 68.571], [0.3297042, -0.6754567, 0.2091847, -0.6255359], [-1, 1, -5, 1], [9E+09, 9E+09, 9E+09, 9E+09, 9E+09, 9E+09]], v100, z0, tNozzle, \Wobj := wobjFlatPlat;
		MoveJ [[-2.409, 7.103, 57.857], [-0.160663, -0.3733167, 0.6005287, -0.6886127], [-1, 1, -4, 1], [9E+09, 9E+09, 9E+09, 9E+09, 9E+09, 9E+09]], v100, z0, tNozzle, \Wobj := wobjFlatPlat;
		MoveJ [[6.689, 3.391, 47.143], [-0.5724857, 0.1113294, 0.6982878, -0.4150423], [-1, 1, -3, 1], [9E+09, 9E+09, 9E+09, 9E+09, 9E+09, 9E+09]], v100, z0, tNozzle, \Wobj := wobjFlatPlat;
		MoveJ [[4.305, -6.141, 36.429], [-0.7044331, 0.5415491, 0.4546699, 0.0614328], [-1, 1, -2, 1], [9E+09, 9E+09, 9E+09, 9E+09, 9E+09, 9E+09]], v100, z0, tNozzle, \Wobj := wobjFlatPlat;
		MoveJ [[-5.469, -5.132, 25.714], [-0.4919992, 0.7070177, -0.0112259, 0.5078748], [-1, 1, -1, 1], [9E+09, 9E+09, 9E+09, 9E+09, 9E+09, 9E+09]], v100, z0, tNozzle, \Wobj := wobjFlatPlat;
		MoveJ [[-5.856, 4.686, 15.000], [-0.039038, 0.5268414, -0.4716335, 0.7060284], [-1, 1, 0, 1], [9E+09, 9E+09, 9E+09, 9E+09, 9E+09, 9E+09]], v100, z0, tNozzle, \Wobj := wobjFlatPlat;
		MoveJ [[-6.155, 4.286, 15.000], [-0.0625462, 0.542267, -0.4538134, 0.7043352], [-1, 1, 0, 1], [9E+09, 9E+09, 9E+09, 9E+09, 9E+09, 9E+09]], v100, z0, tNozzle, \Wobj := wobjFlatPlat;
		MoveJ [[-5.115, -5.485, 25.714], [-0.5086519, 0.7069991, 0.0123433, 0.4911958], [-1, 1, -1, 1], [9E+09, 9E+09, 9E+09, 9E+09, 9E+09, 9E+09]], v100, z0, tNozzle, \Wobj := wobjFlatPlat;
		MoveJ [[4.705, -5.841, 36.429], [-0.7060892, 0.5260954, 0.4724656, 0.0379219], [-1, 1, -2, 1], [9E+09, 9E+09, 9E+09, 9E+09, 9E+09, 9E+09]], v100, z0, tNozzle, \Wobj := wobjFlatPlat;
		MoveJ [[6.449, 3.829, 47.143], [-0.5583355, 0.0879956, 0.7016102, -0.4338911], [-1, 1, -3, 1], [9E+09, 9E+09, 9E+09, 9E+09, 9E+09, 9E+09]], v100, z0, tNozzle, \Wobj := wobjFlatPlat;
		MoveJ [[-2.877, 6.926, 57.857], [-0.1376243, -0.3931233, 0.5877535, -0.6935846], [-1, 1, -4, 1], [9E+09, 9E+09, 9E+09, 9E+09, 9E+09, 9E+09]], v100, z0, tNozzle, \Wobj := wobjFlatPlat;
		MoveJ [[-7.264, -1.866, 68.571], [0.3503684, -0.6820531, 0.1865574, -0.6142003], [-1, 1, -5, 1], [9E+09, 9E+09, 9E+09, 9E+09, 9E+09, 9E+09]], v100, z0, tNozzle, \Wobj := wobjFlatPlat;
		MoveJ [[0.817, -7.455, 79.286], [0.6670739, -0.6375426, -0.3058423, -0.2345475], [-1, 1, -6, 1], [9E+09, 9E+09, 9E+09, 9E+09, 9E+09, 9E+09]], v100, z0, tNozzle, \Wobj := wobjFlatPlat;
		MoveJ [[7.496, -0.248, 90.000], [0.6576621, -0.281352, -0.6487227, 0.2597704], [-1, 1, -6, 1], [9E+09, 9E+09, 9E+09, 9E+09, 9E+09, 9E+09]], v100, z0, tNozzle, \Wobj := wobjFlatPlat;
		MoveJ [[7.496, 0.252, 90.000], [0.6486393, -0.2595756, -0.657739, 0.2815441], [-1, 1, -7, 1], [9E+09, 9E+09, 9E+09, 9E+09, 9E+09, 9E+09]], v100, z0, tNozzle, \Wobj := wobjFlatPlat;
		MoveJ [[1.312, -7.384, 79.286], [0.6745201, -0.6269956, -0.3269199, -0.2121855], [-1, 1, -6, 1], [9E+09, 9E+09, 9E+09, 9E+09, 9E+09, 9E+09]], v100, z0, tNozzle, \Wobj := wobjFlatPlat;
		MoveJ [[-7.124, -2.346, 68.571], [0.3706433, -0.6878916, 0.1637229, -0.6021824], [-1, 1, -5, 1], [9E+09, 9E+09, 9E+09, 9E+09, 9E+09, 9E+09]], v100, z0, tNozzle, \Wobj := wobjFlatPlat;
		MoveJ [[-3.332, 6.719, 57.857], [-0.1144326, -0.412493, 0.5743253, -0.6977859], [-1, 1, -4, 1], [9E+09, 9E+09, 9E+09, 9E+09, 9E+09, 9E+09]], v100, z0, tNozzle, \Wobj := wobjFlatPlat;
		MoveJ [[6.179, 4.250, 47.143], [-0.543565, 0.064564, 0.7041531, -0.4522578], [-1, 1, -3, 1], [9E+09, 9E+09, 9E+09, 9E+09, 9E+09, 9E+09]], v100, z0, tNozzle, \Wobj := wobjFlatPlat;
		MoveJ [[5.083, -5.514, 36.429], [-0.7069608, 0.5100572, 0.4897364, 0.0143689], [-1, 1, -2, 1], [9E+09, 9E+09, 9E+09, 9E+09, 9E+09, 9E+09]], v100, z0, tNozzle, \Wobj := wobjFlatPlat;
		MoveJ [[-4.738, -5.814, 25.714], [-0.5247395, 0.706195, 0.0358987, 0.473971], [-1, 1, -1, 1], [9E+09, 9E+09, 9E+09, 9E+09, 9E+09, 9E+09]], v100, z0, tNozzle, \Wobj := wobjFlatPlat;
		MoveJ [[-6.427, 3.866, 15.000], [-0.085985, 0.5570901, -0.4354891, 0.7018594], [-1, 1, 0, 1], [9E+09, 9E+09, 9E+09, 9E+09, 9E+09, 9E+09]], v100, z0, tNozzle, \Wobj := wobjFlatPlat;
		MoveJ [[-6.670, 3.430, 15.000], [-0.1093282, 0.5712942, -0.4166809, 0.6986039], [-1, 1, 0, 1], [9E+09, 9E+09, 9E+09, 9E+09, 9E+09, 9E+09]], v100, z0, tNozzle, \Wobj := wobjFlatPlat;
		MoveJ [[-4.340, -6.116, 25.714], [-0.5402441, 0.7046063, 0.0594142, 0.4562196], [-1, 1, -1, 1], [9E+09, 9E+09, 9E+09, 9E+09, 9E+09, 9E+09]], v100, z0, tNozzle, \Wobj := wobjFlatPlat;
		MoveJ [[5.439, -5.164, 36.429], [-0.707047, 0.4934523, 0.5064631, -0.0092001], [-1, 1, -2, 1], [9E+09, 9E+09, 9E+09, 9E+09, 9E+09, 9E+09]], v100, z0, tNozzle, \Wobj := wobjFlatPlat;
		MoveJ [[5.882, 4.653, 47.143], [-0.5281906, 0.0410607, 0.7059136, -0.4701221], [-1, 1, -3, 1], [9E+09, 9E+09, 9E+09, 9E+09, 9E+09, 9E+09]], v100, z0, tNozzle, \Wobj := wobjFlatPlat;
		MoveJ [[-3.772, 6.483, 57.857], [-0.0911138, -0.4314045, 0.560259, -0.701212], [-1, 1, -4, 1], [9E+09, 9E+09, 9E+09, 9E+09, 9E+09, 9E+09]], v100, z0, tNozzle, \Wobj := wobjFlatPlat;
		MoveJ [[-6.952, -2.815, 68.571], [0.3905064, -0.6929659, 0.1407065, -0.5894954], [-1, 1, -5, 1], [9E+09, 9E+09, 9E+09, 9E+09, 9E+09, 9E+09]], v100, z0, tNozzle, \Wobj := wobjFlatPlat;
		MoveJ [[1.801, -7.281, 79.286], [0.6812169, -0.615752, -0.3476342, -0.1895878], [-1, 1, -6, 1], [9E+09, 9E+09, 9E+09, 9E+09, 9E+09, 9E+09]], v100, z0, tNozzle, \Wobj := wobjFlatPlat;
		MoveJ [[7.462, 0.751, 90.000], [0.638896, -0.2375109, -0.6660245, 0.303005], [-1, 1, -7, 1], [9E+09, 9E+09, 9E+09, 9E+09, 9E+09, 9E+09]], v100, z0, tNozzle, \Wobj := wobjFlatPlat;
		MoveJ [[7.396, 1.246, 90.000], [0.6284427, -0.2151822, -0.6735701, 0.3241292], [-1, 1, -7, 1], [9E+09, 9E+09, 9E+09, 9E+09, 9E+09, 9E+09]], v100, z0, tNozzle, \Wobj := wobjFlatPlat;
		MoveJ [[2.282, -7.144, 79.286], [0.6871569, -0.6038242, -0.3679624, -0.1667794], [-1, 1, -6, 1], [9E+09, 9E+09, 9E+09, 9E+09, 9E+09, 9E+09]], v100, z0, tNozzle, \Wobj := wobjFlatPlat;
		MoveJ [[-6.749, -3.272, 68.571], [0.4099357, -0.6972703, 0.1175338, -0.5761534], [-1, 1, -5, 1], [9E+09, 9E+09, 9E+09, 9E+09, 9E+09, 9E+09]], v100, z0, tNozzle, \Wobj := wobjFlatPlat;
		MoveJ [[-4.195, 6.217, 57.857], [-0.0676938, -0.4498367, 0.5455703, -0.7038591], [-1, 1, -4, 1], [9E+09, 9E+09, 9E+09, 9E+09, 9E+09, 9E+09]], v100, z0, tNozzle, \Wobj := wobjFlatPlat;
		MoveJ [[5.559, 5.034, 47.143], [-0.5122293, 0.0175118, 0.7068899, -0.487464], [-1, 1, -3, 1], [9E+09, 9E+09, 9E+09, 9E+09, 9E+09, 9E+09]], v100, z0, tNozzle, \Wobj := wobjFlatPlat;
		MoveJ [[5.771, -4.790, 36.429], [-0.7063476, 0.4762992, 0.5226271, -0.0327588], [-1, 1, -2, 1], [9E+09, 9E+09, 9E+09, 9E+09, 9E+09, 9E+09]], v100, z0, tNozzle, \Wobj := wobjFlatPlat;
		MoveJ [[-3.923, -6.392, 25.714], [-0.5551485, 0.7022348, 0.0828637, 0.4379614], [-1, 1, -1, 1], [9E+09, 9E+09, 9E+09, 9E+09, 9E+09, 9E+09]], v100, z0, tNozzle, \Wobj := wobjFlatPlat;
		MoveJ [[-6.884, 2.978, 15.000], [-0.1325499, 0.5848636, -0.3974098, 0.6945722], [-1, 1, 0, 1], [9E+09, 9E+09, 9E+09, 9E+09, 9E+09, 9E+09]], v100, z0, tNozzle, \Wobj := wobjFlatPlat;
		MoveJ [[-7.067, 2.512, 15.000], [-0.1556244, 0.5977833, -0.3776972, 0.6897689], [-1, 1, 0, 1], [9E+09, 9E+09, 9E+09, 9E+09, 9E+09, 9E+09]], v100, z0, tNozzle, \Wobj := wobjFlatPlat;
		MoveJ [[-3.489, -6.639, 25.714], [-0.5694361, 0.699083, 0.1062212, 0.4192166], [-1, 1, -1, 1], [9E+09, 9E+09, 9E+09, 9E+09, 9E+09, 9E+09]], v100, z0, tNozzle, \Wobj := wobjFlatPlat;
		MoveJ [[6.078, -4.395, 36.429], [-0.7048634, 0.458617, 0.5382105, -0.0562812], [-1, 1, -2, 1], [9E+09, 9E+09, 9E+09, 9E+09, 9E+09, 9E+09]], v100, z0, tNozzle, \Wobj := wobjFlatPlat;
		MoveJ [[5.212, 5.393, 47.143], [-0.495699, -0.0060565, 0.7070809, -0.5042644], [-1, 1, -3, 1], [9E+09, 9E+09, 9E+09, 9E+09, 9E+09, 9E+09]], v100, z0, tNozzle, \Wobj := wobjFlatPlat;
		MoveJ [[-4.600, 5.924, 57.857], [-0.0441986, -0.4677691, 0.5302755, -0.7057241], [-1, 1, -4, 1], [9E+09, 9E+09, 9E+09, 9E+09, 9E+09, 9E+09]], v100, z0, tNozzle, \Wobj := wobjFlatPlat;
		MoveJ [[-6.516, -3.714, 68.571], [0.4289095, -0.7008, 0.0942304, -0.5621714], [-1, 1, -5, 1], [9E+09, 9E+09, 9E+09, 9E+09, 9E+09, 9E+09]], v100, z0, tNozzle, \Wobj := wobjFlatPlat;
		MoveJ [[2.753, -6.976, 79.286], [0.6923335, -0.5912257, -0.3878817, -0.1437858], [-1, 1, -6, 1], [9E+09, 9E+09, 9E+09, 9E+09, 9E+09, 9E+09]], v100, z0, tNozzle, \Wobj := wobjFlatPlat;
		MoveJ [[7.296, 1.736, 90.000], [0.6172913, -0.1926145, -0.6803673, 0.3448934], [-1, 1, -7, 1], [9E+09, 9E+09, 9E+09, 9E+09, 9E+09, 9E+09]], v100, z0, tNozzle, \Wobj := wobjFlatPlat;
		MoveJ [[7.164, 2.219, 90.000], [0.6054541, -0.1698328, -0.6864087, 0.3652744], [-1, 1, -7, 1], [9E+09, 9E+09, 9E+09, 9E+09, 9E+09, 9E+09]], v100, z0, tNozzle, \Wobj := wobjFlatPlat;
		MoveJ [[3.212, -6.778, 79.286], [0.6967409, -0.5779703, -0.4073701, -0.1206324], [-1, 1, -6, 1], [9E+09, 9E+09, 9E+09, 9E+09, 9E+09, 9E+09]], v100, z0, tNozzle, \Wobj := wobjFlatPlat;
		MoveJ [[-6.254, -4.140, 68.571], [0.4474069, -0.7035512, 0.0708224, -0.5475647], [-1, 1, -5, 1], [9E+09, 9E+09, 9E+09, 9E+09, 9E+09, 9E+09]], v100, z0, tNozzle, \Wobj := wobjFlatPlat;
		MoveJ [[-4.985, 5.604, 57.857], [-0.0206542, -0.4851819, 0.5143915, -0.7068051], [-1, 1, -4, 1], [9E+09, 9E+09, 9E+09, 9E+09, 9E+09, 9E+09]], v100, z0, tNozzle, \Wobj := wobjFlatPlat;
		MoveJ [[4.841, 5.729, 47.143], [-0.4786179, -0.0296182, 0.7064862, -0.5205045], [-1, 1, -3, 1], [9E+09, 9E+09, 9E+09, 9E+09, 9E+09, 9E+09]], v100, z0, tNozzle, \Wobj := wobjFlatPlat;
		MoveJ [[6.357, -3.980, 36.429], [-0.7025962, 0.4404252, 0.5531959, -0.079741], [-1, 1, -2, 1], [9E+09, 9E+09, 9E+09, 9E+09, 9E+09, 9E+09]], v100, z0, tNozzle, \Wobj := wobjFlatPlat;
		MoveJ [[-3.039, -6.857, 25.714], [-0.5830911, 0.6951547, 0.1294607, 0.400006], [-1, 1, -1, 1], [9E+09, 9E+09, 9E+09, 9E+09, 9E+09, 9E+09]], v100, z0, tNozzle, \Wobj := wobjFlatPlat;
		MoveJ [[-7.218, 2.036, 15.000], [-0.178526, 0.6100388, -0.357565, 0.6841992], [-1, 1, 0, 1], [9E+09, 9E+09, 9E+09, 9E+09, 9E+09, 9E+09]], v100, z0, tNozzle, \Wobj := wobjFlatPlat;
		MoveJ [[-7.338, 1.551, 15.000], [-0.2012293, 0.6216165, -0.3370355, 0.6778693], [-1, 1, 0, 1], [9E+09, 9E+09, 9E+09, 9E+09, 9E+09, 9E+09]], v100, z0, tNozzle, \Wobj := wobjFlatPlat;
		MoveJ [[-2.575, -7.044, 25.714], [-0.5960983, 0.6904539, 0.1525563, 0.380351], [-1, 1, -1, 1], [9E+09, 9E+09, 9E+09, 9E+09, 9E+09, 9E+09]], v100, z0, tNozzle, \Wobj := wobjFlatPlat;
		MoveJ [[6.608, -3.548, 36.429], [-0.6995484, 0.4217441, 0.5675667, -0.1031123], [-1, 1, -2, 1], [9E+09, 9E+09, 9E+09, 9E+09, 9E+09, 9E+09]], v100, z0, tNozzle, \Wobj := wobjFlatPlat;
		MoveJ [[4.448, 6.038, 47.143], [-0.4610051, -0.0531469, 0.7051067, -0.5361663], [-1, 1, -3, 1], [9E+09, 9E+09, 9E+09, 9E+09, 9E+09, 9E+09]], v100, z0, tNozzle, \Wobj := wobjFlatPlat;
		MoveJ [[-5.347, 5.259, 57.857], [0.002913, -0.5020556, 0.497936, -0.7071008], [-1, 1, -4, 1], [9E+09, 9E+09, 9E+09, 9E+09, 9E+09, 9E+09]], v100, z0, tNozzle, \Wobj := wobjFlatPlat;
		MoveJ [[-5.964, -4.547, 68.571], [0.4654071, -0.7055206, 0.0473357, -0.5323498], [-1, 1, -5, 1], [9E+09, 9E+09, 9E+09, 9E+09, 9E+09, 9E+09]], v100, z0, tNozzle, \Wobj := wobjFlatPlat;
		MoveJ [[3.656, -6.549, 79.286], [0.7003742, -0.5640727, -0.426406, -0.097345], [-1, 1, -6, 1], [9E+09, 9E+09, 9E+09, 9E+09, 9E+09, 9E+09]], v100, z0, tNozzle, \Wobj := wobjFlatPlat;
		MoveJ [[7.001, 2.691, 90.000], [0.5929442, -0.1468624, -0.6916874, 0.3852495], [-1, 1, -7, 1], [9E+09, 9E+09, 9E+09, 9E+09, 9E+09, 9E+09]], v100, z0, tNozzle, \Wobj := wobjFlatPlat;
		MoveJ [[6.806, 3.151, 90.000], [0.5797756, -0.1237288, -0.6961977, 0.4047967], [-1, 1, -7, 1], [9E+09, 9E+09, 9E+09, 9E+09, 9E+09, 9E+09]], v100, z0, tNozzle, \Wobj := wobjFlatPlat;
		MoveJ [[4.084, -6.290, 79.286], [0.7032294, -0.5495485, -0.444968, -0.0739494], [-1, 1, -6, 1], [9E+09, 9E+09, 9E+09, 9E+09, 9E+09, 9E+09]], v100, z0, tNozzle, \Wobj := wobjFlatPlat;
		MoveJ [[-5.648, -4.935, 68.571], [0.4828903, -0.7067063, 0.0237964, -0.5165434], [-1, 1, -5, 1], [9E+09, 9E+09, 9E+09, 9E+09, 9E+09, 9E+09]], v100, z0, tNozzle, \Wobj := wobjFlatPlat;
		MoveJ [[-5.685, 4.892, 57.857], [0.0264771, -0.5183715, 0.4809273, -0.7066109], [-1, 1, -4, 1], [9E+09, 9E+09, 9E+09, 9E+09, 9E+09, 9E+09]], v100, z0, tNozzle, \Wobj := wobjFlatPlat;
		MoveJ [[4.036, 6.321, 47.143], [-0.4428801, -0.0766166, 0.7029438, -0.5512325], [-1, 1, -3, 1], [9E+09, 9E+09, 9E+09, 9E+09, 9E+09, 9E+09]], v100, z0, tNozzle, \Wobj := wobjFlatPlat;
		MoveJ [[6.830, -3.100, 36.429], [-0.6957233, 0.4025944, 0.581307, -0.126369], [-1, 1, -2, 1], [9E+09, 9E+09, 9E+09, 9E+09, 9E+09, 9E+09]], v100, z0, tNozzle, \Wobj := wobjFlatPlat;
		MoveJ [[-2.100, -7.200, 25.714], [-0.6084432, 0.6849861, 0.1754824, 0.3602735], [-1, 1, -1, 1], [9E+09, 9E+09, 9E+09, 9E+09, 9E+09, 9E+09]], v100, z0, tNozzle, \Wobj := wobjFlatPlat;
		MoveJ [[-7.425, 1.058, 15.000], [-0.2237089, 0.6325037, -0.3161316, 0.6707864], [-1, 1, 0, 1], [9E+09, 9E+09, 9E+09, 9E+09, 9E+09, 9E+09]], v100, z0, tNozzle, \Wobj := wobjFlatPlat;
		MoveJ [[-7.479, 0.561, 15.000], [-0.2459401, 0.6426881, -0.2948764, 0.6629582], [-1, 1, 0, 1], [9E+09, 9E+09, 9E+09, 9E+09, 9E+09, 9E+09]], v100, z0, tNozzle, \Wobj := wobjFlatPlat;
		MoveJ [[-1.616, -7.324, 25.714], [-0.6201121, 0.6787573, 0.1982136, 0.3397957], [-1, 1, -1, 1], [9E+09, 9E+09, 9E+09, 9E+09, 9E+09, 9E+09]], v100, z0, tNozzle, \Wobj := wobjFlatPlat;
		MoveJ [[7.021, -2.638, 36.429], [-0.6911253, 0.3829974, 0.5944014, -0.1494852], [-1, 1, -2, 1], [9E+09, 9E+09, 9E+09, 9E+09, 9E+09, 9E+09]], v100, z0, tNozzle, \Wobj := wobjFlatPlat;
		MoveJ [[3.606, 6.576, 47.143], [-0.4242631, -0.1000011, 0.6999999, -0.5656862], [-1, 1, -3, 1], [9E+09, 9E+09, 9E+09, 9E+09, 9E+09, 9E+09]], v100, z0, tNozzle, \Wobj := wobjFlatPlat;
		MoveJ [[-5.999, 4.502, 57.857], [0.0500117, -0.5341114, 0.4633843, -0.705336], [-1, 1, -4, 1], [9E+09, 9E+09, 9E+09, 9E+09, 9E+09, 9E+09]], v100, z0, tNozzle, \Wobj := wobjFlatPlat;
		MoveJ [[-5.307, -5.300, 68.571], [0.4998369, -0.7071068, 0.0002307, -0.500163], [-1, 1, -5, 1], [9E+09, 9E+09, 9E+09, 9E+09, 9E+09, 9E+09]], v100, z0, tNozzle, \Wobj := wobjFlatPlat;
		MoveJ [[4.494, -6.004, 79.286], [0.7053032, -0.5344137, -0.4630357, -0.0504717], [-1, 1, -6, 1], [9E+09, 9E+09, 9E+09, 9E+09, 9E+09, 9E+09]], v100, z0, tNozzle, \Wobj := wobjFlatPlat;
		MoveJ [[6.581, 3.598, 90.000], [0.5659628, -0.1004578, -0.6999345, 0.4238941], [-1, 1, -7, 1], [9E+09, 9E+09, 9E+09, 9E+09, 9E+09, 9E+09]], v100, z0, tNozzle, \Wobj := wobjFlatPlat;
		MoveJ [[6.327, 4.028, 90.000], [0.5515212, -0.0770752, -0.7028936, 0.4425205], [-1, 1, -7, 1], [9E+09, 9E+09, 9E+09, 9E+09, 9E+09, 9E+09]], v100, z0, tNozzle, \Wobj := wobjFlatPlat;
		MoveJ [[4.884, -5.692, 79.286], [0.7065935, -0.5186851, -0.480589, -0.0269379], [-1, 1, -6, 1], [9E+09, 9E+09, 9E+09, 9E+09, 9E+09, 9E+09]], v100, z0, tNozzle, \Wobj := wobjFlatPlat;
		MoveJ [[-4.942, -5.642, 68.571], [0.5162283, -0.7067217, -0.0233353, -0.4832271], [-1, 1, -5, 1], [9E+09, 9E+09, 9E+09, 9E+09, 9E+09, 9E+09]], v100, z0, tNozzle, \Wobj := wobjFlatPlat;
		MoveJ [[-6.285, 4.092, 57.857], [0.0734908, -0.549258, 0.4453265, -0.7032774], [-1, 1, -4, 1], [9E+09, 9E+09, 9E+09, 9E+09, 9E+09, 9E+09]], v100, z0, tNozzle, \Wobj := wobjFlatPlat;
		MoveJ [[3.160, 6.802, 47.143], [-0.4051747, -0.1232746, 0.6962783, -0.5795114], [-1, 1, -3, 1], [9E+09, 9E+09, 9E+09, 9E+09, 9E+09, 9E+09]], v100, z0, tNozzle, \Wobj := wobjFlatPlat;
		MoveJ [[7.181, -2.164, 36.429], [-0.6857595, 0.362975, 0.6068354, -0.1724354], [-1, 1, -2, 1], [9E+09, 9E+09, 9E+09, 9E+09, 9E+09, 9E+09]], v100, z0, tNozzle, \Wobj := wobjFlatPlat;
		MoveJ [[-1.124, -7.415, 25.714], [-0.631092, 0.6717743, 0.2207245, 0.3189403], [-1, 1, -1, 1], [9E+09, 9E+09, 9E+09, 9E+09, 9E+09, 9E+09]], v100, z0, tNozzle, \Wobj := wobjFlatPlat;
		MoveJ [[-7.500, 0.062, 15.000], [-0.267898, 0.6521585, -0.2732936, 0.6543934], [-1, 1, 0, 1], [9E+09, 9E+09, 9E+09, 9E+09, 9E+09, 9E+09]], v100, z0, tNozzle, \Wobj := wobjFlatPlat;
		MoveJ [[-7.487, -0.438, 15.000], [-0.2895582, 0.6609043, -0.2514072, 0.6451016], [-1, 1, -1, 1], [9E+09, 9E+09, 9E+09, 9E+09, 9E+09, 9E+09]], v100, z0, tNozzle, \Wobj := wobjFlatPlat;
		MoveJ [[-0.628, -7.474, 25.714], [-0.6413708, 0.664045, 0.2429902, 0.2977306], [-1, 1, -1, 1], [9E+09, 9E+09, 9E+09, 9E+09, 9E+09, 9E+09]], v100, z0, tNozzle, \Wobj := wobjFlatPlat;
		MoveJ [[7.309, -1.681, 36.429], [-0.6796318, 0.3425492, 0.6185952, -0.1951941], [-1, 1, -2, 1], [9E+09, 9E+09, 9E+09, 9E+09, 9E+09, 9E+09]], v100, z0, tNozzle, \Wobj := wobjFlatPlat;
		MoveJ [[2.700, 6.997, 47.143], [-0.3856362, -0.1464111, 0.6917831, -0.5926928], [-1, 1, -3, 1], [9E+09, 9E+09, 9E+09, 9E+09, 9E+09, 9E+09]], v100, z0, tNozzle, \Wobj := wobjFlatPlat;
		MoveJ [[-6.544, 3.665, 57.857], [0.0968882, -0.5637944, 0.4267739, -0.7004375], [-1, 1, -4, 1], [9E+09, 9E+09, 9E+09, 9E+09, 9E+09, 9E+09]], v100, z0, tNozzle, \Wobj := wobjFlatPlat;
		MoveJ [[-4.555, -5.958, 68.571], [0.5320461, -0.7055514, -0.0468754, -0.4657542], [-1, 1, -5, 1], [9E+09, 9E+09, 9E+09, 9E+09, 9E+09, 9E+09]], v100, z0, tNozzle, \Wobj := wobjFlatPlat;
		MoveJ [[5.252, -5.354, 79.286], [0.7070988, -0.5023803, -0.4976083, -0.0033742], [-1, 1, -6, 1], [9E+09, 9E+09, 9E+09, 9E+09, 9E+09, 9E+09]], v100, z0, tNozzle, \Wobj := wobjFlatPlat;
		MoveJ [[6.044, 4.441, 90.000], [0.5364669, -0.0536069, -0.7050719, 0.4606553], [-1, 1, -7, 1], [9E+09, 9E+09, 9E+09, 9E+09, 9E+09, 9E+09]], v100, z0, tNozzle, \Wobj := wobjFlatPlat;
		MoveJ [[5.735, 4.833, 90.000], [0.5208165, -0.0300791, -0.7064668, 0.4782784], [-1, 1, -7, 1], [9E+09, 9E+09, 9E+09, 9E+09, 9E+09, 9E+09]], v100, z0, tNozzle, \Wobj := wobjFlatPlat;
		MoveJ [[5.597, -4.992, 79.286], [0.7068184, -0.4855174, -0.5140748, 0.0201932], [-1, 1, -6, 1], [9E+09, 9E+09, 9E+09, 9E+09, 9E+09, 9E+09]], v100, z0, tNozzle, \Wobj := wobjFlatPlat;
		MoveJ [[-4.148, -6.248, 68.571], [0.5472728, -0.7035972, -0.0703634, -0.4477639], [-1, 1, -5, 1], [9E+09, 9E+09, 9E+09, 9E+09, 9E+09, 9E+09]], v100, z0, tNozzle, \Wobj := wobjFlatPlat;
		MoveJ [[-6.773, 3.220, 57.857], [0.120178, -0.5777044, 0.4077471, -0.6968194], [-1, 1, -4, 1], [9E+09, 9E+09, 9E+09, 9E+09, 9E+09, 9E+09]], v100, z0, tNozzle, \Wobj := wobjFlatPlat;
		MoveJ [[2.228, 7.161, 47.143], [-0.3656692, -0.1693849, 0.6865193, -0.6052158], [-1, 1, -3, 1], [9E+09, 9E+09, 9E+09, 9E+09, 9E+09, 9E+09]], v100, z0, tNozzle, \Wobj := wobjFlatPlat;
		MoveJ [[7.405, -1.190, 36.429], [-0.672749, 0.3217429, 0.6296678, -0.2177358], [-1, 1, -2, 1], [9E+09, 9E+09, 9E+09, 9E+09, 9E+09, 9E+09]], v100, z0, tNozzle, \Wobj := wobjFlatPlat;
		MoveJ [[-0.129, -7.499, 25.714], [-0.650937, 0.655578, 0.264986, 0.2761902], [-1, 1, -1, 1], [9E+09, 9E+09, 9E+09, 9E+09, 9E+09, 9E+09]], v100, z0, tNozzle, \Wobj := wobjFlatPlat;
		MoveJ [[-7.441, -0.936, 15.000], [-0.3108968, 0.6689158, -0.2292415, 0.6350931], [-1, 1, -1, 1], [9E+09, 9E+09, 9E+09, 9E+09, 9E+09, 9E+09]], v100, z0, tNozzle, \Wobj := wobjFlatPlat;
		MoveJ [[-7.363, -1.429, 15.000], [-0.3318899, 0.6761842, -0.2068211, 0.624379], [-1, 1, -1, 1], [9E+09, 9E+09, 9E+09, 9E+09, 9E+09, 9E+09]], v100, z0, tNozzle, \Wobj := wobjFlatPlat;
		MoveJ [[0.371, -7.491, 25.714], [-0.6597801, 0.6463826, 0.2866873, 0.2543429], [-1, 1, -2, 1], [9E+09, 9E+09, 9E+09, 9E+09, 9E+09, 9E+09]], v100, z0, tNozzle, \Wobj := wobjFlatPlat;
		MoveJ [[7.468, -0.694, 36.429], [-0.6651187, 0.3005792, 0.6400408, -0.2400357], [-1, 1, -2, 1], [9E+09, 9E+09, 9E+09, 9E+09, 9E+09, 9E+09]], v100, z0, tNozzle, \Wobj := wobjFlatPlat;
		MoveJ [[1.746, 7.294, 47.143], [-0.3452959, -0.1921706, 0.6804928, -0.6170663], [-1, 1, -3, 1], [9E+09, 9E+09, 9E+09, 9E+09, 9E+09, 9E+09]], v100, z0, tNozzle, \Wobj := wobjFlatPlat;
		MoveJ [[-6.973, 2.762, 57.857], [0.1433342, -0.5909725, 0.3882674, -0.6924271], [-1, 1, -4, 1], [9E+09, 9E+09, 9E+09, 9E+09, 9E+09, 9E+09]], v100, z0, tNozzle, \Wobj := wobjFlatPlat;
		MoveJ [[-3.723, -6.511, 68.571], [0.5618915, -0.7008614, -0.0937732, -0.4292761], [-1, 1, -5, 1], [9E+09, 9E+09, 9E+09, 9E+09, 9E+09, 9E+09]], v100, z0, tNozzle, \Wobj := wobjFlatPlat;
		MoveJ [[5.918, -4.608, 79.286], [0.7057528, -0.468115, -0.5299702, 0.0437383], [-1, 1, -6, 1], [9E+09, 9E+09, 9E+09, 9E+09, 9E+09, 9E+09]], v100, z0, tNozzle, \Wobj := wobjFlatPlat;
		MoveJ [[5.400, 5.205, 90.000], [0.5045876, -0.0065179, -0.7070768, 0.49537], [-1, 1, -7, 1], [9E+09, 9E+09, 9E+09, 9E+09, 9E+09, 9E+09]], v100, z0, tNozzle, \Wobj := wobjFlatPlat;
		MoveJ [[5.041, 5.553, 90.000], [0.487798, 0.0170506, -0.7069012, 0.5119113], [-1, 1, -7, 1], [9E+09, 9E+09, 9E+09, 9E+09, 9E+09, 9E+09]], v100, z0, tNozzle, \Wobj := wobjFlatPlat;
		MoveJ [[6.211, -4.203, 79.286], [0.7039031, -0.4501926, -0.5452767, 0.0672347], [-1, 1, -6, 1], [9E+09, 9E+09, 9E+09, 9E+09, 9E+09, 9E+09]], v100, z0, tNozzle, \Wobj := wobjFlatPlat;
		MoveJ [[-3.281, -6.744, 68.571], [0.5758859, -0.6973468, -0.1170788, -0.4103114], [-1, 1, -5, 1], [9E+09, 9E+09, 9E+09, 9E+09, 9E+09, 9E+09]], v100, z0, tNozzle, \Wobj := wobjFlatPlat;
		MoveJ [[-7.141, 2.291, 57.857], [0.1663312, -0.6035841, 0.3683563, -0.6872656], [-1, 1, -4, 1], [9E+09, 9E+09, 9E+09, 9E+09, 9E+09, 9E+09]], v100, z0, tNozzle, \Wobj := wobjFlatPlat;
		MoveJ [[1.256, 7.394, 47.143], [-0.324539, -0.2147427, 0.6737103, -0.6282312], [-1, 1, -3, 1], [9E+09, 9E+09, 9E+09, 9E+09, 9E+09, 9E+09]], v100, z0, tNozzle, \Wobj := wobjFlatPlat;
		MoveJ [[7.497, -0.195, 36.429], [-0.6567495, 0.2790814, 0.6497027, -0.2620689], [-1, 1, -2, 1], [9E+09, 9E+09, 9E+09, 9E+09, 9E+09, 9E+09]], v100, z0, tNozzle, \Wobj := wobjFlatPlat;
		MoveJ [[0.869, -7.449, 25.714], [-0.6678901, 0.636469, 0.3080702, 0.232213], [-1, 1, -2, 1], [9E+09, 9E+09, 9E+09, 9E+09, 9E+09, 9E+09]], v100, z0, tNozzle, \Wobj := wobjFlatPlat;
		MoveJ [[-7.251, -1.917, 15.000], [-0.3525143, 0.6827014, -0.1841709, 0.6129712], [-1, 1, -1, 1], [9E+09, 9E+09, 9E+09, 9E+09, 9E+09, 9E+09]], v100, z0, tNozzle, \Wobj := wobjFlatPlat;
		MoveJ [[-7.107, -2.395, 15.000], [-0.3727471, 0.68846, -0.1613161, 0.6008824], [-1, 1, -1, 1], [9E+09, 9E+09, 9E+09, 9E+09, 9E+09, 9E+09]], v100, z0, tNozzle, \Wobj := wobjFlatPlat;
		MoveJ [[1.364, -7.375, 25.714], [-0.6752581, 0.6258484, 0.3291107, 0.2098251], [-1, 1, -2, 1], [9E+09, 9E+09, 9E+09, 9E+09, 9E+09, 9E+09]], v100, z0, tNozzle, \Wobj := wobjFlatPlat;
		MoveJ [[7.494, 0.305, 36.429], [-0.6476507, 0.2572737, 0.6586428, -0.2838109], [-1, 1, -3, 1], [9E+09, 9E+09, 9E+09, 9E+09, 9E+09, 9E+09]], v100, z0, tNozzle, \Wobj := wobjFlatPlat;
		MoveJ [[0.761, 7.461, 47.143], [-0.3034216, -0.2370763, 0.6661793, -0.6386982], [-1, 1, -3, 1], [9E+09, 9E+09, 9E+09, 9E+09, 9E+09, 9E+09]], v100, z0, tNozzle, \Wobj := wobjFlatPlat;
		MoveJ [[-7.278, 1.811, 57.857], [0.1891434, -0.615525, 0.3480359, -0.6813404], [-1, 1, -4, 1], [9E+09, 9E+09, 9E+09, 9E+09, 9E+09, 9E+09]], v100, z0, tNozzle, \Wobj := wobjFlatPlat;
		MoveJ [[-2.824, -6.948, 68.571], [0.5892405, -0.6930575, -0.1402544, -0.3908908], [-1, 1, -5, 1], [9E+09, 9E+09, 9E+09, 9E+09, 9E+09, 9E+09]], v100, z0, tNozzle, \Wobj := wobjFlatPlat;
		MoveJ [[6.478, -3.780, 79.286], [0.7012713, -0.43177, -0.5599775, 0.0906565], [-1, 1, -6, 1], [9E+09, 9E+09, 9E+09, 9E+09, 9E+09, 9E+09]], v100, z0, tNozzle, \Wobj := wobjFlatPlat;
		MoveJ [[4.660, 5.876, 90.000], [0.4704665, 0.0406002, -0.7059403, 0.5278839], [-1, 1, -7, 1], [9E+09, 9E+09, 9E+09, 9E+09, 9E+09, 9E+09]], v100, z0, tNozzle, \Wobj := wobjFlatPlat;
		MoveJ [[4.259, 6.174, 90.000], [0.4526122, 0.0641046, -0.704195, 0.5432699], [-1, 1, -7, 1], [9E+09, 9E+09, 9E+09, 9E+09, 9E+09, 9E+09]], v100, z0, tNozzle, \Wobj := wobjFlatPlat;
		MoveJ [[6.715, -3.340, 79.286], [0.6978604, -0.4128677, -0.5740561, 0.1139775], [-1, 1, -6, 1], [9E+09, 9E+09, 9E+09, 9E+09, 9E+09, 9E+09]], v100, z0, tNozzle, \Wobj := wobjFlatPlat;
		MoveJ [[-2.355, -7.121, 68.571], [0.6019405, -0.6879983, -0.1632741, -0.371036], [-1, 1, -5, 1], [9E+09, 9E+09, 9E+09, 9E+09, 9E+09, 9E+09]], v100, z0, tNozzle, \Wobj := wobjFlatPlat;
		MoveJ [[-7.383, 1.322, 57.857], [0.2117455, -0.6267821, 0.3273289, -0.6746583], [-1, 1, -4, 1], [9E+09, 9E+09, 9E+09, 9E+09, 9E+09, 9E+09]], v100, z0, tNozzle, \Wobj := wobjFlatPlat;
		MoveJ [[0.262, 7.495, 47.143], [-0.281967, -0.2591465, 0.6579082, -0.6484556], [-1, 1, -3, 1], [9E+09, 9E+09, 9E+09, 9E+09, 9E+09, 9E+09]], v100, z0, tNozzle, \Wobj := wobjFlatPlat;
		MoveJ [[7.457, 0.803, 36.429], [-0.6378323, 0.2351801, 0.6668511, -0.3052376], [-1, 1, -3, 1], [9E+09, 9E+09, 9E+09, 9E+09, 9E+09, 9E+09]], v100, z0, tNozzle, \Wobj := wobjFlatPlat;
		MoveJ [[1.852, -7.268, 25.714], [-0.6818758, 0.6145324, 0.3497857, 0.1872041], [-1, 1, -2, 1], [9E+09, 9E+09, 9E+09, 9E+09, 9E+09, 9E+09]], v100, z0, tNozzle, \Wobj := wobjFlatPlat;
		MoveJ [[-6.932, -2.863, 15.000], [-0.3925657, 0.6934538, -0.1382821, 0.588126], [-1, 1, -1, 1], [9E+09, 9E+09, 9E+09, 9E+09, 9E+09, 9E+09]], v100, z0, tNozzle, \Wobj := wobjFlatPlat;
		MoveJ [[-6.726, -3.319, 15.000], [-0.4119482, 0.6976771, -0.1150944, 0.5747162], [-1, 1, -1, 1], [9E+09, 9E+09, 9E+09, 9E+09, 9E+09, 9E+09]], v100, z0, tNozzle, \Wobj := wobjFlatPlat;
		MoveJ [[2.332, -7.128, 25.714], [-0.687736, 0.6025336, 0.370072, 0.1643751], [-1, 1, -2, 1], [9E+09, 9E+09, 9E+09, 9E+09, 9E+09, 9E+09]], v100, z0, tNozzle, \Wobj := wobjFlatPlat;
		MoveJ [[7.387, 1.298, 36.429], [-0.6273053, 0.2128252, 0.6743185, -0.3263252], [-1, 1, -3, 1], [9E+09, 9E+09, 9E+09, 9E+09, 9E+09, 9E+09]], v100, z0, tNozzle, \Wobj := wobjFlatPlat;
		MoveJ [[-0.238, 7.496, 47.143], [-0.2601992, -0.2809287, 0.6489061, -0.6574925], [-1, 1, -4, 1], [9E+09, 9E+09, 9E+09, 9E+09, 9E+09, 9E+09]], v100, z0, tNozzle, \Wobj := wobjFlatPlat;
		MoveJ [[-7.454, 0.827, 57.857], [0.2341123, -0.6373429, 0.3062582, -0.6672267], [-1, 1, -4, 1], [9E+09, 9E+09, 9E+09, 9E+09, 9E+09, 9E+09]], v100, z0, tNozzle, \Wobj := wobjFlatPlat;
		MoveJ [[-1.875, -7.262, 68.571], [0.6139717, -0.6821746, -0.1861124, -0.3507689], [-1, 1, -5, 1], [9E+09, 9E+09, 9E+09, 9E+09, 9E+09, 9E+09]], v100, z0, tNozzle, \Wobj := wobjFlatPlat;
		MoveJ [[6.923, -2.886, 79.286], [0.6936742, -0.3935066, -0.5874969, 0.1371719], [-1, 1, -6, 1], [9E+09, 9E+09, 9E+09, 9E+09, 9E+09, 9E+09]], v100, z0, tNozzle, \Wobj := wobjFlatPlat;
		MoveJ [[3.838, 6.444, 90.000], [0.4342552, 0.0875378, -0.7016674, 0.5580524], [-1, 1, -7, 1], [9E+09, 9E+09, 9E+09, 9E+09, 9E+09, 9E+09]], v100, z0, tNozzle, \Wobj := wobjFlatPlat;
		MoveJ [[3.400, 6.685, 90.000], [0.4154156, 0.1108738, -0.6983603, 0.5722149], [-1, 1, -7, 1], [9E+09, 9E+09, 9E+09, 9E+09, 9E+09, 9E+09]], v100, z0, tNozzle, \Wobj := wobjFlatPlat;
		MoveJ [[7.099, -2.418, 79.286], [0.6887173, -0.3737084, -0.600285, 0.1602139], [-1, 1, -6, 1], [9E+09, 9E+09, 9E+09, 9E+09, 9E+09, 9E+09]], v100, z0, tNozzle, \Wobj := wobjFlatPlat;
		MoveJ [[-1.387, -7.371, 68.571], [0.6253208, -0.6755931, -0.208744, -0.3301121], [-1, 1, -5, 1], [9E+09, 9E+09, 9E+09, 9E+09, 9E+09, 9E+09]], v100, z0, tNozzle, \Wobj := wobjFlatPlat;
		MoveJ [[-7.493, 0.329, 57.857], [0.2562191, -0.6471956, 0.2848472, -0.6590537], [-1, 1, -4, 1], [9E+09, 9E+09, 9E+09, 9E+09, 9E+09, 9E+09]], v100, z0, tNozzle, \Wobj := wobjFlatPlat;
		MoveJ [[-0.737, 7.464, 47.143], [-0.2381423, -0.3023989, 0.6391831, -0.665799], [-1, 1, -4, 1], [9E+09, 9E+09, 9E+09, 9E+09, 9E+09, 9E+09]], v100, z0, tNozzle, \Wobj := wobjFlatPlat;
		MoveJ [[7.284, 1.787, 36.429], [-0.6160813, 0.1902338, 0.6810368, -0.3470502], [-1, 1, -3, 1], [9E+09, 9E+09, 9E+09, 9E+09, 9E+09, 9E+09]], v100, z0, tNozzle, \Wobj := wobjFlatPlat;
		MoveJ [[2.802, -6.957, 25.714], [-0.6928322, 0.5898655, 0.3899471, 0.1413635], [-1, 1, -2, 1], [9E+09, 9E+09, 9E+09, 9E+09, 9E+09, 9E+09]], v100, z0, tNozzle, \Wobj := wobjFlatPlat;
		MoveJ [[-6.490, -3.760, 15.000], [-0.4308731, 0.7011253, -0.0917789, 0.5606679], [-1, 1, -1, 1], [9E+09, 9E+09, 9E+09, 9E+09, 9E+09, 9E+09]], v100, z0, tNozzle, \Wobj := wobjFlatPlat;
		MoveJ [[-6.225, -4.184, 15.000], [-0.4493192, 0.7037946, -0.0683614, 0.5459966], [-1, 1, -1, 1], [9E+09, 9E+09, 9E+09, 9E+09, 9E+09, 9E+09]], v100, z0, tNozzle, \Wobj := wobjFlatPlat;
		MoveJ [[3.259, -6.755, 25.714], [-0.6971585, 0.576542, 0.4093891, 0.1181949], [-1, 1, -2, 1], [9E+09, 9E+09, 9E+09, 9E+09, 9E+09, 9E+09]], v100, z0, tNozzle, \Wobj := wobjFlatPlat;
		MoveJ [[7.149, 2.269, 36.429], [-0.6041729, 0.1674311, 0.6869985, -0.3673897], [-1, 1, -3, 1], [9E+09, 9E+09, 9E+09, 9E+09, 9E+09, 9E+09]], v100, z0, tNozzle, \Wobj := wobjFlatPlat;
		MoveJ [[-1.232, 7.398, 47.143], [-0.2158208, -0.323533, 0.6287499, -0.6733657], [-1, 1, -4, 1], [9E+09, 9E+09, 9E+09, 9E+09, 9E+09, 9E+09]], v100, z0, tNozzle, \Wobj := wobjFlatPlat;
		MoveJ [[-7.498, -0.171, 57.857], [0.2780411, -0.6563292, 0.2631198, -0.6501486], [-1, 1, -5, 1], [9E+09, 9E+09, 9E+09, 9E+09, 9E+09, 9E+09]], v100, z0, tNozzle, \Wobj := wobjFlatPlat;
		MoveJ [[-0.893, -7.447, 68.571], [0.6359751, -0.6682609, -0.2311436, -0.3090885], [-1, 1, -5, 1], [9E+09, 9E+09, 9E+09, 9E+09, 9E+09, 9E+09]], v100, z0, tNozzle, \Wobj := wobjFlatPlat;
		MoveJ [[7.245, -1.940, 79.286], [0.6829953, -0.3534951, -0.6124062, 0.1830779], [-1, 1, -6, 1], [9E+09, 9E+09, 9E+09, 9E+09, 9E+09, 9E+09]], v100, z0, tNozzle, \Wobj := wobjFlatPlat;
		MoveJ [[2.947, 6.897, 90.000], [0.3961146, 0.1340865, -0.6942772, 0.5857417], [-1, 1, -7, 1], [9E+09, 9E+09, 9E+09, 9E+09, 9E+09, 9E+09]], v100, z0, tNozzle, \Wobj := wobjFlatPlat;
		MoveJ [[2.481, 7.078, 90.000], [0.3763734, 0.1571503, -0.6894228, 0.5986177], [-1, 1, -7, 1], [9E+09, 9E+09, 9E+09, 9E+09, 9E+09, 9E+09]], v100, z0, tNozzle, \Wobj := wobjFlatPlat;
		MoveJ [[7.358, -1.453, 79.286], [0.6765144, -0.3328889, -0.6238469, 0.2057385], [-1, 1, -6, 1], [9E+09, 9E+09, 9E+09, 9E+09, 9E+09, 9E+09]], v100, z0, tNozzle, \Wobj := wobjFlatPlat;
		MoveJ [[-0.395, -7.490, 68.571], [0.6459228, -0.6601864, -0.2532865, -0.2877216], [-1, 1, -5, 1], [9E+09, 9E+09, 9E+09, 9E+09, 9E+09, 9E+09]], v100, z0, tNozzle, \Wobj := wobjFlatPlat;
		MoveJ [[-7.470, -0.670, 57.857], [0.2995543, -0.6647336, 0.2411, -0.6405211], [-1, 1, -5, 1], [9E+09, 9E+09, 9E+09, 9E+09, 9E+09, 9E+09]], v100, z0, tNozzle, \Wobj := wobjFlatPlat;
		MoveJ [[-1.722, 7.300, 47.143], [-0.1932596, -0.3443077, 0.6176182, -0.6801844], [-1, 1, -4, 1], [9E+09, 9E+09, 9E+09, 9E+09, 9E+09, 9E+09]], v100, z0, tNozzle, \Wobj := wobjFlatPlat;
		MoveJ [[6.982, 2.740, 36.429], [-0.5915932, 0.1444424, 0.6921968, -0.3873209], [-1, 1, -3, 1], [9E+09, 9E+09, 9E+09, 9E+09, 9E+09, 9E+09]], v100, z0, tNozzle, \Wobj := wobjFlatPlat;
		MoveJ [[3.702, -6.523, 25.714], [-0.7007104, 0.5625779, 0.4283761, 0.0948949], [-1, 1, -2, 1], [9E+09, 9E+09, 9E+09, 9E+09, 9E+09, 9E+09]], v100, z0, tNozzle, \Wobj := wobjFlatPlat;
		MoveJ [[-5.932, -4.589, 15.000], [-0.4672661, 0.7056819, -0.0448679, 0.5307188], [-1, 1, -1, 1], [9E+09, 9E+09, 9E+09, 9E+09, 9E+09, 9E+09]], v100, z0, tNozzle, \Wobj := wobjFlatPlat;
		MoveJ [[-5.613, -4.974, 15.000], [-0.4846939, 0.7067852, -0.0213246, 0.5148513], [-1, 1, -1, 1], [9E+09, 9E+09, 9E+09, 9E+09, 9E+09, 9E+09]], v100, z0, tNozzle, \Wobj := wobjFlatPlat;
		MoveJ [[4.128, -6.262, 25.714], [-0.7034837, 0.5479889, 0.4468873, 0.0714895], [-1, 1, -2, 1], [9E+09, 9E+09, 9E+09, 9E+09, 9E+09, 9E+09]], v100, z0, tNozzle, \Wobj := wobjFlatPlat;
		MoveJ [[6.784, 3.199, 36.429], [-0.5783563, 0.1212932, 0.6966262, -0.4068219], [-1, 1, -3, 1], [9E+09, 9E+09, 9E+09, 9E+09, 9E+09, 9E+09]], v100, z0, tNozzle, \Wobj := wobjFlatPlat;
		MoveJ [[-2.205, 7.169, 47.143], [-0.1704836, -0.3646999, 0.6058003, -0.6862473], [-1, 1, -4, 1], [9E+09, 9E+09, 9E+09, 9E+09, 9E+09, 9E+09]], v100, z0, tNozzle, \Wobj := wobjFlatPlat;
		MoveJ [[-7.409, -1.167, 57.857], [0.3207346, -0.6723996, 0.2188124, -0.630182], [-1, 1, -5, 1], [9E+09, 9E+09, 9E+09, 9E+09, 9E+09, 9E+09]], v100, z0, tNozzle, \Wobj := wobjFlatPlat;
		MoveJ [[0.105, -7.499, 68.571], [0.655153, -0.6513783, -0.2751479, -0.266035], [-1, 1, -6, 1], [9E+09, 9E+09, 9E+09, 9E+09, 9E+09, 9E+09]], v100, z0, tNozzle, \Wobj := wobjFlatPlat;
		MoveJ [[7.438, -0.959, 79.286], [0.6692819, -0.311913, -0.6345946, 0.2281705], [-1, 1, -6, 1], [9E+09, 9E+09, 9E+09, 9E+09, 9E+09, 9E+09]], v100, z0, tNozzle, \Wobj := wobjFlatPlat;
		MoveJ [[2.004, 7.227, 90.000], [0.3562141, 0.1800395, -0.6838025, 0.6108286], [-1, 1, -7, 1], [9E+09, 9E+09, 9E+09, 9E+09, 9E+09, 9E+09]], v100, z0, tNozzle, \Wobj := wobjFlatPlat;
		MoveJ [[1.518, 7.345, 90.000], [0.3356591, 0.2027287, -0.6774224, 0.6223609], [-1, 1, -7, 1], [9E+09, 9E+09, 9E+09, 9E+09, 9E+09, 9E+09]], v100, z0, tNozzle, \Wobj := wobjFlatPlat;
		MoveJ [[7.486, -0.462, 79.286], [0.6613059, -0.2905905, -0.6446373, 0.250349], [-1, 1, -6, 1], [9E+09, 9E+09, 9E+09, 9E+09, 9E+09, 9E+09]], v100, z0, tNozzle, \Wobj := wobjFlatPlat;
		MoveJ [[0.604, -7.476, 68.571], [0.6636552, -0.6418466, -0.2967036, -0.2440528], [-1, 1, -6, 1], [9E+09, 9E+09, 9E+09, 9E+09, 9E+09, 9E+09]], v100, z0, tNozzle, \Wobj := wobjFlatPlat;
		MoveJ [[-7.315, -1.658, 57.857], [0.3415586, -0.6793184, 0.1962817, -0.6191428], [-1, 1, -5, 1], [9E+09, 9E+09, 9E+09, 9E+09, 9E+09, 9E+09]], v100, z0, tNozzle, \Wobj := wobjFlatPlat;
		MoveJ [[-2.678, 7.006, 47.143], [-0.1475182, -0.384687, 0.5933094, -0.6915478], [-1, 1, -4, 1], [9E+09, 9E+09, 9E+09, 9E+09, 9E+09, 9E+09]], v100, z0, tNozzle, \Wobj := wobjFlatPlat;
		MoveJ [[6.555, 3.644, 36.429], [-0.5644768, 0.0980093, 0.7002815, -0.4258709], [-1, 1, -3, 1], [9E+09, 9E+09, 9E+09, 9E+09, 9E+09, 9E+09]], v100, z0, tNozzle, \Wobj := wobjFlatPlat;
		MoveJ [[4.536, -5.973, 25.714], [-0.7054754, 0.532791, 0.464902, 0.0480047], [-1, 1, -2, 1], [9E+09, 9E+09, 9E+09, 9E+09, 9E+09, 9E+09]], v100, z0, tNozzle, \Wobj := wobjFlatPlat;
		MoveJ [[-5.270, -5.337, 15.000], [-0.5015832, 0.7071033, 0.0022424, 0.4984119], [-1, 1, -1, 1], [9E+09, 9E+09, 9E+09, 9E+09, 9E+09, 9E+09]], v100, z0, tNozzle, \Wobj := wobjFlatPlat;
		MoveJ [[-4.902, -5.676, 15.000], [-0.5179152, 0.7066357, 0.0258069, 0.4814186], [-1, 1, -1, 1], [9E+09, 9E+09, 9E+09, 9E+09, 9E+09, 9E+09]], v100, z0, tNozzle, \Wobj := wobjFlatPlat;
		MoveJ [[4.924, -5.657, 25.714], [-0.7066834, 0.5170011, 0.4824001, 0.0244665], [-1, 1, -2, 1], [9E+09, 9E+09, 9E+09, 9E+09, 9E+09, 9E+09]], v100, z0, tNozzle, \Wobj := wobjFlatPlat;
		MoveJ [[6.298, 4.072, 36.429], [-0.5499701, 0.0746164, 0.7031589, -0.4444467], [-1, 1, -3, 1], [9E+09, 9E+09, 9E+09, 9E+09, 9E+09, 9E+09]], v100, z0, tNozzle, \Wobj := wobjFlatPlat;
		MoveJ [[-3.138, 6.812, 47.143], [-0.124389, -0.4042466, 0.5801592, -0.69608], [-1, 1, -4, 1], [9E+09, 9E+09, 9E+09, 9E+09, 9E+09, 9E+09]], v100, z0, tNozzle, \Wobj := wobjFlatPlat;
		MoveJ [[-7.188, -2.141, 57.857], [0.3620032, -0.6854826, 0.1735329, -0.6074156], [-1, 1, -5, 1], [9E+09, 9E+09, 9E+09, 9E+09, 9E+09, 9E+09]], v100, z0, tNozzle, \Wobj := wobjFlatPlat;
		MoveJ [[1.101, -7.419, 68.571], [0.6714202, -0.6316017, -0.3179297, -0.2217995], [-1, 1, -6, 1], [9E+09, 9E+09, 9E+09, 9E+09, 9E+09, 9E+09]], v100, z0, tNozzle, \Wobj := wobjFlatPlat;
		MoveJ [[7.500, 0.038, 79.286], [0.6525951, -0.2689451, -0.6539637, 0.2722494], [-1, 1, -7, 1], [9E+09, 9E+09, 9E+09, 9E+09, 9E+09, 9E+09]], v100, z0, tNozzle, \Wobj := wobjFlatPlat;
		MoveJ [[1.026, 7.430, 90.000], [0.3147311, 0.2251927, -0.6702897, 0.6332017], [-1, 1, -7, 1], [9E+09, 9E+09, 9E+09, 9E+09, 9E+09, 9E+09]], v100, z0, tNozzle, \Wobj := wobjFlatPlat;
		MoveJ [[0.528, 7.481, 90.000], [0.2934534, 0.2474064, -0.6624123, 0.6433391], [-1, 1, -7, 1], [9E+09, 9E+09, 9E+09, 9E+09, 9E+09, 9E+09]], v100, z0, tNozzle, \Wobj := wobjFlatPlat;
		MoveJ [[7.481, 0.537, 79.286], [0.6431593, -0.2470009, -0.6625636, 0.2938473], [-1, 1, -7, 1], [9E+09, 9E+09, 9E+09, 9E+09, 9E+09, 9E+09]], v100, z0, tNozzle, \Wobj := wobjFlatPlat;
		MoveJ [[1.592, -7.329, 68.571], [0.6784391, -0.6206552, -0.3388026, -0.1992998], [-1, 1, -6, 1], [9E+09, 9E+09, 9E+09, 9E+09, 9E+09, 9E+09]], v100, z0, tNozzle, \Wobj := wobjFlatPlat;
		MoveJ [[-7.029, -2.615, 57.857], [0.3820455, -0.6908852, 0.1505913, -0.5950137], [-1, 1, -5, 1], [9E+09, 9E+09, 9E+09, 9E+09, 9E+09, 9E+09]], v100, z0, tNozzle, \Wobj := wobjFlatPlat;
		MoveJ [[-3.585, 6.588, 47.143], [-0.1011215, -0.4233571, 0.5663646, -0.6998389], [-1, 1, -4, 1], [9E+09, 9E+09, 9E+09, 9E+09, 9E+09, 9E+09]], v100, z0, tNozzle, \Wobj := wobjFlatPlat;
		MoveJ [[6.013, 4.483, 36.429], [-0.5348525, 0.0511407, 0.705255, -0.4625288], [-1, 1, -3, 1], [9E+09, 9E+09, 9E+09, 9E+09, 9E+09, 9E+09]], v100, z0, tNozzle, \Wobj := wobjFlatPlat;
		MoveJ [[5.290, -5.317, 25.714], [-0.7071062, 0.5006369, 0.4993623, 0.0009012], [-1, 1, -2, 1], [9E+09, 9E+09, 9E+09, 9E+09, 9E+09, 9E+09]], v100, z0, tNozzle, \Wobj := wobjFlatPlat;
		MoveJ [[-4.513, -5.990, 15.000], [-0.5336718, 0.7053831, 0.0493427, 0.4638906], [-1, 1, -1, 1], [9E+09, 9E+09, 9E+09, 9E+09, 9E+09, 9E+09]], v100, z0, tNozzle, \Wobj := wobjFlatPlat;
		MoveJ [[-4.104, -6.277, 15.000], [-0.5488355, 0.7033468, 0.0728237, 0.4458471], [-1, 1, -1, 1], [9E+09, 9E+09, 9E+09, 9E+09, 9E+09, 9E+09]], v100, z0, tNozzle, \Wobj := wobjFlatPlat;
		MoveJ [[5.632, -4.953, 25.714], [-0.7067435, 0.4837165, 0.5157697, -0.0226652], [-1, 1, -2, 1], [9E+09, 9E+09, 9E+09, 9E+09, 9E+09, 9E+09]], v100, z0, tNozzle, \Wobj := wobjFlatPlat;
		MoveJ [[5.701, 4.873, 36.429], [-0.5191406, 0.0276081, 0.7065676, -0.4800969], [-1, 1, -3, 1], [9E+09, 9E+09, 9E+09, 9E+09, 9E+09, 9E+09]], v100, z0, tNozzle, \Wobj := wobjFlatPlat;
		MoveJ [[-4.016, 6.334, 47.143], [-0.0777417, -0.4419972, 0.5519407, -0.7028202], [-1, 1, -4, 1], [9E+09, 9E+09, 9E+09, 9E+09, 9E+09, 9E+09]], v100, z0, tNozzle, \Wobj := wobjFlatPlat;
		MoveJ [[-6.839, -3.078, 57.857], [0.4016634, -0.6955202, 0.1274824, -0.5819507], [-1, 1, -5, 1], [9E+09, 9E+09, 9E+09, 9E+09, 9E+09, 9E+09]], v100, z0, tNozzle, \Wobj := wobjFlatPlat;
		MoveJ [[2.077, -7.207, 68.571], [0.6847043, -0.6090191, -0.3592991, -0.1765786], [-1, 1, -6, 1], [9E+09, 9E+09, 9E+09, 9E+09, 9E+09, 9E+09]], v100, z0, tNozzle, \Wobj := wobjFlatPlat;
		MoveJ [[7.428, 1.035, 79.286], [0.6330089, -0.2247824, -0.6704274, 0.3151187], [-1, 1, -7, 1], [9E+09, 9E+09, 9E+09, 9E+09, 9E+09, 9E+09]], v100, z0, tNozzle, \Wobj := wobjFlatPlat;
		MoveJ [[0.029, 7.500, 90.000], [0.2718497, 0.2693453, -0.653799, 0.6527616], [-1, 1, -7, 1], [9E+09, 9E+09, 9E+09, 9E+09, 9E+09, 9E+09]], v100, z0, tNozzle, \Wobj := wobjFlatPlat;
		MoveJ [[-0.471, 7.485, 90.000], [0.249944, 0.290985, -0.6444593, 0.661459], [-1, 1, -8, 1], [9E+09, 9E+09, 9E+09, 9E+09, 9E+09, 9E+09]], v100, z0, tNozzle, \Wobj := wobjFlatPlat;
		MoveJ [[7.343, 1.527, 79.286], [0.6221552, -0.2023141, -0.6775464, 0.3360401], [-1, 1, -7, 1], [9E+09, 9E+09, 9E+09, 9E+09, 9E+09, 9E+09]], v100, z0, tNozzle, \Wobj := wobjFlatPlat;
		MoveJ [[2.553, -7.052, 68.571], [0.6902089, -0.5967063, -0.3793964, -0.1536613], [-1, 1, -6, 1], [9E+09, 9E+09, 9E+09, 9E+09, 9E+09, 9E+09]], v100, z0, tNozzle, \Wobj := wobjFlatPlat;
		MoveJ [[-6.619, -3.526, 57.857], [0.420835, -0.6993824, 0.1042319, -0.5682411], [-1, 1, -5, 1], [9E+09, 9E+09, 9E+09, 9E+09, 9E+09, 9E+09]], v100, z0, tNozzle, \Wobj := wobjFlatPlat;
		MoveJ [[-4.429, 6.053, 47.143], [-0.0542755, -0.4601463, 0.5369036, -0.7050207], [-1, 1, -4, 1], [9E+09, 9E+09, 9E+09, 9E+09, 9E+09, 9E+09]], v100, z0, tNozzle, \Wobj := wobjFlatPlat;
		MoveJ [[5.364, 5.242, 36.429], [-0.502852, 0.0040449, 0.7070952, -0.4971317], [-1, 1, -3, 1], [9E+09, 9E+09, 9E+09, 9E+09, 9E+09, 9E+09]], v100, z0, tNozzle, \Wobj := wobjFlatPlat;
		MoveJ [[5.950, -4.566, 25.714], [-0.7055955, 0.4662586, 0.5316041, -0.0462063], [-1, 1, -2, 1], [9E+09, 9E+09, 9E+09, 9E+09, 9E+09, 9E+09]], v100, z0, tNozzle, \Wobj := wobjFlatPlat;
		MoveJ [[-3.677, -6.537, 15.000], [-0.5633894, 0.7005291, 0.0962238, 0.4273083], [-1, 1, -1, 1], [9E+09, 9E+09, 9E+09, 9E+09, 9E+09, 9E+09]], v100, z0, tNozzle, \Wobj := wobjFlatPlat;
		MoveJ [[-3.233, -6.767, 15.000], [-0.5773174, 0.6969331, 0.119517, 0.4082948], [-1, 1, -1, 1], [9E+09, 9E+09, 9E+09, 9E+09, 9E+09, 9E+09]], v100, z0, tNozzle, \Wobj := wobjFlatPlat;
		MoveJ [[6.241, -4.160, 25.714], [-0.7036636, 0.4482828, 0.5468479, -0.0696961], [-1, 1, -2, 1], [9E+09, 9E+09, 9E+09, 9E+09, 9E+09, 9E+09]], v100, z0, tNozzle, \Wobj := wobjFlatPlat;
		MoveJ [[5.002, 5.588, 36.429], [-0.4860046, -0.0195228, 0.7068373, -0.5136142], [-1, 1, -3, 1], [9E+09, 9E+09, 9E+09, 9E+09, 9E+09, 9E+09]], v100, z0, tNozzle, \Wobj := wobjFlatPlat;
		MoveJ [[-4.822, 5.744, 47.143], [-0.030749, -0.4777842, 0.5212699, -0.7064379], [-1, 1, -4, 1], [9E+09, 9E+09, 9E+09, 9E+09, 9E+09, 9E+09]], v100, z0, tNozzle, \Wobj := wobjFlatPlat;
		MoveJ [[-6.370, -3.960, 57.857], [0.4395391, -0.7024677, 0.0808656, -0.5539002], [-1, 1, -5, 1], [9E+09, 9E+09, 9E+09, 9E+09, 9E+09, 9E+09]], v100, z0, tNozzle, \Wobj := wobjFlatPlat;
		MoveJ [[3.017, -6.867, 68.571], [0.6949465, -0.5837307, -0.3990721, -0.1305732], [-1, 1, -6, 1], [9E+09, 9E+09, 9E+09, 9E+09, 9E+09, 9E+09]], v100, z0, tNozzle, \Wobj := wobjFlatPlat;
		MoveJ [[7.225, 2.013, 79.286], [0.6106104, -0.179621, -0.6839125, 0.356588], [-1, 1, -7, 1], [9E+09, 9E+09, 9E+09, 9E+09, 9E+09, 9E+09]], v100, z0, tNozzle, \Wobj := wobjFlatPlat;
		MoveJ [[-0.969, 7.437, 90.000], [0.2277606, 0.3123013, -0.6344036, 0.6694215], [-1, 1, -8, 1], [9E+09, 9E+09, 9E+09, 9E+09, 9E+09, 9E+09]], v100, z0, tNozzle, \Wobj := wobjFlatPlat;
		MoveJ [[-1.462, 7.356, 90.000], [0.2053242, 0.3332707, -0.6236431, 0.6766402], [-1, 1, -8, 1], [9E+09, 9E+09, 9E+09, 9E+09, 9E+09, 9E+09]], v100, z0, tNozzle, \Wobj := wobjFlatPlat;
		MoveJ [[7.075, 2.490, 79.286], [0.5983871, -0.1567283, -0.6895189, 0.3767399], [-1, 1, -7, 1], [9E+09, 9E+09, 9E+09, 9E+09, 9E+09, 9E+09]], v100, z0, tNozzle, \Wobj := wobjFlatPlat;
		MoveJ [[3.467, -6.650, 68.571], [0.6989121, -0.5701064, -0.4183045, -0.1073401], [-1, 1, -6, 1], [9E+09, 9E+09, 9E+09, 9E+09, 9E+09, 9E+09]], v100, z0, tNozzle, \Wobj := wobjFlatPlat;
		MoveJ [[-6.092, -4.375, 57.857], [0.4577549, -0.7047725, 0.0574094, -0.5389439], [-1, 1, -5, 1], [9E+09, 9E+09, 9E+09, 9E+09, 9E+09, 9E+09]], v100, z0, tNozzle, \Wobj := wobjFlatPlat;
		MoveJ [[-5.194, 5.410, 47.143], [-0.0071883, -0.4948912, 0.5050572, -0.7070703], [-1, 1, -4, 1], [9E+09, 9E+09, 9E+09, 9E+09, 9E+09, 9E+09]], v100, z0, tNozzle, \Wobj := wobjFlatPlat;
		MoveJ [[4.619, 5.909, 36.429], [-0.4686173, -0.0430689, 0.705794, -0.529526], [-1, 1, -3, 1], [9E+09, 9E+09, 9E+09, 9E+09, 9E+09, 9E+09]], v100, z0, tNozzle, \Wobj := wobjFlatPlat;
		MoveJ [[6.504, -3.735, 25.714], [-0.70095, 0.4298089, 0.5614841, -0.0931085], [-1, 1, -2, 1], [9E+09, 9E+09, 9E+09, 9E+09, 9E+09, 9E+09]], v100, z0, tNozzle, \Wobj := wobjFlatPlat;
		MoveJ [[-2.775, -6.968, 15.000], [-0.590604, 0.6925628, 0.1426774, 0.3888276], [-1, 1, -1, 1], [9E+09, 9E+09, 9E+09, 9E+09, 9E+09, 9E+09]], v100, z0, tNozzle, \Wobj := wobjFlatPlat;
		MoveJ [[-2.305, -7.137, 15.000], [-0.6032345, 0.687423, 0.1656793, 0.3689285], [-1, 1, -1, 1], [9E+09, 9E+09, 9E+09, 9E+09, 9E+09, 9E+09]], v100, z0, tNozzle, \Wobj := wobjFlatPlat;
		MoveJ [[6.738, -3.293, 25.714], [-0.6974575, 0.4108574, 0.5754965, -0.1164175], [-1, 1, -2, 1], [9E+09, 9E+09, 9E+09, 9E+09, 9E+09, 9E+09]], v100, z0, tNozzle, \Wobj := wobjFlatPlat;
		MoveJ [[4.215, 6.203, 36.429], [-0.4507094, -0.0665671, 0.7039665, -0.5448496], [-1, 1, -3, 1], [9E+09, 9E+09, 9E+09, 9E+09, 9E+09, 9E+09]], v100, z0, tNozzle, \Wobj := wobjFlatPlat;
		MoveJ [[-5.543, 5.052, 47.143], [0.0163803, -0.5114484, 0.4882833, -0.7069171], [-1, 1, -4, 1], [9E+09, 9E+09, 9E+09, 9E+09, 9E+09, 9E+09]], v100, z0, tNozzle, \Wobj := wobjFlatPlat;
		MoveJ [[-5.787, -4.771, 57.857], [0.4754621, -0.7062942, 0.0338894, -0.5233888], [-1, 1, -5, 1], [9E+09, 9E+09, 9E+09, 9E+09, 9E+09, 9E+09]], v100, z0, tNozzle, \Wobj := wobjFlatPlat;
		MoveJ [[3.903, -6.405, 68.571], [0.7021012, -0.5558488, -0.4370722, -0.0839877], [-1, 1, -6, 1], [9E+09, 9E+09, 9E+09, 9E+09, 9E+09, 9E+09]], v100, z0, tNozzle, \Wobj := wobjFlatPlat;
		MoveJ [[6.893, 2.956, 79.286], [0.585499, -0.1336616, -0.6943592, 0.3964731], [-1, 1, -7, 1], [9E+09, 9E+09, 9E+09, 9E+09, 9E+09, 9E+09]], v100, z0, tNozzle, \Wobj := wobjFlatPlat;
		MoveJ [[-1.949, 7.242, 90.000], [0.1826596, 0.3538698, -0.6121897, 0.6831072], [-1, 1, -8, 1], [9E+09, 9E+09, 9E+09, 9E+09, 9E+09, 9E+09]], v100, z0, tNozzle, \Wobj := wobjFlatPlat;
		MoveJ [[-2.427, 7.097, 90.000], [0.1597922, 0.3740758, -0.6000561, 0.6888153], [-1, 1, -8, 1], [9E+09, 9E+09, 9E+09, 9E+09, 9E+09, 9E+09]], v100, z0, tNozzle, \Wobj := wobjFlatPlat;
		MoveJ [[6.681, 3.408, 79.286], [0.5719605, -0.1104463, -0.698428, 0.4157659], [-1, 1, -7, 1], [9E+09, 9E+09, 9E+09, 9E+09, 9E+09, 9E+09]], v100, z0, tNozzle, \Wobj := wobjFlatPlat;
		MoveJ [[4.321, -6.130, 68.571], [0.7045103, -0.5409737, -0.4553543, -0.060542], [-1, 1, -6, 1], [9E+09, 9E+09, 9E+09, 9E+09, 9E+09, 9E+09]], v100, z0, tNozzle, \Wobj := wobjFlatPlat;
		MoveJ [[-5.456, -5.146, 57.857], [0.492641, -0.7070313, 0.0103318, -0.5072523], [-1, 1, -5, 1], [9E+09, 9E+09, 9E+09, 9E+09, 9E+09, 9E+09]], v100, z0, tNozzle, \Wobj := wobjFlatPlat;
		MoveJ [[-5.867, 4.671, 47.143], [0.0399307, -0.5274374, 0.4709669, -0.7059785], [-1, 1, -4, 1], [9E+09, 9E+09, 9E+09, 9E+09, 9E+09, 9E+09]], v100, z0, tNozzle, \Wobj := wobjFlatPlat;
