MODULE MainModule
	PROC main()
		SetDO DO4_Heat_Nozzle, 1;
		SetDO DO1_Auto_Mode, 1;


		!Layer number 1 of 2
		MoveJ [[19.000, 0.000, 15.000], [0.6532815, -0.2705981, -0.6532815, 0.2705981], [-1, 1, 1, 1], [9E+09, 9E+09, 9E+09, 9E+09, 9E+09, 9E+09]], v30, z0, tNozzle, \Wobj := wobjFlatPlat;
		MoveJ [[9.000, 0.000, 15.000], [0.6532815, -0.2705981, -0.6532815, 0.2705981], [-1, 1, 1, 1], [9E+09, 9E+09, 9E+09, 9E+09, 9E+09, 9E+09]], v30, z0, tNozzle, \Wobj := wobjFlatPlat;
		WaitRob \InPos;
		SetDO DO6_Between_Layer_Retract, 0;
		SetDO DO5_Program_Feed, 1;
		MoveJ [[0.387, 8.992, 28.750], [0.284586, 0.2564849, -0.6589503, 0.6473105], [-1, 1, 1, 1], [9E+09, 9E+09, 9E+09, 9E+09, 9E+09, 9E+09]], v30, z0, tNozzle, \Wobj := wobjFlatPlat;
		MoveJ [[-8.967, 0.773, 42.500], [-0.2422532, 0.64104, -0.2984423, 0.6643143], [-1, 1, 0, 1], [9E+09, 9E+09, 9E+09, 9E+09, 9E+09, 9E+09]], v30, z0, tNozzle, \Wobj := wobjFlatPlat;
		MoveJ [[-1.158, -8.925, 56.250], [-0.6344729, 0.6693709, 0.2279093, 0.3121604], [-1, 1, -1, 1], [9E+09, 9E+09, 9E+09, 9E+09, 9E+09, 9E+09]], v30, z0, tNozzle, \Wobj := wobjFlatPlat;
		MoveJ [[8.867, -1.541, 70.000], [-0.6741178, 0.3257343, 0.6276123, -0.2134601], [-1, 1, -2, 1], [9E+09, 9E+09, 9E+09, 9E+09, 9E+09, 9E+09]], v30, z0, tNozzle, \Wobj := wobjFlatPlat;
		MoveJ [[8.961, -0.840, 70.000], [-0.6652144, 0.3008344, 0.6399209, -0.2397704], [-1, 1, -2, 1], [9E+09, 9E+09, 9E+09, 9E+09, 9E+09, 9E+09]], v30, z0, tNozzle, \Wobj := wobjFlatPlat;
		MoveJ [[-0.454, -8.989, 56.250], [-0.6462431, 0.6599037, 0.254022, 0.2870016], [-1, 1, -1, 1], [9E+09, 9E+09, 9E+09, 9E+09, 9E+09, 9E+09]], v30, z0, tNozzle, \Wobj := wobjFlatPlat;
		MoveJ [[-9.000, 0.067, 42.500], [-0.2681563, 0.6522663, -0.2730361, 0.6542876], [-1, 1, 0, 1], [9E+09, 9E+09, 9E+09, 9E+09, 9E+09, 9E+09]], v30, z0, tNozzle, \Wobj := wobjFlatPlat;
		MoveJ [[-0.320, 8.994, 28.750], [0.2589442, 0.2821664, -0.6483689, 0.6579878], [-1, 1, 0, 1], [9E+09, 9E+09, 9E+09, 9E+09, 9E+09, 9E+09]], v30, z0, tNozzle, \Wobj := wobjFlatPlat;
		MoveJ [[8.972, 0.706, 15.000], [0.6421501, -0.2447326, -0.6634049, 0.2960461], [-1, 1, 1, 1], [9E+09, 9E+09, 9E+09, 9E+09, 9E+09, 9E+09]], v30, z0, tNozzle, \Wobj := wobjFlatPlat;
		MoveJ [[8.889, 1.408, 15.000], [0.6300279, -0.2184895, -0.6725046, 0.3210372], [-1, 1, 1, 1], [9E+09, 9E+09, 9E+09, 9E+09, 9E+09, 9E+09]], v30, z0, tNozzle, \Wobj := wobjFlatPlat;
		MoveJ [[-1.025, 8.941, 28.750], [0.2329029, 0.3074125, -0.636787, 0.6676498], [-1, 1, 0, 1], [9E+09, 9E+09, 9E+09, 9E+09, 9E+09, 9E+09]], v30, z0, tNozzle, \Wobj := wobjFlatPlat;
		MoveJ [[-8.977, -0.639, 42.500], [-0.2936457, 0.6624862, -0.2472086, 0.6432513], [-1, 1, -1, 1], [9E+09, 9E+09, 9E+09, 9E+09, 9E+09, 9E+09]], v30, z0, tNozzle, \Wobj := wobjFlatPlat;
		MoveJ [[0.253, -8.996, 56.250], [-0.6570161, 0.6494182, 0.2797429, 0.2613999], [-1, 1, -2, 1], [9E+09, 9E+09, 9E+09, 9E+09, 9E+09, 9E+09]], v30, z0, tNozzle, \Wobj := wobjFlatPlat;
		MoveJ [[8.999, -0.134, 70.000], [-0.6552845, 0.2754703, 0.651242, -0.2657108], [-1, 1, -2, 1], [9E+09, 9E+09, 9E+09, 9E+09, 9E+09, 9E+09]], v30, z0, tNozzle, \Wobj := wobjFlatPlat;
		MoveJ [[8.982, 0.572, 70.000], [-0.6443436, 0.2496812, 0.6615583, -0.2912412], [-1, 1, -3, 1], [9E+09, 9E+09, 9E+09, 9E+09, 9E+09, 9E+09]], v30, z0, tNozzle, \Wobj := wobjFlatPlat;
		MoveJ [[0.958, -8.949, 56.250], [-0.6667753, 0.6379306, 0.305032, 0.2353948], [-1, 1, -2, 1], [9E+09, 9E+09, 9E+09, 9E+09, 9E+09, 9E+09]], v30, z0, tNozzle, \Wobj := wobjFlatPlat;
		MoveJ [[-8.899, -1.342, 42.500], [-0.3186819, 0.6716839, -0.2209997, 0.6312225], [-1, 1, -1, 1], [9E+09, 9E+09, 9E+09, 9E+09, 9E+09, 9E+09]], v30, z0, tNozzle, \Wobj := wobjFlatPlat;
		MoveJ [[-1.723, 8.833, 28.750], [0.2065021, 0.3321842, -0.6242225, 0.6762817], [-1, 1, 0, 1], [9E+09, 9E+09, 9E+09, 9E+09, 9E+09, 9E+09]], v30, z0, tNozzle, \Wobj := wobjFlatPlat;
		MoveJ [[8.751, 2.102, 15.000], [0.6169335, -0.1919093, -0.6805666, 0.345533], [-1, 1, 1, 1], [9E+09, 9E+09, 9E+09, 9E+09, 9E+09, 9E+09]], v30, z0, tNozzle, \Wobj := wobjFlatPlat;
		MoveJ [[8.559, 2.782, 15.000], [0.6028873, -0.1650329, -0.6875785, 0.3694956], [-1, 1, 1, 1], [9E+09, 9E+09, 9E+09, 9E+09, 9E+09, 9E+09]], v30, z0, tNozzle, \Wobj := wobjFlatPlat;
		MoveJ [[-2.411, 8.671, 28.750], [0.1797828, 0.3564434, -0.6106948, 0.68387], [-1, 1, 0, 1], [9E+09, 9E+09, 9E+09, 9E+09, 9E+09, 9E+09]], v30, z0, tNozzle, \Wobj := wobjFlatPlat;
		MoveJ [[-8.767, -2.036, 42.500], [-0.3432264, 0.6798451, -0.1944497, 0.6182198], [-1, 1, -1, 1], [9E+09, 9E+09, 9E+09, 9E+09, 9E+09, 9E+09]], v30, z0, tNozzle, \Wobj := wobjFlatPlat;
		MoveJ [[1.657, -8.846, 56.250], [-0.6755057, 0.6254588, 0.3298505, 0.2090265], [-1, 1, -2, 1], [9E+09, 9E+09, 9E+09, 9E+09, 9E+09, 9E+09]], v30, z0, tNozzle, \Wobj := wobjFlatPlat;
		MoveJ [[8.909, 1.275, 70.000], [-0.6324084, 0.2235067, 0.6708538, -0.3163222], [-1, 1, -3, 1], [9E+09, 9E+09, 9E+09, 9E+09, 9E+09, 9E+09]], v30, z0, tNozzle, \Wobj := wobjFlatPlat;
		MoveJ [[8.782, 1.971, 70.000], [-0.6194973, 0.1969875, 0.6791141, -0.3409151], [-1, 1, -3, 1], [9E+09, 9E+09, 9E+09, 9E+09, 9E+09, 9E+09]], v30, z0, tNozzle, \Wobj := wobjFlatPlat;
		MoveJ [[2.347, -8.689, 56.250], [-0.6831938, 0.6120218, 0.3541601, 0.1823357], [-1, 1, -2, 1], [9E+09, 9E+09, 9E+09, 9E+09, 9E+09, 9E+09]], v30, z0, tNozzle, \Wobj := wobjFlatPlat;
		MoveJ [[-8.580, -2.718, 42.500], [-0.3672414, 0.6869573, -0.1675997, 0.6042631], [-1, 1, -1, 1], [9E+09, 9E+09, 9E+09, 9E+09, 9E+09, 9E+09]], v30, z0, tNozzle, \Wobj := wobjFlatPlat;
		MoveJ [[-3.085, 8.455, 28.750], [0.1527861, 0.3801526, -0.5962248, 0.6904031], [-1, 1, 0, 1], [9E+09, 9E+09, 9E+09, 9E+09, 9E+09, 9E+09]], v30, z0, tNozzle, \Wobj := wobjFlatPlat;
		MoveJ [[8.314, 3.445, 15.000], [0.5879107, -0.1379019, -0.6935295, 0.3928881], [-1, 1, 1, 1], [9E+09, 9E+09, 9E+09, 9E+09, 9E+09, 9E+09]], v30, z0, tNozzle, \Wobj := wobjFlatPlat;
		MoveJ [[8.018, 4.087, 15.000], [0.572027, -0.1105581, -0.6984103, 0.4156744], [-1, 1, 1, 1], [9E+09, 9E+09, 9E+09, 9E+09, 9E+09, 9E+09]], v30, z0, tNozzle, \Wobj := wobjFlatPlat;
		MoveJ [[-3.739, 8.187, 28.750], [0.1255536, 0.4032752, -0.5808349, 0.6958709], [-1, 1, 0, 1], [9E+09, 9E+09, 9E+09, 9E+09, 9E+09, 9E+09]], v30, z0, tNozzle, \Wobj := wobjFlatPlat;
		MoveJ [[-8.340, -3.383, 42.500], [-0.3906896, 0.6930096, -0.1404911, 0.589374], [-1, 1, -1, 1], [9E+09, 9E+09, 9E+09, 9E+09, 9E+09, 9E+09]], v30, z0, tNozzle, \Wobj := wobjFlatPlat;
		MoveJ [[3.021, -8.478, 56.250], [-0.6898277, 0.5976405, 0.3779231, 0.1553635], [-1, 1, -2, 1], [9E+09, 9E+09, 9E+09, 9E+09, 9E+09, 9E+09]], v30, z0, tNozzle, \Wobj := wobjFlatPlat;
		MoveJ [[8.600, 2.654, 70.000], [-0.6056304, 0.1701642, 0.6863266, -0.364982], [-1, 1, -3, 1], [9E+09, 9E+09, 9E+09, 9E+09, 9E+09, 9E+09]], v30, z0, tNozzle, \Wobj := wobjFlatPlat;
		MoveJ [[8.365, 3.321, 70.000], [-0.590829, 0.1430784, 0.69248, -0.3884857], [-1, 1, -3, 1], [9E+09, 9E+09, 9E+09, 9E+09, 9E+09, 9E+09]], v30, z0, tNozzle, \Wobj := wobjFlatPlat;
		MoveJ [[3.677, -8.214, 56.250], [-0.6953972, 0.582337, 0.4011031, 0.1281517], [-1, 1, -2, 1], [9E+09, 9E+09, 9E+09, 9E+09, 9E+09, 9E+09]], v30, z0, tNozzle, \Wobj := wobjFlatPlat;
		MoveJ [[-8.049, -4.027, 42.500], [-0.413535, 0.6979925, -0.1131658, 0.5735755], [-1, 1, -1, 1], [9E+09, 9E+09, 9E+09, 9E+09, 9E+09, 9E+09]], v30, z0, tNozzle, \Wobj := wobjFlatPlat;
		MoveJ [[-4.370, 7.868, 28.750], [0.0981273, 0.4257756, -0.5645487, 0.700265], [-1, 1, 0, 1], [9E+09, 9E+09, 9E+09, 9E+09, 9E+09, 9E+09]], v30, z0, tNozzle, \Wobj := wobjFlatPlat;
		MoveJ [[7.673, 4.704, 15.000], [0.5552606, -0.0830437, -0.7022135, 0.4378192], [-1, 1, 1, 1], [9E+09, 9E+09, 9E+09, 9E+09, 9E+09, 9E+09]], v30, z0, tNozzle, \Wobj := wobjFlatPlat;
		MoveJ [[7.280, 5.292, 15.000], [0.5376375, -0.0554012, -0.7049332, 0.4592885], [-1, 1, 1, 1], [9E+09, 9E+09, 9E+09, 9E+09, 9E+09, 9E+09]], v30, z0, tNozzle, \Wobj := wobjFlatPlat;
		MoveJ [[-4.974, 7.501, 28.750], [0.0705497, 0.4476189, -0.5473914, 0.7035786], [-1, 1, 0, 1], [9E+09, 9E+09, 9E+09, 9E+09, 9E+09, 9E+09]], v30, z0, tNozzle, \Wobj := wobjFlatPlat;
		MoveJ [[-7.708, -4.647, 42.500], [-0.4357424, 0.7018984, -0.0856658, 0.5568919], [-1, 1, -1, 1], [9E+09, 9E+09, 9E+09, 9E+09, 9E+09, 9E+09]], v30, z0, tNozzle, \Wobj := wobjFlatPlat;
		MoveJ [[4.311, -7.900, 56.250], [-0.6998936, 0.566135, 0.4236641, 0.100742], [-1, 1, -2, 1], [9E+09, 9E+09, 9E+09, 9E+09, 9E+09, 9E+09]], v30, z0, tNozzle, \Wobj := wobjFlatPlat;
		MoveJ [[8.079, 3.967, 70.000], [-0.575116, 0.1157718, 0.697565, -0.4113899], [-1, 1, -3, 1], [9E+09, 9E+09, 9E+09, 9E+09, 9E+09, 9E+09]], v30, z0, tNozzle, \Wobj := wobjFlatPlat;
		MoveJ [[7.742, 4.589, 70.000], [-0.5585155, 0.0882866, 0.7015736, -0.4336594], [-1, 1, -3, 1], [9E+09, 9E+09, 9E+09, 9E+09, 9E+09, 9E+09]], v30, z0, tNozzle, \Wobj := wobjFlatPlat;
		MoveJ [[4.918, -7.538, 56.250], [-0.7033102, 0.5490594, 0.4455714, 0.073177], [-1, 1, -2, 1], [9E+09, 9E+09, 9E+09, 9E+09, 9E+09, 9E+09]], v30, z0, tNozzle, \Wobj := wobjFlatPlat;
		MoveJ [[-7.319, -5.237, 42.500], [-0.4572773, 0.7047213, -0.0580336, 0.5393491], [-1, 1, -1, 1], [9E+09, 9E+09, 9E+09, 9E+09, 9E+09, 9E+09]], v30, z0, tNozzle, \Wobj := wobjFlatPlat;
		MoveJ [[-5.547, 7.087, 28.750], [0.0428632, 0.4687716, -0.5293895, 0.7058065], [-1, 1, 0, 1], [9E+09, 9E+09, 9E+09, 9E+09, 9E+09, 9E+09]], v30, z0, tNozzle, \Wobj := wobjFlatPlat;
		MoveJ [[6.842, 5.847, 15.000], [0.5191848, -0.0276732, -0.7065651, 0.4800492], [-1, 1, 1, 1], [9E+09, 9E+09, 9E+09, 9E+09, 9E+09, 9E+09]], v30, z0, tNozzle, \Wobj := wobjFlatPlat;
		MoveJ [[6.362, 6.366, 15.000], [0.499931, 9.76e-05, -0.7071068, 0.5000691], [-1, 1, 1, 1], [9E+09, 9E+09, 9E+09, 9E+09, 9E+09, 9E+09]], v30, z0, tNozzle, \Wobj := wobjFlatPlat;
		MoveJ [[-6.086, 6.630, 28.750], [0.0151106, 0.489201, -0.5105707, 0.7069453], [-1, 1, 0, 1], [9E+09, 9E+09, 9E+09, 9E+09, 9E+09, 9E+09]], v30, z0, tNozzle, \Wobj := wobjFlatPlat;
		MoveJ [[-6.886, -5.795, 42.500], [-0.4781067, 0.7064568, -0.0303119, 0.5209741], [-1, 1, -1, 1], [9E+09, 9E+09, 9E+09, 9E+09, 9E+09, 9E+09]], v30, z0, tNozzle, \Wobj := wobjFlatPlat;
		MoveJ [[5.494, -7.129, 56.250], [-0.7056415, 0.5311366, 0.4667912, 0.045499], [-1, 1, -2, 1], [9E+09, 9E+09, 9E+09, 9E+09, 9E+09, 9E+09]], v30, z0, tNozzle, \Wobj := wobjFlatPlat;
		MoveJ [[7.358, 5.182, 70.000], [-0.5410532, 0.0606652, 0.7044997, -0.4552598], [-1, 1, -3, 1], [9E+09, 9E+09, 9E+09, 9E+09, 9E+09, 9E+09]], v30, z0, tNozzle, \Wobj := wobjFlatPlat;
		MoveJ [[6.929, 5.744, 70.000], [-0.5227561, 0.0329501, 0.7063387, -0.4761577], [-1, 1, -3, 1], [9E+09, 9E+09, 9E+09, 9E+09, 9E+09, 9E+09]], v30, z0, tNozzle, \Wobj := wobjFlatPlat;
		MoveJ [[6.037, -6.675, 56.250], [-0.706884, 0.5123942, 0.4872907, 0.0177508], [-1, 1, -2, 1], [9E+09, 9E+09, 9E+09, 9E+09, 9E+09, 9E+09]], v30, z0, tNozzle, \Wobj := wobjFlatPlat;
		MoveJ [[-6.410, -6.318, 42.500], [-0.4981984, 0.7071022, -0.0025434, 0.5017952], [-1, 1, -1, 1], [9E+09, 9E+09, 9E+09, 9E+09, 9E+09, 9E+09]], v30, z0, tNozzle, \Wobj := wobjFlatPlat;
		MoveJ [[-6.588, 6.132, 28.750], [-0.0126654, 0.5088755, -0.4909641, 0.7069934], [-1, 1, 0, 1], [9E+09, 9E+09, 9E+09, 9E+09, 9E+09, 9E+09]], v30, z0, tNozzle, \Wobj := wobjFlatPlat;
		MoveJ [[5.843, 6.845, 15.000], [0.4799058, 0.0278681, -0.7065574, 0.5193173], [-1, 1, 1, 1], [9E+09, 9E+09, 9E+09, 9E+09, 9E+09, 9E+09]], v30, z0, tNozzle, \Wobj := wobjFlatPlat;
		MoveJ [[5.288, 7.283, 15.000], [0.4591401, 0.0555957, -0.7049178, 0.5377643], [-1, 1, 1, 1], [9E+09, 9E+09, 9E+09, 9E+09, 9E+09, 9E+09]], v30, z0, tNozzle, \Wobj := wobjFlatPlat;
		MoveJ [[-7.049, 5.596, 28.750], [-0.0404218, 0.5277649, -0.4705999, 0.7059505], [-1, 1, 0, 1], [9E+09, 9E+09, 9E+09, 9E+09, 9E+09, 9E+09]], v30, z0, tNozzle, \Wobj := wobjFlatPlat;
		MoveJ [[-5.894, -6.802, 42.500], [-0.5175214, 0.7066566, 0.025229, 0.481842], [-1, 1, -1, 1], [9E+09, 9E+09, 9E+09, 9E+09, 9E+09, 9E+09]], v30, z0, tNozzle, \Wobj := wobjFlatPlat;
		MoveJ [[6.542, -6.181, 56.250], [-0.7070358, 0.4928612, 0.5070383, -0.0100248], [-1, 1, -2, 1], [9E+09, 9E+09, 9E+09, 9E+09, 9E+09, 9E+09]], v30, z0, tNozzle, \Wobj := wobjFlatPlat;
		MoveJ [[6.457, 6.270, 70.000], [-0.5036524, 0.0051843, 0.7070878, -0.4963208], [-1, 1, -3, 1], [9E+09, 9E+09, 9E+09, 9E+09, 9E+09, 9E+09]], v30, z0, tNozzle, \Wobj := wobjFlatPlat;
		MoveJ [[5.945, 6.757, 70.000], [-0.4837715, -0.0225896, 0.7067459, -0.5157181], [-1, 1, -3, 1], [9E+09, 9E+09, 9E+09, 9E+09, 9E+09, 9E+09]], v30, z0, tNozzle, \Wobj := wobjFlatPlat;
		MoveJ [[7.007, -5.648, 56.250], [-0.7060966, 0.4725678, 0.5260036, -0.0377849], [-1, 1, -2, 1], [9E+09, 9E+09, 9E+09, 9E+09, 9E+09, 9E+09]], v30, z0, tNozzle, \Wobj := wobjFlatPlat;
		MoveJ [[-5.342, -7.243, 42.500], [-0.5360458, 0.7051206, 0.0529625, 0.4611453], [-1, 1, -1, 1], [9E+09, 9E+09, 9E+09, 9E+09, 9E+09, 9E+09]], v30, z0, tNozzle, \Wobj := wobjFlatPlat;
		MoveJ [[-7.466, 5.025, 28.750], [-0.0681158, 0.5458398, -0.4495096, 0.7038184], [-1, 1, 0, 1], [9E+09, 9E+09, 9E+09, 9E+09, 9E+09, 9E+09]], v30, z0, tNozzle, \Wobj := wobjFlatPlat;
		MoveJ [[4.700, 7.675, 15.000], [0.4376659, 0.0832374, -0.7021906, 0.5553815], [-1, 1, 1, 1], [9E+09, 9E+09, 9E+09, 9E+09, 9E+09, 9E+09]], v30, z0, tNozzle, \Wobj := wobjFlatPlat;
		MoveJ [[4.083, 8.021, 15.000], [0.4155164, 0.1107508, -0.6983798, 0.5721418], [-1, 1, 1, 1], [9E+09, 9E+09, 9E+09, 9E+09, 9E+09, 9E+09]], v30, z0, tNozzle, \Wobj := wobjFlatPlat;
		MoveJ [[-7.838, 4.424, 28.750], [-0.0957048, 0.5630726, -0.4277257, 0.7006002], [-1, 1, 0, 1], [9E+09, 9E+09, 9E+09, 9E+09, 9E+09, 9E+09]], v30, z0, tNozzle, \Wobj := wobjFlatPlat;
		MoveJ [[-4.757, -7.640, 42.500], [-0.553743, 0.7024965, 0.0806143, 0.4397371], [-1, 1, -1, 1], [9E+09, 9E+09, 9E+09, 9E+09, 9E+09, 9E+09]], v30, z0, tNozzle, \Wobj := wobjFlatPlat;
		MoveJ [[7.428, -5.081, 56.250], [-0.7040679, 0.4515451, 0.5441572, -0.0654867], [-1, 1, -2, 1], [9E+09, 9E+09, 9E+09, 9E+09, 9E+09, 9E+09]], v30, z0, tNozzle, \Wobj := wobjFlatPlat;
		MoveJ [[5.396, 7.203, 70.000], [-0.4631441, -0.0503287, 0.7053135, -0.5343197], [-1, 1, -3, 1], [9E+09, 9E+09, 9E+09, 9E+09, 9E+09, 9E+09]], v30, z0, tNozzle, \Wobj := wobjFlatPlat;
		MoveJ [[4.814, 7.604, 70.000], [-0.4418022, -0.07799, 0.7027927, -0.5520968], [-1, 1, -3, 1], [9E+09, 9E+09, 9E+09, 9E+09, 9E+09, 9E+09]], v30, z0, tNozzle, \Wobj := wobjFlatPlat;
		MoveJ [[7.804, -4.482, 56.250], [-0.7009528, 0.4298257, 0.5614712, -0.0930875], [-1, 1, -2, 1], [9E+09, 9E+09, 9E+09, 9E+09, 9E+09, 9E+09]], v30, z0, tNozzle, \Wobj := wobjFlatPlat;
		MoveJ [[-4.143, -7.990, 42.500], [-0.5705859, 0.6987885, 0.1081417, 0.4176503], [-1, 1, -1, 1], [9E+09, 9E+09, 9E+09, 9E+09, 9E+09, 9E+09]], v30, z0, tNozzle, \Wobj := wobjFlatPlat;
		MoveJ [[-8.161, 3.795, 28.750], [-0.123146, 0.5794365, -0.4052818, 0.696301], [-1, 1, 0, 1], [9E+09, 9E+09, 9E+09, 9E+09, 9E+09, 9E+09]], v30, z0, tNozzle, \Wobj := wobjFlatPlat;
		MoveJ [[3.441, 8.316, 15.000], [0.3927257, 0.1380932, -0.6934914, 0.5880192], [-1, 1, 1, 1], [9E+09, 9E+09, 9E+09, 9E+09, 9E+09, 9E+09]], v30, z0, tNozzle, \Wobj := wobjFlatPlat;
		MoveJ [[2.777, 8.561, 15.000], [0.3693291, 0.1652226, -0.6875329, 0.6029893], [-1, 1, 1, 1], [9E+09, 9E+09, 9E+09, 9E+09, 9E+09, 9E+09]], v30, z0, tNozzle, \Wobj := wobjFlatPlat;
		MoveJ [[-8.433, 3.143, 28.750], [-0.1503973, 0.5949064, -0.3822126, 0.6909274], [-1, 1, 0, 1], [9E+09, 9E+09, 9E+09, 9E+09, 9E+09, 9E+09]], v30, z0, tNozzle, \Wobj := wobjFlatPlat;
		MoveJ [[-3.503, -8.290, 42.500], [-0.5865483, 0.6940023, 0.1355022, 0.3949192], [-1, 1, -1, 1], [9E+09, 9E+09, 9E+09, 9E+09, 9E+09, 9E+09]], v30, z0, tNozzle, \Wobj := wobjFlatPlat;
		MoveJ [[8.132, -3.856, 56.250], [-0.6967561, 0.4074431, 0.5779188, -0.1205446], [-1, 1, -2, 1], [9E+09, 9E+09, 9E+09, 9E+09, 9E+09, 9E+09]], v30, z0, tNozzle, \Wobj := wobjFlatPlat;
		MoveJ [[4.202, 7.959, 70.000], [-0.4197785, -0.1055311, 0.6991876, -0.569022], [-1, 1, -3, 1], [9E+09, 9E+09, 9E+09, 9E+09, 9E+09, 9E+09]], v30, z0, tNozzle, \Wobj := wobjFlatPlat;
		MoveJ [[3.565, 8.264, 70.000], [-0.3971071, -0.1329093, 0.6945035, -0.5850693], [-1, 1, -3, 1], [9E+09, 9E+09, 9E+09, 9E+09, 9E+09, 9E+09]], v30, z0, tNozzle, \Wobj := wobjFlatPlat;
		MoveJ [[8.410, -3.206, 56.250], [-0.6914843, 0.3844318, 0.5934747, -0.1478157], [-1, 1, -2, 1], [9E+09, 9E+09, 9E+09, 9E+09, 9E+09, 9E+09]], v30, z0, tNozzle, \Wobj := wobjFlatPlat;
		MoveJ [[-2.841, -8.540, 42.500], [-0.6016057, 0.6881452, 0.1626536, 0.3715786], [-1, 1, -1, 1], [9E+09, 9E+09, 9E+09, 9E+09, 9E+09, 9E+09]], v30, z0, tNozzle, \Wobj := wobjFlatPlat;
		MoveJ [[-8.654, 2.471, 28.750], [-0.1774164, 0.6094582, -0.3585536, 0.6844877], [-1, 1, 0, 1], [9E+09, 9E+09, 9E+09, 9E+09, 9E+09, 9E+09]], v30, z0, tNozzle, \Wobj := wobjFlatPlat;
		MoveJ [[2.097, 8.752, 15.000], [0.3453626, 0.192097, -0.6805136, 0.6170289], [-1, 1, 1, 1], [9E+09, 9E+09, 9E+09, 9E+09, 9E+09, 9E+09]], v30, z0, tNozzle, \Wobj := wobjFlatPlat;
		MoveJ [[1.403, 8.890, 15.000], [0.3208632, 0.2186751, -0.6724443, 0.6301165], [-1, 1, 1, 1], [9E+09, 9E+09, 9E+09, 9E+09, 9E+09, 9E+09]], v30, z0, tNozzle, \Wobj := wobjFlatPlat;
		MoveJ [[-8.821, 1.785, 28.750], [-0.2041619, 0.6230697, -0.3343414, 0.6769919], [-1, 1, 0, 1], [9E+09, 9E+09, 9E+09, 9E+09, 9E+09, 9E+09]], v30, z0, tNozzle, \Wobj := wobjFlatPlat;
		MoveJ [[-2.162, -8.736, 42.500], [-0.6157348, 0.6812263, 0.1895541, 0.3476647], [-1, 1, -1, 1], [9E+09, 9E+09, 9E+09, 9E+09, 9E+09, 9E+09]], v30, z0, tNozzle, \Wobj := wobjFlatPlat;
		MoveJ [[8.635, -2.536, 56.250], [-0.6851456, 0.3608273, 0.6081149, -0.1748588], [-1, 1, -2, 1], [9E+09, 9E+09, 9E+09, 9E+09, 9E+09, 9E+09]], v30, z0, tNozzle, \Wobj := wobjFlatPlat;
		MoveJ [[2.905, 8.518, 70.000], [-0.3738229, -0.1600824, 0.6887479, -0.6002137], [-1, 1, -3, 1], [9E+09, 9E+09, 9E+09, 9E+09, 9E+09, 9E+09]], v30, z0, tNozzle, \Wobj := wobjFlatPlat;
		MoveJ [[2.227, 8.720, 70.000], [-0.3499619, -0.1870085, 0.6819295, -0.614432], [-1, 1, -3, 1], [9E+09, 9E+09, 9E+09, 9E+09, 9E+09, 9E+09]], v30, z0, tNozzle, \Wobj := wobjFlatPlat;
		MoveJ [[8.808, -1.850, 56.250], [-0.6777496, 0.3366661, 0.6218167, -0.201632], [-1, 1, -2, 1], [9E+09, 9E+09, 9E+09, 9E+09, 9E+09, 9E+09]], v30, z0, tNozzle, \Wobj := wobjFlatPlat;
		MoveJ [[-1.470, -8.879, 42.500], [-0.6289138, 0.6732563, 0.2161621, 0.3232143], [-1, 1, -1, 1], [9E+09, 9E+09, 9E+09, 9E+09, 9E+09, 9E+09]], v30, z0, tNozzle, \Wobj := wobjFlatPlat;
		MoveJ [[-8.934, 1.087, 28.750], [-0.2305923, 0.6357198, -0.3096132, 0.6684514], [-1, 1, 0, 1], [9E+09, 9E+09, 9E+09, 9E+09, 9E+09, 9E+09]], v30, z0, tNozzle, \Wobj := wobjFlatPlat;
		MoveJ [[0.701, 8.973, 15.000], [0.2958687, 0.2449157, -0.6633373, 0.6422319], [-1, 1, 1, 1], [9E+09, 9E+09, 9E+09, 9E+09, 9E+09, 9E+09]], v30, z0, tNozzle, \Wobj := wobjFlatPlat;
		MoveJ [[-0.005, 9.000, 15.000], [0.2704177, 0.2707783, -0.6532068, 0.6533562], [-1, 1, 0, 1], [9E+09, 9E+09, 9E+09, 9E+09, 9E+09, 9E+09]], v30, z0, tNozzle, \Wobj := wobjFlatPlat;
		MoveJ [[-8.992, 0.382, 28.750], [-0.2566669, 0.647389, -0.2844073, 0.6588795], [-1, 1, 0, 1], [9E+09, 9E+09, 9E+09, 9E+09, 9E+09, 9E+09]], v30, z0, tNozzle, \Wobj := wobjFlatPlat;
		MoveJ [[-0.768, -8.967, 42.500], [-0.6411224, 0.6642474, 0.2424365, 0.2982653], [-1, 1, -1, 1], [9E+09, 9E+09, 9E+09, 9E+09, 9E+09, 9E+09]], v30, z0, tNozzle, \Wobj := wobjFlatPlat;
		MoveJ [[8.926, -1.153, 56.250], [-0.6693079, 0.3119854, 0.634559, -0.2280941], [-1, 1, -2, 1], [9E+09, 9E+09, 9E+09, 9E+09, 9E+09, 9E+09]], v30, z0, tNozzle, \Wobj := wobjFlatPlat;
		MoveJ [[1.536, 8.868, 70.000], [-0.325561, -0.2136461, 0.6740589, -0.6277022], [-1, 1, -3, 1], [9E+09, 9E+09, 9E+09, 9E+09, 9E+09, 9E+09]], v30, z0, tNozzle, \Wobj := wobjFlatPlat;
		MoveJ [[0.835, 8.961, 70.000], [-0.3006577, -0.239954, 0.6651482, -0.6400039], [-1, 1, -3, 1], [9E+09, 9E+09, 9E+09, 9E+09, 9E+09, 9E+09]], v30, z0, tNozzle, \Wobj := wobjFlatPlat;
		MoveJ [[8.989, -0.449, 56.250], [-0.6598335, 0.2868232, 0.6463223, -0.2542043], [-1, 1, -2, 1], [9E+09, 9E+09, 9E+09, 9E+09, 9E+09, 9E+09]], v30, z0, tNozzle, \Wobj := wobjFlatPlat;
		MoveJ [[-0.062, -9.000, 42.500], [-0.6523417, 0.6542136, 0.2683368, 0.272856], [-1, 1, -1, 1], [9E+09, 9E+09, 9E+09, 9E+09, 9E+09, 9E+09]], v30, z0, tNozzle, \Wobj := wobjFlatPlat;
		MoveJ [[-8.994, -0.325, 28.750], [-0.2823454, 0.6580592, -0.2587626, 0.6482909], [-1, 1, -1, 1], [9E+09, 9E+09, 9E+09, 9E+09, 9E+09, 9E+09]], v30, z0, tNozzle, \Wobj := wobjFlatPlat;
		MoveJ [[-0.711, 8.972, 15.000], [0.2445494, 0.2962232, -0.6420684, 0.6634724], [-1, 1, 0, 1], [9E+09, 9E+09, 9E+09, 9E+09, 9E+09, 9E+09]], v30, z0, tNozzle, \Wobj := wobjFlatPlat;
		MoveJ [[-1.413, 8.888, 15.000], [0.2183038, 0.321211, -0.6299393, 0.6725649], [-1, 1, 0, 1], [9E+09, 9E+09, 9E+09, 9E+09, 9E+09, 9E+09]], v30, z0, tNozzle, \Wobj := wobjFlatPlat;
		MoveJ [[-8.941, -1.030, 28.750], [-0.3075883, 0.6677141, -0.2327186, 0.636702], [-1, 1, -1, 1], [9E+09, 9E+09, 9E+09, 9E+09, 9E+09, 9E+09]], v30, z0, tNozzle, \Wobj := wobjFlatPlat;
		MoveJ [[0.644, -8.977, 42.500], [-0.6625544, 0.6431703, 0.2938231, 0.2470257], [-1, 1, -2, 1], [9E+09, 9E+09, 9E+09, 9E+09, 9E+09, 9E+09]], v30, z0, tNozzle, \Wobj := wobjFlatPlat;
		MoveJ [[8.996, 0.258, 56.250], [-0.6493409, 0.2612186, 0.6570882, -0.2799222], [-1, 1, -3, 1], [9E+09, 9E+09, 9E+09, 9E+09, 9E+09, 9E+09]], v30, z0, tNozzle, \Wobj := wobjFlatPlat;
		MoveJ [[0.129, 8.999, 70.000], [-0.2752905, -0.2658916, 0.6552112, -0.6513181], [-1, 1, -3, 1], [9E+09, 9E+09, 9E+09, 9E+09, 9E+09, 9E+09]], v30, z0, tNozzle, \Wobj := wobjFlatPlat;
		MoveJ [[-0.577, 8.981, 70.000], [-0.2494985, -0.291419, 0.6442632, -0.6616272], [-1, 1, -4, 1], [9E+09, 9E+09, 9E+09, 9E+09, 9E+09, 9E+09]], v30, z0, tNozzle, \Wobj := wobjFlatPlat;
		MoveJ [[8.948, 0.963, 56.250], [-0.6378464, 0.2352108, 0.6668403, -0.3052082], [-1, 1, -3, 1], [9E+09, 9E+09, 9E+09, 9E+09, 9E+09, 9E+09]], v30, z0, tNozzle, \Wobj := wobjFlatPlat;
		MoveJ [[1.347, -8.899, 42.500], [-0.6717449, 0.6311346, 0.3188561, 0.2208142], [-1, 1, -2, 1], [9E+09, 9E+09, 9E+09, 9E+09, 9E+09, 9E+09]], v30, z0, tNozzle, \Wobj := wobjFlatPlat;
		MoveJ [[-8.832, -1.728, 28.750], [-0.3323566, 0.6763386, -0.2063155, 0.6241307], [-1, 1, -1, 1], [9E+09, 9E+09, 9E+09, 9E+09, 9E+09, 9E+09]], v30, z0, tNozzle, \Wobj := wobjFlatPlat;
		MoveJ [[-2.107, 8.750, 15.000], [0.1917213, 0.3457032, -0.6168382, 0.6806196], [-1, 1, 0, 1], [9E+09, 9E+09, 9E+09, 9E+09, 9E+09, 9E+09]], v30, z0, tNozzle, \Wobj := wobjFlatPlat;
		MoveJ [[-2.787, 8.558, 15.000], [0.164843, 0.369662, -0.6027853, 0.687624], [-1, 1, 0, 1], [9E+09, 9E+09, 9E+09, 9E+09, 9E+09, 9E+09]], v30, z0, tNozzle, \Wobj := wobjFlatPlat;
		MoveJ [[-8.670, -2.416, 28.750], [-0.356612, 0.6839196, -0.1795941, 0.6105964], [-1, 1, -1, 1], [9E+09, 9E+09, 9E+09, 9E+09, 9E+09, 9E+09]], v30, z0, tNozzle, \Wobj := wobjFlatPlat;
		MoveJ [[2.041, -8.765, 42.500], [-0.6798988, 0.618125, 0.343397, 0.194262], [-1, 1, -2, 1], [9E+09, 9E+09, 9E+09, 9E+09, 9E+09, 9E+09]], v30, z0, tNozzle, \Wobj := wobjFlatPlat;
		MoveJ [[8.845, 1.662, 56.250], [-0.6253677, 0.2088401, 0.6755634, -0.3300232], [-1, 1, -3, 1], [9E+09, 9E+09, 9E+09, 9E+09, 9E+09, 9E+09]], v30, z0, tNozzle, \Wobj := wobjFlatPlat;
		MoveJ [[-1.280, 8.908, 70.000], [-0.2233215, -0.3164967, 0.632321, -0.6709155], [-1, 1, -4, 1], [9E+09, 9E+09, 9E+09, 9E+09, 9E+09, 9E+09]], v30, z0, tNozzle, \Wobj := wobjFlatPlat;
		MoveJ [[-1.976, 8.780, 70.000], [-0.1967999, -0.341086, 0.6194032, -0.6791685], [-1, 1, -4, 1], [9E+09, 9E+09, 9E+09, 9E+09, 9E+09, 9E+09]], v30, z0, tNozzle, \Wobj := wobjFlatPlat;
		MoveJ [[8.687, 2.351, 56.250], [-0.611924, 0.1821472, 0.6832441, -0.3543291], [-1, 1, -3, 1], [9E+09, 9E+09, 9E+09, 9E+09, 9E+09, 9E+09]], v30, z0, tNozzle, \Wobj := wobjFlatPlat;
		MoveJ [[2.723, -8.578, 42.500], [-0.6870036, 0.6041617, 0.3674081, 0.16741], [-1, 1, -2, 1], [9E+09, 9E+09, 9E+09, 9E+09, 9E+09, 9E+09]], v30, z0, tNozzle, \Wobj := wobjFlatPlat;
		MoveJ [[-8.453, -3.089, 28.750], [-0.3803172, 0.6904453, -0.1525956, 0.5961198], [-1, 1, -1, 1], [9E+09, 9E+09, 9E+09, 9E+09, 9E+09, 9E+09]], v30, z0, tNozzle, \Wobj := wobjFlatPlat;
		MoveJ [[-3.450, 8.313, 15.000], [0.1377104, 0.3930503, -0.5878023, 0.6935675], [-1, 1, 0, 1], [9E+09, 9E+09, 9E+09, 9E+09, 9E+09, 9E+09]], v30, z0, tNozzle, \Wobj := wobjFlatPlat;
		MoveJ [[-4.092, 8.016, 15.000], [0.1103652, 0.4158322, -0.5719123, 0.6984408], [-1, 1, 0, 1], [9E+09, 9E+09, 9E+09, 9E+09, 9E+09, 9E+09]], v30, z0, tNozzle, \Wobj := wobjFlatPlat;
		MoveJ [[-8.185, -3.743, 28.750], [-0.4034356, 0.6959055, -0.1253616, 0.5807235], [-1, 1, -1, 1], [9E+09, 9E+09, 9E+09, 9E+09, 9E+09, 9E+09]], v30, z0, tNozzle, \Wobj := wobjFlatPlat;
		MoveJ [[3.388, -8.338, 42.500], [-0.6930484, 0.5892661, 0.3908522, 0.1402997], [-1, 1, -2, 1], [9E+09, 9E+09, 9E+09, 9E+09, 9E+09, 9E+09]], v30, z0, tNozzle, \Wobj := wobjFlatPlat;
		MoveJ [[8.476, 3.026, 56.250], [-0.5975361, 0.1551732, 0.6898705, -0.3780882], [-1, 1, -3, 1], [9E+09, 9E+09, 9E+09, 9E+09, 9E+09, 9E+09]], v30, z0, tNozzle, \Wobj := wobjFlatPlat;
		MoveJ [[-2.659, 8.598, 70.000], [-0.1699747, -0.3651491, 0.6055297, -0.6863736], [-1, 1, -4, 1], [9E+09, 9E+09, 9E+09, 9E+09, 9E+09, 9E+09]], v30, z0, tNozzle, \Wobj := wobjFlatPlat;
		MoveJ [[-3.325, 8.363, 70.000], [-0.1428872, -0.3886487, 0.5907218, -0.6925195], [-1, 1, -4, 1], [9E+09, 9E+09, 9E+09, 9E+09, 9E+09, 9E+09]], v30, z0, tNozzle, \Wobj := wobjFlatPlat;
		MoveJ [[8.212, 3.682, 56.250], [-0.5822262, 0.1279598, 0.6954325, -0.4012639], [-1, 1, -3, 1], [9E+09, 9E+09, 9E+09, 9E+09, 9E+09, 9E+09]], v30, z0, tNozzle, \Wobj := wobjFlatPlat;
		MoveJ [[4.032, -8.046, 42.500], [-0.6980237, 0.5734613, 0.4136933, 0.112973], [-1, 1, -2, 1], [9E+09, 9E+09, 9E+09, 9E+09, 9E+09, 9E+09]], v30, z0, tNozzle, \Wobj := wobjFlatPlat;
		MoveJ [[-7.866, -4.374, 28.750], [-0.4259314, 0.7002921, -0.0979341, 0.5644311], [-1, 1, -1, 1], [9E+09, 9E+09, 9E+09, 9E+09, 9E+09, 9E+09]], v30, z0, tNozzle, \Wobj := wobjFlatPlat;
		MoveJ [[-4.708, 7.670, 15.000], [0.0828498, 0.4379724, -0.5551398, 0.7022364], [-1, 1, 0, 1], [9E+09, 9E+09, 9E+09, 9E+09, 9E+09, 9E+09]], v30, z0, tNozzle, \Wobj := wobjFlatPlat;
		MoveJ [[-5.296, 7.277, 15.000], [0.0552065, 0.4594369, -0.5375108, 0.7049484], [-1, 1, 0, 1], [9E+09, 9E+09, 9E+09, 9E+09, 9E+09, 9E+09]], v30, z0, tNozzle, \Wobj := wobjFlatPlat;
		MoveJ [[-7.498, -4.978, 28.750], [-0.4477701, 0.703598, -0.0703556, 0.5472678], [-1, 1, -1, 1], [9E+09, 9E+09, 9E+09, 9E+09, 9E+09, 9E+09]], v30, z0, tNozzle, \Wobj := wobjFlatPlat;
		MoveJ [[4.651, -7.705, 42.500], [-0.7019221, 0.5567717, 0.435896, 0.0854719], [-1, 1, -2, 1], [9E+09, 9E+09, 9E+09, 9E+09, 9E+09, 9E+09]], v30, z0, tNozzle, \Wobj := wobjFlatPlat;
		MoveJ [[7.898, 4.315, 56.250], [-0.5660179, 0.1005489, 0.6999214, -0.4238204], [-1, 1, -3, 1], [9E+09, 9E+09, 9E+09, 9E+09, 9E+09, 9E+09]], v30, z0, tNozzle, \Wobj := wobjFlatPlat;
		MoveJ [[-3.971, 8.076, 70.000], [-0.1155792, -0.4115486, 0.5750024, -0.6975969], [-1, 1, -4, 1], [9E+09, 9E+09, 9E+09, 9E+09, 9E+09, 9E+09]], v30, z0, tNozzle, \Wobj := wobjFlatPlat;
		MoveJ [[-4.593, 7.740, 70.000], [-0.0880929, -0.4338135, 0.5583958, -0.701598], [-1, 1, -4, 1], [9E+09, 9E+09, 9E+09, 9E+09, 9E+09, 9E+09]], v30, z0, tNozzle, \Wobj := wobjFlatPlat;
		MoveJ [[7.535, 4.922, 56.250], [-0.5489363, 0.0729829, 0.7033303, -0.445723], [-1, 1, -3, 1], [9E+09, 9E+09, 9E+09, 9E+09, 9E+09, 9E+09]], v30, z0, tNozzle, \Wobj := wobjFlatPlat;
		MoveJ [[5.241, -7.316, 42.500], [-0.7047373, 0.5392229, 0.4574262, 0.057839], [-1, 1, -2, 1], [9E+09, 9E+09, 9E+09, 9E+09, 9E+09, 9E+09]], v30, z0, tNozzle, \Wobj := wobjFlatPlat;
		MoveJ [[-7.084, -5.551, 28.750], [-0.4689178, 0.7058183, -0.0426685, 0.52926], [-1, 1, -1, 1], [9E+09, 9E+09, 9E+09, 9E+09, 9E+09, 9E+09]], v30, z0, tNozzle, \Wobj := wobjFlatPlat;
		MoveJ [[-5.851, 6.839, 15.000], [0.027478, 0.4801924, -0.5190523, 0.7065727], [-1, 1, 0, 1], [9E+09, 9E+09, 9E+09, 9E+09, 9E+09, 9E+09]], v30, z0, tNozzle, \Wobj := wobjFlatPlat;
		MoveJ [[-6.369, 6.359, 15.000], [-0.0002928, 0.500207, -0.499793, 0.7071068], [-1, 1, 0, 1], [9E+09, 9E+09, 9E+09, 9E+09, 9E+09, 9E+09]], v30, z0, tNozzle, \Wobj := wobjFlatPlat;
		MoveJ [[-6.627, -6.090, 28.750], [-0.489342, 0.7069495, -0.0149155, 0.5104356], [-1, 1, -1, 1], [9E+09, 9E+09, 9E+09, 9E+09, 9E+09, 9E+09]], v30, z0, tNozzle, \Wobj := wobjFlatPlat;
		MoveJ [[5.799, -6.882, 42.500], [-0.7064652, 0.5208421, 0.4782505, 0.0301168], [-1, 1, -2, 1], [9E+09, 9E+09, 9E+09, 9E+09, 9E+09, 9E+09]], v30, z0, tNozzle, \Wobj := wobjFlatPlat;
		MoveJ [[7.126, 5.498, 56.250], [-0.5310076, 0.0453043, 0.705654, -0.4669378], [-1, 1, -3, 1], [9E+09, 9E+09, 9E+09, 9E+09, 9E+09, 9E+09]], v30, z0, tNozzle, \Wobj := wobjFlatPlat;
		MoveJ [[-5.186, 7.355, 70.000], [-0.0604706, -0.4554091, 0.5409276, -0.7045164], [-1, 1, -4, 1], [9E+09, 9E+09, 9E+09, 9E+09, 9E+09, 9E+09]], v30, z0, tNozzle, \Wobj := wobjFlatPlat;
		MoveJ [[-5.748, 6.926, 70.000], [-0.0327551, -0.4763019, 0.5226247, -0.7063478], [-1, 1, -4, 1], [9E+09, 9E+09, 9E+09, 9E+09, 9E+09, 9E+09]], v30, z0, tNozzle, \Wobj := wobjFlatPlat;
		MoveJ [[6.672, 6.040, 56.250], [-0.5122596, 0.0175557, 0.7068888, -0.4874322], [-1, 1, -3, 1], [9E+09, 9E+09, 9E+09, 9E+09, 9E+09, 9E+09]], v30, z0, tNozzle, \Wobj := wobjFlatPlat;
		MoveJ [[6.322, -6.406, 42.500], [-0.7071029, 0.5016577, 0.4983369, 0.0023481], [-1, 1, -2, 1], [9E+09, 9E+09, 9E+09, 9E+09, 9E+09, 9E+09]], v30, z0, tNozzle, \Wobj := wobjFlatPlat;
		MoveJ [[-6.128, -6.591, 28.750], [-0.5090111, 0.7069899, 0.0128605, 0.4908235], [-1, 1, -1, 1], [9E+09, 9E+09, 9E+09, 9E+09, 9E+09, 9E+09]], v30, z0, tNozzle, \Wobj := wobjFlatPlat;
		MoveJ [[-6.849, 5.839, 15.000], [-0.0280632, 0.5194497, -0.4797625, 0.7065497], [-1, 1, 0, 1], [9E+09, 9E+09, 9E+09, 9E+09, 9E+09, 9E+09]], v30, z0, tNozzle, \Wobj := wobjFlatPlat;
		MoveJ [[-7.286, 5.284, 15.000], [-0.0557903, 0.537891, -0.4589917, 0.7049025], [-1, 1, 0, 1], [9E+09, 9E+09, 9E+09, 9E+09, 9E+09, 9E+09]], v30, z0, tNozzle, \Wobj := wobjFlatPlat;
		MoveJ [[-5.592, -7.052, 28.750], [-0.5278948, 0.7059393, 0.0406166, 0.4704542], [-1, 1, -1, 1], [9E+09, 9E+09, 9E+09, 9E+09, 9E+09, 9E+09]], v30, z0, tNozzle, \Wobj := wobjFlatPlat;
		MoveJ [[6.805, -5.890, 42.500], [-0.7066496, 0.4816992, 0.5176543, -0.0254242], [-1, 1, -2, 1], [9E+09, 9E+09, 9E+09, 9E+09, 9E+09, 9E+09]], v30, z0, tNozzle, \Wobj := wobjFlatPlat;
		MoveJ [[6.177, 6.545, 56.250], [-0.4927212, -0.0102199, 0.707033, -0.5071744], [-1, 1, -3, 1], [9E+09, 9E+09, 9E+09, 9E+09, 9E+09, 9E+09]], v30, z0, tNozzle, \Wobj := wobjFlatPlat;
		MoveJ [[-6.274, 6.453, 70.000], [-0.004989, -0.4964598, 0.5035154, -0.7070892], [-1, 1, -4, 1], [9E+09, 9E+09, 9E+09, 9E+09, 9E+09, 9E+09]], v30, z0, tNozzle, \Wobj := wobjFlatPlat;
		MoveJ [[-6.761, 5.941, 70.000], [0.0227848, -0.5158516, 0.4836292, -0.7067396], [-1, 1, -4, 1], [9E+09, 9E+09, 9E+09, 9E+09, 9E+09, 9E+09]], v30, z0, tNozzle, \Wobj := wobjFlatPlat;
		MoveJ [[5.645, 7.010, 56.250], [-0.4724225, -0.0379797, 0.7060861, -0.5261341], [-1, 1, -3, 1], [9E+09, 9E+09, 9E+09, 9E+09, 9E+09, 9E+09]], v30, z0, tNozzle, \Wobj := wobjFlatPlat;
		MoveJ [[7.246, -5.338, 42.500], [-0.7051059, 0.4609974, 0.536173, -0.0531573], [-1, 1, -2, 1], [9E+09, 9E+09, 9E+09, 9E+09, 9E+09, 9E+09]], v30, z0, tNozzle, \Wobj := wobjFlatPlat;
		MoveJ [[-5.021, -7.469, 28.750], [-0.545964, 0.7037995, 0.06831, 0.4493589], [-1, 1, -1, 1], [9E+09, 9E+09, 9E+09, 9E+09, 9E+09, 9E+09]], v30, z0, tNozzle, \Wobj := wobjFlatPlat;
		MoveJ [[-7.678, 4.695, 15.000], [-0.0834314, 0.5555023, -0.4375126, 0.7021675], [-1, 1, 0, 1], [9E+09, 9E+09, 9E+09, 9E+09, 9E+09, 9E+09]], v30, z0, tNozzle, \Wobj := wobjFlatPlat;
		MoveJ [[-8.023, 4.078, 15.000], [-0.1109436, 0.5722564, -0.4153585, 0.6983492], [-1, 1, 0, 1], [9E+09, 9E+09, 9E+09, 9E+09, 9E+09, 9E+09]], v30, z0, tNozzle, \Wobj := wobjFlatPlat;
		MoveJ [[-4.420, -7.840, 28.750], [-0.5631907, 0.7005738, 0.0958981, 0.4275702], [-1, 1, -1, 1], [9E+09, 9E+09, 9E+09, 9E+09, 9E+09, 9E+09]], v30, z0, tNozzle, \Wobj := wobjFlatPlat;
		MoveJ [[7.643, -4.753, 42.500], [-0.7024742, 0.4395843, 0.5538643, -0.0808083], [-1, 1, -2, 1], [9E+09, 9E+09, 9E+09, 9E+09, 9E+09, 9E+09]], v30, z0, tNozzle, \Wobj := wobjFlatPlat;
		MoveJ [[5.077, 7.431, 56.250], [-0.4513948, -0.065681, 0.7040498, -0.5442819], [-1, 1, -3, 1], [9E+09, 9E+09, 9E+09, 9E+09, 9E+09, 9E+09]], v30, z0, tNozzle, \Wobj := wobjFlatPlat;
		MoveJ [[-7.206, 5.392, 70.000], [0.0505234, -0.5344475, 0.4629967, -0.7052995], [-1, 1, -4, 1], [9E+09, 9E+09, 9E+09, 9E+09, 9E+09, 9E+09]], v30, z0, tNozzle, \Wobj := wobjFlatPlat;
		MoveJ [[-7.607, 4.810, 70.000], [0.0781841, -0.5522187, 0.4416498, -0.7027712], [-1, 1, -4, 1], [9E+09, 9E+09, 9E+09, 9E+09, 9E+09, 9E+09]], v30, z0, tNozzle, \Wobj := wobjFlatPlat;
		MoveJ [[4.478, 7.807, 56.250], [-0.4296707, -0.0932809, 0.700927, -0.5615899], [-1, 1, -3, 1], [9E+09, 9E+09, 9E+09, 9E+09, 9E+09, 9E+09]], v30, z0, tNozzle, \Wobj := wobjFlatPlat;
		MoveJ [[7.992, -4.138, 42.500], [-0.6987587, 0.4174929, 0.5707011, -0.1083346], [-1, 1, -2, 1], [9E+09, 9E+09, 9E+09, 9E+09, 9E+09, 9E+09]], v30, z0, tNozzle, \Wobj := wobjFlatPlat;
		MoveJ [[-3.791, -8.163, 28.750], [-0.5795484, 0.696267, 0.1233381, 0.4051218], [-1, 1, -1, 1], [9E+09, 9E+09, 9E+09, 9E+09, 9E+09, 9E+09]], v30, z0, tNozzle, \Wobj := wobjFlatPlat;
		MoveJ [[-8.318, 3.436, 15.000], [-0.1382847, 0.5881275, -0.3925635, 0.6934532], [-1, 1, 0, 1], [9E+09, 9E+09, 9E+09, 9E+09, 9E+09, 9E+09]], v30, z0, tNozzle, \Wobj := wobjFlatPlat;
		MoveJ [[-8.562, 2.773, 15.000], [-0.1654125, 0.6030912, -0.3691627, 0.6874873], [-1, 1, 0, 1], [9E+09, 9E+09, 9E+09, 9E+09, 9E+09, 9E+09]], v30, z0, tNozzle, \Wobj := wobjFlatPlat;
		MoveJ [[-3.138, -8.435, 28.750], [-0.5950119, 0.6908859, 0.1505879, 0.3820483], [-1, 1, -1, 1], [9E+09, 9E+09, 9E+09, 9E+09, 9E+09, 9E+09]], v30, z0, tNozzle, \Wobj := wobjFlatPlat;
		MoveJ [[8.292, -3.498, 42.500], [-0.6939649, 0.3947573, 0.5866573, -0.1356938], [-1, 1, -2, 1], [9E+09, 9E+09, 9E+09, 9E+09, 9E+09, 9E+09]], v30, z0, tNozzle, \Wobj := wobjFlatPlat;
		MoveJ [[3.852, 8.134, 56.250], [-0.4072835, -0.1207368, 0.6967228, -0.5780313], [-1, 1, -3, 1], [9E+09, 9E+09, 9E+09, 9E+09, 9E+09, 9E+09]], v30, z0, tNozzle, \Wobj := wobjFlatPlat;
		MoveJ [[-7.961, 4.198, 70.000], [0.1057241, -0.5691379, 0.4196214, -0.6991584], [-1, 1, -4, 1], [9E+09, 9E+09, 9E+09, 9E+09, 9E+09, 9E+09]], v30, z0, tNozzle, \Wobj := wobjFlatPlat;
		MoveJ [[-8.266, 3.560, 70.000], [0.1331011, -0.5851788, 0.3969456, -0.6944668], [-1, 1, -4, 1], [9E+09, 9E+09, 9E+09, 9E+09, 9E+09, 9E+09]], v30, z0, tNozzle, \Wobj := wobjFlatPlat;
		MoveJ [[3.201, 8.411, 56.250], [-0.3842679, -0.1480065, 0.6914435, -0.5935808], [-1, 1, -3, 1], [9E+09, 9E+09, 9E+09, 9E+09, 9E+09, 9E+09]], v30, z0, tNozzle, \Wobj := wobjFlatPlat;
		MoveJ [[8.541, -2.837, 42.500], [-0.6881003, 0.3714126, 0.6017082, -0.1628437], [-1, 1, -2, 1], [9E+09, 9E+09, 9E+09, 9E+09, 9E+09, 9E+09]], v30, z0, tNozzle, \Wobj := wobjFlatPlat;
		MoveJ [[-2.467, -8.655, 28.750], [-0.6095572, 0.6844388, 0.1776053, 0.3583853], [-1, 1, -1, 1], [9E+09, 9E+09, 9E+09, 9E+09, 9E+09, 9E+09]], v30, z0, tNozzle, \Wobj := wobjFlatPlat;
		MoveJ [[-8.753, 2.092, 15.000], [-0.1922849, 0.6171242, -0.3451923, 0.6804605], [-1, 1, 0, 1], [9E+09, 9E+09, 9E+09, 9E+09, 9E+09, 9E+09]], v30, z0, tNozzle, \Wobj := wobjFlatPlat;
		MoveJ [[-8.891, 1.399, 15.000], [-0.2188607, 0.630205, -0.3206893, 0.6723838], [-1, 1, 0, 1], [9E+09, 9E+09, 9E+09, 9E+09, 9E+09, 9E+09]], v30, z0, tNozzle, \Wobj := wobjFlatPlat;
		MoveJ [[-1.780, -8.822, 28.750], [-0.623162, 0.6769355, 0.2043487, 0.3341693], [-1, 1, -1, 1], [9E+09, 9E+09, 9E+09, 9E+09, 9E+09, 9E+09]], v30, z0, tNozzle, \Wobj := wobjFlatPlat;
		MoveJ [[8.738, -2.157, 42.500], [-0.6811739, 0.3474948, 0.6158307, -0.1897422], [-1, 1, -2, 1], [9E+09, 9E+09, 9E+09, 9E+09, 9E+09, 9E+09]], v30, z0, tNozzle, \Wobj := wobjFlatPlat;
		MoveJ [[2.531, 8.637, 56.250], [-0.3606594, -0.1750478, 0.6850973, -0.6082145], [-1, 1, -3, 1], [9E+09, 9E+09, 9E+09, 9E+09, 9E+09, 9E+09]], v30, z0, tNozzle, \Wobj := wobjFlatPlat;
		MoveJ [[-8.520, 2.900, 70.000], [0.1602726, -0.6003168, 0.3736573, -0.6887037], [-1, 1, -4, 1], [9E+09, 9E+09, 9E+09, 9E+09, 9E+09, 9E+09]], v30, z0, tNozzle, \Wobj := wobjFlatPlat;
		MoveJ [[-8.721, 2.223, 70.000], [0.1871968, -0.6145285, 0.3497924, -0.6818779], [-1, 1, -4, 1], [9E+09, 9E+09, 9E+09, 9E+09, 9E+09, 9E+09]], v30, z0, tNozzle, \Wobj := wobjFlatPlat;
		MoveJ [[1.845, 8.809, 56.250], [-0.3364944, -0.201819, 0.677694, -0.6219096], [-1, 1, -3, 1], [9E+09, 9E+09, 9E+09, 9E+09, 9E+09, 9E+09]], v30, z0, tNozzle, \Wobj := wobjFlatPlat;
		MoveJ [[8.880, -1.465, 42.500], [-0.6731966, 0.3230408, 0.6290029, -0.216348], [-1, 1, -2, 1], [9E+09, 9E+09, 9E+09, 9E+09, 9E+09, 9E+09]], v30, z0, tNozzle, \Wobj := wobjFlatPlat;
		MoveJ [[-1.082, -8.935, 28.750], [-0.6358053, 0.6683877, 0.2307767, 0.3094377], [-1, 1, -1, 1], [9E+09, 9E+09, 9E+09, 9E+09, 9E+09, 9E+09]], v30, z0, tNozzle, \Wobj := wobjFlatPlat;
		MoveJ [[-8.973, 0.696, 15.000], [-0.2450988, 0.6423135, -0.2956915, 0.6632696], [-1, 1, 0, 1], [9E+09, 9E+09, 9E+09, 9E+09, 9E+09, 9E+09]], v30, z0, tNozzle, \Wobj := wobjFlatPlat;
		MoveJ [[-9.000, -0.010, 15.000], [-0.2709587, 0.6534308, -0.2702374, 0.653132], [-1, 1, -1, 1], [9E+09, 9E+09, 9E+09, 9E+09, 9E+09, 9E+09]], v30, z0, tNozzle, \Wobj := wobjFlatPlat;
		MoveJ [[-0.377, -8.992, 28.750], [-0.6474675, 0.6588086, 0.2568487, 0.2842286], [-1, 1, -1, 1], [9E+09, 9E+09, 9E+09, 9E+09, 9E+09, 9E+09]], v30, z0, tNozzle, \Wobj := wobjFlatPlat;
		MoveJ [[8.968, -0.763, 42.500], [-0.6641804, 0.2980884, 0.6412046, -0.2426199], [-1, 1, -2, 1], [9E+09, 9E+09, 9E+09, 9E+09, 9E+09, 9E+09]], v30, z0, tNozzle, \Wobj := wobjFlatPlat;
		MoveJ [[1.148, 8.926, 56.250], [-0.3118101, -0.2282788, 0.669245, -0.6346452], [-1, 1, -3, 1], [9E+09, 9E+09, 9E+09, 9E+09, 9E+09, 9E+09]], v30, z0, tNozzle, \Wobj := wobjFlatPlat;
		MoveJ [[-8.869, 1.531, 70.000], [0.2138322, -0.627792, 0.3253878, -0.6739999], [-1, 1, -4, 1], [9E+09, 9E+09, 9E+09, 9E+09, 9E+09, 9E+09]], v30, z0, tNozzle, \Wobj := wobjFlatPlat;
		MoveJ [[-8.962, 0.830, 70.000], [0.2401376, -0.6400868, 0.3004811, -0.6650819], [-1, 1, -4, 1], [9E+09, 9E+09, 9E+09, 9E+09, 9E+09, 9E+09]], v30, z0, tNozzle, \Wobj := wobjFlatPlat;
		MoveJ [[0.444, 8.989, 56.250], [-0.2866448, -0.2543863, 0.6597633, -0.6464015], [-1, 1, -3, 1], [9E+09, 9E+09, 9E+09, 9E+09, 9E+09, 9E+09]], v30, z0, tNozzle, \Wobj := wobjFlatPlat;
		MoveJ [[9.000, -0.057, 42.500], [-0.6541394, 0.272676, 0.6524169, -0.2685175], [-1, 1, -2, 1], [9E+09, 9E+09, 9E+09, 9E+09, 9E+09, 9E+09]], v30, z0, tNozzle, \Wobj := wobjFlatPlat;
		MoveJ [[0.330, -8.994, 28.750], [-0.6581307, 0.648213, 0.2825243, 0.2585809], [-1, 1, -2, 1], [9E+09, 9E+09, 9E+09, 9E+09, 9E+09, 9E+09]], v30, z0, tNozzle, \Wobj := wobjFlatPlat;
		MoveJ [[-8.971, -0.716, 15.000], [-0.2964005, 0.6635399, -0.2443663, 0.6419866], [-1, 1, -1, 1], [9E+09, 9E+09, 9E+09, 9E+09, 9E+09, 9E+09]], v30, z0, tNozzle, \Wobj := wobjFlatPlat;
		MoveJ [[-8.888, -1.418, 15.000], [-0.321385, 0.6726251, -0.2181182, 0.6298506], [-1, 1, -1, 1], [9E+09, 9E+09, 9E+09, 9E+09, 9E+09, 9E+09]], v30, z0, tNozzle, \Wobj := wobjFlatPlat;
		MoveJ [[1.035, -8.940, 28.750], [-0.6677783, 0.6366171, 0.307764, 0.2325342], [-1, 1, -2, 1], [9E+09, 9E+09, 9E+09, 9E+09, 9E+09, 9E+09]], v30, z0, tNozzle, \Wobj := wobjFlatPlat;
		MoveJ [[8.977, 0.649, 42.500], [-0.6430891, 0.2468428, 0.6626226, -0.2940007], [-1, 1, -3, 1], [9E+09, 9E+09, 9E+09, 9E+09, 9E+09, 9E+09]], v30, z0, tNozzle, \Wobj := wobjFlatPlat;
		MoveJ [[-0.263, 8.996, 56.250], [-0.2610371, -0.2801014, 0.6492636, -0.6571603], [-1, 1, -4, 1], [9E+09, 9E+09, 9E+09, 9E+09, 9E+09, 9E+09]], v30, z0, tNozzle, \Wobj := wobjFlatPlat;
		MoveJ [[-8.999, 0.125, 70.000], [0.2660725, -0.651394, 0.2751107, -0.6551377], [-1, 1, -4, 1], [9E+09, 9E+09, 9E+09, 9E+09, 9E+09, 9E+09]], v30, z0, tNozzle, \Wobj := wobjFlatPlat;
		MoveJ [[-8.981, -0.582, 70.000], [0.2915969, -0.661696, 0.2493159, -0.6441827], [-1, 1, -5, 1], [9E+09, 9E+09, 9E+09, 9E+09, 9E+09, 9E+09]], v30, z0, tNozzle, \Wobj := wobjFlatPlat;
		MoveJ [[-0.968, 8.948, 56.250], [-0.2350266, -0.3053842, 0.6377621, -0.6669052], [-1, 1, -4, 1], [9E+09, 9E+09, 9E+09, 9E+09, 9E+09, 9E+09]], v30, z0, tNozzle, \Wobj := wobjFlatPlat;
		MoveJ [[8.898, 1.352, 42.500], [-0.6310465, 0.2206288, 0.6718058, -0.3190304], [-1, 1, -3, 1], [9E+09, 9E+09, 9E+09, 9E+09, 9E+09, 9E+09]], v30, z0, tNozzle, \Wobj := wobjFlatPlat;
		MoveJ [[1.733, -8.832, 28.750], [-0.6763956, 0.624039, 0.3325288, 0.2061288], [-1, 1, -2, 1], [9E+09, 9E+09, 9E+09, 9E+09, 9E+09, 9E+09]], v30, z0, tNozzle, \Wobj := wobjFlatPlat;
		MoveJ [[-8.749, -2.111, 15.000], [-0.3458735, 0.6806724, -0.1915335, 0.6167427], [-1, 1, -1, 1], [9E+09, 9E+09, 9E+09, 9E+09, 9E+09, 9E+09]], v30, z0, tNozzle, \Wobj := wobjFlatPlat;
		MoveJ [[-8.556, -2.792, 15.000], [-0.3698284, 0.6876695, -0.1646533, 0.6026832], [-1, 1, -1, 1], [9E+09, 9E+09, 9E+09, 9E+09, 9E+09, 9E+09]], v30, z0, tNozzle, \Wobj := wobjFlatPlat;
		MoveJ [[2.421, -8.668, 28.750], [-0.6839692, 0.6104979, 0.3567805, 0.1794052], [-1, 1, -2, 1], [9E+09, 9E+09, 9E+09, 9E+09, 9E+09, 9E+09]], v30, z0, tNozzle, \Wobj := wobjFlatPlat;
		MoveJ [[8.764, 2.046, 42.500], [-0.6180302, 0.1940744, 0.6799523, -0.3435677], [-1, 1, -3, 1], [9E+09, 9E+09, 9E+09, 9E+09, 9E+09, 9E+09]], v30, z0, tNozzle, \Wobj := wobjFlatPlat;
		MoveJ [[-1.667, 8.844, 56.250], [-0.2086535, -0.3301958, 0.6252766, -0.675621], [-1, 1, -4, 1], [9E+09, 9E+09, 9E+09, 9E+09, 9E+09, 9E+09]], v30, z0, tNozzle, \Wobj := wobjFlatPlat;
		MoveJ [[-8.908, -1.285, 70.000], [0.3166713, -0.6709771, 0.2231364, -0.6322336], [-1, 1, -5, 1], [9E+09, 9E+09, 9E+09, 9E+09, 9E+09, 9E+09]], v30, z0, tNozzle, \Wobj := wobjFlatPlat;
		MoveJ [[-8.779, -1.980, 70.000], [0.3412571, -0.6792228, 0.1966125, -0.619309], [-1, 1, -5, 1], [9E+09, 9E+09, 9E+09, 9E+09, 9E+09, 9E+09]], v30, z0, tNozzle, \Wobj := wobjFlatPlat;
		MoveJ [[-2.356, 8.686, 56.250], [-0.1819585, -0.3544979, 0.6118262, -0.6832943], [-1, 1, -4, 1], [9E+09, 9E+09, 9E+09, 9E+09, 9E+09, 9E+09]], v30, z0, tNozzle, \Wobj := wobjFlatPlat;
		MoveJ [[8.577, 2.728, 42.500], [-0.6040602, 0.1672204, 0.6870498, -0.3675749], [-1, 1, -3, 1], [9E+09, 9E+09, 9E+09, 9E+09, 9E+09, 9E+09]], v30, z0, tNozzle, \Wobj := wobjFlatPlat;
		MoveJ [[3.094, -8.452, 28.750], [-0.6904874, 0.5960149, 0.3804817, 0.1524049], [-1, 1, -2, 1], [9E+09, 9E+09, 9E+09, 9E+09, 9E+09, 9E+09]], v30, z0, tNozzle, \Wobj := wobjFlatPlat;
		MoveJ [[-8.311, -3.454, 15.000], [-0.3932126, 0.6936055, -0.137519, 0.5876937], [-1, 1, -1, 1], [9E+09, 9E+09, 9E+09, 9E+09, 9E+09, 9E+09]], v30, z0, tNozzle, \Wobj := wobjFlatPlat;
		MoveJ [[-8.014, -4.096, 15.000], [-0.4159901, 0.6984712, -0.1101725, 0.5717974], [-1, 1, -1, 1], [9E+09, 9E+09, 9E+09, 9E+09, 9E+09, 9E+09]], v30, z0, tNozzle, \Wobj := wobjFlatPlat;
		MoveJ [[3.748, -8.183, 28.750], [-0.6959401, 0.5806122, 0.4035958, 0.1251694], [-1, 1, -2, 1], [9E+09, 9E+09, 9E+09, 9E+09, 9E+09, 9E+09]], v30, z0, tNozzle, \Wobj := wobjFlatPlat;
		MoveJ [[8.336, 3.392, 42.500], [-0.5891582, 0.1401085, 0.693087, -0.3910149], [-1, 1, -3, 1], [9E+09, 9E+09, 9E+09, 9E+09, 9E+09, 9E+09]], v30, z0, tNozzle, \Wobj := wobjFlatPlat;
		MoveJ [[-3.031, 8.474, 56.250], [-0.1549827, -0.378253, 0.5974317, -0.6899133], [-1, 1, -4, 1], [9E+09, 9E+09, 9E+09, 9E+09, 9E+09, 9E+09]], v30, z0, tNozzle, \Wobj := wobjFlatPlat;
		MoveJ [[-8.597, -2.663, 70.000], [0.3653163, -0.6864204, 0.1697853, -0.6054288], [-1, 1, -5, 1], [9E+09, 9E+09, 9E+09, 9E+09, 9E+09, 9E+09]], v30, z0, tNozzle, \Wobj := wobjFlatPlat;
		MoveJ [[-8.361, -3.330, 70.000], [0.3888118, -0.6925589, 0.1426961, -0.5906145], [-1, 1, -5, 1], [9E+09, 9E+09, 9E+09, 9E+09, 9E+09, 9E+09]], v30, z0, tNozzle, \Wobj := wobjFlatPlat;
		MoveJ [[-3.686, 8.210, 56.250], [-0.1277677, -0.4014245, 0.5821155, -0.6954678], [-1, 1, -4, 1], [9E+09, 9E+09, 9E+09, 9E+09, 9E+09, 9E+09]], v30, z0, tNozzle, \Wobj := wobjFlatPlat;
		MoveJ [[8.044, 4.036, 42.500], [-0.5733471, 0.1127804, 0.6980549, -0.4138516], [-1, 1, -3, 1], [9E+09, 9E+09, 9E+09, 9E+09, 9E+09, 9E+09]], v30, z0, tNozzle, \Wobj := wobjFlatPlat;
		MoveJ [[4.378, -7.863, 28.750], [-0.7003191, 0.5643135, 0.4260872, 0.0977407], [-1, 1, -2, 1], [9E+09, 9E+09, 9E+09, 9E+09, 9E+09, 9E+09]], v30, z0, tNozzle, \Wobj := wobjFlatPlat;
		MoveJ [[-7.668, -4.712, 15.000], [-0.4381257, 0.7022592, -0.082656, 0.5550188], [-1, 1, -1, 1], [9E+09, 9E+09, 9E+09, 9E+09, 9E+09, 9E+09]], v30, z0, tNozzle, \Wobj := wobjFlatPlat;
		MoveJ [[-7.274, -5.300, 15.000], [-0.4595853, 0.7049636, -0.055012, 0.5373839], [-1, 1, -1, 1], [9E+09, 9E+09, 9E+09, 9E+09, 9E+09, 9E+09]], v30, z0, tNozzle, \Wobj := wobjFlatPlat;
		MoveJ [[4.982, -7.495, 28.750], [-0.7036174, 0.5471442, 0.4479211, 0.0701613], [-1, 1, -2, 1], [9E+09, 9E+09, 9E+09, 9E+09, 9E+09, 9E+09]], v30, z0, tNozzle, \Wobj := wobjFlatPlat;
		MoveJ [[7.703, 4.655, 42.500], [-0.5566513, 0.0852782, 0.7019456, -0.4360498], [-1, 1, -3, 1], [9E+09, 9E+09, 9E+09, 9E+09, 9E+09, 9E+09]], v30, z0, tNozzle, \Wobj := wobjFlatPlat;
		MoveJ [[-4.319, 7.896, 56.250], [-0.1003556, -0.4239766, 0.565901, -0.6999491], [-1, 1, -4, 1], [9E+09, 9E+09, 9E+09, 9E+09, 9E+09, 9E+09]], v30, z0, tNozzle, \Wobj := wobjFlatPlat;
		MoveJ [[-8.074, -3.976, 70.000], [0.4117074, -0.6976288, 0.1153867, -0.5748887], [-1, 1, -5, 1], [9E+09, 9E+09, 9E+09, 9E+09, 9E+09, 9E+09]], v30, z0, tNozzle, \Wobj := wobjFlatPlat;
		MoveJ [[-7.737, -4.597, 70.000], [0.4339677, -0.7016222, 0.0878993, -0.558276], [-1, 1, -5, 1], [9E+09, 9E+09, 9E+09, 9E+09, 9E+09, 9E+09]], v30, z0, tNozzle, \Wobj := wobjFlatPlat;
		MoveJ [[-4.926, 7.532, 56.250], [-0.0727887, -0.4458745, 0.5488133, -0.7033505], [-1, 1, -4, 1], [9E+09, 9E+09, 9E+09, 9E+09, 9E+09, 9E+09]], v30, z0, tNozzle, \Wobj := wobjFlatPlat;
		MoveJ [[7.314, 5.245, 42.500], [-0.5390966, 0.0576445, 0.7047533, -0.457575], [-1, 1, -3, 1], [9E+09, 9E+09, 9E+09, 9E+09, 9E+09, 9E+09]], v30, z0, tNozzle, \Wobj := wobjFlatPlat;
		MoveJ [[5.555, -7.081, 28.750], [-0.70583, 0.5291306, 0.4690638, 0.0424735], [-1, 1, -2, 1], [9E+09, 9E+09, 9E+09, 9E+09, 9E+09, 9E+09]], v30, z0, tNozzle, \Wobj := wobjFlatPlat;
		MoveJ [[-6.836, -5.854, 15.000], [-0.4803357, 0.7065803, -0.0272831, 0.5189197], [-1, 1, -1, 1], [9E+09, 9E+09, 9E+09, 9E+09, 9E+09, 9E+09]], v30, z0, tNozzle, \Wobj := wobjFlatPlat;
		MoveJ [[-6.355, -6.373, 15.000], [-0.500345, 0.7071066, 0.0004879, 0.4996548], [-1, 1, -1, 1], [9E+09, 9E+09, 9E+09, 9E+09, 9E+09, 9E+09]], v30, z0, tNozzle, \Wobj := wobjFlatPlat;
		MoveJ [[6.094, -6.623, 28.750], [-0.7069536, 0.5103005, 0.4894828, 0.0147203], [-1, 1, -2, 1], [9E+09, 9E+09, 9E+09, 9E+09, 9E+09, 9E+09]], v30, z0, tNozzle, \Wobj := wobjFlatPlat;
		MoveJ [[6.879, 5.803, 42.500], [-0.52071, 0.0299218, 0.7064734, -0.4783943], [-1, 1, -3, 1], [9E+09, 9E+09, 9E+09, 9E+09, 9E+09, 9E+09]], v30, z0, tNozzle, \Wobj := wobjFlatPlat;
		MoveJ [[-5.502, 7.122, 56.250], [-0.0451094, -0.4670843, 0.5308788, -0.7056665], [-1, 1, -4, 1], [9E+09, 9E+09, 9E+09, 9E+09, 9E+09, 9E+09]], v30, z0, tNozzle, \Wobj := wobjFlatPlat;
		MoveJ [[-7.352, -5.190, 70.000], [0.4555584, -0.7045331, 0.0602762, -0.5408018], [-1, 1, -5, 1], [9E+09, 9E+09, 9E+09, 9E+09, 9E+09, 9E+09]], v30, z0, tNozzle, \Wobj := wobjFlatPlat;
		MoveJ [[-6.922, -5.752, 70.000], [0.4764462, -0.7063568, 0.0325602, -0.5224931], [-1, 1, -5, 1], [9E+09, 9E+09, 9E+09, 9E+09, 9E+09, 9E+09]], v30, z0, tNozzle, \Wobj := wobjFlatPlat;
		MoveJ [[-6.044, 6.669, 56.250], [-0.0173605, -0.4875735, 0.5121251, -0.7068937], [-1, 1, -4, 1], [9E+09, 9E+09, 9E+09, 9E+09, 9E+09, 9E+09]], v30, z0, tNozzle, \Wobj := wobjFlatPlat;
		MoveJ [[6.403, 6.325, 42.500], [-0.50152, 0.002153, 0.7071035, -0.4984754], [-1, 1, -3, 1], [9E+09, 9E+09, 9E+09, 9E+09, 9E+09, 9E+09]], v30, z0, tNozzle, \Wobj := wobjFlatPlat;
		MoveJ [[6.595, -6.125, 28.750], [-0.7069863, 0.4906831, 0.5091465, -0.0130557], [-1, 1, -2, 1], [9E+09, 9E+09, 9E+09, 9E+09, 9E+09, 9E+09]], v30, z0, tNozzle, \Wobj := wobjFlatPlat;
		MoveJ [[-5.835, -6.852, 15.000], [-0.5195822, 0.7065419, 0.0282582, 0.479619], [-1, 1, -1, 1], [9E+09, 9E+09, 9E+09, 9E+09, 9E+09, 9E+09]], v30, z0, tNozzle, \Wobj := wobjFlatPlat;
		MoveJ [[-5.280, -7.289, 15.000], [-0.5380177, 0.704887, 0.0559848, 0.4588431], [-1, 1, -1, 1], [9E+09, 9E+09, 9E+09, 9E+09, 9E+09, 9E+09]], v30, z0, tNozzle, \Wobj := wobjFlatPlat;
		MoveJ [[7.055, -5.588, 28.750], [-0.7059281, 0.4703085, 0.5280246, -0.0408115], [-1, 1, -2, 1], [9E+09, 9E+09, 9E+09, 9E+09, 9E+09, 9E+09]], v30, z0, tNozzle, \Wobj := wobjFlatPlat;
		MoveJ [[5.886, 6.808, 42.500], [-0.4815562, -0.0256192, 0.7066426, -0.5177873], [-1, 1, -3, 1], [9E+09, 9E+09, 9E+09, 9E+09, 9E+09, 9E+09]], v30, z0, tNozzle, \Wobj := wobjFlatPlat;
		MoveJ [[-6.549, 6.174, 56.250], [0.0104151, -0.5073103, 0.4925812, -0.7070301], [-1, 1, -4, 1], [9E+09, 9E+09, 9E+09, 9E+09, 9E+09, 9E+09]], v30, z0, tNozzle, \Wobj := wobjFlatPlat;
		MoveJ [[-6.450, -6.277, 70.000], [0.4965988, -0.7070906, 0.0047939, -0.5033783], [-1, 1, -5, 1], [9E+09, 9E+09, 9E+09, 9E+09, 9E+09, 9E+09]], v30, z0, tNozzle, \Wobj := wobjFlatPlat;
		MoveJ [[-5.937, -6.764, 70.000], [0.5159851, -0.7067333, -0.0229798, -0.4834867], [-1, 1, -5, 1], [9E+09, 9E+09, 9E+09, 9E+09, 9E+09, 9E+09]], v30, z0, tNozzle, \Wobj := wobjFlatPlat;
		MoveJ [[-7.013, 5.641, 56.250], [0.0381747, -0.5262644, 0.4722773, -0.7060756], [-1, 1, -4, 1], [9E+09, 9E+09, 9E+09, 9E+09, 9E+09, 9E+09]], v30, z0, tNozzle, \Wobj := wobjFlatPlat;
		MoveJ [[5.334, 7.249, 42.500], [-0.4608493, -0.0533518, 0.7050912, -0.5363003], [-1, 1, -3, 1], [9E+09, 9E+09, 9E+09, 9E+09, 9E+09, 9E+09]], v30, z0, tNozzle, \Wobj := wobjFlatPlat;
		MoveJ [[7.472, -5.017, 28.750], [-0.7037806, 0.4492082, 0.5460879, -0.0685044], [-1, 1, -2, 1], [9E+09, 9E+09, 9E+09, 9E+09, 9E+09, 9E+09]], v30, z0, tNozzle, \Wobj := wobjFlatPlat;
		MoveJ [[-4.691, -7.681, 15.000], [-0.5556231, 0.7021445, 0.0836251, 0.4373592], [-1, 1, -1, 1], [9E+09, 9E+09, 9E+09, 9E+09, 9E+09, 9E+09]], v30, z0, tNozzle, \Wobj := wobjFlatPlat;
		MoveJ [[-4.074, -8.025, 15.000], [-0.5723711, 0.6983185, 0.1111363, 0.4152005], [-1, 1, -1, 1], [9E+09, 9E+09, 9E+09, 9E+09, 9E+09, 9E+09]], v30, z0, tNozzle, \Wobj := wobjFlatPlat;
		MoveJ [[7.843, -4.415, 28.750], [-0.7005473, 0.4274148, 0.5633086, -0.0960915], [-1, 1, -2, 1], [9E+09, 9E+09, 9E+09, 9E+09, 9E+09, 9E+09]], v30, z0, tNozzle, \Wobj := wobjFlatPlat;
		MoveJ [[4.748, 7.645, 42.500], [-0.4394313, -0.0810021, 0.7024519, -0.5539857], [-1, 1, -3, 1], [9E+09, 9E+09, 9E+09, 9E+09, 9E+09, 9E+09]], v30, z0, tNozzle, \Wobj := wobjFlatPlat;
		MoveJ [[-7.434, 5.073, 56.250], [0.0658754, -0.5444064, 0.4512446, -0.7040316], [-1, 1, -4, 1], [9E+09, 9E+09, 9E+09, 9E+09, 9E+09, 9E+09]], v30, z0, tNozzle, \Wobj := wobjFlatPlat;
		MoveJ [[-5.388, -7.209, 70.000], [0.5345753, -0.7052856, -0.050718, -0.4628491], [-1, 1, -5, 1], [9E+09, 9E+09, 9E+09, 9E+09, 9E+09, 9E+09]], v30, z0, tNozzle, \Wobj := wobjFlatPlat;
		MoveJ [[-4.805, -7.610, 70.000], [0.5523407, -0.7027496, -0.078378, -0.4414973], [-1, 1, -5, 1], [9E+09, 9E+09, 9E+09, 9E+09, 9E+09, 9E+09]], v30, z0, tNozzle, \Wobj := wobjFlatPlat;
		MoveJ [[-7.809, 4.474, 56.250], [0.0934744, -0.5617084, 0.4295157, -0.7009013], [-1, 1, -4, 1], [9E+09, 9E+09, 9E+09, 9E+09, 9E+09, 9E+09]], v30, z0, tNozzle, \Wobj := wobjFlatPlat;
		MoveJ [[4.134, 7.994, 42.500], [-0.4173353, -0.1085275, 0.6987287, -0.5708164], [-1, 1, -3, 1], [9E+09, 9E+09, 9E+09, 9E+09, 9E+09, 9E+09]], v30, z0, tNozzle, \Wobj := wobjFlatPlat;
		MoveJ [[8.165, -3.786, 28.750], [-0.6962329, 0.4049619, 0.5796602, -0.1235304], [-1, 1, -2, 1], [9E+09, 9E+09, 9E+09, 9E+09, 9E+09, 9E+09]], v30, z0, tNozzle, \Wobj := wobjFlatPlat;
		MoveJ [[-3.432, -8.320, 15.000], [-0.5882359, 0.693415, 0.1384761, 0.392401], [-1, 1, -1, 1], [9E+09, 9E+09, 9E+09, 9E+09, 9E+09, 9E+09]], v30, z0, tNozzle, \Wobj := wobjFlatPlat;
		MoveJ [[-2.768, -8.564, 15.000], [-0.6031931, 0.6874416, 0.1656021, 0.3689962], [-1, 1, -1, 1], [9E+09, 9E+09, 9E+09, 9E+09, 9E+09, 9E+09]], v30, z0, tNozzle, \Wobj := wobjFlatPlat;
		MoveJ [[8.437, -3.134, 28.750], [-0.6908443, 0.3818841, 0.5951173, -0.1507787], [-1, 1, -2, 1], [9E+09, 9E+09, 9E+09, 9E+09, 9E+09, 9E+09]], v30, z0, tNozzle, \Wobj := wobjFlatPlat;
		MoveJ [[3.494, 8.294, 42.500], [-0.3945953, -0.1358853, 0.6939274, -0.5867662], [-1, 1, -3, 1], [9E+09, 9E+09, 9E+09, 9E+09, 9E+09, 9E+09]], v30, z0, tNozzle, \Wobj := wobjFlatPlat;
		MoveJ [[-8.136, 3.847, 56.250], [0.1209292, -0.5781437, 0.407124, -0.6966894], [-1, 1, -4, 1], [9E+09, 9E+09, 9E+09, 9E+09, 9E+09, 9E+09]], v30, z0, tNozzle, \Wobj := wobjFlatPlat;
		MoveJ [[-4.193, -7.963, 70.000], [0.5692537, -0.6991292, -0.1059171, -0.4194643], [-1, 1, -5, 1], [9E+09, 9E+09, 9E+09, 9E+09, 9E+09, 9E+09]], v30, z0, tNozzle, \Wobj := wobjFlatPlat;
		MoveJ [[-3.555, -8.268, 70.000], [0.5852884, -0.6944301, -0.1332927, -0.396784], [-1, 1, -5, 1], [9E+09, 9E+09, 9E+09, 9E+09, 9E+09, 9E+09]], v30, z0, tNozzle, \Wobj := wobjFlatPlat;
		MoveJ [[-8.413, 3.197, 56.250], [0.1481974, -0.5936869, 0.3841041, -0.6914026], [-1, 1, -4, 1], [9E+09, 9E+09, 9E+09, 9E+09, 9E+09, 9E+09]], v30, z0, tNozzle, \Wobj := wobjFlatPlat;
		MoveJ [[2.832, 8.543, 42.500], [-0.3712464, -0.1630335, 0.6880553, -0.6018107], [-1, 1, -3, 1], [9E+09, 9E+09, 9E+09, 9E+09, 9E+09, 9E+09]], v30, z0, tNozzle, \Wobj := wobjFlatPlat;
		MoveJ [[8.657, -2.462, 28.750], [-0.6843897, 0.3582171, 0.6096561, -0.1777943], [-1, 1, -2, 1], [9E+09, 9E+09, 9E+09, 9E+09, 9E+09, 9E+09]], v30, z0, tNozzle, \Wobj := wobjFlatPlat;
		MoveJ [[-2.087, -8.755, 15.000], [-0.6172195, 0.6804075, 0.1924727, 0.3450219], [-1, 1, -1, 1], [9E+09, 9E+09, 9E+09, 9E+09, 9E+09, 9E+09]], v30, z0, tNozzle, \Wobj := wobjFlatPlat;
		MoveJ [[-1.394, -8.891, 15.000], [-0.6302936, 0.6723234, 0.2190463, 0.3205153], [-1, 1, -1, 1], [9E+09, 9E+09, 9E+09, 9E+09, 9E+09, 9E+09]], v30, z0, tNozzle, \Wobj := wobjFlatPlat;
		MoveJ [[8.823, -1.775, 28.750], [-0.676879, 0.3339973, 0.6232542, -0.2045356], [-1, 1, -2, 1], [9E+09, 9E+09, 9E+09, 9E+09, 9E+09, 9E+09]], v30, z0, tNozzle, \Wobj := wobjFlatPlat;
		MoveJ [[2.153, 8.739, 42.500], [-0.3473247, -0.1899301, 0.6811216, -0.6159266], [-1, 1, -3, 1], [9E+09, 9E+09, 9E+09, 9E+09, 9E+09, 9E+09]], v30, z0, tNozzle, \Wobj := wobjFlatPlat;
		MoveJ [[-8.638, 2.526, 56.250], [0.175237, -0.608314, 0.3604916, -0.6850489], [-1, 1, -4, 1], [9E+09, 9E+09, 9E+09, 9E+09, 9E+09, 9E+09]], v30, z0, tNozzle, \Wobj := wobjFlatPlat;
		MoveJ [[-2.896, -8.521, 70.000], [0.60042, -0.6886594, -0.1604626, -0.3734915], [-1, 1, -5, 1], [9E+09, 9E+09, 9E+09, 9E+09, 9E+09, 9E+09]], v30, z0, tNozzle, \Wobj := wobjFlatPlat;
		MoveJ [[-2.218, -8.722, 70.000], [0.6146251, -0.6818262, -0.1873849, -0.3496227], [-1, 1, -5, 1], [9E+09, 9E+09, 9E+09, 9E+09, 9E+09, 9E+09]], v30, z0, tNozzle, \Wobj := wobjFlatPlat;
		MoveJ [[-8.810, 1.841, 56.250], [0.2020061, -0.6220025, 0.3363227, -0.6776382], [-1, 1, -4, 1], [9E+09, 9E+09, 9E+09, 9E+09, 9E+09, 9E+09]], v30, z0, tNozzle, \Wobj := wobjFlatPlat;
		MoveJ [[1.460, 8.881, 42.500], [-0.3228671, -0.2165337, 0.6731368, -0.6290921], [-1, 1, -3, 1], [9E+09, 9E+09, 9E+09, 9E+09, 9E+09, 9E+09]], v30, z0, tNozzle, \Wobj := wobjFlatPlat;
		MoveJ [[8.935, -1.077, 28.750], [-0.668324, 0.3092622, 0.6358907, -0.2309613], [-1, 1, -2, 1], [9E+09, 9E+09, 9E+09, 9E+09, 9E+09, 9E+09]], v30, z0, tNozzle, \Wobj := wobjFlatPlat;
		MoveJ [[-0.692, -8.973, 15.000], [-0.6423951, 0.663202, 0.2452818, 0.2955141], [-1, 1, -1, 1], [9E+09, 9E+09, 9E+09, 9E+09, 9E+09, 9E+09]], v30, z0, tNozzle, \Wobj := wobjFlatPlat;
		MoveJ [[0.015, -9.000, 15.000], [-0.6535054, 0.6530572, 0.2711389, 0.2700569], [-1, 1, -2, 1], [9E+09, 9E+09, 9E+09, 9E+09, 9E+09, 9E+09]], v30, z0, tNozzle, \Wobj := wobjFlatPlat;
		MoveJ [[8.992, -0.372, 28.750], [-0.6587377, 0.2840499, 0.6475459, -0.2570306], [-1, 1, -2, 1], [9E+09, 9E+09, 9E+09, 9E+09, 9E+09, 9E+09]], v30, z0, tNozzle, \Wobj := wobjFlatPlat;
		MoveJ [[0.759, 8.968, 42.500], [-0.2979113, -0.2428032, 0.6641134, -0.6412869], [-1, 1, -3, 1], [9E+09, 9E+09, 9E+09, 9E+09, 9E+09, 9E+09]], v30, z0, tNozzle, \Wobj := wobjFlatPlat;
		MoveJ [[-8.927, 1.143, 56.250], [0.2284636, -0.6347312, 0.311635, -0.6691819], [-1, 1, -4, 1], [9E+09, 9E+09, 9E+09, 9E+09, 9E+09, 9E+09]], v30, z0, tNozzle, \Wobj := wobjFlatPlat;
		MoveJ [[-1.526, -8.870, 70.000], [0.6278819, -0.6739409, -0.2140182, -0.3252144], [-1, 1, -5, 1], [9E+09, 9E+09, 9E+09, 9E+09, 9E+09, 9E+09]], v30, z0, tNozzle, \Wobj := wobjFlatPlat;
		MoveJ [[-0.825, -8.962, 70.000], [0.6401698, -0.6650156, -0.2403211, -0.3003043], [-1, 1, -5, 1], [9E+09, 9E+09, 9E+09, 9E+09, 9E+09, 9E+09]], v30, z0, tNozzle, \Wobj := wobjFlatPlat;
		MoveJ [[-8.989, 0.439, 56.250], [0.2545685, -0.6464805, 0.2864664, -0.6596931], [-1, 1, -4, 1], [9E+09, 9E+09, 9E+09, 9E+09, 9E+09, 9E+09]], v30, z0, tNozzle, \Wobj := wobjFlatPlat;
		MoveJ [[0.052, 9.000, 42.500], [-0.2724958, -0.268698, 0.6540653, -0.6524922], [-1, 1, -3, 1], [9E+09, 9E+09, 9E+09, 9E+09, 9E+09, 9E+09]], v30, z0, tNozzle, \Wobj := wobjFlatPlat;
		MoveJ [[8.994, 0.335, 28.750], [-0.6481349, 0.2583993, 0.658202, -0.2827033], [-1, 1, -3, 1], [9E+09, 9E+09, 9E+09, 9E+09, 9E+09, 9E+09]], v30, z0, tNozzle, \Wobj := wobjFlatPlat;
		MoveJ [[0.721, -8.971, 15.000], [-0.6636073, 0.6419048, 0.2965777, 0.2441831], [-1, 1, -2, 1], [9E+09, 9E+09, 9E+09, 9E+09, 9E+09, 9E+09]], v30, z0, tNozzle, \Wobj := wobjFlatPlat;
		MoveJ [[1.423, -8.887, 15.000], [-0.6726853, 0.6297619, 0.3215588, 0.2179324], [-1, 1, -2, 1], [9E+09, 9E+09, 9E+09, 9E+09, 9E+09, 9E+09]], v30, z0, tNozzle, \Wobj := wobjFlatPlat;
		MoveJ [[8.940, 1.040, 28.750], [-0.6365321, 0.23235, 0.6678425, -0.3079398], [-1, 1, -3, 1], [9E+09, 9E+09, 9E+09, 9E+09, 9E+09, 9E+09]], v30, z0, tNozzle, \Wobj := wobjFlatPlat;
		MoveJ [[-0.654, 8.976, 42.500], [-0.2466598, -0.2941782, 0.643008, -0.6626907], [-1, 1, -4, 1], [9E+09, 9E+09, 9E+09, 9E+09, 9E+09, 9E+09]], v30, z0, tNozzle, \Wobj := wobjFlatPlat;
		MoveJ [[-8.996, -0.268, 56.250], [0.2802806, -0.6572323, 0.2608558, -0.6491863], [-1, 1, -5, 1], [9E+09, 9E+09, 9E+09, 9E+09, 9E+09, 9E+09]], v30, z0, tNozzle, \Wobj := wobjFlatPlat;
		MoveJ [[-0.120, -8.999, 70.000], [0.6514699, -0.6550643, -0.2662533, -0.2749308], [-1, 1, -5, 1], [9E+09, 9E+09, 9E+09, 9E+09, 9E+09, 9E+09]], v30, z0, tNozzle, \Wobj := wobjFlatPlat;
		MoveJ [[0.587, -8.981, 70.000], [0.6617649, -0.6441022, -0.2917746, -0.2491332], [-1, 1, -6, 1], [9E+09, 9E+09, 9E+09, 9E+09, 9E+09, 9E+09]], v30, z0, tNozzle, \Wobj := wobjFlatPlat;
		MoveJ [[-8.947, -0.973, 56.250], [0.3055603, -0.66697, 0.2348426, -0.6376778], [-1, 1, -5, 1], [9E+09, 9E+09, 9E+09, 9E+09, 9E+09, 9E+09]], v30, z0, tNozzle, \Wobj := wobjFlatPlat;
		MoveJ [[-1.357, 8.897, 42.500], [-0.2204433, -0.3192045, 0.6309584, -0.6718667], [-1, 1, -4, 1], [9E+09, 9E+09, 9E+09, 9E+09, 9E+09, 9E+09]], v30, z0, tNozzle, \Wobj := wobjFlatPlat;
		MoveJ [[8.831, 1.738, 28.750], [-0.6239471, 0.2059421, 0.6764524, -0.3327011], [-1, 1, -3, 1], [9E+09, 9E+09, 9E+09, 9E+09, 9E+09, 9E+09]], v30, z0, tNozzle, \Wobj := wobjFlatPlat;
		MoveJ [[2.116, -8.748, 15.000], [-0.6807253, 0.6166472, 0.3460437, 0.1913455], [-1, 1, -2, 1], [9E+09, 9E+09, 9E+09, 9E+09, 9E+09, 9E+09]], v30, z0, tNozzle, \Wobj := wobjFlatPlat;
		MoveJ [[2.796, -8.555, 15.000], [-0.687715, 0.6025811, 0.3699947, 0.1644634], [-1, 1, -2, 1], [9E+09, 9E+09, 9E+09, 9E+09, 9E+09, 9E+09]], v30, z0, tNozzle, \Wobj := wobjFlatPlat;
		MoveJ [[8.667, 2.426, 28.750], [-0.6103994, 0.1792165, 0.6840186, -0.3569491], [-1, 1, -3, 1], [9E+09, 9E+09, 9E+09, 9E+09, 9E+09, 9E+09]], v30, z0, tNozzle, \Wobj := wobjFlatPlat;
		MoveJ [[-2.051, 8.763, 42.500], [-0.1938866, -0.3437382, 0.6179353, -0.6800059], [-1, 1, -4, 1], [9E+09, 9E+09, 9E+09, 9E+09, 9E+09, 9E+09]], v30, z0, tNozzle, \Wobj := wobjFlatPlat;
		MoveJ [[-8.843, -1.672, 56.250], [0.3303684, -0.6756786, 0.2084671, -0.6251854], [-1, 1, -5, 1], [9E+09, 9E+09, 9E+09, 9E+09, 9E+09, 9E+09]], v30, z0, tNozzle, \Wobj := wobjFlatPlat;
		MoveJ [[1.290, -8.907, 70.000], [0.6710387, -0.6321462, -0.3168457, -0.2229511], [-1, 1, -6, 1], [9E+09, 9E+09, 9E+09, 9E+09, 9E+09, 9E+09]], v30, z0, tNozzle, \Wobj := wobjFlatPlat;
		MoveJ [[1.985, -8.778, 70.000], [0.679277, -0.6192148, -0.3414279, -0.1964249], [-1, 1, -6, 1], [9E+09, 9E+09, 9E+09, 9E+09, 9E+09, 9E+09]], v30, z0, tNozzle, \Wobj := wobjFlatPlat;
		MoveJ [[-8.685, -2.361, 56.250], [0.3546669, -0.6833445, 0.1817699, -0.6117283], [-1, 1, -5, 1], [9E+09, 9E+09, 9E+09, 9E+09, 9E+09, 9E+09]], v30, z0, tNozzle, \Wobj := wobjFlatPlat;
		MoveJ [[-2.732, 8.575, 42.500], [-0.1670307, -0.3677416, 0.6039588, -0.6870959], [-1, 1, -4, 1], [9E+09, 9E+09, 9E+09, 9E+09, 9E+09, 9E+09]], v30, z0, tNozzle, \Wobj := wobjFlatPlat;
		MoveJ [[8.450, 3.099, 28.750], [-0.5959098, 0.1522144, 0.6905294, -0.3806463], [-1, 1, -3, 1], [9E+09, 9E+09, 9E+09, 9E+09, 9E+09, 9E+09]], v30, z0, tNozzle, \Wobj := wobjFlatPlat;
		MoveJ [[3.459, -8.309, 15.000], [-0.6936434, 0.5875852, 0.3933748, 0.1373274], [-1, 1, -2, 1], [9E+09, 9E+09, 9E+09, 9E+09, 9E+09, 9E+09]], v30, z0, tNozzle, \Wobj := wobjFlatPlat;
		MoveJ [[4.101, -8.012, 15.000], [-0.6985016, 0.5716826, 0.4161479, 0.1099796], [-1, 1, -2, 1], [9E+09, 9E+09, 9E+09, 9E+09, 9E+09, 9E+09]], v30, z0, tNozzle, \Wobj := wobjFlatPlat;
		MoveJ [[8.181, 3.752, 28.750], [-0.5805007, 0.1249773, 0.6959747, -0.4037561], [-1, 1, -3, 1], [9E+09, 9E+09, 9E+09, 9E+09, 9E+09, 9E+09]], v30, z0, tNozzle, \Wobj := wobjFlatPlat;
		MoveJ [[-3.397, 8.334, 42.500], [-0.1399171, -0.3911775, 0.5890503, -0.6931257], [-1, 1, -4, 1], [9E+09, 9E+09, 9E+09, 9E+09, 9E+09, 9E+09]], v30, z0, tNozzle, \Wobj := wobjFlatPlat;
		MoveJ [[-8.473, -3.035, 56.250], [0.378418, -0.6899561, 0.1547923, -0.5973273], [-1, 1, -5, 1], [9E+09, 9E+09, 9E+09, 9E+09, 9E+09, 9E+09]], v30, z0, tNozzle, \Wobj := wobjFlatPlat;
		MoveJ [[2.668, -8.595, 70.000], [0.6864673, -0.605328, -0.3654833, -0.1695957], [-1, 1, -6, 1], [9E+09, 9E+09, 9E+09, 9E+09, 9E+09, 9E+09]], v30, z0, tNozzle, \Wobj := wobjFlatPlat;
		MoveJ [[3.335, -8.359, 70.000], [0.6925983, -0.5905071, -0.3889748, -0.1425048], [-1, 1, -6, 1], [9E+09, 9E+09, 9E+09, 9E+09, 9E+09, 9E+09]], v30, z0, tNozzle, \Wobj := wobjFlatPlat;
		MoveJ [[-8.208, -3.691, 56.250], [0.4015852, -0.695503, 0.1275758, -0.5820046], [-1, 1, -5, 1], [9E+09, 9E+09, 9E+09, 9E+09, 9E+09, 9E+09]], v30, z0, tNozzle, \Wobj := wobjFlatPlat;
		MoveJ [[-4.041, 8.042, 42.500], [-0.1125876, -0.4140098, 0.5732329, -0.698086], [-1, 1, -4, 1], [9E+09, 9E+09, 9E+09, 9E+09, 9E+09, 9E+09]], v30, z0, tNozzle, \Wobj := wobjFlatPlat;
		MoveJ [[7.861, 4.383, 28.750], [-0.5641959, 0.0975475, 0.700346, -0.426243], [-1, 1, -3, 1], [9E+09, 9E+09, 9E+09, 9E+09, 9E+09, 9E+09]], v30, z0, tNozzle, \Wobj := wobjFlatPlat;
		MoveJ [[4.717, -7.665, 15.000], [-0.702282, 0.5548979, 0.4382788, 0.0824621], [-1, 1, -2, 1], [9E+09, 9E+09, 9E+09, 9E+09, 9E+09, 9E+09]], v30, z0, tNozzle, \Wobj := wobjFlatPlat;
		MoveJ [[5.304, -7.271, 15.000], [-0.7049788, 0.537257, 0.4597335, 0.0548173], [-1, 1, -2, 1], [9E+09, 9E+09, 9E+09, 9E+09, 9E+09, 9E+09]], v30, z0, tNozzle, \Wobj := wobjFlatPlat;
		MoveJ [[7.493, 4.986, 28.750], [-0.5470205, 0.0699671, 0.7036367, -0.4480721], [-1, 1, -3, 1], [9E+09, 9E+09, 9E+09, 9E+09, 9E+09, 9E+09]], v30, z0, tNozzle, \Wobj := wobjFlatPlat;
		MoveJ [[-4.659, 7.700, 42.500], [-0.0850844, -0.4362033, 0.556531, -0.7019692], [-1, 1, -4, 1], [9E+09, 9E+09, 9E+09, 9E+09, 9E+09, 9E+09]], v30, z0, tNozzle, \Wobj := wobjFlatPlat;
		MoveJ [[-7.893, -4.324, 56.250], [0.4241328, -0.6999768, 0.1001625, -0.5657839], [-1, 1, -5, 1], [9E+09, 9E+09, 9E+09, 9E+09, 9E+09, 9E+09]], v30, z0, tNozzle, \Wobj := wobjFlatPlat;
		MoveJ [[3.980, -8.072, 70.000], [0.6976606, -0.5747751, -0.411866, -0.1151941], [-1, 1, -6, 1], [9E+09, 9E+09, 9E+09, 9E+09, 9E+09, 9E+09]], v30, z0, tNozzle, \Wobj := wobjFlatPlat;
		MoveJ [[4.602, -7.735, 70.000], [0.7016465, -0.5581562, -0.4341217, -0.0877055], [-1, 1, -6, 1], [9E+09, 9E+09, 9E+09, 9E+09, 9E+09, 9E+09]], v30, z0, tNozzle, \Wobj := wobjFlatPlat;
		MoveJ [[-7.530, -4.930, 56.250], [0.446026, -0.7033705, 0.0725946, -0.5486901], [-1, 1, -5, 1], [9E+09, 9E+09, 9E+09, 9E+09, 9E+09, 9E+09]], v30, z0, tNozzle, \Wobj := wobjFlatPlat;
		MoveJ [[-5.249, 7.311, 42.500], [-0.0574499, -0.4577238, 0.5389703, -0.7047692], [-1, 1, -4, 1], [9E+09, 9E+09, 9E+09, 9E+09, 9E+09, 9E+09]], v30, z0, tNozzle, \Wobj := wobjFlatPlat;
		MoveJ [[7.078, 5.559, 28.750], [-0.529001, 0.0422788, 0.7058417, -0.4692099], [-1, 1, -3, 1], [9E+09, 9E+09, 9E+09, 9E+09, 9E+09, 9E+09]], v30, z0, tNozzle, \Wobj := wobjFlatPlat;
		MoveJ [[5.858, -6.833, 15.000], [-0.7065878, 0.5187871, 0.4804789, 0.027088], [-1, 1, -2, 1], [9E+09, 9E+09, 9E+09, 9E+09, 9E+09, 9E+09]], v30, z0, tNozzle, \Wobj := wobjFlatPlat;
		MoveJ [[6.376, -6.352, 15.000], [-0.7071065, 0.4995168, 0.5004828, -0.0006832], [-1, 1, -2, 1], [9E+09, 9E+09, 9E+09, 9E+09, 9E+09, 9E+09]], v30, z0, tNozzle, \Wobj := wobjFlatPlat;
		MoveJ [[6.620, 6.097, 28.750], [-0.5101653, 0.0145252, 0.7069576, -0.4896237], [-1, 1, -3, 1], [9E+09, 9E+09, 9E+09, 9E+09, 9E+09, 9E+09]], v30, z0, tNozzle, \Wobj := wobjFlatPlat;
		MoveJ [[-5.807, 6.876, 42.500], [-0.0297267, -0.4785379, 0.520578, -0.7064817], [-1, 1, -4, 1], [9E+09, 9E+09, 9E+09, 9E+09, 9E+09, 9E+09]], v30, z0, tNozzle, \Wobj := wobjFlatPlat;
		MoveJ [[-7.119, -5.506, 56.250], [0.4672309, -0.7056789, 0.0449147, -0.5307498], [-1, 1, -5, 1], [9E+09, 9E+09, 9E+09, 9E+09, 9E+09, 9E+09]], v30, z0, tNozzle, \Wobj := wobjFlatPlat;
		MoveJ [[5.195, -7.350, 70.000], [0.7045497, -0.5406761, -0.4557076, -0.0600817], [-1, 1, -6, 1], [9E+09, 9E+09, 9E+09, 9E+09, 9E+09, 9E+09]], v30, z0, tNozzle, \Wobj := wobjFlatPlat;
		MoveJ [[5.755, -6.919, 70.000], [0.7063657, -0.5223617, -0.4765903, -0.0323651], [-1, 1, -6, 1], [9E+09, 9E+09, 9E+09, 9E+09, 9E+09, 9E+09]], v30, z0, tNozzle, \Wobj := wobjFlatPlat;
		MoveJ [[-6.665, -6.048, 56.250], [0.4877149, -0.7068984, 0.0171655, -0.5119904], [-1, 1, -5, 1], [9E+09, 9E+09, 9E+09, 9E+09, 9E+09, 9E+09]], v30, z0, tNozzle, \Wobj := wobjFlatPlat;
		MoveJ [[-6.329, 6.399, 42.500], [-0.0019577, -0.4986137, 0.5013825, -0.7071041], [-1, 1, -4, 1], [9E+09, 9E+09, 9E+09, 9E+09, 9E+09, 9E+09]], v30, z0, tNozzle, \Wobj := wobjFlatPlat;
		MoveJ [[6.121, 6.598, 28.750], [-0.4905425, -0.0132508, 0.7069826, -0.509282], [-1, 1, -3, 1], [9E+09, 9E+09, 9E+09, 9E+09, 9E+09, 9E+09]], v30, z0, tNozzle, \Wobj := wobjFlatPlat;
		MoveJ [[6.855, -5.832, 15.000], [-0.7065341, 0.4794756, 0.5197145, -0.0284533], [-1, 1, -2, 1], [9E+09, 9E+09, 9E+09, 9E+09, 9E+09, 9E+09]], v30, z0, tNozzle, \Wobj := wobjFlatPlat;
		MoveJ [[7.292, -5.276, 15.000], [-0.7048716, 0.4586946, 0.5381443, -0.0561795], [-1, 1, -2, 1], [9E+09, 9E+09, 9E+09, 9E+09, 9E+09, 9E+09]], v30, z0, tNozzle, \Wobj := wobjFlatPlat;
		MoveJ [[5.584, 7.058, 28.750], [-0.4701627, -0.0410063, 0.7059168, -0.5281544], [-1, 1, -3, 1], [9E+09, 9E+09, 9E+09, 9E+09, 9E+09, 9E+09]], v30, z0, tNozzle, \Wobj := wobjFlatPlat;
		MoveJ [[-6.811, 5.883, 42.500], [0.0258143, -0.5179201, 0.4814133, -0.7066355], [-1, 1, -4, 1], [9E+09, 9E+09, 9E+09, 9E+09, 9E+09, 9E+09]], v30, z0, tNozzle, \Wobj := wobjFlatPlat;
		MoveJ [[-6.170, -6.552, 56.250], [0.5074463, -0.7070272, -0.0106102, -0.4924411], [-1, 1, -5, 1], [9E+09, 9E+09, 9E+09, 9E+09, 9E+09, 9E+09]], v30, z0, tNozzle, \Wobj := wobjFlatPlat;
		MoveJ [[6.281, -6.446, 70.000], [0.7070919, -0.5032412, -0.4967377, -0.0045986], [-1, 1, -6, 1], [9E+09, 9E+09, 9E+09, 9E+09, 9E+09, 9E+09]], v30, z0, tNozzle, \Wobj := wobjFlatPlat;
		MoveJ [[6.767, -5.933, 70.000], [0.7067269, -0.4833443, -0.5161185, 0.023175], [-1, 1, -6, 1], [9E+09, 9E+09, 9E+09, 9E+09, 9E+09, 9E+09]], v30, z0, tNozzle, \Wobj := wobjFlatPlat;
		MoveJ [[-5.637, -7.016, 56.250], [0.5263948, -0.706065, -0.0383695, -0.472132], [-1, 1, -5, 1], [9E+09, 9E+09, 9E+09, 9E+09, 9E+09, 9E+09]], v30, z0, tNozzle, \Wobj := wobjFlatPlat;
		MoveJ [[-7.252, 5.330, 42.500], [0.0535465, -0.5364274, 0.4607013, -0.7050765], [-1, 1, -4, 1], [9E+09, 9E+09, 9E+09, 9E+09, 9E+09, 9E+09]], v30, z0, tNozzle, \Wobj := wobjFlatPlat;
		MoveJ [[5.013, 7.475, 28.750], [-0.4490574, -0.0686986, 0.7037617, -0.546212], [-1, 1, -3, 1], [9E+09, 9E+09, 9E+09, 9E+09, 9E+09, 9E+09]], v30, z0, tNozzle, \Wobj := wobjFlatPlat;
		MoveJ [[7.683, -4.687, 15.000], [-0.7021214, 0.4372059, 0.5557437, -0.083819], [-1, 1, -2, 1], [9E+09, 9E+09, 9E+09, 9E+09, 9E+09, 9E+09]], v30, z0, tNozzle, \Wobj := wobjFlatPlat;
		MoveJ [[8.027, -4.070, 15.000], [-0.6982878, 0.4150425, 0.5724856, -0.1113292], [-1, 1, -2, 1], [9E+09, 9E+09, 9E+09, 9E+09, 9E+09, 9E+09]], v30, z0, tNozzle, \Wobj := wobjFlatPlat;
		MoveJ [[4.411, 7.845, 28.750], [-0.4272592, -0.0962848, 0.7005207, -0.5634267], [-1, 1, -3, 1], [9E+09, 9E+09, 9E+09, 9E+09, 9E+09, 9E+09]], v30, z0, tNozzle, \Wobj := wobjFlatPlat;
		MoveJ [[-7.648, 4.744, 42.500], [0.0811961, -0.5541069, 0.4392784, -0.7024295], [-1, 1, -4, 1], [9E+09, 9E+09, 9E+09, 9E+09, 9E+09, 9E+09]], v30, z0, tNozzle, \Wobj := wobjFlatPlat;
		MoveJ [[-5.069, -7.437, 56.250], [0.544531, -0.7040134, -0.0660697, -0.4510943], [-1, 1, -5, 1], [9E+09, 9E+09, 9E+09, 9E+09, 9E+09, 9E+09]], v30, z0, tNozzle, \Wobj := wobjFlatPlat;
		MoveJ [[7.212, -5.384, 70.000], [0.7052715, -0.4627016, -0.534703, 0.0509128], [-1, 1, -6, 1], [9E+09, 9E+09, 9E+09, 9E+09, 9E+09, 9E+09]], v30, z0, tNozzle, \Wobj := wobjFlatPlat;
		MoveJ [[7.612, -4.801, 70.000], [0.7027279, -0.4413449, -0.5524625, 0.0785721], [-1, 1, -6, 1], [9E+09, 9E+09, 9E+09, 9E+09, 9E+09, 9E+09]], v30, z0, tNozzle, \Wobj := wobjFlatPlat;
		MoveJ [[-4.469, -7.812, 56.250], [0.561827, -0.7008754, -0.0936678, -0.4293606], [-1, 1, -5, 1], [9E+09, 9E+09, 9E+09, 9E+09, 9E+09, 9E+09]], v30, z0, tNozzle, \Wobj := wobjFlatPlat;
		MoveJ [[-7.997, 4.129, 42.500], [0.1087204, -0.5709315, 0.4171777, -0.6986987], [-1, 1, -4, 1], [9E+09, 9E+09, 9E+09, 9E+09, 9E+09, 9E+09]], v30, z0, tNozzle, \Wobj := wobjFlatPlat;
		MoveJ [[3.782, 8.167, 28.750], [-0.4048018, -0.1237225, 0.6961988, -0.579772], [-1, 1, -3, 1], [9E+09, 9E+09, 9E+09, 9E+09, 9E+09, 9E+09]], v30, z0, tNozzle, \Wobj := wobjFlatPlat;
		MoveJ [[8.322, -3.427, 15.000], [-0.6933768, 0.3922387, 0.5883441, -0.1386676], [-1, 1, -2, 1], [9E+09, 9E+09, 9E+09, 9E+09, 9E+09, 9E+09]], v30, z0, tNozzle, \Wobj := wobjFlatPlat;
		MoveJ [[8.565, -2.763, 15.000], [-0.6873959, 0.3688297, 0.6032949, -0.165792], [-1, 1, -2, 1], [9E+09, 9E+09, 9E+09, 9E+09, 9E+09, 9E+09]], v30, z0, tNozzle, \Wobj := wobjFlatPlat;
		MoveJ [[3.129, 8.439, 28.750], [-0.3817198, -0.1509693, 0.6908027, -0.5952227], [-1, 1, -3, 1], [9E+09, 9E+09, 9E+09, 9E+09, 9E+09, 9E+09]], v30, z0, tNozzle, \Wobj := wobjFlatPlat;
		MoveJ [[-8.296, 3.489, 42.500], [0.1360769, -0.5868751, 0.3944334, -0.6938898], [-1, 1, -4, 1], [9E+09, 9E+09, 9E+09, 9E+09, 9E+09, 9E+09]], v30, z0, tNozzle, \Wobj := wobjFlatPlat;
		MoveJ [[-3.843, -8.138, 56.250], [0.5782561, -0.696656, -0.1211215, -0.4069643], [-1, 1, -5, 1], [9E+09, 9E+09, 9E+09, 9E+09, 9E+09, 9E+09]], v30, z0, tNozzle, \Wobj := wobjFlatPlat;
		MoveJ [[7.966, -4.189, 70.000], [0.6990999, -0.4193072, -0.5693694, 0.1061101], [-1, 1, -6, 1], [9E+09, 9E+09, 9E+09, 9E+09, 9E+09, 9E+09]], v30, z0, tNozzle, \Wobj := wobjFlatPlat;
		MoveJ [[8.270, -3.551, 70.000], [0.6943932, -0.3966225, -0.5853979, 0.1334844], [-1, 1, -6, 1], [9E+09, 9E+09, 9E+09, 9E+09, 9E+09, 9E+09]], v30, z0, tNozzle, \Wobj := wobjFlatPlat;
		MoveJ [[-3.192, -8.415, 56.250], [0.5937929, -0.6913617, -0.1483882, -0.3839402], [-1, 1, -5, 1], [9E+09, 9E+09, 9E+09, 9E+09, 9E+09, 9E+09]], v30, z0, tNozzle, \Wobj := wobjFlatPlat;
		MoveJ [[-8.544, 2.827, 42.500], [0.1632235, -0.6019131, 0.3710803, -0.6880103], [-1, 1, -4, 1], [9E+09, 9E+09, 9E+09, 9E+09, 9E+09, 9E+09]], v30, z0, tNozzle, \Wobj := wobjFlatPlat;
		MoveJ [[2.457, 8.658, 28.750], [-0.3580487, -0.1779831, 0.6843406, -0.609755], [-1, 1, -3, 1], [9E+09, 9E+09, 9E+09, 9E+09, 9E+09, 9E+09]], v30, z0, tNozzle, \Wobj := wobjFlatPlat;
		MoveJ [[8.756, -2.082, 15.000], [-0.6803543, 0.3448516, 0.6173147, -0.1926606], [-1, 1, -2, 1], [9E+09, 9E+09, 9E+09, 9E+09, 9E+09, 9E+09]], v30, z0, tNozzle, \Wobj := wobjFlatPlat;
		MoveJ [[8.892, -1.389, 15.000], [-0.6722629, 0.3203414, 0.630382, -0.2192319], [-1, 1, -2, 1], [9E+09, 9E+09, 9E+09, 9E+09, 9E+09, 9E+09]], v30, z0, tNozzle, \Wobj := wobjFlatPlat;
		MoveJ [[1.770, 8.824, 28.750], [-0.3338252, -0.2047224, 0.6768226, -0.6233464], [-1, 1, -3, 1], [9E+09, 9E+09, 9E+09, 9E+09, 9E+09, 9E+09]], v30, z0, tNozzle, \Wobj := wobjFlatPlat;
		MoveJ [[-8.740, 2.148, 42.500], [0.1901182, -0.6160224, 0.3471548, -0.6810691], [-1, 1, -4, 1], [9E+09, 9E+09, 9E+09, 9E+09, 9E+09, 9E+09]], v30, z0, tNozzle, \Wobj := wobjFlatPlat;
		MoveJ [[-2.522, -8.640, 56.250], [0.6084135, -0.6850006, -0.175426, -0.3603236], [-1, 1, -5, 1], [9E+09, 9E+09, 9E+09, 9E+09, 9E+09, 9E+09]], v30, z0, tNozzle, \Wobj := wobjFlatPlat;
		MoveJ [[8.523, -2.891, 70.000], [0.6886151, -0.3733258, -0.600523, 0.1606528], [-1, 1, -6, 1], [9E+09, 9E+09, 9E+09, 9E+09, 9E+09, 9E+09]], v30, z0, tNozzle, \Wobj := wobjFlatPlat;
		MoveJ [[8.724, -2.213, 70.000], [0.6817744, -0.3494531, -0.6147216, 0.1875732], [-1, 1, -6, 1], [9E+09, 9E+09, 9E+09, 9E+09, 9E+09, 9E+09]], v30, z0, tNozzle, \Wobj := wobjFlatPlat;
		MoveJ [[-1.836, -8.811, 56.250], [0.6220953, -0.6775825, -0.2021931, -0.336151], [-1, 1, -5, 1], [9E+09, 9E+09, 9E+09, 9E+09, 9E+09, 9E+09]], v30, z0, tNozzle, \Wobj := wobjFlatPlat;
		MoveJ [[-8.882, 1.455, 42.500], [0.2167196, -0.6291812, 0.3226935, -0.673077], [-1, 1, -4, 1], [9E+09, 9E+09, 9E+09, 9E+09, 9E+09, 9E+09]], v30, z0, tNozzle, \Wobj := wobjFlatPlat;
		MoveJ [[1.072, 8.936, 28.750], [-0.3090866, -0.2311457, 0.6682602, -0.635976], [-1, 1, -3, 1], [9E+09, 9E+09, 9E+09, 9E+09, 9E+09, 9E+09]], v30, z0, tNozzle, \Wobj := wobjFlatPlat;
		MoveJ [[8.974, -0.687, 15.000], [-0.6631342, 0.2953368, 0.6424766, -0.245465], [-1, 1, -2, 1], [9E+09, 9E+09, 9E+09, 9E+09, 9E+09, 9E+09]], v30, z0, tNozzle, \Wobj := wobjFlatPlat;
		MoveJ [[9.000, 0.020, 15.000], [-0.6529823, 0.2698766, 0.6535799, -0.2713193], [-1, 1, -3, 1], [9E+09, 9E+09, 9E+09, 9E+09, 9E+09, 9E+09]], v30, z0, tNozzle, \Wobj := wobjFlatPlat;
		WaitRob \InPos;
		SetDO DO6_Between_Layer_Retract, 1;
		SetDO DO5_Program_Feed, 0;
		MoveJ [[19.000, 0.020, 15.000], [-0.6529823, 0.2698766, 0.6535799, -0.2713193], [-1, 1, -3, 1], [9E+09, 9E+09, 9E+09, 9E+09, 9E+09, 9E+09]], v30, z0, tNozzle, \Wobj := wobjFlatPlat;
		MoveJ [[19.000, 0.000, 15.000], [0.6532815, -0.2705981, -0.6532815, 0.2705981], [-1, 1, 1, 1], [9E+09, 9E+09, 9E+09, 9E+09, 9E+09, 9E+09]], v30, z0, tNozzle, \Wobj := wobjFlatPlat;


		!Layer number 2 of 2
		MoveJ [[19.200, 0.000, 15.000], [0.6532815, -0.2705981, -0.6532815, 0.2705981], [-1, 1, 1, 1], [9E+09, 9E+09, 9E+09, 9E+09, 9E+09, 9E+09]], v30, z0, tNozzle, \Wobj := wobjFlatPlat;
		MoveJ [[9.200, 0.000, 15.000], [0.6532815, -0.2705981, -0.6532815, 0.2705981], [-1, 1, 1, 1], [9E+09, 9E+09, 9E+09, 9E+09, 9E+09, 9E+09]], v30, z0, tNozzle, \Wobj := wobjFlatPlat;
		WaitRob \InPos;
		SetDO DO6_Between_Layer_Retract, 0;
		SetDO DO5_Program_Feed, 1;
		MoveJ [[0.701, 9.173, 28.750], [0.2952956, 0.2455073, -0.6631185, 0.6424955], [-1, 1, 1, 1], [9E+09, 9E+09, 9E+09, 9E+09, 9E+09, 9E+09]], v30, z0, tNozzle, \Wobj := wobjFlatPlat;
		MoveJ [[-9.093, 1.397, 42.500], [-0.2200601, 0.6307762, -0.3195644, 0.6719923], [-1, 1, 0, 1], [9E+09, 9E+09, 9E+09, 9E+09, 9E+09, 9E+09]], v30, z0, tNozzle, \Wobj := wobjFlatPlat;
		MoveJ [[-2.086, -8.960, 56.250], [-0.6181407, 0.6798899, 0.194293, 0.3433688], [-1, 1, -1, 1], [9E+09, 9E+09, 9E+09, 9E+09, 9E+09, 9E+09]], v30, z0, tNozzle, \Wobj := wobjFlatPlat;
		MoveJ [[8.776, -2.762, 70.000], [-0.6867999, 0.3666745, 0.6046072, -0.1682439], [-1, 1, -2, 1], [9E+09, 9E+09, 9E+09, 9E+09, 9E+09, 9E+09]], v30, z0, tNozzle, \Wobj := wobjFlatPlat;
		MoveJ [[8.962, -2.080, 70.000], [-0.6798288, 0.3431746, 0.6182485, -0.1945067], [-1, 1, -2, 1], [9E+09, 9E+09, 9E+09, 9E+09, 9E+09, 9E+09]], v30, z0, tNozzle, \Wobj := wobjFlatPlat;
		MoveJ [[-1.392, -9.094, 56.250], [-0.6308766, 0.6719231, 0.2202711, 0.3193661], [-1, 1, -1, 1], [9E+09, 9E+09, 9E+09, 9E+09, 9E+09, 9E+09]], v30, z0, tNozzle, \Wobj := wobjFlatPlat;
		MoveJ [[-9.174, 0.695, 42.500], [-0.2457157, 0.6425883, -0.2950939, 0.6630414], [-1, 1, 0, 1], [9E+09, 9E+09, 9E+09, 9E+09, 9E+09, 9E+09]], v30, z0, tNozzle, \Wobj := wobjFlatPlat;
		MoveJ [[-0.006, 9.200, 28.750], [0.2703928, 0.2708032, -0.6531965, 0.6533665], [-1, 1, 0, 1], [9E+09, 9E+09, 9E+09, 9E+09, 9E+09, 9E+09]], v30, z0, tNozzle, \Wobj := wobjFlatPlat;
		MoveJ [[9.173, 0.706, 15.000], [0.6424027, -0.2452991, -0.6631956, 0.2954976], [-1, 1, 1, 1], [9E+09, 9E+09, 9E+09, 9E+09, 9E+09, 9E+09]], v30, z0, tNozzle, \Wobj := wobjFlatPlat;
		MoveJ [[9.092, 1.409, 15.000], [0.6305753, -0.2196378, -0.6721304, 0.3199607], [-1, 1, 1, 1], [9E+09, 9E+09, 9E+09, 9E+09, 9E+09, 9E+09]], v30, z0, tNozzle, \Wobj := wobjFlatPlat;
		MoveJ [[-0.712, 9.172, 28.750], [0.2450906, 0.2956993, -0.6423099, 0.6632727], [-1, 1, 0, 1], [9E+09, 9E+09, 9E+09, 9E+09, 9E+09, 9E+09]], v30, z0, tNozzle, \Wobj := wobjFlatPlat;
		MoveJ [[-9.200, -0.012, 42.500], [-0.2710085, 0.6534514, -0.2701876, 0.6531113], [-1, 1, -1, 1], [9E+09, 9E+09, 9E+09, 9E+09, 9E+09, 9E+09]], v30, z0, tNozzle, \Wobj := wobjFlatPlat;
		MoveJ [[-0.689, -9.174, 56.250], [-0.642681, 0.6629642, 0.2459239, 0.2948919], [-1, 1, -1, 1], [9E+09, 9E+09, 9E+09, 9E+09, 9E+09, 9E+09]], v30, z0, tNozzle, \Wobj := wobjFlatPlat;
		MoveJ [[9.095, -1.386, 70.000], [-0.6718539, 0.319168, 0.6309769, -0.2204823], [-1, 1, -2, 1], [9E+09, 9E+09, 9E+09, 9E+09, 9E+09, 9E+09]], v30, z0, tNozzle, \Wobj := wobjFlatPlat;
		MoveJ [[9.175, -0.683, 70.000], [-0.6628868, 0.29469, 0.6427735, -0.2461323], [-1, 1, -2, 1], [9E+09, 9E+09, 9E+09, 9E+09, 9E+09, 9E+09]], v30, z0, tNozzle, \Wobj := wobjFlatPlat;
		MoveJ [[0.017, -9.200, 56.250], [-0.6535363, 0.6530262, 0.2712136, 0.2699822], [-1, 1, -2, 1], [9E+09, 9E+09, 9E+09, 9E+09, 9E+09, 9E+09]], v30, z0, tNozzle, \Wobj := wobjFlatPlat;
		MoveJ [[-9.172, -0.718, 42.500], [-0.2959011, 0.6633496, -0.2448823, 0.6422169], [-1, 1, -1, 1], [9E+09, 9E+09, 9E+09, 9E+09, 9E+09, 9E+09]], v30, z0, tNozzle, \Wobj := wobjFlatPlat;
		MoveJ [[-1.414, 9.091, 28.750], [0.2194266, 0.3201587, -0.6304748, 0.6721994], [-1, 1, 0, 1], [9E+09, 9E+09, 9E+09, 9E+09, 9E+09, 9E+09]], v30, z0, tNozzle, \Wobj := wobjFlatPlat;
		MoveJ [[8.957, 2.103, 15.000], [0.6178168, -0.1936522, -0.6800727, 0.3439513], [-1, 1, 1, 1], [9E+09, 9E+09, 9E+09, 9E+09, 9E+09, 9E+09]], v30, z0, tNozzle, \Wobj := wobjFlatPlat;
		MoveJ [[8.769, 2.784, 15.000], [0.6041459, -0.1673807, -0.6870107, 0.367434], [-1, 1, 1, 1], [9E+09, 9E+09, 9E+09, 9E+09, 9E+09, 9E+09]], v30, z0, tNozzle, \Wobj := wobjFlatPlat;
		MoveJ [[-2.108, 8.955, 28.750], [0.1934385, 0.3441453, -0.6177087, 0.6801335], [-1, 1, 0, 1], [9E+09, 9E+09, 9E+09, 9E+09, 9E+09, 9E+09]], v30, z0, tNozzle, \Wobj := wobjFlatPlat;
		MoveJ [[-9.090, -1.420, 42.500], [-0.3203568, 0.6722683, -0.2192154, 0.6303742], [-1, 1, -1, 1], [9E+09, 9E+09, 9E+09, 9E+09, 9E+09, 9E+09]], v30, z0, tNozzle, \Wobj := wobjFlatPlat;
		MoveJ [[0.724, -9.171, 56.250], [-0.6634265, 0.642124, 0.2961028, 0.2446738], [-1, 1, -2, 1], [9E+09, 9E+09, 9E+09, 9E+09, 9E+09, 9E+09]], v30, z0, tNozzle, \Wobj := wobjFlatPlat;
		MoveJ [[9.200, 0.023, 70.000], [-0.6529409, 0.2697769, 0.653621, -0.2714188], [-1, 1, -3, 1], [9E+09, 9E+09, 9E+09, 9E+09, 9E+09, 9E+09]], v30, z0, tNozzle, \Wobj := wobjFlatPlat;
		MoveJ [[9.171, 0.729, 70.000], [-0.6420309, 0.2444655, 0.6635033, -0.2963046], [-1, 1, -3, 1], [9E+09, 9E+09, 9E+09, 9E+09, 9E+09, 9E+09]], v30, z0, tNozzle, \Wobj := wobjFlatPlat;
		MoveJ [[1.426, -9.089, 56.250], [-0.6723371, 0.6302735, 0.3205548, 0.2190042], [-1, 1, -2, 1], [9E+09, 9E+09, 9E+09, 9E+09, 9E+09, 9E+09]], v30, z0, tNozzle, \Wobj := wobjFlatPlat;
		MoveJ [[-8.954, -2.114, 42.500], [-0.3443394, 0.6801942, -0.1932249, 0.6176005], [-1, 1, -1, 1], [9E+09, 9E+09, 9E+09, 9E+09, 9E+09, 9E+09]], v30, z0, tNozzle, \Wobj := wobjFlatPlat;
		MoveJ [[-2.790, 8.767, 28.750], [0.1671648, 0.3676237, -0.6040305, 0.6870633], [-1, 1, 0, 1], [9E+09, 9E+09, 9E+09, 9E+09, 9E+09, 9E+09]], v30, z0, tNozzle, \Wobj := wobjFlatPlat;
		MoveJ [[8.529, 3.449, 15.000], [0.589583, -0.140862, -0.6929343, 0.3903742], [-1, 1, 1, 1], [9E+09, 9E+09, 9E+09, 9E+09, 9E+09, 9E+09]], v30, z0, tNozzle, \Wobj := wobjFlatPlat;
		MoveJ [[8.239, 4.094, 15.000], [0.5741494, -0.1141352, -0.6978346, 0.4127379], [-1, 1, 1, 1], [9E+09, 9E+09, 9E+09, 9E+09, 9E+09, 9E+09]], v30, z0, tNozzle, \Wobj := wobjFlatPlat;
		MoveJ [[-3.455, 8.527, 28.750], [0.1406442, 0.3905593, -0.5894603, 0.6929785], [-1, 1, 0, 1], [9E+09, 9E+09, 9E+09, 9E+09, 9E+09, 9E+09]], v30, z0, tNozzle, \Wobj := wobjFlatPlat;
		MoveJ [[-8.765, -2.795, 42.500], [-0.3678135, 0.6871158, -0.166949, 0.6039149], [-1, 1, -1, 1], [9E+09, 9E+09, 9E+09, 9E+09, 9E+09, 9E+09]], v30, z0, tNozzle, \Wobj := wobjFlatPlat;
		MoveJ [[2.119, -8.953, 56.250], [-0.6802549, 0.6174924, 0.3445333, 0.1930111], [-1, 1, -2, 1], [9E+09, 9E+09, 9E+09, 9E+09, 9E+09, 9E+09]], v30, z0, tNozzle, \Wobj := wobjFlatPlat;
		MoveJ [[9.088, 1.431, 70.000], [-0.6301727, 0.218793, 0.6724059, -0.3207528], [-1, 1, -3, 1], [9E+09, 9E+09, 9E+09, 9E+09, 9E+09, 9E+09]], v30, z0, tNozzle, \Wobj := wobjFlatPlat;
		MoveJ [[8.951, 2.125, 70.000], [-0.6173841, 0.1927975, 0.6803155, -0.3447274], [-1, 1, -3, 1], [9E+09, 9E+09, 9E+09, 9E+09, 9E+09, 9E+09]], v30, z0, tNozzle, \Wobj := wobjFlatPlat;
		MoveJ [[2.801, -8.763, 56.250], [-0.6871682, 0.6037994, 0.3680032, 0.166733], [-1, 1, -2, 1], [9E+09, 9E+09, 9E+09, 9E+09, 9E+09, 9E+09]], v30, z0, tNozzle, \Wobj := wobjFlatPlat;
		MoveJ [[-8.525, -3.460, 42.500], [-0.3907445, 0.6930227, -0.1404265, 0.5893376], [-1, 1, -1, 1], [9E+09, 9E+09, 9E+09, 9E+09, 9E+09, 9E+09]], v30, z0, tNozzle, \Wobj := wobjFlatPlat;
		MoveJ [[-4.099, 8.236, 28.750], [0.1139159, 0.4129182, -0.5740197, 0.6978705], [-1, 1, 0, 1], [9E+09, 9E+09, 9E+09, 9E+09, 9E+09, 9E+09]], v30, z0, tNozzle, \Wobj := wobjFlatPlat;
		MoveJ [[7.900, 4.714, 15.000], [0.557868, -0.08724, -0.7017045, 0.4344921], [-1, 1, 1, 1], [9E+09, 9E+09, 9E+09, 9E+09, 9E+09, 9E+09]], v30, z0, tNozzle, \Wobj := wobjFlatPlat;
		MoveJ [[7.515, 5.307, 15.000], [0.5407628, -0.0602159, -0.7045382, 0.4556047], [-1, 1, 1, 1], [9E+09, 9E+09, 9E+09, 9E+09, 9E+09, 9E+09]], v30, z0, tNozzle, \Wobj := wobjFlatPlat;
		MoveJ [[-4.719, 7.897, 28.750], [0.0870195, 0.4346673, -0.5577315, 0.7017319], [-1, 1, 0, 1], [9E+09, 9E+09, 9E+09, 9E+09, 9E+09, 9E+09]], v30, z0, tNozzle, \Wobj := wobjFlatPlat;
		MoveJ [[-8.234, -4.104, 42.500], [-0.4130985, 0.6979062, -0.1136968, 0.5738899], [-1, 1, -1, 1], [9E+09, 9E+09, 9E+09, 9E+09, 9E+09, 9E+09]], v30, z0, tNozzle, \Wobj := wobjFlatPlat;
		MoveJ [[3.465, -8.522, 56.250], [-0.6930668, 0.5892148, 0.3909296, 0.1402087], [-1, 1, -2, 1], [9E+09, 9E+09, 9E+09, 9E+09, 9E+09, 9E+09]], v30, z0, tNozzle, \Wobj := wobjFlatPlat;
		MoveJ [[8.762, 2.806, 70.000], [-0.6036837, 0.1665172, 0.6872205, -0.3681929], [-1, 1, -3, 1], [9E+09, 9E+09, 9E+09, 9E+09, 9E+09, 9E+09]], v30, z0, tNozzle, \Wobj := wobjFlatPlat;
		MoveJ [[8.520, 3.471, 70.000], [-0.5890919, 0.1399911, 0.6931108, -0.3911148], [-1, 1, -3, 1], [9E+09, 9E+09, 9E+09, 9E+09, 9E+09, 9E+09]], v30, z0, tNozzle, \Wobj := wobjFlatPlat;
		MoveJ [[4.109, -8.231, 56.250], [-0.6979419, 0.5737602, 0.4132788, 0.1134774], [-1, 1, -2, 1], [9E+09, 9E+09, 9E+09, 9E+09, 9E+09, 9E+09]], v30, z0, tNozzle, \Wobj := wobjFlatPlat;
		MoveJ [[-7.894, -4.724, 42.500], [-0.4348425, 0.7017592, -0.0867991, 0.5575948], [-1, 1, -1, 1], [9E+09, 9E+09, 9E+09, 9E+09, 9E+09, 9E+09]], v30, z0, tNozzle, \Wobj := wobjFlatPlat;
		MoveJ [[-5.312, 7.512, 28.750], [0.0599945, 0.4557745, -0.5406197, 0.7045571], [-1, 1, 0, 1], [9E+09, 9E+09, 9E+09, 9E+09, 9E+09, 9E+09]], v30, z0, tNozzle, \Wobj := wobjFlatPlat;
		MoveJ [[7.085, 5.868, 15.000], [0.5228591, -0.0331029, -0.7063315, 0.4760446], [-1, 1, 1, 1], [9E+09, 9E+09, 9E+09, 9E+09, 9E+09, 9E+09]], v30, z0, tNozzle, \Wobj := wobjFlatPlat;
		MoveJ [[6.614, 6.395, 15.000], [0.5041833, -0.005941, -0.7070819, 0.4957815], [-1, 1, 1, 1], [9E+09, 9E+09, 9E+09, 9E+09, 9E+09, 9E+09]], v30, z0, tNozzle, \Wobj := wobjFlatPlat;
		MoveJ [[-5.873, 7.082, 28.750], [0.0328809, 0.4762088, -0.5227095, 0.7063419], [-1, 1, 0, 1], [9E+09, 9E+09, 9E+09, 9E+09, 9E+09, 9E+09]], v30, z0, tNozzle, \Wobj := wobjFlatPlat;
		MoveJ [[-7.508, -5.317, 42.500], [-0.4559444, 0.7045759, -0.0597732, 0.5404764], [-1, 1, -1, 1], [9E+09, 9E+09, 9E+09, 9E+09, 9E+09, 9E+09]], v30, z0, tNozzle, \Wobj := wobjFlatPlat;
		MoveJ [[4.729, -7.891, 56.250], [-0.7017864, 0.5574583, 0.4350176, 0.0865785], [-1, 1, -2, 1], [9E+09, 9E+09, 9E+09, 9E+09, 9E+09, 9E+09]], v30, z0, tNozzle, \Wobj := wobjFlatPlat;
		MoveJ [[8.229, 4.115, 70.000], [-0.5736302, 0.1132582, 0.6979775, -0.4134591], [-1, 1, -3, 1], [9E+09, 9E+09, 9E+09, 9E+09, 9E+09, 9E+09]], v30, z0, tNozzle, \Wobj := wobjFlatPlat;
		MoveJ [[7.888, 4.734, 70.000], [-0.5573215, 0.0863581, 0.7018136, -0.4351928], [-1, 1, -3, 1], [9E+09, 9E+09, 9E+09, 9E+09, 9E+09, 9E+09]], v30, z0, tNozzle, \Wobj := wobjFlatPlat;
		MoveJ [[5.321, -7.505, 56.250], [-0.7045947, 0.5403332, 0.4561141, 0.0595518], [-1, 1, -2, 1], [9E+09, 9E+09, 9E+09, 9E+09, 9E+09, 9E+09]], v30, z0, tNozzle, \Wobj := wobjFlatPlat;
		MoveJ [[-7.078, -5.877, 42.500], [-0.476373, 0.7063522, -0.0326591, 0.5225598], [-1, 1, -1, 1], [9E+09, 9E+09, 9E+09, 9E+09, 9E+09, 9E+09]], v30, z0, tNozzle, \Wobj := wobjFlatPlat;
		MoveJ [[-6.399, 6.610, 28.750], [0.0057188, 0.4959398, -0.5040275, 0.7070837], [-1, 1, 0, 1], [9E+09, 9E+09, 9E+09, 9E+09, 9E+09, 9E+09]], v30, z0, tNozzle, \Wobj := wobjFlatPlat;
		MoveJ [[6.103, 6.884, 15.000], [0.484763, 0.0212296, -0.7067881, 0.5147863], [-1, 1, 1, 1], [9E+09, 9E+09, 9E+09, 9E+09, 9E+09, 9E+09]], v30, z0, tNozzle, \Wobj := wobjFlatPlat;
		MoveJ [[5.557, 7.332, 15.000], [0.4646268, 0.0483689, -0.7054506, 0.5330309], [-1, 1, 1, 1], [9E+09, 9E+09, 9E+09, 9E+09, 9E+09, 9E+09]], v30, z0, tNozzle, \Wobj := wobjFlatPlat;
		MoveJ [[-6.888, 6.099, 28.750], [-0.0214518, 0.5149385, -0.4846013, 0.7067813], [-1, 1, 0, 1], [9E+09, 9E+09, 9E+09, 9E+09, 9E+09, 9E+09]], v30, z0, tNozzle, \Wobj := wobjFlatPlat;
		MoveJ [[-6.606, -6.403, 42.500], [-0.4960982, 0.7070855, -0.0054967, 0.5038716], [-1, 1, -1, 1], [9E+09, 9E+09, 9E+09, 9E+09, 9E+09, 9E+09]], v30, z0, tNozzle, \Wobj := wobjFlatPlat;
		MoveJ [[5.882, -7.074, 56.250], [-0.7063624, 0.5224102, 0.4765371, 0.0324371], [-1, 1, -2, 1], [9E+09, 9E+09, 9E+09, 9E+09, 9E+09, 9E+09]], v30, z0, tNozzle, \Wobj := wobjFlatPlat;
		MoveJ [[7.502, 5.326, 70.000], [-0.5401898, 0.0593305, 0.7046133, -0.4562839], [-1, 1, -3, 1], [9E+09, 9E+09, 9E+09, 9E+09, 9E+09, 9E+09]], v30, z0, tNozzle, \Wobj := wobjFlatPlat;
		MoveJ [[7.071, 5.886, 70.000], [-0.5222604, 0.0322153, 0.7063726, -0.4767013], [-1, 1, -3, 1], [9E+09, 9E+09, 9E+09, 9E+09, 9E+09, 9E+09]], v30, z0, tNozzle, \Wobj := wobjFlatPlat;
		MoveJ [[6.408, -6.602, 56.250], [-0.7070871, 0.5037158, 0.4962564, 0.0052745], [-1, 1, -2, 1], [9E+09, 9E+09, 9E+09, 9E+09, 9E+09, 9E+09]], v30, z0, tNozzle, \Wobj := wobjFlatPlat;
		MoveJ [[-6.095, -6.892, 42.500], [-0.5150908, 0.7067746, 0.0216737, 0.4844394], [-1, 1, -1, 1], [9E+09, 9E+09, 9E+09, 9E+09, 9E+09, 9E+09]], v30, z0, tNozzle, \Wobj := wobjFlatPlat;
		MoveJ [[-7.336, 5.552, 28.750], [-0.0485906, 0.5331768, -0.4644594, 0.7054353], [-1, 1, 0, 1], [9E+09, 9E+09, 9E+09, 9E+09, 9E+09, 9E+09]], v30, z0, tNozzle, \Wobj := wobjFlatPlat;
		MoveJ [[4.977, 7.737, 15.000], [0.4438046, 0.0754368, -0.7030714, 0.5504885], [-1, 1, 1, 1], [9E+09, 9E+09, 9E+09, 9E+09, 9E+09, 9E+09]], v30, z0, tNozzle, \Wobj := wobjFlatPlat;
		MoveJ [[4.368, 8.097, 15.000], [0.422327, 0.1023933, -0.699654, 0.5671331], [-1, 1, 1, 1], [9E+09, 9E+09, 9E+09, 9E+09, 9E+09, 9E+09]], v30, z0, tNozzle, \Wobj := wobjFlatPlat;
		MoveJ [[-7.741, 4.972, 28.750], [-0.0756578, 0.5506278, -0.4436317, 0.7030476], [-1, 1, 0, 1], [9E+09, 9E+09, 9E+09, 9E+09, 9E+09, 9E+09]], v30, z0, tNozzle, \Wobj := wobjFlatPlat;
		MoveJ [[-5.547, -7.339, 42.500], [-0.5333228, 0.70542, 0.0488122, 0.4642918], [-1, 1, -1, 1], [9E+09, 9E+09, 9E+09, 9E+09, 9E+09, 9E+09]], v30, z0, tNozzle, \Wobj := wobjFlatPlat;
		MoveJ [[6.896, -6.090, 56.250], [-0.7067677, 0.4842776, 0.5152429, -0.0218958], [-1, 1, -2, 1], [9E+09, 9E+09, 9E+09, 9E+09, 9E+09, 9E+09]], v30, z0, tNozzle, \Wobj := wobjFlatPlat;
		MoveJ [[6.598, 6.412, 70.000], [-0.5035598, 0.0050525, 0.7070888, -0.4964147], [-1, 1, -3, 1], [9E+09, 9E+09, 9E+09, 9E+09, 9E+09, 9E+09]], v30, z0, tNozzle, \Wobj := wobjFlatPlat;
		MoveJ [[6.086, 6.899, 70.000], [-0.4841157, -0.0221178, 0.7067608, -0.5153951], [-1, 1, -3, 1], [9E+09, 9E+09, 9E+09, 9E+09, 9E+09, 9E+09]], v30, z0, tNozzle, \Wobj := wobjFlatPlat;
		MoveJ [[7.343, -5.543, 56.250], [-0.7054047, 0.4641243, 0.5334685, -0.0490339], [-1, 1, -2, 1], [9E+09, 9E+09, 9E+09, 9E+09, 9E+09, 9E+09]], v30, z0, tNozzle, \Wobj := wobjFlatPlat;
		MoveJ [[-4.967, -7.744, 42.500], [-0.5507672, 0.7030238, 0.0758786, 0.4434586], [-1, 1, -1, 1], [9E+09, 9E+09, 9E+09, 9E+09, 9E+09, 9E+09]], v30, z0, tNozzle, \Wobj := wobjFlatPlat;
		MoveJ [[-8.099, 4.363, 28.750], [-0.1026132, 0.5672657, -0.4221489, 0.6996217], [-1, 1, 0, 1], [9E+09, 9E+09, 9E+09, 9E+09, 9E+09, 9E+09]], v30, z0, tNozzle, \Wobj := wobjFlatPlat;
		MoveJ [[3.734, 8.408, 15.000], [0.4002258, 0.1291986, -0.6952034, 0.5829403], [-1, 1, 1, 1], [9E+09, 9E+09, 9E+09, 9E+09, 9E+09, 9E+09]], v30, z0, tNozzle, \Wobj := wobjFlatPlat;
		MoveJ [[3.077, 8.670, 15.000], [0.3775336, 0.1558131, -0.6897263, 0.5978867], [-1, 1, 1, 1], [9E+09, 9E+09, 9E+09, 9E+09, 9E+09, 9E+09]], v30, z0, tNozzle, \Wobj := wobjFlatPlat;
		MoveJ [[-8.411, 3.729, 28.750], [-0.1294171, 0.5830659, -0.4000427, 0.6951628], [-1, 1, 0, 1], [9E+09, 9E+09, 9E+09, 9E+09, 9E+09, 9E+09]], v30, z0, tNozzle, \Wobj := wobjFlatPlat;
		MoveJ [[-4.358, -8.102, 42.500], [-0.5673983, 0.6995895, 0.1028329, 0.4219706], [-1, 1, -1, 1], [9E+09, 9E+09, 9E+09, 9E+09, 9E+09, 9E+09]], v30, z0, tNozzle, \Wobj := wobjFlatPlat;
		MoveJ [[7.747, -4.963, 56.250], [-0.7029999, 0.4432856, 0.5509064, -0.0760995], [-1, 1, -2, 1], [9E+09, 9E+09, 9E+09, 9E+09, 9E+09, 9E+09]], v30, z0, tNozzle, \Wobj := wobjFlatPlat;
		MoveJ [[5.538, 7.346, 70.000], [-0.4639566, -0.0492554, 0.7053892, -0.5336144], [-1, 1, -3, 1], [9E+09, 9E+09, 9E+09, 9E+09, 9E+09, 9E+09]], v30, z0, tNozzle, \Wobj := wobjFlatPlat;
		MoveJ [[4.958, 7.750, 70.000], [-0.4431125, -0.0763203, 0.702976, -0.5510457], [-1, 1, -3, 1], [9E+09, 9E+09, 9E+09, 9E+09, 9E+09, 9E+09]], v30, z0, tNozzle, \Wobj := wobjFlatPlat;
		MoveJ [[8.105, -4.353, 56.250], [-0.6995571, 0.4217924, 0.5675308, -0.1030527], [-1, 1, -2, 1], [9E+09, 9E+09, 9E+09, 9E+09, 9E+09, 9E+09]], v30, z0, tNozzle, \Wobj := wobjFlatPlat;
		MoveJ [[-3.723, -8.413, 42.500], [-0.5831916, 0.6951221, 0.1296354, 0.3998594], [-1, 1, -1, 1], [9E+09, 9E+09, 9E+09, 9E+09, 9E+09, 9E+09]], v30, z0, tNozzle, \Wobj := wobjFlatPlat;
		MoveJ [[-8.672, 3.072, 28.750], [-0.1560298, 0.5980052, -0.3773458, 0.6896773], [-1, 1, 0, 1], [9E+09, 9E+09, 9E+09, 9E+09, 9E+09, 9E+09]], v30, z0, tNozzle, \Wobj := wobjFlatPlat;
		MoveJ [[2.402, 8.881, 15.000], [0.3542839, 0.1821975, -0.6832306, 0.6119502], [-1, 1, 1, 1], [9E+09, 9E+09, 9E+09, 9E+09, 9E+09, 9E+09]], v30, z0, tNozzle, \Wobj := wobjFlatPlat;
		MoveJ [[1.713, 9.039, 15.000], [0.330511, 0.2083129, -0.6757261, 0.62511], [-1, 1, 1, 1], [9E+09, 9E+09, 9E+09, 9E+09, 9E+09, 9E+09]], v30, z0, tNozzle, \Wobj := wobjFlatPlat;
		MoveJ [[-8.882, 2.397, 28.750], [-0.1824122, 0.6120614, -0.3540917, 0.6831734], [-1, 1, 0, 1], [9E+09, 9E+09, 9E+09, 9E+09, 9E+09, 9E+09]], v30, z0, tNozzle, \Wobj := wobjFlatPlat;
		MoveJ [[-3.066, -8.674, 42.500], [-0.5981238, 0.6896282, 0.1562464, 0.3771578], [-1, 1, -1, 1], [9E+09, 9E+09, 9E+09, 9E+09, 9E+09, 9E+09]], v30, z0, tNozzle, \Wobj := wobjFlatPlat;
		MoveJ [[8.415, -3.718, 56.250], [-0.6950813, 0.3996763, 0.5833172, -0.1298538], [-1, 1, -2, 1], [9E+09, 9E+09, 9E+09, 9E+09, 9E+09, 9E+09]], v30, z0, tNozzle, \Wobj := wobjFlatPlat;
		MoveJ [[4.348, 8.108, 70.000], [-0.421614, -0.1032724, 0.6995247, -0.5676634], [-1, 1, -3, 1], [9E+09, 9E+09, 9E+09, 9E+09, 9E+09, 9E+09]], v30, z0, tNozzle, \Wobj := wobjFlatPlat;
		MoveJ [[3.713, 8.418, 70.000], [-0.3994929, -0.1300721, 0.6950405, -0.5834428], [-1, 1, -3, 1], [9E+09, 9E+09, 9E+09, 9E+09, 9E+09, 9E+09]], v30, z0, tNozzle, \Wobj := wobjFlatPlat;
		MoveJ [[8.676, -3.061, 56.250], [-0.6895791, 0.37697, 0.5982422, -0.1564632], [-1, 1, -2, 1], [9E+09, 9E+09, 9E+09, 9E+09, 9E+09, 9E+09]], v30, z0, tNozzle, \Wobj := wobjFlatPlat;
		MoveJ [[-2.391, -8.884, 42.500], [-0.6121726, 0.683116, 0.1826268, 0.3538993], [-1, 1, -1, 1], [9E+09, 9E+09, 9E+09, 9E+09, 9E+09, 9E+09]], v30, z0, tNozzle, \Wobj := wobjFlatPlat;
		MoveJ [[-9.040, 1.708, 28.750], [-0.2085252, 0.6252138, -0.3303147, 0.6756606], [-1, 1, 0, 1], [9E+09, 9E+09, 9E+09, 9E+09, 9E+09, 9E+09]], v30, z0, tNozzle, \Wobj := wobjFlatPlat;
		MoveJ [[1.014, 9.144, 15.000], [0.3062501, 0.2341207, -0.6672238, 0.6373468], [-1, 1, 1, 1], [9E+09, 9E+09, 9E+09, 9E+09, 9E+09, 9E+09]], v30, z0, tNozzle, \Wobj := wobjFlatPlat;
		MoveJ [[0.309, 9.195, 15.000], [0.2815369, 0.2595827, -0.6577362, 0.6486424], [-1, 1, 1, 1], [9E+09, 9E+09, 9E+09, 9E+09, 9E+09, 9E+09]], v30, z0, tNozzle, \Wobj := wobjFlatPlat;
		MoveJ [[-9.145, 1.008, 28.750], [-0.2343303, 0.6374429, -0.3060499, 0.6671502], [-1, 1, 0, 1], [9E+09, 9E+09, 9E+09, 9E+09, 9E+09, 9E+09]], v30, z0, tNozzle, \Wobj := wobjFlatPlat;
		MoveJ [[-1.702, -9.041, 42.500], [-0.6253176, 0.6755951, 0.2087374, 0.3301182], [-1, 1, -1, 1], [9E+09, 9E+09, 9E+09, 9E+09, 9E+09, 9E+09]], v30, z0, tNozzle, \Wobj := wobjFlatPlat;
		MoveJ [[8.885, -2.386, 56.250], [-0.6830586, 0.353707, 0.6122838, -0.1828414], [-1, 1, -2, 1], [9E+09, 9E+09, 9E+09, 9E+09, 9E+09, 9E+09]], v30, z0, tNozzle, \Wobj := wobjFlatPlat;
		MoveJ [[3.055, 8.678, 70.000], [-0.3767819, -0.1566797, 0.6895299, -0.5983606], [-1, 1, -3, 1], [9E+09, 9E+09, 9E+09, 9E+09, 9E+09, 9E+09]], v30, z0, tNozzle, \Wobj := wobjFlatPlat;
		MoveJ [[2.380, 8.887, 70.000], [-0.3535146, -0.1830559, 0.6830011, -0.6123949], [-1, 1, -3, 1], [9E+09, 9E+09, 9E+09, 9E+09, 9E+09, 9E+09]], v30, z0, tNozzle, \Wobj := wobjFlatPlat;
		MoveJ [[9.042, -1.696, 56.250], [-0.6755295, 0.3299218, 0.6254212, -0.2089497], [-1, 1, -2, 1], [9E+09, 9E+09, 9E+09, 9E+09, 9E+09, 9E+09]], v30, z0, tNozzle, \Wobj := wobjFlatPlat;
		MoveJ [[-1.003, -9.145, 42.500], [-0.6375391, 0.6670765, 0.2345398, 0.3058496], [-1, 1, -1, 1], [9E+09, 9E+09, 9E+09, 9E+09, 9E+09, 9E+09]], v30, z0, tNozzle, \Wobj := wobjFlatPlat;
		MoveJ [[-9.195, 0.303, 28.750], [-0.2597894, 0.6487308, -0.2813332, 0.6576546], [-1, 1, 0, 1], [9E+09, 9E+09, 9E+09, 9E+09, 9E+09, 9E+09]], v30, z0, tNozzle, \Wobj := wobjFlatPlat;
		MoveJ [[-0.398, 9.191, 15.000], [0.2564081, 0.2846614, -0.6472773, 0.6589802], [-1, 1, 0, 1], [9E+09, 9E+09, 9E+09, 9E+09, 9E+09, 9E+09]], v30, z0, tNozzle, \Wobj := wobjFlatPlat;
		MoveJ [[-1.102, 9.134, 15.000], [0.2309006, 0.3093198, -0.6358626, 0.668345], [-1, 1, 0, 1], [9E+09, 9E+09, 9E+09, 9E+09, 9E+09, 9E+09]], v30, z0, tNozzle, \Wobj := wobjFlatPlat;
		MoveJ [[-9.191, -0.404, 28.750], [-0.2848648, 0.6590607, -0.2562011, 0.6471878], [-1, 1, -1, 1], [9E+09, 9E+09, 9E+09, 9E+09, 9E+09, 9E+09]], v30, z0, tNozzle, \Wobj := wobjFlatPlat;
		MoveJ [[-0.298, -9.195, 42.500], [-0.6488192, 0.6575729, 0.2599959, 0.2811293], [-1, 1, -1, 1], [9E+09, 9E+09, 9E+09, 9E+09, 9E+09, 9E+09]], v30, z0, tNozzle, \Wobj := wobjFlatPlat;
		MoveJ [[9.146, -0.997, 56.250], [-0.6670028, 0.3056493, 0.6376351, -0.2347495], [-1, 1, -2, 1], [9E+09, 9E+09, 9E+09, 9E+09, 9E+09, 9E+09]], v30, z0, tNozzle, \Wobj := wobjFlatPlat;
		MoveJ [[1.691, 9.043, 70.000], [-0.3297252, -0.2091619, 0.6754638, -0.6255249], [-1, 1, -3, 1], [9E+09, 9E+09, 9E+09, 9E+09, 9E+09, 9E+09]], v30, z0, tNozzle, \Wobj := wobjFlatPlat;
		MoveJ [[0.991, 9.146, 70.000], [-0.3054489, -0.2349589, 0.666929, -0.6377311], [-1, 1, -3, 1], [9E+09, 9E+09, 9E+09, 9E+09, 9E+09, 9E+09]], v30, z0, tNozzle, \Wobj := wobjFlatPlat;
		MoveJ [[9.195, -0.292, 56.250], [-0.6574912, 0.2809256, 0.6489075, -0.2602026], [-1, 1, -2, 1], [9E+09, 9E+09, 9E+09, 9E+09, 9E+09, 9E+09]], v30, z0, tNozzle, \Wobj := wobjFlatPlat;
		MoveJ [[0.409, -9.191, 42.500], [-0.6591412, 0.6470983, 0.2850681, 0.255994], [-1, 1, -2, 1], [9E+09, 9E+09, 9E+09, 9E+09, 9E+09, 9E+09]], v30, z0, tNozzle, \Wobj := wobjFlatPlat;
		MoveJ [[-9.133, -1.108, 28.750], [-0.3095196, 0.6684174, -0.2306907, 0.6357654], [-1, 1, -1, 1], [9E+09, 9E+09, 9E+09, 9E+09, 9E+09, 9E+09]], v30, z0, tNozzle, \Wobj := wobjFlatPlat;
		MoveJ [[-1.800, 9.022, 15.000], [0.2050521, 0.3335215, -0.623509, 0.6767228], [-1, 1, 0, 1], [9E+09, 9E+09, 9E+09, 9E+09, 9E+09, 9E+09]], v30, z0, tNozzle, \Wobj := wobjFlatPlat;
		MoveJ [[-2.488, 8.857, 15.000], [0.1789008, 0.3572306, -0.6102347, 0.6841013], [-1, 1, 0, 1], [9E+09, 9E+09, 9E+09, 9E+09, 9E+09, 9E+09]], v30, z0, tNozzle, \Wobj := wobjFlatPlat;
		MoveJ [[-9.021, -1.806, 28.750], [-0.3337174, 0.6767871, -0.2048396, 0.6234042], [-1, 1, -1, 1], [9E+09, 9E+09, 9E+09, 9E+09, 9E+09, 9E+09]], v30, z0, tNozzle, \Wobj := wobjFlatPlat;
		MoveJ [[1.114, -9.132, 42.500], [-0.6684899, 0.6356682, 0.3097193, 0.2304806], [-1, 1, -2, 1], [9E+09, 9E+09, 9E+09, 9E+09, 9E+09, 9E+09]], v30, z0, tNozzle, \Wobj := wobjFlatPlat;
		MoveJ [[9.191, 0.415, 56.250], [-0.6470087, 0.2557869, 0.6592216, -0.2852714], [-1, 1, -3, 1], [9E+09, 9E+09, 9E+09, 9E+09, 9E+09, 9E+09]], v30, z0, tNozzle, \Wobj := wobjFlatPlat;
		MoveJ [[0.286, 9.196, 70.000], [-0.2807216, -0.260409, 0.6574094, -0.6489957], [-1, 1, -3, 1], [9E+09, 9E+09, 9E+09, 9E+09, 9E+09, 9E+09]], v30, z0, tNozzle, \Wobj := wobjFlatPlat;
		MoveJ [[-0.421, 9.190, 70.000], [-0.2555798, -0.2854746, 0.6469191, -0.6593019], [-1, 1, -4, 1], [9E+09, 9E+09, 9E+09, 9E+09, 9E+09, 9E+09]], v30, z0, tNozzle, \Wobj := wobjFlatPlat;
		MoveJ [[9.132, 1.120, 56.250], [-0.6355708, 0.2302706, 0.6685623, -0.3099191], [-1, 1, -3, 1], [9E+09, 9E+09, 9E+09, 9E+09, 9E+09, 9E+09]], v30, z0, tNozzle, \Wobj := wobjFlatPlat;
		MoveJ [[1.812, -9.020, 42.500], [-0.6768515, 0.6232993, 0.3339132, 0.2046269], [-1, 1, -2, 1], [9E+09, 9E+09, 9E+09, 9E+09, 9E+09, 9E+09]], v30, z0, tNozzle, \Wobj := wobjFlatPlat;
		MoveJ [[-8.856, -2.493, 28.750], [-0.3574223, 0.6841574, -0.178686, 0.6101224], [-1, 1, -1, 1], [9E+09, 9E+09, 9E+09, 9E+09, 9E+09, 9E+09]], v30, z0, tNozzle, \Wobj := wobjFlatPlat;
		MoveJ [[-3.161, 8.640, 15.000], [0.1524854, 0.3804122, -0.5960592, 0.6904696], [-1, 1, 0, 1], [9E+09, 9E+09, 9E+09, 9E+09, 9E+09, 9E+09]], v30, z0, tNozzle, \Wobj := wobjFlatPlat;
		MoveJ [[-3.815, 8.372, 15.000], [0.1258448, 0.4030321, -0.5810036, 0.6958183], [-1, 1, 0, 1], [9E+09, 9E+09, 9E+09, 9E+09, 9E+09, 9E+09]], v30, z0, tNozzle, \Wobj := wobjFlatPlat;
		MoveJ [[-8.638, -3.166, 28.750], [-0.3805995, 0.6905174, -0.1522686, 0.5959396], [-1, 1, -1, 1], [9E+09, 9E+09, 9E+09, 9E+09, 9E+09, 9E+09]], v30, z0, tNozzle, \Wobj := wobjFlatPlat;
		MoveJ [[2.499, -8.854, 42.500], [-0.6842135, 0.6100101, 0.3576139, 0.178471], [-1, 1, -2, 1], [9E+09, 9E+09, 9E+09, 9E+09, 9E+09, 9E+09]], v30, z0, tNozzle, \Wobj := wobjFlatPlat;
		MoveJ [[9.019, 1.817, 56.250], [-0.6231944, 0.2044143, 0.6769157, -0.334109], [-1, 1, -3, 1], [9E+09, 9E+09, 9E+09, 9E+09, 9E+09, 9E+09]], v30, z0, tNozzle, \Wobj := wobjFlatPlat;
		MoveJ [[-1.125, 9.131, 70.000], [-0.2300605, -0.3101186, 0.6354734, -0.6686346], [-1, 1, -4, 1], [9E+09, 9E+09, 9E+09, 9E+09, 9E+09, 9E+09]], v30, z0, tNozzle, \Wobj := wobjFlatPlat;
		MoveJ [[-1.823, 9.018, 70.000], [-0.2042015, -0.3343047, 0.6230894, -0.6769799], [-1, 1, -4, 1], [9E+09, 9E+09, 9E+09, 9E+09, 9E+09, 9E+09]], v30, z0, tNozzle, \Wobj := wobjFlatPlat;
		MoveJ [[8.853, 2.505, 56.250], [-0.6098977, 0.1782561, 0.6842696, -0.3578056], [-1, 1, -3, 1], [9E+09, 9E+09, 9E+09, 9E+09, 9E+09, 9E+09]], v30, z0, tNozzle, \Wobj := wobjFlatPlat;
		MoveJ [[3.171, -8.636, 42.500], [-0.6905653, 0.5958201, 0.3807866, 0.1520515], [-1, 1, -2, 1], [9E+09, 9E+09, 9E+09, 9E+09, 9E+09, 9E+09]], v30, z0, tNozzle, \Wobj := wobjFlatPlat;
