MODULE MainModule
	PROC main()
		SetDO DO4_Heat_Nozzle, 1;
		SetDO DO1_Auto_Mode, 1;
		MoveJ [[22.000, 0.000, 15.000], [0.6532815, -0.2705981, -0.6532815, 0.2705981], [-1, 1, 1, 1], [9E+09, 9E+09, 9E+09, 9E+09, 9E+09, 9E+09]], v30, z0, tNozzle, \Wobj := wobjFlatPlat;
		MoveJ [[12.000, 0.000, 15.000], [0.6532815, -0.2705981, -0.6532815, 0.2705981], [-1, 1, 1, 1], [9E+09, 9E+09, 9E+09, 9E+09, 9E+09, 9E+09]], v30, z0, tNozzle, \Wobj := wobjFlatPlat;
		WaitRob \InPos;
		SetDO DO6_Between_Layer_Retract, 0;
		SetDO DO5_Program_Feed, 1;
		MoveJ [[12.000, -0.000, 42.500], [0.6532815, -0.2705981, -0.6532815, 0.2705981], [-1, 1, 1, 1], [9E+09, 9E+09, 9E+09, 9E+09, 9E+09, 9E+09]], v30, z0, tNozzle, \Wobj := wobjFlatPlat;
		MoveJ [[12.000, -0.000, 70.000], [0.6532815, -0.2705981, -0.6532815, 0.2705981], [-1, 1, 1, 1], [9E+09, 9E+09, 9E+09, 9E+09, 9E+09, 9E+09]], v30, z0, tNozzle, \Wobj := wobjFlatPlat;
		MoveJ [[11.979, -0.704, 70.000], [0.6609437, -0.2896595, -0.6450561, 0.2513034], [-1, 1, 1, 1], [9E+09, 9E+09, 9E+09, 9E+09, 9E+09, 9E+09]], v30, z0, tNozzle, \Wobj := wobjFlatPlat;
		MoveJ [[11.979, -0.704, 42.500], [0.6609437, -0.2896595, -0.6450561, 0.2513034], [-1, 1, 1, 1], [9E+09, 9E+09, 9E+09, 9E+09, 9E+09, 9E+09]], v30, z0, tNozzle, \Wobj := wobjFlatPlat;
		MoveJ [[11.979, -0.704, 15.000], [0.6609437, -0.2896595, -0.6450561, 0.2513034], [-1, 1, 1, 1], [9E+09, 9E+09, 9E+09, 9E+09, 9E+09, 9E+09]], v30, z0, tNozzle, \Wobj := wobjFlatPlat;
		MoveJ [[11.917, -1.406, 15.000], [0.6680363, -0.3084712, -0.6362747, 0.2317922], [-1, 1, 1, 1], [9E+09, 9E+09, 9E+09, 9E+09, 9E+09, 9E+09]], v30, z0, tNozzle, \Wobj := wobjFlatPlat;
		MoveJ [[11.917, -1.406, 42.500], [0.6680363, -0.3084712, -0.6362747, 0.2317922], [-1, 1, 1, 1], [9E+09, 9E+09, 9E+09, 9E+09, 9E+09, 9E+09]], v30, z0, tNozzle, \Wobj := wobjFlatPlat;
		MoveJ [[11.917, -1.406, 70.000], [0.6680363, -0.3084712, -0.6362747, 0.2317922], [-1, 1, 1, 1], [9E+09, 9E+09, 9E+09, 9E+09, 9E+09, 9E+09]], v30, z0, tNozzle, \Wobj := wobjFlatPlat;
		MoveJ [[11.814, -2.103, 70.000], [0.6745529, -0.3270171, -0.6269449, 0.2120811], [-1, 1, 1, 1], [9E+09, 9E+09, 9E+09, 9E+09, 9E+09, 9E+09]], v30, z0, tNozzle, \Wobj := wobjFlatPlat;
		MoveJ [[11.814, -2.103, 42.500], [0.6745529, -0.3270171, -0.6269449, 0.2120811], [-1, 1, 1, 1], [9E+09, 9E+09, 9E+09, 9E+09, 9E+09, 9E+09]], v30, z0, tNozzle, \Wobj := wobjFlatPlat;
		MoveJ [[11.814, -2.103, 15.000], [0.6745529, -0.3270171, -0.6269449, 0.2120811], [-1, 1, 1, 1], [9E+09, 9E+09, 9E+09, 9E+09, 9E+09, 9E+09]], v30, z0, tNozzle, \Wobj := wobjFlatPlat;
		MoveJ [[11.670, -2.793, 15.000], [0.6804882, -0.345281, -0.6170746, 0.1921872], [-1, 1, 1, 1], [9E+09, 9E+09, 9E+09, 9E+09, 9E+09, 9E+09]], v30, z0, tNozzle, \Wobj := wobjFlatPlat;
		MoveJ [[11.670, -2.793, 42.500], [0.6804882, -0.345281, -0.6170746, 0.1921872], [-1, 1, 1, 1], [9E+09, 9E+09, 9E+09, 9E+09, 9E+09, 9E+09]], v30, z0, tNozzle, \Wobj := wobjFlatPlat;
		MoveJ [[11.670, -2.793, 70.000], [0.6804882, -0.345281, -0.6170746, 0.1921872], [-1, 1, 1, 1], [9E+09, 9E+09, 9E+09, 9E+09, 9E+09, 9E+09]], v30, z0, tNozzle, \Wobj := wobjFlatPlat;
		MoveJ [[11.486, -3.473, 70.000], [0.6858368, -0.3632473, -0.6066724, 0.1721276], [-1, 1, 1, 1], [9E+09, 9E+09, 9E+09, 9E+09, 9E+09, 9E+09]], v30, z0, tNozzle, \Wobj := wobjFlatPlat;
		MoveJ [[11.486, -3.473, 42.500], [0.6858368, -0.3632473, -0.6066724, 0.1721276], [-1, 1, 1, 1], [9E+09, 9E+09, 9E+09, 9E+09, 9E+09, 9E+09]], v30, z0, tNozzle, \Wobj := wobjFlatPlat;
		MoveJ [[11.486, -3.473, 15.000], [0.6858368, -0.3632473, -0.6066724, 0.1721276], [-1, 1, 1, 1], [9E+09, 9E+09, 9E+09, 9E+09, 9E+09, 9E+09]], v30, z0, tNozzle, \Wobj := wobjFlatPlat;
		MoveJ [[11.263, -4.141, 15.000], [0.6905943, -0.3809005, -0.5957473, 0.1519197], [-1, 1, 1, 1], [9E+09, 9E+09, 9E+09, 9E+09, 9E+09, 9E+09]], v30, z0, tNozzle, \Wobj := wobjFlatPlat;
		MoveJ [[11.263, -4.141, 42.500], [0.6905943, -0.3809005, -0.5957473, 0.1519197], [-1, 1, 1, 1], [9E+09, 9E+09, 9E+09, 9E+09, 9E+09, 9E+09]], v30, z0, tNozzle, \Wobj := wobjFlatPlat;
		MoveJ [[11.263, -4.141, 70.000], [0.6905943, -0.3809005, -0.5957473, 0.1519197], [-1, 1, 1, 1], [9E+09, 9E+09, 9E+09, 9E+09, 9E+09, 9E+09]], v30, z0, tNozzle, \Wobj := wobjFlatPlat;
		MoveJ [[11.000, -4.795, 70.000], [0.6947565, -0.3982254, -0.5843087, 0.1315808], [-1, 1, 1, 1], [9E+09, 9E+09, 9E+09, 9E+09, 9E+09, 9E+09]], v30, z0, tNozzle, \Wobj := wobjFlatPlat;
		MoveJ [[11.000, -4.795, 42.500], [0.6947565, -0.3982254, -0.5843087, 0.1315808], [-1, 1, 1, 1], [9E+09, 9E+09, 9E+09, 9E+09, 9E+09, 9E+09]], v30, z0, tNozzle, \Wobj := wobjFlatPlat;
		MoveJ [[11.000, -4.795, 15.000], [0.6947565, -0.3982254, -0.5843087, 0.1315808], [-1, 1, 1, 1], [9E+09, 9E+09, 9E+09, 9E+09, 9E+09, 9E+09]], v30, z0, tNozzle, \Wobj := wobjFlatPlat;
		MoveJ [[10.700, -5.432, 15.000], [0.6983198, -0.415207, -0.5723663, 0.1111285], [-1, 1, 1, 1], [9E+09, 9E+09, 9E+09, 9E+09, 9E+09, 9E+09]], v30, z0, tNozzle, \Wobj := wobjFlatPlat;
		MoveJ [[10.700, -5.432, 42.500], [0.6983198, -0.415207, -0.5723663, 0.1111285], [-1, 1, 1, 1], [9E+09, 9E+09, 9E+09, 9E+09, 9E+09, 9E+09]], v30, z0, tNozzle, \Wobj := wobjFlatPlat;
		MoveJ [[10.700, -5.432, 70.000], [0.6983198, -0.415207, -0.5723663, 0.1111285], [-1, 1, 1, 1], [9E+09, 9E+09, 9E+09, 9E+09, 9E+09, 9E+09]], v30, z0, tNozzle, \Wobj := wobjFlatPlat;
		MoveJ [[10.363, -6.051, 70.000], [0.7012811, -0.4318307, -0.5599306, 0.0905804], [-1, 1, 1, 1], [9E+09, 9E+09, 9E+09, 9E+09, 9E+09, 9E+09]], v30, z0, tNozzle, \Wobj := wobjFlatPlat;
		MoveJ [[10.363, -6.051, 42.500], [0.7012811, -0.4318307, -0.5599306, 0.0905804], [-1, 1, 1, 1], [9E+09, 9E+09, 9E+09, 9E+09, 9E+09, 9E+09]], v30, z0, tNozzle, \Wobj := wobjFlatPlat;
		MoveJ [[10.363, -6.051, 15.000], [0.7012811, -0.4318307, -0.5599306, 0.0905804], [-1, 1, 1, 1], [9E+09, 9E+09, 9E+09, 9E+09, 9E+09, 9E+09]], v30, z0, tNozzle, \Wobj := wobjFlatPlat;
		MoveJ [[9.990, -6.649, 15.000], [0.703638, -0.4480821, -0.5470123, 0.0699543], [-1, 1, 1, 1], [9E+09, 9E+09, 9E+09, 9E+09, 9E+09, 9E+09]], v30, z0, tNozzle, \Wobj := wobjFlatPlat;
		MoveJ [[9.990, -6.649, 42.500], [0.703638, -0.4480821, -0.5470123, 0.0699543], [-1, 1, 1, 1], [9E+09, 9E+09, 9E+09, 9E+09, 9E+09, 9E+09]], v30, z0, tNozzle, \Wobj := wobjFlatPlat;
		MoveJ [[9.990, -6.649, 70.000], [0.703638, -0.4480821, -0.5470123, 0.0699543], [-1, 1, 1, 1], [9E+09, 9E+09, 9E+09, 9E+09, 9E+09, 9E+09]], v30, z0, tNozzle, \Wobj := wobjFlatPlat;
		MoveJ [[9.582, -7.223, 70.000], [0.7053884, -0.4639474, -0.5336224, 0.0492678], [-1, 1, 1, 1], [9E+09, 9E+09, 9E+09, 9E+09, 9E+09, 9E+09]], v30, z0, tNozzle, \Wobj := wobjFlatPlat;
		MoveJ [[9.582, -7.223, 42.500], [0.7053884, -0.4639474, -0.5336224, 0.0492678], [-1, 1, 1, 1], [9E+09, 9E+09, 9E+09, 9E+09, 9E+09, 9E+09]], v30, z0, tNozzle, \Wobj := wobjFlatPlat;
		MoveJ [[9.582, -7.223, 15.000], [0.7053884, -0.4639474, -0.5336224, 0.0492678], [-1, 1, 1, 1], [9E+09, 9E+09, 9E+09, 9E+09, 9E+09, 9E+09]], v30, z0, tNozzle, \Wobj := wobjFlatPlat;
		MoveJ [[9.142, -7.773, 15.000], [0.7065307, -0.4794127, -0.5197726, 0.0285388], [-1, 1, 1, 1], [9E+09, 9E+09, 9E+09, 9E+09, 9E+09, 9E+09]], v30, z0, tNozzle, \Wobj := wobjFlatPlat;
		MoveJ [[9.142, -7.773, 42.500], [0.7065307, -0.4794127, -0.5197726, 0.0285388], [-1, 1, 1, 1], [9E+09, 9E+09, 9E+09, 9E+09, 9E+09, 9E+09]], v30, z0, tNozzle, \Wobj := wobjFlatPlat;
		MoveJ [[9.142, -7.773, 70.000], [0.7065307, -0.4794127, -0.5197726, 0.0285388], [-1, 1, 1, 1], [9E+09, 9E+09, 9E+09, 9E+09, 9E+09, 9E+09]], v30, z0, tNozzle, \Wobj := wobjFlatPlat;
		MoveJ [[8.670, -8.296, 70.000], [0.707064, -0.4944647, -0.5054747, 0.0077853], [-1, 1, 1, 1], [9E+09, 9E+09, 9E+09, 9E+09, 9E+09, 9E+09]], v30, z0, tNozzle, \Wobj := wobjFlatPlat;
		MoveJ [[8.670, -8.296, 42.500], [0.707064, -0.4944647, -0.5054747, 0.0077853], [-1, 1, 1, 1], [9E+09, 9E+09, 9E+09, 9E+09, 9E+09, 9E+09]], v30, z0, tNozzle, \Wobj := wobjFlatPlat;
		MoveJ [[8.670, -8.296, 15.000], [0.707064, -0.4944647, -0.5054747, 0.0077853], [-1, 1, 1, 1], [9E+09, 9E+09, 9E+09, 9E+09, 9E+09, 9E+09]], v30, z0, tNozzle, \Wobj := wobjFlatPlat;
		MoveJ [[8.168, -8.791, 15.000], [0.7069878, -0.5090906, -0.4907411, -0.0129749], [-1, 1, 1, 1], [9E+09, 9E+09, 9E+09, 9E+09, 9E+09, 9E+09]], v30, z0, tNozzle, \Wobj := wobjFlatPlat;
		MoveJ [[8.168, -8.791, 42.500], [0.7069878, -0.5090906, -0.4907411, -0.0129749], [-1, 1, 1, 1], [9E+09, 9E+09, 9E+09, 9E+09, 9E+09, 9E+09]], v30, z0, tNozzle, \Wobj := wobjFlatPlat;
		MoveJ [[8.168, -8.791, 70.000], [0.7069878, -0.5090906, -0.4907411, -0.0129749], [-1, 1, 1, 1], [9E+09, 9E+09, 9E+09, 9E+09, 9E+09, 9E+09]], v30, z0, tNozzle, \Wobj := wobjFlatPlat;
		MoveJ [[7.638, -9.255, 70.000], [0.7063022, -0.5232776, -0.4755845, -0.033724], [-1, 1, 1, 1], [9E+09, 9E+09, 9E+09, 9E+09, 9E+09, 9E+09]], v30, z0, tNozzle, \Wobj := wobjFlatPlat;
		MoveJ [[7.638, -9.255, 42.500], [0.7063022, -0.5232776, -0.4755845, -0.033724], [-1, 1, 1, 1], [9E+09, 9E+09, 9E+09, 9E+09, 9E+09, 9E+09]], v30, z0, tNozzle, \Wobj := wobjFlatPlat;
		MoveJ [[7.638, -9.255, 15.000], [0.7063022, -0.5232776, -0.4755845, -0.033724], [-1, 1, 1, 1], [9E+09, 9E+09, 9E+09, 9E+09, 9E+09, 9E+09]], v30, z0, tNozzle, \Wobj := wobjFlatPlat;
		MoveJ [[7.082, -9.687, 15.000], [0.7050077, -0.5370135, -0.460018, -0.054444], [-1, 1, 1, 1], [9E+09, 9E+09, 9E+09, 9E+09, 9E+09, 9E+09]], v30, z0, tNozzle, \Wobj := wobjFlatPlat;
		MoveJ [[7.082, -9.687, 42.500], [0.7050077, -0.5370135, -0.460018, -0.054444], [-1, 1, 1, 1], [9E+09, 9E+09, 9E+09, 9E+09, 9E+09, 9E+09]], v30, z0, tNozzle, \Wobj := wobjFlatPlat;
		MoveJ [[7.082, -9.687, 70.000], [0.7050077, -0.5370135, -0.460018, -0.054444], [-1, 1, 1, 1], [9E+09, 9E+09, 9E+09, 9E+09, 9E+09, 9E+09]], v30, z0, tNozzle, \Wobj := wobjFlatPlat;
		MoveJ [[6.501, -10.086, 70.000], [0.7031056, -0.5502866, -0.4440549, -0.0751171], [-1, 1, 1, 1], [9E+09, 9E+09, 9E+09, 9E+09, 9E+09, 9E+09]], v30, z0, tNozzle, \Wobj := wobjFlatPlat;
		MoveJ [[6.501, -10.086, 42.500], [0.7031056, -0.5502866, -0.4440549, -0.0751171], [-1, 1, 1, 1], [9E+09, 9E+09, 9E+09, 9E+09, 9E+09, 9E+09]], v30, z0, tNozzle, \Wobj := wobjFlatPlat;
		MoveJ [[6.501, -10.086, 15.000], [0.7031056, -0.5502866, -0.4440549, -0.0751171], [-1, 1, 1, 1], [9E+09, 9E+09, 9E+09, 9E+09, 9E+09, 9E+09]], v30, z0, tNozzle, \Wobj := wobjFlatPlat;
		MoveJ [[5.898, -10.451, 15.000], [0.7005974, -0.5630853, -0.427709, -0.0957254], [-1, 1, 1, 1], [9E+09, 9E+09, 9E+09, 9E+09, 9E+09, 9E+09]], v30, z0, tNozzle, \Wobj := wobjFlatPlat;
		MoveJ [[5.898, -10.451, 42.500], [0.7005974, -0.5630853, -0.427709, -0.0957254], [-1, 1, 1, 1], [9E+09, 9E+09, 9E+09, 9E+09, 9E+09, 9E+09]], v30, z0, tNozzle, \Wobj := wobjFlatPlat;
		MoveJ [[5.898, -10.451, 70.000], [0.7005974, -0.5630853, -0.427709, -0.0957254], [-1, 1, 1, 1], [9E+09, 9E+09, 9E+09, 9E+09, 9E+09, 9E+09]], v30, z0, tNozzle, \Wobj := wobjFlatPlat;
		MoveJ [[5.275, -10.779, 70.000], [0.6974853, -0.5753986, -0.4109945, -0.1162512], [-1, 1, 1, 1], [9E+09, 9E+09, 9E+09, 9E+09, 9E+09, 9E+09]], v30, z0, tNozzle, \Wobj := wobjFlatPlat;
		MoveJ [[5.275, -10.779, 42.500], [0.6974853, -0.5753986, -0.4109945, -0.1162512], [-1, 1, 1, 1], [9E+09, 9E+09, 9E+09, 9E+09, 9E+09, 9E+09]], v30, z0, tNozzle, \Wobj := wobjFlatPlat;
		MoveJ [[5.275, -10.779, 15.000], [0.6974853, -0.5753986, -0.4109945, -0.1162512], [-1, 1, 1, 1], [9E+09, 9E+09, 9E+09, 9E+09, 9E+09, 9E+09]], v30, z0, tNozzle, \Wobj := wobjFlatPlat;
		MoveJ [[4.633, -11.070, 15.000], [0.6937719, -0.587216, -0.3939257, -0.1366768], [-1, 1, 1, 1], [9E+09, 9E+09, 9E+09, 9E+09, 9E+09, 9E+09]], v30, z0, tNozzle, \Wobj := wobjFlatPlat;
		MoveJ [[4.633, -11.070, 42.500], [0.6937719, -0.587216, -0.3939257, -0.1366768], [-1, 1, 1, 1], [9E+09, 9E+09, 9E+09, 9E+09, 9E+09, 9E+09]], v30, z0, tNozzle, \Wobj := wobjFlatPlat;
		MoveJ [[4.633, -11.070, 70.000], [0.6937719, -0.587216, -0.3939257, -0.1366768], [-1, 1, 1, 1], [9E+09, 9E+09, 9E+09, 9E+09, 9E+09, 9E+09]], v30, z0, tNozzle, \Wobj := wobjFlatPlat;
		MoveJ [[3.975, -11.322, 70.000], [0.6894606, -0.5985271, -0.3765173, -0.1569846], [-1, 1, 1, 1], [9E+09, 9E+09, 9E+09, 9E+09, 9E+09, 9E+09]], v30, z0, tNozzle, \Wobj := wobjFlatPlat;
		MoveJ [[3.975, -11.322, 42.500], [0.6894606, -0.5985271, -0.3765173, -0.1569846], [-1, 1, 1, 1], [9E+09, 9E+09, 9E+09, 9E+09, 9E+09, 9E+09]], v30, z0, tNozzle, \Wobj := wobjFlatPlat;
		MoveJ [[3.975, -11.322, 15.000], [0.6894606, -0.5985271, -0.3765173, -0.1569846], [-1, 1, 1, 1], [9E+09, 9E+09, 9E+09, 9E+09, 9E+09, 9E+09]], v30, z0, tNozzle, \Wobj := wobjFlatPlat;
		MoveJ [[3.304, -11.536, 15.000], [0.6845549, -0.6093224, -0.3587844, -0.177157], [-1, 1, 1, 1], [9E+09, 9E+09, 9E+09, 9E+09, 9E+09, 9E+09]], v30, z0, tNozzle, \Wobj := wobjFlatPlat;
		MoveJ [[3.304, -11.536, 42.500], [0.6845549, -0.6093224, -0.3587844, -0.177157], [-1, 1, 1, 1], [9E+09, 9E+09, 9E+09, 9E+09, 9E+09, 9E+09]], v30, z0, tNozzle, \Wobj := wobjFlatPlat;
		MoveJ [[3.304, -11.536, 70.000], [0.6845549, -0.6093224, -0.3587844, -0.177157], [-1, 1, 1, 1], [9E+09, 9E+09, 9E+09, 9E+09, 9E+09, 9E+09]], v30, z0, tNozzle, \Wobj := wobjFlatPlat;
		MoveJ [[2.621, -11.710, 70.000], [0.6790592, -0.6195924, -0.3407422, -0.1971768], [-1, 1, 1, 1], [9E+09, 9E+09, 9E+09, 9E+09, 9E+09, 9E+09]], v30, z0, tNozzle, \Wobj := wobjFlatPlat;
		MoveJ [[2.621, -11.710, 42.500], [0.6790592, -0.6195924, -0.3407422, -0.1971768], [-1, 1, 1, 1], [9E+09, 9E+09, 9E+09, 9E+09, 9E+09, 9E+09]], v30, z0, tNozzle, \Wobj := wobjFlatPlat;
		MoveJ [[2.621, -11.710, 15.000], [0.6790592, -0.6195924, -0.3407422, -0.1971768], [-1, 1, 1, 1], [9E+09, 9E+09, 9E+09, 9E+09, 9E+09, 9E+09]], v30, z0, tNozzle, \Wobj := wobjFlatPlat;
		MoveJ [[1.929, -11.844, 15.000], [0.6729781, -0.6293284, -0.3224063, -0.2170266], [-1, 1, 1, 1], [9E+09, 9E+09, 9E+09, 9E+09, 9E+09, 9E+09]], v30, z0, tNozzle, \Wobj := wobjFlatPlat;
		MoveJ [[1.929, -11.844, 42.500], [0.6729781, -0.6293284, -0.3224063, -0.2170266], [-1, 1, 1, 1], [9E+09, 9E+09, 9E+09, 9E+09, 9E+09, 9E+09]], v30, z0, tNozzle, \Wobj := wobjFlatPlat;
		MoveJ [[1.929, -11.844, 70.000], [0.6729781, -0.6293284, -0.3224063, -0.2170266], [-1, 1, 1, 1], [9E+09, 9E+09, 9E+09, 9E+09, 9E+09, 9E+09]], v30, z0, tNozzle, \Wobj := wobjFlatPlat;
		MoveJ [[1.231, -11.937, 70.000], [0.6663169, -0.6385218, -0.3037925, -0.2366893], [-1, 1, 1, 1], [9E+09, 9E+09, 9E+09, 9E+09, 9E+09, 9E+09]], v30, z0, tNozzle, \Wobj := wobjFlatPlat;
		MoveJ [[1.231, -11.937, 42.500], [0.6663169, -0.6385218, -0.3037925, -0.2366893], [-1, 1, 1, 1], [9E+09, 9E+09, 9E+09, 9E+09, 9E+09, 9E+09]], v30, z0, tNozzle, \Wobj := wobjFlatPlat;
		MoveJ [[1.231, -11.937, 15.000], [0.6663169, -0.6385218, -0.3037925, -0.2366893], [-1, 1, 1, 1], [9E+09, 9E+09, 9E+09, 9E+09, 9E+09, 9E+09]], v30, z0, tNozzle, \Wobj := wobjFlatPlat;
		MoveJ [[0.528, -11.988, 15.000], [0.6590814, -0.6471649, -0.2849169, -0.256148], [-1, 1, 1, 1], [9E+09, 9E+09, 9E+09, 9E+09, 9E+09, 9E+09]], v30, z0, tNozzle, \Wobj := wobjFlatPlat;
		MoveJ [[0.528, -11.988, 42.500], [0.6590814, -0.6471649, -0.2849169, -0.256148], [-1, 1, 1, 1], [9E+09, 9E+09, 9E+09, 9E+09, 9E+09, 9E+09]], v30, z0, tNozzle, \Wobj := wobjFlatPlat;
		MoveJ [[0.528, -11.988, 70.000], [0.6590814, -0.6471649, -0.2849169, -0.256148], [-1, 1, 1, 1], [9E+09, 9E+09, 9E+09, 9E+09, 9E+09, 9E+09]], v30, z0, tNozzle, \Wobj := wobjFlatPlat;
		MoveJ [[-0.176, -11.999, 70.000], [0.6512777, -0.6552501, -0.2657956, -0.2753859], [-1, 1, 2, 1], [9E+09, 9E+09, 9E+09, 9E+09, 9E+09, 9E+09]], v30, z0, tNozzle, \Wobj := wobjFlatPlat;
		MoveJ [[-0.176, -11.999, 42.500], [0.6512777, -0.6552501, -0.2657956, -0.2753859], [-1, 1, 2, 1], [9E+09, 9E+09, 9E+09, 9E+09, 9E+09, 9E+09]], v30, z0, tNozzle, \Wobj := wobjFlatPlat;
		MoveJ [[-0.176, -11.999, 15.000], [0.6512777, -0.6552501, -0.2657956, -0.2753859], [-1, 1, 2, 1], [9E+09, 9E+09, 9E+09, 9E+09, 9E+09, 9E+09]], v30, z0, tNozzle, \Wobj := wobjFlatPlat;
		MoveJ [[-0.880, -11.968, 15.000], [0.6429127, -0.6627706, -0.2464452, -0.2943864], [-1, 1, 2, 1], [9E+09, 9E+09, 9E+09, 9E+09, 9E+09, 9E+09]], v30, z0, tNozzle, \Wobj := wobjFlatPlat;
		MoveJ [[-0.880, -11.968, 42.500], [0.6429127, -0.6627706, -0.2464452, -0.2943864], [-1, 1, 2, 1], [9E+09, 9E+09, 9E+09, 9E+09, 9E+09, 9E+09]], v30, z0, tNozzle, \Wobj := wobjFlatPlat;
		MoveJ [[-0.880, -11.968, 70.000], [0.6429127, -0.6627706, -0.2464452, -0.2943864], [-1, 1, 2, 1], [9E+09, 9E+09, 9E+09, 9E+09, 9E+09, 9E+09]], v30, z0, tNozzle, \Wobj := wobjFlatPlat;
		MoveJ [[-1.581, -11.895, 70.000], [0.6339934, -0.6697197, -0.2268824, -0.3131332], [-1, 1, 2, 1], [9E+09, 9E+09, 9E+09, 9E+09, 9E+09, 9E+09]], v30, z0, tNozzle, \Wobj := wobjFlatPlat;
		MoveJ [[-1.581, -11.895, 42.500], [0.6339934, -0.6697197, -0.2268824, -0.3131332], [-1, 1, 2, 1], [9E+09, 9E+09, 9E+09, 9E+09, 9E+09, 9E+09]], v30, z0, tNozzle, \Wobj := wobjFlatPlat;
		MoveJ [[-1.581, -11.895, 15.000], [0.6339934, -0.6697197, -0.2268824, -0.3131332], [-1, 1, 2, 1], [9E+09, 9E+09, 9E+09, 9E+09, 9E+09, 9E+09]], v30, z0, tNozzle, \Wobj := wobjFlatPlat;
		MoveJ [[-2.276, -11.782, 15.000], [0.6245277, -0.6760915, -0.207124, -0.33161], [-1, 1, 2, 1], [9E+09, 9E+09, 9E+09, 9E+09, 9E+09, 9E+09]], v30, z0, tNozzle, \Wobj := wobjFlatPlat;
		MoveJ [[-2.276, -11.782, 42.500], [0.6245277, -0.6760915, -0.207124, -0.33161], [-1, 1, 2, 1], [9E+09, 9E+09, 9E+09, 9E+09, 9E+09, 9E+09]], v30, z0, tNozzle, \Wobj := wobjFlatPlat;
		MoveJ [[-2.276, -11.782, 70.000], [0.6245277, -0.6760915, -0.207124, -0.33161], [-1, 1, 2, 1], [9E+09, 9E+09, 9E+09, 9E+09, 9E+09, 9E+09]], v30, z0, tNozzle, \Wobj := wobjFlatPlat;
		MoveJ [[-2.964, -11.628, 70.000], [0.6145236, -0.6818805, -0.1871871, -0.349801], [-1, 1, 2, 1], [9E+09, 9E+09, 9E+09, 9E+09, 9E+09, 9E+09]], v30, z0, tNozzle, \Wobj := wobjFlatPlat;
		MoveJ [[-2.964, -11.628, 42.500], [0.6145236, -0.6818805, -0.1871871, -0.349801], [-1, 1, 2, 1], [9E+09, 9E+09, 9E+09, 9E+09, 9E+09, 9E+09]], v30, z0, tNozzle, \Wobj := wobjFlatPlat;
		MoveJ [[-2.964, -11.628, 15.000], [0.6145236, -0.6818805, -0.1871871, -0.349801], [-1, 1, 2, 1], [9E+09, 9E+09, 9E+09, 9E+09, 9E+09, 9E+09]], v30, z0, tNozzle, \Wobj := wobjFlatPlat;
		MoveJ [[-3.641, -11.434, 15.000], [0.6039899, -0.6870818, -0.1670888, -0.3676905], [-1, 1, 2, 1], [9E+09, 9E+09, 9E+09, 9E+09, 9E+09, 9E+09]], v30, z0, tNozzle, \Wobj := wobjFlatPlat;
		MoveJ [[-3.641, -11.434, 42.500], [0.6039899, -0.6870818, -0.1670888, -0.3676905], [-1, 1, 2, 1], [9E+09, 9E+09, 9E+09, 9E+09, 9E+09, 9E+09]], v30, z0, tNozzle, \Wobj := wobjFlatPlat;
		MoveJ [[-3.641, -11.434, 70.000], [0.6039899, -0.6870818, -0.1670888, -0.3676905], [-1, 1, 2, 1], [9E+09, 9E+09, 9E+09, 9E+09, 9E+09, 9E+09]], v30, z0, tNozzle, \Wobj := wobjFlatPlat;
		MoveJ [[-4.306, -11.201, 70.000], [0.5929355, -0.6916908, -0.1468465, -0.385263], [-1, 1, 2, 1], [9E+09, 9E+09, 9E+09, 9E+09, 9E+09, 9E+09]], v30, z0, tNozzle, \Wobj := wobjFlatPlat;
		MoveJ [[-4.306, -11.201, 42.500], [0.5929355, -0.6916908, -0.1468465, -0.385263], [-1, 1, 2, 1], [9E+09, 9E+09, 9E+09, 9E+09, 9E+09, 9E+09]], v30, z0, tNozzle, \Wobj := wobjFlatPlat;
		MoveJ [[-4.306, -11.201, 15.000], [0.5929355, -0.6916908, -0.1468465, -0.385263], [-1, 1, 2, 1], [9E+09, 9E+09, 9E+09, 9E+09, 9E+09, 9E+09]], v30, z0, tNozzle, \Wobj := wobjFlatPlat;
		MoveJ [[-4.956, -10.929, 15.000], [0.5813699, -0.6957036, -0.1264776, -0.4025035], [-1, 1, 2, 1], [9E+09, 9E+09, 9E+09, 9E+09, 9E+09, 9E+09]], v30, z0, tNozzle, \Wobj := wobjFlatPlat;
		MoveJ [[-4.956, -10.929, 42.500], [0.5813699, -0.6957036, -0.1264776, -0.4025035], [-1, 1, 2, 1], [9E+09, 9E+09, 9E+09, 9E+09, 9E+09, 9E+09]], v30, z0, tNozzle, \Wobj := wobjFlatPlat;
		MoveJ [[-4.956, -10.929, 70.000], [0.5813699, -0.6957036, -0.1264776, -0.4025035], [-1, 1, 2, 1], [9E+09, 9E+09, 9E+09, 9E+09, 9E+09, 9E+09]], v30, z0, tNozzle, \Wobj := wobjFlatPlat;
		MoveJ [[-5.589, -10.619, 70.000], [0.5693033, -0.6991167, -0.1059997, -0.419397], [-1, 1, 2, 1], [9E+09, 9E+09, 9E+09, 9E+09, 9E+09, 9E+09]], v30, z0, tNozzle, \Wobj := wobjFlatPlat;
		MoveJ [[-5.589, -10.619, 42.500], [0.5693033, -0.6991167, -0.1059997, -0.419397], [-1, 1, 2, 1], [9E+09, 9E+09, 9E+09, 9E+09, 9E+09, 9E+09]], v30, z0, tNozzle, \Wobj := wobjFlatPlat;
		MoveJ [[-5.589, -10.619, 15.000], [0.5693033, -0.6991167, -0.1059997, -0.419397], [-1, 1, 2, 1], [9E+09, 9E+09, 9E+09, 9E+09, 9E+09, 9E+09]], v30, z0, tNozzle, \Wobj := wobjFlatPlat;
		MoveJ [[-6.202, -10.273, 15.000], [0.5567459, -0.7019271, -0.0854304, -0.4359289], [-1, 1, 2, 1], [9E+09, 9E+09, 9E+09, 9E+09, 9E+09, 9E+09]], v30, z0, tNozzle, \Wobj := wobjFlatPlat;
		MoveJ [[-6.202, -10.273, 42.500], [0.5567459, -0.7019271, -0.0854304, -0.4359289], [-1, 1, 2, 1], [9E+09, 9E+09, 9E+09, 9E+09, 9E+09, 9E+09]], v30, z0, tNozzle, \Wobj := wobjFlatPlat;
		MoveJ [[-6.202, -10.273, 70.000], [0.5567459, -0.7019271, -0.0854304, -0.4359289], [-1, 1, 2, 1], [9E+09, 9E+09, 9E+09, 9E+09, 9E+09, 9E+09]], v30, z0, tNozzle, \Wobj := wobjFlatPlat;
		MoveJ [[-6.794, -9.891, 70.000], [0.5437086, -0.7041325, -0.0647875, -0.4520851], [-1, 1, 2, 1], [9E+09, 9E+09, 9E+09, 9E+09, 9E+09, 9E+09]], v30, z0, tNozzle, \Wobj := wobjFlatPlat;
		MoveJ [[-6.794, -9.891, 42.500], [0.5437086, -0.7041325, -0.0647875, -0.4520851], [-1, 1, 2, 1], [9E+09, 9E+09, 9E+09, 9E+09, 9E+09, 9E+09]], v30, z0, tNozzle, \Wobj := wobjFlatPlat;
		MoveJ [[-6.794, -9.891, 15.000], [0.5437086, -0.7041325, -0.0647875, -0.4520851], [-1, 1, 2, 1], [9E+09, 9E+09, 9E+09, 9E+09, 9E+09, 9E+09]], v30, z0, tNozzle, \Wobj := wobjFlatPlat;
		MoveJ [[-7.363, -9.475, 15.000], [0.5302027, -0.705731, -0.0440888, -0.4678517], [-1, 1, 2, 1], [9E+09, 9E+09, 9E+09, 9E+09, 9E+09, 9E+09]], v30, z0, tNozzle, \Wobj := wobjFlatPlat;
		MoveJ [[-7.363, -9.475, 42.500], [0.5302027, -0.705731, -0.0440888, -0.4678517], [-1, 1, 2, 1], [9E+09, 9E+09, 9E+09, 9E+09, 9E+09, 9E+09]], v30, z0, tNozzle, \Wobj := wobjFlatPlat;
		MoveJ [[-7.363, -9.475, 70.000], [0.5302027, -0.705731, -0.0440888, -0.4678517], [-1, 1, 2, 1], [9E+09, 9E+09, 9E+09, 9E+09, 9E+09, 9E+09]], v30, z0, tNozzle, \Wobj := wobjFlatPlat;
		MoveJ [[-7.907, -9.027, 70.000], [0.5162397, -0.7067211, -0.023352, -0.4832149], [-1, 1, 2, 1], [9E+09, 9E+09, 9E+09, 9E+09, 9E+09, 9E+09]], v30, z0, tNozzle, \Wobj := wobjFlatPlat;
		MoveJ [[-7.907, -9.027, 42.500], [0.5162397, -0.7067211, -0.023352, -0.4832149], [-1, 1, 2, 1], [9E+09, 9E+09, 9E+09, 9E+09, 9E+09, 9E+09]], v30, z0, tNozzle, \Wobj := wobjFlatPlat;
		MoveJ [[-7.907, -9.027, 15.000], [0.5162397, -0.7067211, -0.023352, -0.4832149], [-1, 1, 2, 1], [9E+09, 9E+09, 9E+09, 9E+09, 9E+09, 9E+09]], v30, z0, tNozzle, \Wobj := wobjFlatPlat;
		MoveJ [[-8.423, -8.547, 15.000], [0.5018317, -0.7071021, -0.0025951, -0.4981616], [-1, 1, 2, 1], [9E+09, 9E+09, 9E+09, 9E+09, 9E+09, 9E+09]], v30, z0, tNozzle, \Wobj := wobjFlatPlat;
		MoveJ [[-8.423, -8.547, 42.500], [0.5018317, -0.7071021, -0.0025951, -0.4981616], [-1, 1, 2, 1], [9E+09, 9E+09, 9E+09, 9E+09, 9E+09, 9E+09]], v30, z0, tNozzle, \Wobj := wobjFlatPlat;
		MoveJ [[-8.423, -8.547, 70.000], [0.5018317, -0.7071021, -0.0025951, -0.4981616], [-1, 1, 2, 1], [9E+09, 9E+09, 9E+09, 9E+09, 9E+09, 9E+09]], v30, z0, tNozzle, \Wobj := wobjFlatPlat;
		MoveJ [[-8.910, -8.038, 70.000], [0.4869912, -0.7068735, 0.018164, -0.5126789], [-1, 1, 2, 1], [9E+09, 9E+09, 9E+09, 9E+09, 9E+09, 9E+09]], v30, z0, tNozzle, \Wobj := wobjFlatPlat;
		MoveJ [[-8.910, -8.038, 42.500], [0.4869912, -0.7068735, 0.018164, -0.5126789], [-1, 1, 2, 1], [9E+09, 9E+09, 9E+09, 9E+09, 9E+09, 9E+09]], v30, z0, tNozzle, \Wobj := wobjFlatPlat;
		MoveJ [[-8.910, -8.038, 15.000], [0.4869912, -0.7068735, 0.018164, -0.5126789], [-1, 1, 2, 1], [9E+09, 9E+09, 9E+09, 9E+09, 9E+09, 9E+09]], v30, z0, tNozzle, \Wobj := wobjFlatPlat;
		MoveJ [[-9.366, -7.502, 15.000], [0.4717308, -0.7060356, 0.0389075, -0.5267543], [-1, 1, 2, 1], [9E+09, 9E+09, 9E+09, 9E+09, 9E+09, 9E+09]], v30, z0, tNozzle, \Wobj := wobjFlatPlat;
		MoveJ [[-9.366, -7.502, 42.500], [0.4717308, -0.7060356, 0.0389075, -0.5267543], [-1, 1, 2, 1], [9E+09, 9E+09, 9E+09, 9E+09, 9E+09, 9E+09]], v30, z0, tNozzle, \Wobj := wobjFlatPlat;
		MoveJ [[-9.366, -7.502, 70.000], [0.4717308, -0.7060356, 0.0389075, -0.5267543], [-1, 1, 2, 1], [9E+09, 9E+09, 9E+09, 9E+09, 9E+09, 9E+09]], v30, z0, tNozzle, \Wobj := wobjFlatPlat;
		MoveJ [[-9.790, -6.939, 70.000], [0.4560639, -0.7045891, 0.0596174, -0.5403756], [-1, 1, 2, 1], [9E+09, 9E+09, 9E+09, 9E+09, 9E+09, 9E+09]], v30, z0, tNozzle, \Wobj := wobjFlatPlat;
		MoveJ [[-9.790, -6.939, 42.500], [0.4560639, -0.7045891, 0.0596174, -0.5403756], [-1, 1, 2, 1], [9E+09, 9E+09, 9E+09, 9E+09, 9E+09, 9E+09]], v30, z0, tNozzle, \Wobj := wobjFlatPlat;
		MoveJ [[-9.790, -6.939, 15.000], [0.4560639, -0.7045891, 0.0596174, -0.5403756], [-1, 1, 2, 1], [9E+09, 9E+09, 9E+09, 9E+09, 9E+09, 9E+09]], v30, z0, tNozzle, \Wobj := wobjFlatPlat;
		MoveJ [[-10.181, -6.352, 15.000], [0.4400038, -0.7025353, 0.080276, -0.5535311], [-1, 1, 2, 1], [9E+09, 9E+09, 9E+09, 9E+09, 9E+09, 9E+09]], v30, z0, tNozzle, \Wobj := wobjFlatPlat;
		MoveJ [[-10.181, -6.352, 42.500], [0.4400038, -0.7025353, 0.080276, -0.5535311], [-1, 1, 2, 1], [9E+09, 9E+09, 9E+09, 9E+09, 9E+09, 9E+09]], v30, z0, tNozzle, \Wobj := wobjFlatPlat;
		MoveJ [[-10.181, -6.352, 70.000], [0.4400038, -0.7025353, 0.080276, -0.5535311], [-1, 1, 2, 1], [9E+09, 9E+09, 9E+09, 9E+09, 9E+09, 9E+09]], v30, z0, tNozzle, \Wobj := wobjFlatPlat;
		MoveJ [[-10.536, -5.744, 70.000], [0.4235645, -0.6998759, 0.1008653, -0.5662095], [-1, 1, 2, 1], [9E+09, 9E+09, 9E+09, 9E+09, 9E+09, 9E+09]], v30, z0, tNozzle, \Wobj := wobjFlatPlat;
		MoveJ [[-10.536, -5.744, 42.500], [0.4235645, -0.6998759, 0.1008653, -0.5662095], [-1, 1, 2, 1], [9E+09, 9E+09, 9E+09, 9E+09, 9E+09, 9E+09]], v30, z0, tNozzle, \Wobj := wobjFlatPlat;
		MoveJ [[-10.536, -5.744, 15.000], [0.4235645, -0.6998759, 0.1008653, -0.5662095], [-1, 1, 2, 1], [9E+09, 9E+09, 9E+09, 9E+09, 9E+09, 9E+09]], v30, z0, tNozzle, \Wobj := wobjFlatPlat;
		MoveJ [[-10.855, -5.116, 15.000], [0.40676, -0.6966132, 0.1213678, -0.5783998], [-1, 1, 2, 1], [9E+09, 9E+09, 9E+09, 9E+09, 9E+09, 9E+09]], v30, z0, tNozzle, \Wobj := wobjFlatPlat;
		MoveJ [[-10.855, -5.116, 42.500], [0.40676, -0.6966132, 0.1213678, -0.5783998], [-1, 1, 2, 1], [9E+09, 9E+09, 9E+09, 9E+09, 9E+09, 9E+09]], v30, z0, tNozzle, \Wobj := wobjFlatPlat;
		MoveJ [[-10.855, -5.116, 70.000], [0.40676, -0.6966132, 0.1213678, -0.5783998], [-1, 1, 2, 1], [9E+09, 9E+09, 9E+09, 9E+09, 9E+09, 9E+09]], v30, z0, tNozzle, \Wobj := wobjFlatPlat;
		MoveJ [[-11.136, -4.470, 70.000], [0.3896049, -0.69275, 0.1417655, -0.5900916], [-1, 1, 2, 1], [9E+09, 9E+09, 9E+09, 9E+09, 9E+09, 9E+09]], v30, z0, tNozzle, \Wobj := wobjFlatPlat;
		MoveJ [[-11.136, -4.470, 42.500], [0.3896049, -0.69275, 0.1417655, -0.5900916], [-1, 1, 2, 1], [9E+09, 9E+09, 9E+09, 9E+09, 9E+09, 9E+09]], v30, z0, tNozzle, \Wobj := wobjFlatPlat;
		MoveJ [[-11.136, -4.470, 15.000], [0.3896049, -0.69275, 0.1417655, -0.5900916], [-1, 1, 2, 1], [9E+09, 9E+09, 9E+09, 9E+09, 9E+09, 9E+09]], v30, z0, tNozzle, \Wobj := wobjFlatPlat;
		MoveJ [[-11.380, -3.809, 15.000], [0.372114, -0.6882897, 0.1620411, -0.6012747], [-1, 1, 2, 1], [9E+09, 9E+09, 9E+09, 9E+09, 9E+09, 9E+09]], v30, z0, tNozzle, \Wobj := wobjFlatPlat;
		MoveJ [[-11.380, -3.809, 42.500], [0.372114, -0.6882897, 0.1620411, -0.6012747], [-1, 1, 2, 1], [9E+09, 9E+09, 9E+09, 9E+09, 9E+09, 9E+09]], v30, z0, tNozzle, \Wobj := wobjFlatPlat;
		MoveJ [[-11.380, -3.809, 70.000], [0.372114, -0.6882897, 0.1620411, -0.6012747], [-1, 1, 2, 1], [9E+09, 9E+09, 9E+09, 9E+09, 9E+09, 9E+09]], v30, z0, tNozzle, \Wobj := wobjFlatPlat;
		MoveJ [[-11.583, -3.134, 70.000], [0.3543023, -0.6832361, 0.182177, -0.6119395], [-1, 1, 2, 1], [9E+09, 9E+09, 9E+09, 9E+09, 9E+09, 9E+09]], v30, z0, tNozzle, \Wobj := wobjFlatPlat;
		MoveJ [[-11.583, -3.134, 42.500], [0.3543023, -0.6832361, 0.182177, -0.6119395], [-1, 1, 2, 1], [9E+09, 9E+09, 9E+09, 9E+09, 9E+09, 9E+09]], v30, z0, tNozzle, \Wobj := wobjFlatPlat;
		MoveJ [[-11.583, -3.134, 15.000], [0.3543023, -0.6832361, 0.182177, -0.6119395], [-1, 1, 2, 1], [9E+09, 9E+09, 9E+09, 9E+09, 9E+09, 9E+09]], v30, z0, tNozzle, \Wobj := wobjFlatPlat;
		MoveJ [[-11.747, -2.449, 15.000], [0.3361853, -0.6775936, 0.2021559, -0.6220768], [-1, 1, 2, 1], [9E+09, 9E+09, 9E+09, 9E+09, 9E+09, 9E+09]], v30, z0, tNozzle, \Wobj := wobjFlatPlat;
		MoveJ [[-11.747, -2.449, 42.500], [0.3361853, -0.6775936, 0.2021559, -0.6220768], [-1, 1, 2, 1], [9E+09, 9E+09, 9E+09, 9E+09, 9E+09, 9E+09]], v30, z0, tNozzle, \Wobj := wobjFlatPlat;
		MoveJ [[-11.747, -2.449, 70.000], [0.3361853, -0.6775936, 0.2021559, -0.6220768], [-1, 1, 2, 1], [9E+09, 9E+09, 9E+09, 9E+09, 9E+09, 9E+09]], v30, z0, tNozzle, \Wobj := wobjFlatPlat;
		MoveJ [[-11.871, -1.755, 70.000], [0.3177784, -0.6713669, 0.2219605, -0.6316779], [-1, 1, 2, 1], [9E+09, 9E+09, 9E+09, 9E+09, 9E+09, 9E+09]], v30, z0, tNozzle, \Wobj := wobjFlatPlat;
		MoveJ [[-11.871, -1.755, 42.500], [0.3177784, -0.6713669, 0.2219605, -0.6316779], [-1, 1, 2, 1], [9E+09, 9E+09, 9E+09, 9E+09, 9E+09, 9E+09]], v30, z0, tNozzle, \Wobj := wobjFlatPlat;
		MoveJ [[-11.871, -1.755, 15.000], [0.3177784, -0.6713669, 0.2219605, -0.6316779], [-1, 1, 2, 1], [9E+09, 9E+09, 9E+09, 9E+09, 9E+09, 9E+09]], v30, z0, tNozzle, \Wobj := wobjFlatPlat;
		MoveJ [[-11.953, -1.056, 15.000], [0.2990976, -0.6645616, 0.2415738, -0.6407345], [-1, 1, 2, 1], [9E+09, 9E+09, 9E+09, 9E+09, 9E+09, 9E+09]], v30, z0, tNozzle, \Wobj := wobjFlatPlat;
		MoveJ [[-11.953, -1.056, 42.500], [0.2990976, -0.6645616, 0.2415738, -0.6407345], [-1, 1, 2, 1], [9E+09, 9E+09, 9E+09, 9E+09, 9E+09, 9E+09]], v30, z0, tNozzle, \Wobj := wobjFlatPlat;
		MoveJ [[-11.953, -1.056, 70.000], [0.2990976, -0.6645616, 0.2415738, -0.6407345], [-1, 1, 2, 1], [9E+09, 9E+09, 9E+09, 9E+09, 9E+09, 9E+09]], v30, z0, tNozzle, \Wobj := wobjFlatPlat;
		MoveJ [[-11.995, -0.352, 70.000], [0.280159, -0.6571834, 0.2609789, -0.6492388], [-1, 1, 2, 1], [9E+09, 9E+09, 9E+09, 9E+09, 9E+09, 9E+09]], v30, z0, tNozzle, \Wobj := wobjFlatPlat;
		MoveJ [[-11.995, -0.352, 42.500], [0.280159, -0.6571834, 0.2609789, -0.6492388], [-1, 1, 2, 1], [9E+09, 9E+09, 9E+09, 9E+09, 9E+09, 9E+09]], v30, z0, tNozzle, \Wobj := wobjFlatPlat;
		MoveJ [[-11.995, -0.352, 15.000], [0.280159, -0.6571834, 0.2609789, -0.6492388], [-1, 1, 2, 1], [9E+09, 9E+09, 9E+09, 9E+09, 9E+09, 9E+09]], v30, z0, tNozzle, \Wobj := wobjFlatPlat;
		MoveJ [[-11.995, 0.352, 15.000], [0.2609789, -0.6492388, 0.280159, -0.6571834], [-1, 1, 3, 1], [9E+09, 9E+09, 9E+09, 9E+09, 9E+09, 9E+09]], v30, z0, tNozzle, \Wobj := wobjFlatPlat;
		MoveJ [[-11.995, 0.352, 42.500], [0.2609789, -0.6492388, 0.280159, -0.6571834], [-1, 1, 3, 1], [9E+09, 9E+09, 9E+09, 9E+09, 9E+09, 9E+09]], v30, z0, tNozzle, \Wobj := wobjFlatPlat;
		MoveJ [[-11.995, 0.352, 70.000], [0.2609789, -0.6492388, 0.280159, -0.6571834], [-1, 1, 3, 1], [9E+09, 9E+09, 9E+09, 9E+09, 9E+09, 9E+09]], v30, z0, tNozzle, \Wobj := wobjFlatPlat;
		MoveJ [[-11.953, 1.056, 70.000], [0.2415738, -0.6407345, 0.2990976, -0.6645616], [-1, 1, 3, 1], [9E+09, 9E+09, 9E+09, 9E+09, 9E+09, 9E+09]], v30, z0, tNozzle, \Wobj := wobjFlatPlat;
		MoveJ [[-11.953, 1.056, 42.500], [0.2415738, -0.6407345, 0.2990976, -0.6645616], [-1, 1, 3, 1], [9E+09, 9E+09, 9E+09, 9E+09, 9E+09, 9E+09]], v30, z0, tNozzle, \Wobj := wobjFlatPlat;
		MoveJ [[-11.953, 1.056, 15.000], [0.2415738, -0.6407345, 0.2990976, -0.6645616], [-1, 1, 3, 1], [9E+09, 9E+09, 9E+09, 9E+09, 9E+09, 9E+09]], v30, z0, tNozzle, \Wobj := wobjFlatPlat;
		MoveJ [[-11.871, 1.755, 15.000], [0.2219605, -0.6316779, 0.3177784, -0.6713669], [-1, 1, 3, 1], [9E+09, 9E+09, 9E+09, 9E+09, 9E+09, 9E+09]], v30, z0, tNozzle, \Wobj := wobjFlatPlat;
		MoveJ [[-11.871, 1.755, 42.500], [0.2219605, -0.6316779, 0.3177784, -0.6713669], [-1, 1, 3, 1], [9E+09, 9E+09, 9E+09, 9E+09, 9E+09, 9E+09]], v30, z0, tNozzle, \Wobj := wobjFlatPlat;
		MoveJ [[-11.871, 1.755, 70.000], [0.2219605, -0.6316779, 0.3177784, -0.6713669], [-1, 1, 3, 1], [9E+09, 9E+09, 9E+09, 9E+09, 9E+09, 9E+09]], v30, z0, tNozzle, \Wobj := wobjFlatPlat;
		MoveJ [[-11.747, 2.449, 70.000], [0.2021559, -0.6220768, 0.3361853, -0.6775936], [-1, 1, 3, 1], [9E+09, 9E+09, 9E+09, 9E+09, 9E+09, 9E+09]], v30, z0, tNozzle, \Wobj := wobjFlatPlat;
		MoveJ [[-11.747, 2.449, 42.500], [0.2021559, -0.6220768, 0.3361853, -0.6775936], [-1, 1, 3, 1], [9E+09, 9E+09, 9E+09, 9E+09, 9E+09, 9E+09]], v30, z0, tNozzle, \Wobj := wobjFlatPlat;
		MoveJ [[-11.747, 2.449, 15.000], [0.2021559, -0.6220768, 0.3361853, -0.6775936], [-1, 1, 3, 1], [9E+09, 9E+09, 9E+09, 9E+09, 9E+09, 9E+09]], v30, z0, tNozzle, \Wobj := wobjFlatPlat;
		MoveJ [[-11.583, 3.134, 15.000], [0.182177, -0.6119395, 0.3543023, -0.6832361], [-1, 1, 3, 1], [9E+09, 9E+09, 9E+09, 9E+09, 9E+09, 9E+09]], v30, z0, tNozzle, \Wobj := wobjFlatPlat;
		MoveJ [[-11.583, 3.134, 42.500], [0.182177, -0.6119395, 0.3543023, -0.6832361], [-1, 1, 3, 1], [9E+09, 9E+09, 9E+09, 9E+09, 9E+09, 9E+09]], v30, z0, tNozzle, \Wobj := wobjFlatPlat;
		MoveJ [[-11.583, 3.134, 70.000], [0.182177, -0.6119395, 0.3543023, -0.6832361], [-1, 1, 3, 1], [9E+09, 9E+09, 9E+09, 9E+09, 9E+09, 9E+09]], v30, z0, tNozzle, \Wobj := wobjFlatPlat;
		MoveJ [[-11.380, 3.809, 70.000], [0.1620411, -0.6012747, 0.372114, -0.6882897], [-1, 1, 3, 1], [9E+09, 9E+09, 9E+09, 9E+09, 9E+09, 9E+09]], v30, z0, tNozzle, \Wobj := wobjFlatPlat;
		MoveJ [[-11.380, 3.809, 42.500], [0.1620411, -0.6012747, 0.372114, -0.6882897], [-1, 1, 3, 1], [9E+09, 9E+09, 9E+09, 9E+09, 9E+09, 9E+09]], v30, z0, tNozzle, \Wobj := wobjFlatPlat;
		MoveJ [[-11.380, 3.809, 15.000], [0.1620411, -0.6012747, 0.372114, -0.6882897], [-1, 1, 3, 1], [9E+09, 9E+09, 9E+09, 9E+09, 9E+09, 9E+09]], v30, z0, tNozzle, \Wobj := wobjFlatPlat;
		MoveJ [[-11.136, 4.470, 15.000], [0.1417655, -0.5900916, 0.3896049, -0.69275], [-1, 1, 3, 1], [9E+09, 9E+09, 9E+09, 9E+09, 9E+09, 9E+09]], v30, z0, tNozzle, \Wobj := wobjFlatPlat;
		MoveJ [[-11.136, 4.470, 42.500], [0.1417655, -0.5900916, 0.3896049, -0.69275], [-1, 1, 3, 1], [9E+09, 9E+09, 9E+09, 9E+09, 9E+09, 9E+09]], v30, z0, tNozzle, \Wobj := wobjFlatPlat;
		MoveJ [[-11.136, 4.470, 70.000], [0.1417655, -0.5900916, 0.3896049, -0.69275], [-1, 1, 3, 1], [9E+09, 9E+09, 9E+09, 9E+09, 9E+09, 9E+09]], v30, z0, tNozzle, \Wobj := wobjFlatPlat;
		MoveJ [[-10.855, 5.116, 70.000], [0.1213678, -0.5783998, 0.40676, -0.6966132], [-1, 1, 3, 1], [9E+09, 9E+09, 9E+09, 9E+09, 9E+09, 9E+09]], v30, z0, tNozzle, \Wobj := wobjFlatPlat;
		MoveJ [[-10.855, 5.116, 42.500], [0.1213678, -0.5783998, 0.40676, -0.6966132], [-1, 1, 3, 1], [9E+09, 9E+09, 9E+09, 9E+09, 9E+09, 9E+09]], v30, z0, tNozzle, \Wobj := wobjFlatPlat;
		MoveJ [[-10.855, 5.116, 15.000], [0.1213678, -0.5783998, 0.40676, -0.6966132], [-1, 1, 3, 1], [9E+09, 9E+09, 9E+09, 9E+09, 9E+09, 9E+09]], v30, z0, tNozzle, \Wobj := wobjFlatPlat;
		MoveJ [[-10.536, 5.744, 15.000], [0.1008653, -0.5662095, 0.4235645, -0.6998759], [-1, 1, 3, 1], [9E+09, 9E+09, 9E+09, 9E+09, 9E+09, 9E+09]], v30, z0, tNozzle, \Wobj := wobjFlatPlat;
		MoveJ [[-10.536, 5.744, 42.500], [0.1008653, -0.5662095, 0.4235645, -0.6998759], [-1, 1, 3, 1], [9E+09, 9E+09, 9E+09, 9E+09, 9E+09, 9E+09]], v30, z0, tNozzle, \Wobj := wobjFlatPlat;
		MoveJ [[-10.536, 5.744, 70.000], [0.1008653, -0.5662095, 0.4235645, -0.6998759], [-1, 1, 3, 1], [9E+09, 9E+09, 9E+09, 9E+09, 9E+09, 9E+09]], v30, z0, tNozzle, \Wobj := wobjFlatPlat;
		MoveJ [[-10.181, 6.352, 70.000], [0.080276, -0.5535311, 0.4400038, -0.7025353], [-1, 1, 3, 1], [9E+09, 9E+09, 9E+09, 9E+09, 9E+09, 9E+09]], v30, z0, tNozzle, \Wobj := wobjFlatPlat;
		MoveJ [[-10.181, 6.352, 42.500], [0.080276, -0.5535311, 0.4400038, -0.7025353], [-1, 1, 3, 1], [9E+09, 9E+09, 9E+09, 9E+09, 9E+09, 9E+09]], v30, z0, tNozzle, \Wobj := wobjFlatPlat;
		MoveJ [[-10.181, 6.352, 15.000], [0.080276, -0.5535311, 0.4400038, -0.7025353], [-1, 1, 3, 1], [9E+09, 9E+09, 9E+09, 9E+09, 9E+09, 9E+09]], v30, z0, tNozzle, \Wobj := wobjFlatPlat;
		MoveJ [[-9.790, 6.939, 15.000], [0.0596174, -0.5403756, 0.4560639, -0.7045891], [-1, 1, 3, 1], [9E+09, 9E+09, 9E+09, 9E+09, 9E+09, 9E+09]], v30, z0, tNozzle, \Wobj := wobjFlatPlat;
		MoveJ [[-9.790, 6.939, 42.500], [0.0596174, -0.5403756, 0.4560639, -0.7045891], [-1, 1, 3, 1], [9E+09, 9E+09, 9E+09, 9E+09, 9E+09, 9E+09]], v30, z0, tNozzle, \Wobj := wobjFlatPlat;
		MoveJ [[-9.790, 6.939, 70.000], [0.0596174, -0.5403756, 0.4560639, -0.7045891], [-1, 1, 3, 1], [9E+09, 9E+09, 9E+09, 9E+09, 9E+09, 9E+09]], v30, z0, tNozzle, \Wobj := wobjFlatPlat;
		MoveJ [[-9.366, 7.502, 70.000], [0.0389075, -0.5267543, 0.4717308, -0.7060356], [-1, 1, 3, 1], [9E+09, 9E+09, 9E+09, 9E+09, 9E+09, 9E+09]], v30, z0, tNozzle, \Wobj := wobjFlatPlat;
		MoveJ [[-9.366, 7.502, 42.500], [0.0389075, -0.5267543, 0.4717308, -0.7060356], [-1, 1, 3, 1], [9E+09, 9E+09, 9E+09, 9E+09, 9E+09, 9E+09]], v30, z0, tNozzle, \Wobj := wobjFlatPlat;
		MoveJ [[-9.366, 7.502, 15.000], [0.0389075, -0.5267543, 0.4717308, -0.7060356], [-1, 1, 3, 1], [9E+09, 9E+09, 9E+09, 9E+09, 9E+09, 9E+09]], v30, z0, tNozzle, \Wobj := wobjFlatPlat;
		MoveJ [[-8.910, 8.038, 15.000], [0.018164, -0.5126789, 0.4869912, -0.7068735], [-1, 1, 3, 1], [9E+09, 9E+09, 9E+09, 9E+09, 9E+09, 9E+09]], v30, z0, tNozzle, \Wobj := wobjFlatPlat;
		MoveJ [[-8.910, 8.038, 42.500], [0.018164, -0.5126789, 0.4869912, -0.7068735], [-1, 1, 3, 1], [9E+09, 9E+09, 9E+09, 9E+09, 9E+09, 9E+09]], v30, z0, tNozzle, \Wobj := wobjFlatPlat;
		MoveJ [[-8.910, 8.038, 70.000], [0.018164, -0.5126789, 0.4869912, -0.7068735], [-1, 1, 3, 1], [9E+09, 9E+09, 9E+09, 9E+09, 9E+09, 9E+09]], v30, z0, tNozzle, \Wobj := wobjFlatPlat;
		MoveJ [[-8.423, 8.547, 70.000], [-0.0025951, -0.4981616, 0.5018317, -0.7071021], [-1, 1, 3, 1], [9E+09, 9E+09, 9E+09, 9E+09, 9E+09, 9E+09]], v30, z0, tNozzle, \Wobj := wobjFlatPlat;
		MoveJ [[-8.423, 8.547, 42.500], [-0.0025951, -0.4981616, 0.5018317, -0.7071021], [-1, 1, 3, 1], [9E+09, 9E+09, 9E+09, 9E+09, 9E+09, 9E+09]], v30, z0, tNozzle, \Wobj := wobjFlatPlat;
		MoveJ [[-8.423, 8.547, 15.000], [-0.0025951, -0.4981616, 0.5018317, -0.7071021], [-1, 1, 3, 1], [9E+09, 9E+09, 9E+09, 9E+09, 9E+09, 9E+09]], v30, z0, tNozzle, \Wobj := wobjFlatPlat;
		MoveJ [[-7.907, 9.027, 15.000], [-0.023352, -0.4832149, 0.5162397, -0.7067211], [-1, 1, 3, 1], [9E+09, 9E+09, 9E+09, 9E+09, 9E+09, 9E+09]], v30, z0, tNozzle, \Wobj := wobjFlatPlat;
		MoveJ [[-7.907, 9.027, 42.500], [-0.023352, -0.4832149, 0.5162397, -0.7067211], [-1, 1, 3, 1], [9E+09, 9E+09, 9E+09, 9E+09, 9E+09, 9E+09]], v30, z0, tNozzle, \Wobj := wobjFlatPlat;
		MoveJ [[-7.907, 9.027, 70.000], [-0.023352, -0.4832149, 0.5162397, -0.7067211], [-1, 1, 3, 1], [9E+09, 9E+09, 9E+09, 9E+09, 9E+09, 9E+09]], v30, z0, tNozzle, \Wobj := wobjFlatPlat;
		MoveJ [[-7.363, 9.475, 70.000], [-0.0440888, -0.4678517, 0.5302027, -0.705731], [-1, 1, 3, 1], [9E+09, 9E+09, 9E+09, 9E+09, 9E+09, 9E+09]], v30, z0, tNozzle, \Wobj := wobjFlatPlat;
		MoveJ [[-7.363, 9.475, 42.500], [-0.0440888, -0.4678517, 0.5302027, -0.705731], [-1, 1, 3, 1], [9E+09, 9E+09, 9E+09, 9E+09, 9E+09, 9E+09]], v30, z0, tNozzle, \Wobj := wobjFlatPlat;
		MoveJ [[-7.363, 9.475, 15.000], [-0.0440888, -0.4678517, 0.5302027, -0.705731], [-1, 1, 3, 1], [9E+09, 9E+09, 9E+09, 9E+09, 9E+09, 9E+09]], v30, z0, tNozzle, \Wobj := wobjFlatPlat;
		MoveJ [[-6.794, 9.891, 15.000], [-0.0647875, -0.4520851, 0.5437086, -0.7041325], [-1, 1, 3, 1], [9E+09, 9E+09, 9E+09, 9E+09, 9E+09, 9E+09]], v30, z0, tNozzle, \Wobj := wobjFlatPlat;
		MoveJ [[-6.794, 9.891, 42.500], [-0.0647875, -0.4520851, 0.5437086, -0.7041325], [-1, 1, 3, 1], [9E+09, 9E+09, 9E+09, 9E+09, 9E+09, 9E+09]], v30, z0, tNozzle, \Wobj := wobjFlatPlat;
		MoveJ [[-6.794, 9.891, 70.000], [-0.0647875, -0.4520851, 0.5437086, -0.7041325], [-1, 1, 3, 1], [9E+09, 9E+09, 9E+09, 9E+09, 9E+09, 9E+09]], v30, z0, tNozzle, \Wobj := wobjFlatPlat;
		MoveJ [[-6.202, 10.273, 70.000], [-0.0854304, -0.4359289, 0.5567459, -0.7019271], [-1, 1, 3, 1], [9E+09, 9E+09, 9E+09, 9E+09, 9E+09, 9E+09]], v30, z0, tNozzle, \Wobj := wobjFlatPlat;
		MoveJ [[-6.202, 10.273, 42.500], [-0.0854304, -0.4359289, 0.5567459, -0.7019271], [-1, 1, 3, 1], [9E+09, 9E+09, 9E+09, 9E+09, 9E+09, 9E+09]], v30, z0, tNozzle, \Wobj := wobjFlatPlat;
		MoveJ [[-6.202, 10.273, 15.000], [-0.0854304, -0.4359289, 0.5567459, -0.7019271], [-1, 1, 3, 1], [9E+09, 9E+09, 9E+09, 9E+09, 9E+09, 9E+09]], v30, z0, tNozzle, \Wobj := wobjFlatPlat;
		MoveJ [[-5.589, 10.619, 15.000], [-0.1059997, -0.419397, 0.5693033, -0.6991167], [-1, 1, 3, 1], [9E+09, 9E+09, 9E+09, 9E+09, 9E+09, 9E+09]], v30, z0, tNozzle, \Wobj := wobjFlatPlat;
		MoveJ [[-5.589, 10.619, 42.500], [-0.1059997, -0.419397, 0.5693033, -0.6991167], [-1, 1, 3, 1], [9E+09, 9E+09, 9E+09, 9E+09, 9E+09, 9E+09]], v30, z0, tNozzle, \Wobj := wobjFlatPlat;
		MoveJ [[-5.589, 10.619, 70.000], [-0.1059997, -0.419397, 0.5693033, -0.6991167], [-1, 1, 3, 1], [9E+09, 9E+09, 9E+09, 9E+09, 9E+09, 9E+09]], v30, z0, tNozzle, \Wobj := wobjFlatPlat;
		MoveJ [[-4.956, 10.929, 70.000], [-0.1264776, -0.4025035, 0.5813699, -0.6957036], [-1, 1, 3, 1], [9E+09, 9E+09, 9E+09, 9E+09, 9E+09, 9E+09]], v30, z0, tNozzle, \Wobj := wobjFlatPlat;
		MoveJ [[-4.956, 10.929, 42.500], [-0.1264776, -0.4025035, 0.5813699, -0.6957036], [-1, 1, 3, 1], [9E+09, 9E+09, 9E+09, 9E+09, 9E+09, 9E+09]], v30, z0, tNozzle, \Wobj := wobjFlatPlat;
		MoveJ [[-4.956, 10.929, 15.000], [-0.1264776, -0.4025035, 0.5813699, -0.6957036], [-1, 1, 3, 1], [9E+09, 9E+09, 9E+09, 9E+09, 9E+09, 9E+09]], v30, z0, tNozzle, \Wobj := wobjFlatPlat;
		MoveJ [[-4.306, 11.201, 15.000], [-0.1468465, -0.385263, 0.5929355, -0.6916908], [-1, 1, 3, 1], [9E+09, 9E+09, 9E+09, 9E+09, 9E+09, 9E+09]], v30, z0, tNozzle, \Wobj := wobjFlatPlat;
		MoveJ [[-4.306, 11.201, 42.500], [-0.1468465, -0.385263, 0.5929355, -0.6916908], [-1, 1, 3, 1], [9E+09, 9E+09, 9E+09, 9E+09, 9E+09, 9E+09]], v30, z0, tNozzle, \Wobj := wobjFlatPlat;
		MoveJ [[-4.306, 11.201, 70.000], [-0.1468465, -0.385263, 0.5929355, -0.6916908], [-1, 1, 3, 1], [9E+09, 9E+09, 9E+09, 9E+09, 9E+09, 9E+09]], v30, z0, tNozzle, \Wobj := wobjFlatPlat;
		MoveJ [[-3.641, 11.434, 70.000], [-0.1670888, -0.3676905, 0.6039899, -0.6870818], [-1, 1, 3, 1], [9E+09, 9E+09, 9E+09, 9E+09, 9E+09, 9E+09]], v30, z0, tNozzle, \Wobj := wobjFlatPlat;
		MoveJ [[-3.641, 11.434, 42.500], [-0.1670888, -0.3676905, 0.6039899, -0.6870818], [-1, 1, 3, 1], [9E+09, 9E+09, 9E+09, 9E+09, 9E+09, 9E+09]], v30, z0, tNozzle, \Wobj := wobjFlatPlat;
		MoveJ [[-3.641, 11.434, 15.000], [-0.1670888, -0.3676905, 0.6039899, -0.6870818], [-1, 1, 3, 1], [9E+09, 9E+09, 9E+09, 9E+09, 9E+09, 9E+09]], v30, z0, tNozzle, \Wobj := wobjFlatPlat;
		MoveJ [[-2.964, 11.628, 15.000], [-0.1871871, -0.349801, 0.6145236, -0.6818805], [-1, 1, 3, 1], [9E+09, 9E+09, 9E+09, 9E+09, 9E+09, 9E+09]], v30, z0, tNozzle, \Wobj := wobjFlatPlat;
		MoveJ [[-2.964, 11.628, 42.500], [-0.1871871, -0.349801, 0.6145236, -0.6818805], [-1, 1, 3, 1], [9E+09, 9E+09, 9E+09, 9E+09, 9E+09, 9E+09]], v30, z0, tNozzle, \Wobj := wobjFlatPlat;
		MoveJ [[-2.964, 11.628, 70.000], [-0.1871871, -0.349801, 0.6145236, -0.6818805], [-1, 1, 3, 1], [9E+09, 9E+09, 9E+09, 9E+09, 9E+09, 9E+09]], v30, z0, tNozzle, \Wobj := wobjFlatPlat;
		MoveJ [[-2.276, 11.782, 70.000], [-0.207124, -0.33161, 0.6245277, -0.6760915], [-1, 1, 3, 1], [9E+09, 9E+09, 9E+09, 9E+09, 9E+09, 9E+09]], v30, z0, tNozzle, \Wobj := wobjFlatPlat;
		MoveJ [[-2.276, 11.782, 42.500], [-0.207124, -0.33161, 0.6245277, -0.6760915], [-1, 1, 3, 1], [9E+09, 9E+09, 9E+09, 9E+09, 9E+09, 9E+09]], v30, z0, tNozzle, \Wobj := wobjFlatPlat;
		MoveJ [[-2.276, 11.782, 15.000], [-0.207124, -0.33161, 0.6245277, -0.6760915], [-1, 1, 3, 1], [9E+09, 9E+09, 9E+09, 9E+09, 9E+09, 9E+09]], v30, z0, tNozzle, \Wobj := wobjFlatPlat;
		MoveJ [[-1.581, 11.895, 15.000], [-0.2268824, -0.3131332, 0.6339934, -0.6697197], [-1, 1, 3, 1], [9E+09, 9E+09, 9E+09, 9E+09, 9E+09, 9E+09]], v30, z0, tNozzle, \Wobj := wobjFlatPlat;
		MoveJ [[-1.581, 11.895, 42.500], [-0.2268824, -0.3131332, 0.6339934, -0.6697197], [-1, 1, 3, 1], [9E+09, 9E+09, 9E+09, 9E+09, 9E+09, 9E+09]], v30, z0, tNozzle, \Wobj := wobjFlatPlat;
		MoveJ [[-1.581, 11.895, 70.000], [-0.2268824, -0.3131332, 0.6339934, -0.6697197], [-1, 1, 3, 1], [9E+09, 9E+09, 9E+09, 9E+09, 9E+09, 9E+09]], v30, z0, tNozzle, \Wobj := wobjFlatPlat;
		MoveJ [[-0.880, 11.968, 70.000], [-0.2464452, -0.2943864, 0.6429127, -0.6627706], [-1, 1, 3, 1], [9E+09, 9E+09, 9E+09, 9E+09, 9E+09, 9E+09]], v30, z0, tNozzle, \Wobj := wobjFlatPlat;
		MoveJ [[-0.880, 11.968, 42.500], [-0.2464452, -0.2943864, 0.6429127, -0.6627706], [-1, 1, 3, 1], [9E+09, 9E+09, 9E+09, 9E+09, 9E+09, 9E+09]], v30, z0, tNozzle, \Wobj := wobjFlatPlat;
		MoveJ [[-0.880, 11.968, 15.000], [-0.2464452, -0.2943864, 0.6429127, -0.6627706], [-1, 1, 3, 1], [9E+09, 9E+09, 9E+09, 9E+09, 9E+09, 9E+09]], v30, z0, tNozzle, \Wobj := wobjFlatPlat;
		MoveJ [[-0.176, 11.999, 15.000], [-0.2657956, -0.2753859, 0.6512777, -0.6552501], [-1, 1, 3, 1], [9E+09, 9E+09, 9E+09, 9E+09, 9E+09, 9E+09]], v30, z0, tNozzle, \Wobj := wobjFlatPlat;
		MoveJ [[-0.176, 11.999, 42.500], [-0.2657956, -0.2753859, 0.6512777, -0.6552501], [-1, 1, 3, 1], [9E+09, 9E+09, 9E+09, 9E+09, 9E+09, 9E+09]], v30, z0, tNozzle, \Wobj := wobjFlatPlat;
		MoveJ [[-0.176, 11.999, 70.000], [-0.2657956, -0.2753859, 0.6512777, -0.6552501], [-1, 1, 3, 1], [9E+09, 9E+09, 9E+09, 9E+09, 9E+09, 9E+09]], v30, z0, tNozzle, \Wobj := wobjFlatPlat;
		MoveJ [[0.528, 11.988, 70.000], [-0.2849169, -0.256148, 0.6590814, -0.6471649], [-1, 1, 4, 1], [9E+09, 9E+09, 9E+09, 9E+09, 9E+09, 9E+09]], v30, z0, tNozzle, \Wobj := wobjFlatPlat;
		MoveJ [[0.528, 11.988, 42.500], [-0.2849169, -0.256148, 0.6590814, -0.6471649], [-1, 1, 4, 1], [9E+09, 9E+09, 9E+09, 9E+09, 9E+09, 9E+09]], v30, z0, tNozzle, \Wobj := wobjFlatPlat;
		MoveJ [[0.528, 11.988, 15.000], [-0.2849169, -0.256148, 0.6590814, -0.6471649], [-1, 1, 4, 1], [9E+09, 9E+09, 9E+09, 9E+09, 9E+09, 9E+09]], v30, z0, tNozzle, \Wobj := wobjFlatPlat;
		MoveJ [[1.231, 11.937, 15.000], [-0.3037925, -0.2366893, 0.6663169, -0.6385218], [-1, 1, 4, 1], [9E+09, 9E+09, 9E+09, 9E+09, 9E+09, 9E+09]], v30, z0, tNozzle, \Wobj := wobjFlatPlat;
		MoveJ [[1.231, 11.937, 42.500], [-0.3037925, -0.2366893, 0.6663169, -0.6385218], [-1, 1, 4, 1], [9E+09, 9E+09, 9E+09, 9E+09, 9E+09, 9E+09]], v30, z0, tNozzle, \Wobj := wobjFlatPlat;
		MoveJ [[1.231, 11.937, 70.000], [-0.3037925, -0.2366893, 0.6663169, -0.6385218], [-1, 1, 4, 1], [9E+09, 9E+09, 9E+09, 9E+09, 9E+09, 9E+09]], v30, z0, tNozzle, \Wobj := wobjFlatPlat;
		MoveJ [[1.929, 11.844, 70.000], [-0.3224063, -0.2170266, 0.6729781, -0.6293284], [-1, 1, 4, 1], [9E+09, 9E+09, 9E+09, 9E+09, 9E+09, 9E+09]], v30, z0, tNozzle, \Wobj := wobjFlatPlat;
		MoveJ [[1.929, 11.844, 42.500], [-0.3224063, -0.2170266, 0.6729781, -0.6293284], [-1, 1, 4, 1], [9E+09, 9E+09, 9E+09, 9E+09, 9E+09, 9E+09]], v30, z0, tNozzle, \Wobj := wobjFlatPlat;
		MoveJ [[1.929, 11.844, 15.000], [-0.3224063, -0.2170266, 0.6729781, -0.6293284], [-1, 1, 4, 1], [9E+09, 9E+09, 9E+09, 9E+09, 9E+09, 9E+09]], v30, z0, tNozzle, \Wobj := wobjFlatPlat;
		MoveJ [[2.621, 11.710, 15.000], [-0.3407422, -0.1971768, 0.6790592, -0.6195924], [-1, 1, 4, 1], [9E+09, 9E+09, 9E+09, 9E+09, 9E+09, 9E+09]], v30, z0, tNozzle, \Wobj := wobjFlatPlat;
		MoveJ [[2.621, 11.710, 42.500], [-0.3407422, -0.1971768, 0.6790592, -0.6195924], [-1, 1, 4, 1], [9E+09, 9E+09, 9E+09, 9E+09, 9E+09, 9E+09]], v30, z0, tNozzle, \Wobj := wobjFlatPlat;
		MoveJ [[2.621, 11.710, 70.000], [-0.3407422, -0.1971768, 0.6790592, -0.6195924], [-1, 1, 4, 1], [9E+09, 9E+09, 9E+09, 9E+09, 9E+09, 9E+09]], v30, z0, tNozzle, \Wobj := wobjFlatPlat;
		MoveJ [[3.304, 11.536, 70.000], [-0.3587844, -0.177157, 0.6845549, -0.6093224], [-1, 1, 4, 1], [9E+09, 9E+09, 9E+09, 9E+09, 9E+09, 9E+09]], v30, z0, tNozzle, \Wobj := wobjFlatPlat;
		MoveJ [[3.304, 11.536, 42.500], [-0.3587844, -0.177157, 0.6845549, -0.6093224], [-1, 1, 4, 1], [9E+09, 9E+09, 9E+09, 9E+09, 9E+09, 9E+09]], v30, z0, tNozzle, \Wobj := wobjFlatPlat;
		MoveJ [[3.304, 11.536, 15.000], [-0.3587844, -0.177157, 0.6845549, -0.6093224], [-1, 1, 4, 1], [9E+09, 9E+09, 9E+09, 9E+09, 9E+09, 9E+09]], v30, z0, tNozzle, \Wobj := wobjFlatPlat;
		MoveJ [[3.975, 11.322, 15.000], [-0.3765173, -0.1569846, 0.6894606, -0.5985271], [-1, 1, 4, 1], [9E+09, 9E+09, 9E+09, 9E+09, 9E+09, 9E+09]], v30, z0, tNozzle, \Wobj := wobjFlatPlat;
		MoveJ [[3.975, 11.322, 42.500], [-0.3765173, -0.1569846, 0.6894606, -0.5985271], [-1, 1, 4, 1], [9E+09, 9E+09, 9E+09, 9E+09, 9E+09, 9E+09]], v30, z0, tNozzle, \Wobj := wobjFlatPlat;
		MoveJ [[3.975, 11.322, 70.000], [-0.3765173, -0.1569846, 0.6894606, -0.5985271], [-1, 1, 4, 1], [9E+09, 9E+09, 9E+09, 9E+09, 9E+09, 9E+09]], v30, z0, tNozzle, \Wobj := wobjFlatPlat;
		MoveJ [[4.633, 11.070, 70.000], [-0.3939257, -0.1366768, 0.6937719, -0.587216], [-1, 1, 4, 1], [9E+09, 9E+09, 9E+09, 9E+09, 9E+09, 9E+09]], v30, z0, tNozzle, \Wobj := wobjFlatPlat;
		MoveJ [[4.633, 11.070, 42.500], [-0.3939257, -0.1366768, 0.6937719, -0.587216], [-1, 1, 4, 1], [9E+09, 9E+09, 9E+09, 9E+09, 9E+09, 9E+09]], v30, z0, tNozzle, \Wobj := wobjFlatPlat;
		MoveJ [[4.633, 11.070, 15.000], [-0.3939257, -0.1366768, 0.6937719, -0.587216], [-1, 1, 4, 1], [9E+09, 9E+09, 9E+09, 9E+09, 9E+09, 9E+09]], v30, z0, tNozzle, \Wobj := wobjFlatPlat;
		MoveJ [[5.275, 10.779, 15.000], [-0.4109945, -0.1162512, 0.6974853, -0.5753986], [-1, 1, 4, 1], [9E+09, 9E+09, 9E+09, 9E+09, 9E+09, 9E+09]], v30, z0, tNozzle, \Wobj := wobjFlatPlat;
		MoveJ [[5.275, 10.779, 42.500], [-0.4109945, -0.1162512, 0.6974853, -0.5753986], [-1, 1, 4, 1], [9E+09, 9E+09, 9E+09, 9E+09, 9E+09, 9E+09]], v30, z0, tNozzle, \Wobj := wobjFlatPlat;
		MoveJ [[5.275, 10.779, 70.000], [-0.4109945, -0.1162512, 0.6974853, -0.5753986], [-1, 1, 4, 1], [9E+09, 9E+09, 9E+09, 9E+09, 9E+09, 9E+09]], v30, z0, tNozzle, \Wobj := wobjFlatPlat;
		MoveJ [[5.898, 10.451, 70.000], [-0.427709, -0.0957254, 0.7005974, -0.5630853], [-1, 1, 4, 1], [9E+09, 9E+09, 9E+09, 9E+09, 9E+09, 9E+09]], v30, z0, tNozzle, \Wobj := wobjFlatPlat;
		MoveJ [[5.898, 10.451, 42.500], [-0.427709, -0.0957254, 0.7005974, -0.5630853], [-1, 1, 4, 1], [9E+09, 9E+09, 9E+09, 9E+09, 9E+09, 9E+09]], v30, z0, tNozzle, \Wobj := wobjFlatPlat;
		MoveJ [[5.898, 10.451, 15.000], [-0.427709, -0.0957254, 0.7005974, -0.5630853], [-1, 1, 4, 1], [9E+09, 9E+09, 9E+09, 9E+09, 9E+09, 9E+09]], v30, z0, tNozzle, \Wobj := wobjFlatPlat;
		MoveJ [[6.501, 10.086, 15.000], [-0.4440549, -0.0751171, 0.7031056, -0.5502866], [-1, 1, 4, 1], [9E+09, 9E+09, 9E+09, 9E+09, 9E+09, 9E+09]], v30, z0, tNozzle, \Wobj := wobjFlatPlat;
		MoveJ [[6.501, 10.086, 42.500], [-0.4440549, -0.0751171, 0.7031056, -0.5502866], [-1, 1, 4, 1], [9E+09, 9E+09, 9E+09, 9E+09, 9E+09, 9E+09]], v30, z0, tNozzle, \Wobj := wobjFlatPlat;
		MoveJ [[6.501, 10.086, 70.000], [-0.4440549, -0.0751171, 0.7031056, -0.5502866], [-1, 1, 4, 1], [9E+09, 9E+09, 9E+09, 9E+09, 9E+09, 9E+09]], v30, z0, tNozzle, \Wobj := wobjFlatPlat;
		MoveJ [[7.082, 9.687, 70.000], [-0.460018, -0.054444, 0.7050077, -0.5370135], [-1, 1, 4, 1], [9E+09, 9E+09, 9E+09, 9E+09, 9E+09, 9E+09]], v30, z0, tNozzle, \Wobj := wobjFlatPlat;
		MoveJ [[7.082, 9.687, 42.500], [-0.460018, -0.054444, 0.7050077, -0.5370135], [-1, 1, 4, 1], [9E+09, 9E+09, 9E+09, 9E+09, 9E+09, 9E+09]], v30, z0, tNozzle, \Wobj := wobjFlatPlat;
		MoveJ [[7.082, 9.687, 15.000], [-0.460018, -0.054444, 0.7050077, -0.5370135], [-1, 1, 4, 1], [9E+09, 9E+09, 9E+09, 9E+09, 9E+09, 9E+09]], v30, z0, tNozzle, \Wobj := wobjFlatPlat;
		MoveJ [[7.638, 9.255, 15.000], [-0.4755845, -0.033724, 0.7063022, -0.5232776], [-1, 1, 4, 1], [9E+09, 9E+09, 9E+09, 9E+09, 9E+09, 9E+09]], v30, z0, tNozzle, \Wobj := wobjFlatPlat;
		MoveJ [[7.638, 9.255, 42.500], [-0.4755845, -0.033724, 0.7063022, -0.5232776], [-1, 1, 4, 1], [9E+09, 9E+09, 9E+09, 9E+09, 9E+09, 9E+09]], v30, z0, tNozzle, \Wobj := wobjFlatPlat;
		MoveJ [[7.638, 9.255, 70.000], [-0.4755845, -0.033724, 0.7063022, -0.5232776], [-1, 1, 4, 1], [9E+09, 9E+09, 9E+09, 9E+09, 9E+09, 9E+09]], v30, z0, tNozzle, \Wobj := wobjFlatPlat;
		MoveJ [[8.168, 8.791, 70.000], [-0.4907411, -0.0129749, 0.7069878, -0.5090906], [-1, 1, 4, 1], [9E+09, 9E+09, 9E+09, 9E+09, 9E+09, 9E+09]], v30, z0, tNozzle, \Wobj := wobjFlatPlat;
		MoveJ [[8.168, 8.791, 42.500], [-0.4907411, -0.0129749, 0.7069878, -0.5090906], [-1, 1, 4, 1], [9E+09, 9E+09, 9E+09, 9E+09, 9E+09, 9E+09]], v30, z0, tNozzle, \Wobj := wobjFlatPlat;
		MoveJ [[8.168, 8.791, 15.000], [-0.4907411, -0.0129749, 0.7069878, -0.5090906], [-1, 1, 4, 1], [9E+09, 9E+09, 9E+09, 9E+09, 9E+09, 9E+09]], v30, z0, tNozzle, \Wobj := wobjFlatPlat;
		MoveJ [[8.670, 8.296, 15.000], [-0.5054747, 0.0077853, 0.707064, -0.4944647], [-1, 1, 4, 1], [9E+09, 9E+09, 9E+09, 9E+09, 9E+09, 9E+09]], v30, z0, tNozzle, \Wobj := wobjFlatPlat;
		MoveJ [[8.670, 8.296, 42.500], [-0.5054747, 0.0077853, 0.707064, -0.4944647], [-1, 1, 4, 1], [9E+09, 9E+09, 9E+09, 9E+09, 9E+09, 9E+09]], v30, z0, tNozzle, \Wobj := wobjFlatPlat;
		MoveJ [[8.670, 8.296, 70.000], [-0.5054747, 0.0077853, 0.707064, -0.4944647], [-1, 1, 4, 1], [9E+09, 9E+09, 9E+09, 9E+09, 9E+09, 9E+09]], v30, z0, tNozzle, \Wobj := wobjFlatPlat;
		MoveJ [[9.142, 7.773, 70.000], [-0.5197726, 0.0285388, 0.7065307, -0.4794127], [-1, 1, 4, 1], [9E+09, 9E+09, 9E+09, 9E+09, 9E+09, 9E+09]], v30, z0, tNozzle, \Wobj := wobjFlatPlat;
		MoveJ [[9.142, 7.773, 42.500], [-0.5197726, 0.0285388, 0.7065307, -0.4794127], [-1, 1, 4, 1], [9E+09, 9E+09, 9E+09, 9E+09, 9E+09, 9E+09]], v30, z0, tNozzle, \Wobj := wobjFlatPlat;
		MoveJ [[9.142, 7.773, 15.000], [-0.5197726, 0.0285388, 0.7065307, -0.4794127], [-1, 1, 4, 1], [9E+09, 9E+09, 9E+09, 9E+09, 9E+09, 9E+09]], v30, z0, tNozzle, \Wobj := wobjFlatPlat;
		MoveJ [[9.582, 7.223, 15.000], [-0.5336224, 0.0492678, 0.7053884, -0.4639474], [-1, 1, 4, 1], [9E+09, 9E+09, 9E+09, 9E+09, 9E+09, 9E+09]], v30, z0, tNozzle, \Wobj := wobjFlatPlat;
		MoveJ [[9.582, 7.223, 42.500], [-0.5336224, 0.0492678, 0.7053884, -0.4639474], [-1, 1, 4, 1], [9E+09, 9E+09, 9E+09, 9E+09, 9E+09, 9E+09]], v30, z0, tNozzle, \Wobj := wobjFlatPlat;
		MoveJ [[9.582, 7.223, 70.000], [-0.5336224, 0.0492678, 0.7053884, -0.4639474], [-1, 1, 4, 1], [9E+09, 9E+09, 9E+09, 9E+09, 9E+09, 9E+09]], v30, z0, tNozzle, \Wobj := wobjFlatPlat;
		MoveJ [[9.990, 6.649, 70.000], [-0.5470123, 0.0699543, 0.703638, -0.4480821], [-1, 1, 4, 1], [9E+09, 9E+09, 9E+09, 9E+09, 9E+09, 9E+09]], v30, z0, tNozzle, \Wobj := wobjFlatPlat;
		MoveJ [[9.990, 6.649, 42.500], [-0.5470123, 0.0699543, 0.703638, -0.4480821], [-1, 1, 4, 1], [9E+09, 9E+09, 9E+09, 9E+09, 9E+09, 9E+09]], v30, z0, tNozzle, \Wobj := wobjFlatPlat;
		MoveJ [[9.990, 6.649, 15.000], [-0.5470123, 0.0699543, 0.703638, -0.4480821], [-1, 1, 4, 1], [9E+09, 9E+09, 9E+09, 9E+09, 9E+09, 9E+09]], v30, z0, tNozzle, \Wobj := wobjFlatPlat;
		MoveJ [[10.363, 6.051, 15.000], [-0.5599306, 0.0905804, 0.7012811, -0.4318307], [-1, 1, 4, 1], [9E+09, 9E+09, 9E+09, 9E+09, 9E+09, 9E+09]], v30, z0, tNozzle, \Wobj := wobjFlatPlat;
		MoveJ [[10.363, 6.051, 42.500], [-0.5599306, 0.0905804, 0.7012811, -0.4318307], [-1, 1, 4, 1], [9E+09, 9E+09, 9E+09, 9E+09, 9E+09, 9E+09]], v30, z0, tNozzle, \Wobj := wobjFlatPlat;
		MoveJ [[10.363, 6.051, 70.000], [-0.5599306, 0.0905804, 0.7012811, -0.4318307], [-1, 1, 4, 1], [9E+09, 9E+09, 9E+09, 9E+09, 9E+09, 9E+09]], v30, z0, tNozzle, \Wobj := wobjFlatPlat;
		MoveJ [[10.700, 5.432, 70.000], [-0.5723663, 0.1111285, 0.6983198, -0.415207], [-1, 1, 4, 1], [9E+09, 9E+09, 9E+09, 9E+09, 9E+09, 9E+09]], v30, z0, tNozzle, \Wobj := wobjFlatPlat;
		MoveJ [[10.700, 5.432, 42.500], [-0.5723663, 0.1111285, 0.6983198, -0.415207], [-1, 1, 4, 1], [9E+09, 9E+09, 9E+09, 9E+09, 9E+09, 9E+09]], v30, z0, tNozzle, \Wobj := wobjFlatPlat;
		MoveJ [[10.700, 5.432, 15.000], [-0.5723663, 0.1111285, 0.6983198, -0.415207], [-1, 1, 4, 1], [9E+09, 9E+09, 9E+09, 9E+09, 9E+09, 9E+09]], v30, z0, tNozzle, \Wobj := wobjFlatPlat;
		MoveJ [[11.000, 4.795, 15.000], [-0.5843087, 0.1315808, 0.6947565, -0.3982254], [-1, 1, 4, 1], [9E+09, 9E+09, 9E+09, 9E+09, 9E+09, 9E+09]], v30, z0, tNozzle, \Wobj := wobjFlatPlat;
		MoveJ [[11.000, 4.795, 42.500], [-0.5843087, 0.1315808, 0.6947565, -0.3982254], [-1, 1, 4, 1], [9E+09, 9E+09, 9E+09, 9E+09, 9E+09, 9E+09]], v30, z0, tNozzle, \Wobj := wobjFlatPlat;
		MoveJ [[11.000, 4.795, 70.000], [-0.5843087, 0.1315808, 0.6947565, -0.3982254], [-1, 1, 4, 1], [9E+09, 9E+09, 9E+09, 9E+09, 9E+09, 9E+09]], v30, z0, tNozzle, \Wobj := wobjFlatPlat;
		MoveJ [[11.263, 4.141, 70.000], [-0.5957473, 0.1519197, 0.6905943, -0.3809005], [-1, 1, 4, 1], [9E+09, 9E+09, 9E+09, 9E+09, 9E+09, 9E+09]], v30, z0, tNozzle, \Wobj := wobjFlatPlat;
		MoveJ [[11.263, 4.141, 42.500], [-0.5957473, 0.1519197, 0.6905943, -0.3809005], [-1, 1, 4, 1], [9E+09, 9E+09, 9E+09, 9E+09, 9E+09, 9E+09]], v30, z0, tNozzle, \Wobj := wobjFlatPlat;
		MoveJ [[11.263, 4.141, 15.000], [-0.5957473, 0.1519197, 0.6905943, -0.3809005], [-1, 1, 4, 1], [9E+09, 9E+09, 9E+09, 9E+09, 9E+09, 9E+09]], v30, z0, tNozzle, \Wobj := wobjFlatPlat;
		MoveJ [[11.486, 3.473, 15.000], [-0.6066724, 0.1721276, 0.6858368, -0.3632473], [-1, 1, 4, 1], [9E+09, 9E+09, 9E+09, 9E+09, 9E+09, 9E+09]], v30, z0, tNozzle, \Wobj := wobjFlatPlat;
		MoveJ [[11.486, 3.473, 42.500], [-0.6066724, 0.1721276, 0.6858368, -0.3632473], [-1, 1, 4, 1], [9E+09, 9E+09, 9E+09, 9E+09, 9E+09, 9E+09]], v30, z0, tNozzle, \Wobj := wobjFlatPlat;
		MoveJ [[11.486, 3.473, 70.000], [-0.6066724, 0.1721276, 0.6858368, -0.3632473], [-1, 1, 4, 1], [9E+09, 9E+09, 9E+09, 9E+09, 9E+09, 9E+09]], v30, z0, tNozzle, \Wobj := wobjFlatPlat;
		MoveJ [[11.670, 2.793, 70.000], [-0.6170746, 0.1921872, 0.6804882, -0.345281], [-1, 1, 4, 1], [9E+09, 9E+09, 9E+09, 9E+09, 9E+09, 9E+09]], v30, z0, tNozzle, \Wobj := wobjFlatPlat;
		MoveJ [[11.670, 2.793, 42.500], [-0.6170746, 0.1921872, 0.6804882, -0.345281], [-1, 1, 4, 1], [9E+09, 9E+09, 9E+09, 9E+09, 9E+09, 9E+09]], v30, z0, tNozzle, \Wobj := wobjFlatPlat;
		MoveJ [[11.670, 2.793, 15.000], [-0.6170746, 0.1921872, 0.6804882, -0.345281], [-1, 1, 4, 1], [9E+09, 9E+09, 9E+09, 9E+09, 9E+09, 9E+09]], v30, z0, tNozzle, \Wobj := wobjFlatPlat;
		MoveJ [[11.814, 2.103, 15.000], [-0.6269449, 0.2120811, 0.6745529, -0.3270171], [-1, 1, 4, 1], [9E+09, 9E+09, 9E+09, 9E+09, 9E+09, 9E+09]], v30, z0, tNozzle, \Wobj := wobjFlatPlat;
		MoveJ [[11.814, 2.103, 42.500], [-0.6269449, 0.2120811, 0.6745529, -0.3270171], [-1, 1, 4, 1], [9E+09, 9E+09, 9E+09, 9E+09, 9E+09, 9E+09]], v30, z0, tNozzle, \Wobj := wobjFlatPlat;
		MoveJ [[11.814, 2.103, 70.000], [-0.6269449, 0.2120811, 0.6745529, -0.3270171], [-1, 1, 4, 1], [9E+09, 9E+09, 9E+09, 9E+09, 9E+09, 9E+09]], v30, z0, tNozzle, \Wobj := wobjFlatPlat;
		MoveJ [[11.917, 1.406, 70.000], [-0.6362747, 0.2317922, 0.6680363, -0.3084712], [-1, 1, 4, 1], [9E+09, 9E+09, 9E+09, 9E+09, 9E+09, 9E+09]], v30, z0, tNozzle, \Wobj := wobjFlatPlat;
		MoveJ [[11.917, 1.406, 42.500], [-0.6362747, 0.2317922, 0.6680363, -0.3084712], [-1, 1, 4, 1], [9E+09, 9E+09, 9E+09, 9E+09, 9E+09, 9E+09]], v30, z0, tNozzle, \Wobj := wobjFlatPlat;
		MoveJ [[11.917, 1.406, 15.000], [-0.6362747, 0.2317922, 0.6680363, -0.3084712], [-1, 1, 4, 1], [9E+09, 9E+09, 9E+09, 9E+09, 9E+09, 9E+09]], v30, z0, tNozzle, \Wobj := wobjFlatPlat;
		MoveJ [[11.979, 0.704, 15.000], [-0.6450561, 0.2513034, 0.6609437, -0.2896595], [-1, 1, 4, 1], [9E+09, 9E+09, 9E+09, 9E+09, 9E+09, 9E+09]], v30, z0, tNozzle, \Wobj := wobjFlatPlat;
		MoveJ [[11.979, 0.704, 42.500], [-0.6450561, 0.2513034, 0.6609437, -0.2896595], [-1, 1, 4, 1], [9E+09, 9E+09, 9E+09, 9E+09, 9E+09, 9E+09]], v30, z0, tNozzle, \Wobj := wobjFlatPlat;
		MoveJ [[11.979, 0.704, 70.000], [-0.6450561, 0.2513034, 0.6609437, -0.2896595], [-1, 1, 4, 1], [9E+09, 9E+09, 9E+09, 9E+09, 9E+09, 9E+09]], v30, z0, tNozzle, \Wobj := wobjFlatPlat;
		MoveJ [[12.000, 0.000, 70.000], [-0.6532815, 0.2705981, 0.6532815, -0.2705981], [-1, 1, 4, 1], [9E+09, 9E+09, 9E+09, 9E+09, 9E+09, 9E+09]], v30, z0, tNozzle, \Wobj := wobjFlatPlat;
		WaitRob \InPos;
		SetDO DO6_Between_Layer_Retract, 1;
		SetDO DO5_Program_Feed, 0;
		MoveJ [[22.000, 0.000, 70.000], [-0.6532815, 0.2705981, 0.6532815, -0.2705981], [-1, 1, 4, 1], [9E+09, 9E+09, 9E+09, 9E+09, 9E+09, 9E+09]], v30, z0, tNozzle, \Wobj := wobjFlatPlat;
		MoveJ [[22.000, 0.000, 70.000], [0.6532815, -0.2705981, -0.6532815, 0.2705981], [-1, 1, 1, 1], [9E+09, 9E+09, 9E+09, 9E+09, 9E+09, 9E+09]], v30, z0, tNozzle, \Wobj := wobjFlatPlat;

		! End Program codes
		SetDO DO1_Auto_Mode, 0;
		SetDO DO5_Program_Feed, 0;
		SetDO DO3_Heat_Bed, 0;
		SetDO DO4_Heat_Nozzle, 0;
		SetDO DO6_Between_Layer_Retract, 0;
	ENDPROC
ENDMODULE