MODULE MainModule
	PROC main()
		Heat;
		SetDO DO1_Auto_Mode, 1;

		

		! Part number: 1
		! PartParams(extrusionFactor=0.98, printSpeed=30, shiftX=-18.0, shiftY=-15.3, shiftZ=0.0, numLayers=20, designType=0, brims=0, horizontalExpansion=0.0, randomStartLocation=1)

		! Layer: 1
		! LayerParams(infillAngleDegrees=20.0, pathWidth=1.5, layerHeight=0.3, infillShiftX=0.0, infillShiftY=0.0, numShells=1, infillOverlap=0.0002)
		! T11
		! M6
		TPWRITE "Layer 1 of 20";
		MoveL Offs(pZeroStarMute, -6.895, -2.229, 5.3), v100, z0, tNozzle, \Wobj := wobj1Star;
		MoveL Offs(pZeroStarMute, -6.895, -2.229, 0.3), v30, z0, tNozzle, \Wobj := wobj1Star;
		WaitRob \InPos;
		SetDO DO5_Program_Feed, 1;
		MoveL Offs(pZeroStarMute, -6.889, -2.253, 0.3), v30, z0, tNozzle, \Wobj := wobj1Star;
		MoveL Offs(pZeroStarMute, -6.884, -2.278, 0.3), v30, z0, tNozzle, \Wobj := wobj1Star;
		MoveL Offs(pZeroStarMute, -6.883, -2.304, 0.3), v30, z0, tNozzle, \Wobj := wobj1Star;
		MoveL Offs(pZeroStarMute, -6.884, -2.329, 0.3), v30, z0, tNozzle, \Wobj := wobj1Star;
		MoveL Offs(pZeroStarMute, -6.888, -2.355, 0.3), v30, z0, tNozzle, \Wobj := wobj1Star;
		MoveL Offs(pZeroStarMute, -6.894, -2.379, 0.3), v30, z0, tNozzle, \Wobj := wobj1Star;
		MoveL Offs(pZeroStarMute, -10.672, -14.676, 0.3), v30, z0, tNozzle, \Wobj := wobj1Star;
		MoveL Offs(pZeroStarMute, -0.191, -7.317, 0.3), v30, z0, tNozzle, \Wobj := wobj1Star;
		MoveL Offs(pZeroStarMute, -0.144, -7.284, 0.3), v30, z0, tNozzle, \Wobj := wobj1Star;
		MoveL Offs(pZeroStarMute, -0.122, -7.27, 0.3), v30, z0, tNozzle, \Wobj := wobj1Star;
		MoveL Offs(pZeroStarMute, -0.099, -7.259, 0.3), v30, z0, tNozzle, \Wobj := wobj1Star;
		MoveL Offs(pZeroStarMute, -0.075, -7.25, 0.3), v30, z0, tNozzle, \Wobj := wobj1Star;
		MoveL Offs(pZeroStarMute, -0.051, -7.243, 0.3), v30, z0, tNozzle, \Wobj := wobj1Star;
		MoveL Offs(pZeroStarMute, -0.025, -7.24, 0.3), v30, z0, tNozzle, \Wobj := wobj1Star;
		MoveL Offs(pZeroStarMute, 0.0, -7.238, 0.3), v30, z0, tNozzle, \Wobj := wobj1Star;
		MoveL Offs(pZeroStarMute, 0.025, -7.24, 0.3), v30, z0, tNozzle, \Wobj := wobj1Star;
		MoveL Offs(pZeroStarMute, 0.051, -7.243, 0.3), v30, z0, tNozzle, \Wobj := wobj1Star;
		MoveL Offs(pZeroStarMute, 0.075, -7.25, 0.3), v30, z0, tNozzle, \Wobj := wobj1Star;
		MoveL Offs(pZeroStarMute, 0.099, -7.259, 0.3), v30, z0, tNozzle, \Wobj := wobj1Star;
		MoveL Offs(pZeroStarMute, 0.122, -7.27, 0.3), v30, z0, tNozzle, \Wobj := wobj1Star;
		MoveL Offs(pZeroStarMute, 0.144, -7.284, 0.3), v30, z0, tNozzle, \Wobj := wobj1Star;
		MoveL Offs(pZeroStarMute, 10.671, -14.676, 0.3), v30, z0, tNozzle, \Wobj := wobj1Star;
		MoveL Offs(pZeroStarMute, 6.911, -2.435, 0.3), v30, z0, tNozzle, \Wobj := wobj1Star;
		MoveL Offs(pZeroStarMute, 6.894, -2.379, 0.3), v30, z0, tNozzle, \Wobj := wobj1Star;
		MoveL Offs(pZeroStarMute, 6.888, -2.355, 0.3), v30, z0, tNozzle, \Wobj := wobj1Star;
		MoveL Offs(pZeroStarMute, 6.884, -2.329, 0.3), v30, z0, tNozzle, \Wobj := wobj1Star;
		MoveL Offs(pZeroStarMute, 6.883, -2.304, 0.3), v30, z0, tNozzle, \Wobj := wobj1Star;
		MoveL Offs(pZeroStarMute, 6.884, -2.278, 0.3), v30, z0, tNozzle, \Wobj := wobj1Star;
		MoveL Offs(pZeroStarMute, 6.889, -2.253, 0.3), v30, z0, tNozzle, \Wobj := wobj1Star;
		MoveL Offs(pZeroStarMute, 6.895, -2.229, 0.3), v30, z0, tNozzle, \Wobj := wobj1Star;
		MoveL Offs(pZeroStarMute, 6.904, -2.205, 0.3), v30, z0, tNozzle, \Wobj := wobj1Star;
		MoveL Offs(pZeroStarMute, 6.916, -2.182, 0.3), v30, z0, tNozzle, \Wobj := wobj1Star;
		MoveL Offs(pZeroStarMute, 6.929, -2.161, 0.3), v30, z0, tNozzle, \Wobj := wobj1Star;
		MoveL Offs(pZeroStarMute, 6.945, -2.141, 0.3), v30, z0, tNozzle, \Wobj := wobj1Star;
		MoveL Offs(pZeroStarMute, 6.963, -2.122, 0.3), v30, z0, tNozzle, \Wobj := wobj1Star;
		MoveL Offs(pZeroStarMute, 6.983, -2.106, 0.3), v30, z0, tNozzle, \Wobj := wobj1Star;
		MoveL Offs(pZeroStarMute, 17.267, 5.622, 0.3), v30, z0, tNozzle, \Wobj := wobj1Star;
		MoveL Offs(pZeroStarMute, 4.463, 5.828, 0.3), v30, z0, tNozzle, \Wobj := wobj1Star;
		MoveL Offs(pZeroStarMute, 4.404, 5.829, 0.3), v30, z0, tNozzle, \Wobj := wobj1Star;
		MoveL Offs(pZeroStarMute, 4.379, 5.831, 0.3), v30, z0, tNozzle, \Wobj := wobj1Star;
		MoveL Offs(pZeroStarMute, 4.354, 5.835, 0.3), v30, z0, tNozzle, \Wobj := wobj1Star;
		MoveL Offs(pZeroStarMute, 4.329, 5.842, 0.3), v30, z0, tNozzle, \Wobj := wobj1Star;
		MoveL Offs(pZeroStarMute, 4.305, 5.852, 0.3), v30, z0, tNozzle, \Wobj := wobj1Star;
		MoveL Offs(pZeroStarMute, 4.283, 5.863, 0.3), v30, z0, tNozzle, \Wobj := wobj1Star;
		MoveL Offs(pZeroStarMute, 4.261, 5.877, 0.3), v30, z0, tNozzle, \Wobj := wobj1Star;
		MoveL Offs(pZeroStarMute, 4.242, 5.893, 0.3), v30, z0, tNozzle, \Wobj := wobj1Star;
		MoveL Offs(pZeroStarMute, 4.224, 5.911, 0.3), v30, z0, tNozzle, \Wobj := wobj1Star;
		MoveL Offs(pZeroStarMute, 4.207, 5.931, 0.3), v30, z0, tNozzle, \Wobj := wobj1Star;
		MoveL Offs(pZeroStarMute, 4.193, 5.952, 0.3), v30, z0, tNozzle, \Wobj := wobj1Star;
		MoveL Offs(pZeroStarMute, 4.181, 5.975, 0.3), v30, z0, tNozzle, \Wobj := wobj1Star;
		MoveL Offs(pZeroStarMute, 4.172, 5.998, 0.3), v30, z0, tNozzle, \Wobj := wobj1Star;
		MoveL Offs(pZeroStarMute, -0.0, 18.167, 0.3), v30, z0, tNozzle, \Wobj := wobj1Star;
		MoveL Offs(pZeroStarMute, -4.153, 6.053, 0.3), v30, z0, tNozzle, \Wobj := wobj1Star;
		MoveL Offs(pZeroStarMute, -4.172, 5.998, 0.3), v30, z0, tNozzle, \Wobj := wobj1Star;
		MoveL Offs(pZeroStarMute, -4.181, 5.975, 0.3), v30, z0, tNozzle, \Wobj := wobj1Star;
		MoveL Offs(pZeroStarMute, -4.193, 5.952, 0.3), v30, z0, tNozzle, \Wobj := wobj1Star;
		MoveL Offs(pZeroStarMute, -4.207, 5.931, 0.3), v30, z0, tNozzle, \Wobj := wobj1Star;
		MoveL Offs(pZeroStarMute, -4.224, 5.911, 0.3), v30, z0, tNozzle, \Wobj := wobj1Star;
		MoveL Offs(pZeroStarMute, -4.242, 5.893, 0.3), v30, z0, tNozzle, \Wobj := wobj1Star;
		MoveL Offs(pZeroStarMute, -4.261, 5.877, 0.3), v30, z0, tNozzle, \Wobj := wobj1Star;
		MoveL Offs(pZeroStarMute, -4.283, 5.863, 0.3), v30, z0, tNozzle, \Wobj := wobj1Star;
		MoveL Offs(pZeroStarMute, -4.305, 5.852, 0.3), v30, z0, tNozzle, \Wobj := wobj1Star;
		MoveL Offs(pZeroStarMute, -4.329, 5.842, 0.3), v30, z0, tNozzle, \Wobj := wobj1Star;
		MoveL Offs(pZeroStarMute, -4.354, 5.835, 0.3), v30, z0, tNozzle, \Wobj := wobj1Star;
		MoveL Offs(pZeroStarMute, -4.379, 5.831, 0.3), v30, z0, tNozzle, \Wobj := wobj1Star;
		MoveL Offs(pZeroStarMute, -4.404, 5.829, 0.3), v30, z0, tNozzle, \Wobj := wobj1Star;
		MoveL Offs(pZeroStarMute, -17.267, 5.622, 0.3), v30, z0, tNozzle, \Wobj := wobj1Star;
		MoveL Offs(pZeroStarMute, -7.029, -2.071, 0.3), v30, z0, tNozzle, \Wobj := wobj1Star;
		MoveL Offs(pZeroStarMute, -6.983, -2.106, 0.3), v30, z0, tNozzle, \Wobj := wobj1Star;
		MoveL Offs(pZeroStarMute, -6.963, -2.122, 0.3), v30, z0, tNozzle, \Wobj := wobj1Star;
		MoveL Offs(pZeroStarMute, -6.945, -2.141, 0.3), v30, z0, tNozzle, \Wobj := wobj1Star;
		MoveL Offs(pZeroStarMute, -6.929, -2.161, 0.3), v30, z0, tNozzle, \Wobj := wobj1Star;
		MoveL Offs(pZeroStarMute, -6.916, -2.182, 0.3), v30, z0, tNozzle, \Wobj := wobj1Star;
		MoveL Offs(pZeroStarMute, -6.904, -2.205, 0.3), v30, z0, tNozzle, \Wobj := wobj1Star;
		MoveL Offs(pZeroStarMute, -6.895, -2.229, 0.3), v30, z0, tNozzle, \Wobj := wobj1Star;
		WaitRob \InPos;
		SetDO DO5_Program_Feed, 0;
		MoveL Offs(pZeroStarMute, -6.749, -1.656, 0.3), v100, z0, tNozzle, \Wobj := wobj1Star;
		WaitRob \InPos;
		SetDO DO5_Program_Feed, 1;
		MoveL Offs(pZeroStarMute, 12.103, 5.205, 0.3), v30, z0, tNozzle, \Wobj := wobj1Star;
		WaitRob \InPos;
		SetDO DO5_Program_Feed, 0;
		MoveL Offs(pZeroStarMute, 15.309, 4.776, 0.3), v100, z0, tNozzle, \Wobj := wobj1Star;
		WaitRob \InPos;
		SetDO DO5_Program_Feed, 1;
		MoveL Offs(pZeroStarMute, -6.626, -3.208, 0.3), v30, z0, tNozzle, \Wobj := wobj1Star;
		WaitRob \InPos;
		SetDO DO5_Program_Feed, 0;
		MoveL Offs(pZeroStarMute, -7.178, -5.005, 0.3), v100, z0, tNozzle, \Wobj := wobj1Star;
		WaitRob \InPos;
		SetDO DO5_Program_Feed, 1;
		MoveL Offs(pZeroStarMute, 11.189, 1.68, 0.3), v30, z0, tNozzle, \Wobj := wobj1Star;
		WaitRob \InPos;
		SetDO DO5_Program_Feed, 0;
		MoveL Offs(pZeroStarMute, 7.904, 5.273, 0.3), v100, z0, tNozzle, \Wobj := wobj1Star;
		WaitRob \InPos;
		SetDO DO5_Program_Feed, 1;
		MoveL Offs(pZeroStarMute, -8.18, -0.581, 0.3), v30, z0, tNozzle, \Wobj := wobj1Star;
		WaitRob \InPos;
		SetDO DO5_Program_Feed, 0;
		MoveL Offs(pZeroStarMute, -9.611, 0.494, 0.3), v100, z0, tNozzle, \Wobj := wobj1Star;
		WaitRob \InPos;
		SetDO DO5_Program_Feed, 1;
		MoveL Offs(pZeroStarMute, 4.002, 5.449, 0.3), v30, z0, tNozzle, \Wobj := wobj1Star;
		WaitRob \InPos;
		SetDO DO5_Program_Feed, 0;
		MoveL Offs(pZeroStarMute, 3.364, 6.813, 0.3), v100, z0, tNozzle, \Wobj := wobj1Star;
		WaitRob \InPos;
		SetDO DO5_Program_Feed, 1;
		MoveL Offs(pZeroStarMute, -11.042, 1.57, 0.3), v30, z0, tNozzle, \Wobj := wobj1Star;
		WaitRob \InPos;
		SetDO DO5_Program_Feed, 0;
		MoveL Offs(pZeroStarMute, -12.473, 2.645, 0.3), v100, z0, tNozzle, \Wobj := wobj1Star;
		WaitRob \InPos;
		SetDO DO5_Program_Feed, 1;
		MoveL Offs(pZeroStarMute, -5.131, 5.318, 0.3), v30, z0, tNozzle, \Wobj := wobj1Star;
		WaitRob \InPos;
		SetDO DO5_Program_Feed, 0;
		MoveL Offs(pZeroStarMute, -3.698, 5.839, 0.3), v100, z0, tNozzle, \Wobj := wobj1Star;
		WaitRob \InPos;
		SetDO DO5_Program_Feed, 1;
		MoveL Offs(pZeroStarMute, 2.878, 8.233, 0.3), v30, z0, tNozzle, \Wobj := wobj1Star;
		WaitRob \InPos;
		SetDO DO5_Program_Feed, 0;
		MoveL Offs(pZeroStarMute, 2.391, 9.652, 0.3), v100, z0, tNozzle, \Wobj := wobj1Star;
		WaitRob \InPos;
		SetDO DO5_Program_Feed, 1;
		MoveL Offs(pZeroStarMute, -3.073, 7.663, 0.3), v30, z0, tNozzle, \Wobj := wobj1Star;
		WaitRob \InPos;
		SetDO DO5_Program_Feed, 0;
		MoveL Offs(pZeroStarMute, -2.448, 9.487, 0.3), v100, z0, tNozzle, \Wobj := wobj1Star;
		WaitRob \InPos;
		SetDO DO5_Program_Feed, 1;
		MoveL Offs(pZeroStarMute, 1.904, 11.071, 0.3), v30, z0, tNozzle, \Wobj := wobj1Star;
		WaitRob \InPos;
		SetDO DO5_Program_Feed, 0;
		MoveL Offs(pZeroStarMute, 1.418, 12.49, 0.3), v100, z0, tNozzle, \Wobj := wobj1Star;
		WaitRob \InPos;
		SetDO DO5_Program_Feed, 1;
		MoveL Offs(pZeroStarMute, -1.822, 11.311, 0.3), v30, z0, tNozzle, \Wobj := wobj1Star;
		WaitRob \InPos;
		SetDO DO5_Program_Feed, 0;
		MoveL Offs(pZeroStarMute, -1.197, 13.135, 0.3), v100, z0, tNozzle, \Wobj := wobj1Star;
		WaitRob \InPos;
		SetDO DO5_Program_Feed, 1;
		MoveL Offs(pZeroStarMute, 0.931, 13.909, 0.3), v30, z0, tNozzle, \Wobj := wobj1Star;
		WaitRob \InPos;
		SetDO DO5_Program_Feed, 0;
		MoveL Offs(pZeroStarMute, 0.445, 15.328, 0.3), v100, z0, tNozzle, \Wobj := wobj1Star;
		WaitRob \InPos;
		SetDO DO5_Program_Feed, 1;
		MoveL Offs(pZeroStarMute, -0.572, 14.958, 0.3), v30, z0, tNozzle, \Wobj := wobj1Star;
		WaitRob \InPos;
		SetDO DO5_Program_Feed, 0;
		MoveL Offs(pZeroStarMute, -9.719, 5.244, 0.3), v100, z0, tNozzle, \Wobj := wobj1Star;
		WaitRob \InPos;
		SetDO DO5_Program_Feed, 1;
		MoveL Offs(pZeroStarMute, -13.905, 3.721, 0.3), v30, z0, tNozzle, \Wobj := wobj1Star;
		WaitRob \InPos;
		SetDO DO5_Program_Feed, 0;
		MoveL Offs(pZeroStarMute, -14.308, 5.17, 0.3), v100, z0, tNozzle, \Wobj := wobj1Star;
		WaitRob \InPos;
		SetDO DO5_Program_Feed, 1;
		MoveL Offs(pZeroStarMute, -15.336, 4.796, 0.3), v30, z0, tNozzle, \Wobj := wobj1Star;
		WaitRob \InPos;
		SetDO DO5_Program_Feed, 0;
		MoveL Offs(pZeroStarMute, -7.73, -6.802, 0.3), v100, z0, tNozzle, \Wobj := wobj1Star;
		WaitRob \InPos;
		SetDO DO5_Program_Feed, 1;
		MoveL Offs(pZeroStarMute, 7.07, -1.416, 0.3), v30, z0, tNozzle, \Wobj := wobj1Star;
		WaitRob \InPos;
		SetDO DO5_Program_Feed, 0;
		MoveL Offs(pZeroStarMute, 6.616, -3.177, 0.3), v100, z0, tNozzle, \Wobj := wobj1Star;
		WaitRob \InPos;
		SetDO DO5_Program_Feed, 1;
		MoveL Offs(pZeroStarMute, -8.282, -8.599, 0.3), v30, z0, tNozzle, \Wobj := wobj1Star;
		WaitRob \InPos;
		SetDO DO5_Program_Feed, 0;
		MoveL Offs(pZeroStarMute, -8.834, -10.397, 0.3), v100, z0, tNozzle, \Wobj := wobj1Star;
		WaitRob \InPos;
		SetDO DO5_Program_Feed, 1;
		MoveL Offs(pZeroStarMute, -1.801, -7.837, 0.3), v30, z0, tNozzle, \Wobj := wobj1Star;
		WaitRob \InPos;
		SetDO DO5_Program_Feed, 0;
		MoveL Offs(pZeroStarMute, 0.571, -6.973, 0.3), v100, z0, tNozzle, \Wobj := wobj1Star;
		WaitRob \InPos;
		SetDO DO5_Program_Feed, 1;
		MoveL Offs(pZeroStarMute, 7.057, -4.613, 0.3), v30, z0, tNozzle, \Wobj := wobj1Star;
		WaitRob \InPos;
		SetDO DO5_Program_Feed, 0;
		MoveL Offs(pZeroStarMute, 7.498, -6.048, 0.3), v100, z0, tNozzle, \Wobj := wobj1Star;
		WaitRob \InPos;
		SetDO DO5_Program_Feed, 1;
		MoveL Offs(pZeroStarMute, 2.069, -8.025, 0.3), v30, z0, tNozzle, \Wobj := wobj1Star;
		WaitRob \InPos;
		SetDO DO5_Program_Feed, 0;
		MoveL Offs(pZeroStarMute, 3.566, -9.076, 0.3), v100, z0, tNozzle, \Wobj := wobj1Star;
		WaitRob \InPos;
		SetDO DO5_Program_Feed, 1;
		MoveL Offs(pZeroStarMute, 7.939, -7.484, 0.3), v30, z0, tNozzle, \Wobj := wobj1Star;
		WaitRob \InPos;
		SetDO DO5_Program_Feed, 0;
		MoveL Offs(pZeroStarMute, 8.38, -8.92, 0.3), v100, z0, tNozzle, \Wobj := wobj1Star;
		WaitRob \InPos;
		SetDO DO5_Program_Feed, 1;
		MoveL Offs(pZeroStarMute, 5.063, -10.127, 0.3), v30, z0, tNozzle, \Wobj := wobj1Star;
		WaitRob \InPos;
		SetDO DO5_Program_Feed, 0;
		MoveL Offs(pZeroStarMute, 6.56, -11.179, 0.3), v100, z0, tNozzle, \Wobj := wobj1Star;
		WaitRob \InPos;
		SetDO DO5_Program_Feed, 1;
		MoveL Offs(pZeroStarMute, 8.821, -10.356, 0.3), v30, z0, tNozzle, \Wobj := wobj1Star;
		WaitRob \InPos;
		SetDO DO5_Program_Feed, 0;
		MoveL Offs(pZeroStarMute, 9.262, -11.791, 0.3), v100, z0, tNozzle, \Wobj := wobj1Star;
		WaitRob \InPos;
		SetDO DO5_Program_Feed, 1;
		MoveL Offs(pZeroStarMute, 8.057, -12.23, 0.3), v30, z0, tNozzle, \Wobj := wobj1Star;
		WaitRob \InPos;
		SetDO DO5_Program_Feed, 0;
		MoveL Offs(pZeroStarMute, 9.555, -13.281, 0.3), v100, z0, tNozzle, \Wobj := wobj1Star;
		WaitRob \InPos;
		SetDO DO5_Program_Feed, 1;
		MoveL Offs(pZeroStarMute, 9.703, -13.227, 0.3), v30, z0, tNozzle, \Wobj := wobj1Star;
		WaitRob \InPos;
		SetDO DO5_Program_Feed, 0;
		MoveL Offs(pZeroStarMute, -6.52, -11.151, 0.3), v100, z0, tNozzle, \Wobj := wobj1Star;
		WaitRob \InPos;
		SetDO DO5_Program_Feed, 1;
		MoveL Offs(pZeroStarMute, -9.386, -12.194, 0.3), v30, z0, tNozzle, \Wobj := wobj1Star;
		WaitRob \InPos;
		SetDO DO6_Between_Layer_Retract, 1;
		SetDO DO5_Program_Feed, 0;
		MoveL Offs(pZeroStarMute, -9.386, -12.194, 5.3), v100, z0, tNozzle, \Wobj := wobj1Star;

		! Layer: 2
		! LayerParams(infillAngleDegrees=110.0, pathWidth=1.5, layerHeight=0.3, infillShiftX=0.0, infillShiftY=0.0, numShells=1, infillOverlap=0.0002)
		! T12
		! M6
		TPWRITE "Layer 2 of 20";
		MoveL Offs(pZeroStarMute, -4.181, 5.975, 5.6), v100, z0, tNozzle, \Wobj := wobj1Star;
		MoveL Offs(pZeroStarMute, -4.181, 5.975, 0.6), v30, z0, tNozzle, \Wobj := wobj1Star;
		WaitRob \InPos;
		SetDO DO6_Between_Layer_Retract, 0;
		WaitRob \InPos;
		SetDO DO5_Program_Feed, 1;
		MoveL Offs(pZeroStarMute, -4.193, 5.952, 0.6), v30, z0, tNozzle, \Wobj := wobj1Star;
		MoveL Offs(pZeroStarMute, -4.207, 5.931, 0.6), v30, z0, tNozzle, \Wobj := wobj1Star;
		MoveL Offs(pZeroStarMute, -4.224, 5.911, 0.6), v30, z0, tNozzle, \Wobj := wobj1Star;
		MoveL Offs(pZeroStarMute, -4.242, 5.893, 0.6), v30, z0, tNozzle, \Wobj := wobj1Star;
		MoveL Offs(pZeroStarMute, -4.261, 5.877, 0.6), v30, z0, tNozzle, \Wobj := wobj1Star;
		MoveL Offs(pZeroStarMute, -4.283, 5.863, 0.6), v30, z0, tNozzle, \Wobj := wobj1Star;
		MoveL Offs(pZeroStarMute, -4.305, 5.852, 0.6), v30, z0, tNozzle, \Wobj := wobj1Star;
		MoveL Offs(pZeroStarMute, -4.329, 5.842, 0.6), v30, z0, tNozzle, \Wobj := wobj1Star;
		MoveL Offs(pZeroStarMute, -4.354, 5.835, 0.6), v30, z0, tNozzle, \Wobj := wobj1Star;
		MoveL Offs(pZeroStarMute, -4.379, 5.831, 0.6), v30, z0, tNozzle, \Wobj := wobj1Star;
		MoveL Offs(pZeroStarMute, -4.404, 5.829, 0.6), v30, z0, tNozzle, \Wobj := wobj1Star;
		MoveL Offs(pZeroStarMute, -17.267, 5.622, 0.6), v30, z0, tNozzle, \Wobj := wobj1Star;
		MoveL Offs(pZeroStarMute, -7.076, -2.036, 0.6), v30, z0, tNozzle, \Wobj := wobj1Star;
		MoveL Offs(pZeroStarMute, -6.983, -2.106, 0.6), v30, z0, tNozzle, \Wobj := wobj1Star;
		MoveL Offs(pZeroStarMute, -6.963, -2.122, 0.6), v30, z0, tNozzle, \Wobj := wobj1Star;
		MoveL Offs(pZeroStarMute, -6.945, -2.141, 0.6), v30, z0, tNozzle, \Wobj := wobj1Star;
		MoveL Offs(pZeroStarMute, -6.929, -2.161, 0.6), v30, z0, tNozzle, \Wobj := wobj1Star;
		MoveL Offs(pZeroStarMute, -6.916, -2.182, 0.6), v30, z0, tNozzle, \Wobj := wobj1Star;
		MoveL Offs(pZeroStarMute, -6.904, -2.205, 0.6), v30, z0, tNozzle, \Wobj := wobj1Star;
		MoveL Offs(pZeroStarMute, -6.895, -2.229, 0.6), v30, z0, tNozzle, \Wobj := wobj1Star;
		MoveL Offs(pZeroStarMute, -6.889, -2.253, 0.6), v30, z0, tNozzle, \Wobj := wobj1Star;
		MoveL Offs(pZeroStarMute, -6.884, -2.278, 0.6), v30, z0, tNozzle, \Wobj := wobj1Star;
		MoveL Offs(pZeroStarMute, -6.883, -2.304, 0.6), v30, z0, tNozzle, \Wobj := wobj1Star;
		MoveL Offs(pZeroStarMute, -6.884, -2.329, 0.6), v30, z0, tNozzle, \Wobj := wobj1Star;
		MoveL Offs(pZeroStarMute, -6.888, -2.355, 0.6), v30, z0, tNozzle, \Wobj := wobj1Star;
		MoveL Offs(pZeroStarMute, -6.894, -2.379, 0.6), v30, z0, tNozzle, \Wobj := wobj1Star;
		MoveL Offs(pZeroStarMute, -10.672, -14.676, 0.6), v30, z0, tNozzle, \Wobj := wobj1Star;
		MoveL Offs(pZeroStarMute, -0.239, -7.351, 0.6), v30, z0, tNozzle, \Wobj := wobj1Star;
		MoveL Offs(pZeroStarMute, -0.144, -7.284, 0.6), v30, z0, tNozzle, \Wobj := wobj1Star;
		MoveL Offs(pZeroStarMute, -0.122, -7.27, 0.6), v30, z0, tNozzle, \Wobj := wobj1Star;
		MoveL Offs(pZeroStarMute, -0.099, -7.259, 0.6), v30, z0, tNozzle, \Wobj := wobj1Star;
		MoveL Offs(pZeroStarMute, -0.075, -7.25, 0.6), v30, z0, tNozzle, \Wobj := wobj1Star;
		MoveL Offs(pZeroStarMute, -0.051, -7.243, 0.6), v30, z0, tNozzle, \Wobj := wobj1Star;
		MoveL Offs(pZeroStarMute, -0.025, -7.24, 0.6), v30, z0, tNozzle, \Wobj := wobj1Star;
		MoveL Offs(pZeroStarMute, 0.0, -7.238, 0.6), v30, z0, tNozzle, \Wobj := wobj1Star;
		MoveL Offs(pZeroStarMute, 0.025, -7.24, 0.6), v30, z0, tNozzle, \Wobj := wobj1Star;
		MoveL Offs(pZeroStarMute, 0.051, -7.243, 0.6), v30, z0, tNozzle, \Wobj := wobj1Star;
		MoveL Offs(pZeroStarMute, 0.075, -7.25, 0.6), v30, z0, tNozzle, \Wobj := wobj1Star;
		MoveL Offs(pZeroStarMute, 0.099, -7.259, 0.6), v30, z0, tNozzle, \Wobj := wobj1Star;
		MoveL Offs(pZeroStarMute, 0.122, -7.27, 0.6), v30, z0, tNozzle, \Wobj := wobj1Star;
		MoveL Offs(pZeroStarMute, 0.144, -7.284, 0.6), v30, z0, tNozzle, \Wobj := wobj1Star;
		MoveL Offs(pZeroStarMute, 10.671, -14.676, 0.6), v30, z0, tNozzle, \Wobj := wobj1Star;
		MoveL Offs(pZeroStarMute, 6.928, -2.491, 0.6), v30, z0, tNozzle, \Wobj := wobj1Star;
		MoveL Offs(pZeroStarMute, 6.894, -2.379, 0.6), v30, z0, tNozzle, \Wobj := wobj1Star;
		MoveL Offs(pZeroStarMute, 6.888, -2.355, 0.6), v30, z0, tNozzle, \Wobj := wobj1Star;
		MoveL Offs(pZeroStarMute, 6.884, -2.329, 0.6), v30, z0, tNozzle, \Wobj := wobj1Star;
		MoveL Offs(pZeroStarMute, 6.883, -2.304, 0.6), v30, z0, tNozzle, \Wobj := wobj1Star;
		MoveL Offs(pZeroStarMute, 6.884, -2.278, 0.6), v30, z0, tNozzle, \Wobj := wobj1Star;
		MoveL Offs(pZeroStarMute, 6.889, -2.253, 0.6), v30, z0, tNozzle, \Wobj := wobj1Star;
		MoveL Offs(pZeroStarMute, 6.895, -2.229, 0.6), v30, z0, tNozzle, \Wobj := wobj1Star;
		MoveL Offs(pZeroStarMute, 6.904, -2.205, 0.6), v30, z0, tNozzle, \Wobj := wobj1Star;
		MoveL Offs(pZeroStarMute, 6.916, -2.182, 0.6), v30, z0, tNozzle, \Wobj := wobj1Star;
		MoveL Offs(pZeroStarMute, 6.929, -2.161, 0.6), v30, z0, tNozzle, \Wobj := wobj1Star;
		MoveL Offs(pZeroStarMute, 6.945, -2.141, 0.6), v30, z0, tNozzle, \Wobj := wobj1Star;
		MoveL Offs(pZeroStarMute, 6.963, -2.122, 0.6), v30, z0, tNozzle, \Wobj := wobj1Star;
		MoveL Offs(pZeroStarMute, 6.983, -2.106, 0.6), v30, z0, tNozzle, \Wobj := wobj1Star;
		MoveL Offs(pZeroStarMute, 17.267, 5.622, 0.6), v30, z0, tNozzle, \Wobj := wobj1Star;
		MoveL Offs(pZeroStarMute, 4.521, 5.827, 0.6), v30, z0, tNozzle, \Wobj := wobj1Star;
		MoveL Offs(pZeroStarMute, 4.404, 5.829, 0.6), v30, z0, tNozzle, \Wobj := wobj1Star;
		MoveL Offs(pZeroStarMute, 4.379, 5.831, 0.6), v30, z0, tNozzle, \Wobj := wobj1Star;
		MoveL Offs(pZeroStarMute, 4.354, 5.835, 0.6), v30, z0, tNozzle, \Wobj := wobj1Star;
		MoveL Offs(pZeroStarMute, 4.329, 5.842, 0.6), v30, z0, tNozzle, \Wobj := wobj1Star;
		MoveL Offs(pZeroStarMute, 4.305, 5.852, 0.6), v30, z0, tNozzle, \Wobj := wobj1Star;
		MoveL Offs(pZeroStarMute, 4.283, 5.863, 0.6), v30, z0, tNozzle, \Wobj := wobj1Star;
		MoveL Offs(pZeroStarMute, 4.261, 5.877, 0.6), v30, z0, tNozzle, \Wobj := wobj1Star;
		MoveL Offs(pZeroStarMute, 4.242, 5.893, 0.6), v30, z0, tNozzle, \Wobj := wobj1Star;
		MoveL Offs(pZeroStarMute, 4.224, 5.911, 0.6), v30, z0, tNozzle, \Wobj := wobj1Star;
		MoveL Offs(pZeroStarMute, 4.207, 5.931, 0.6), v30, z0, tNozzle, \Wobj := wobj1Star;
		MoveL Offs(pZeroStarMute, 4.193, 5.952, 0.6), v30, z0, tNozzle, \Wobj := wobj1Star;
		MoveL Offs(pZeroStarMute, 4.181, 5.975, 0.6), v30, z0, tNozzle, \Wobj := wobj1Star;
		MoveL Offs(pZeroStarMute, 4.172, 5.998, 0.6), v30, z0, tNozzle, \Wobj := wobj1Star;
		MoveL Offs(pZeroStarMute, -0.0, 18.167, 0.6), v30, z0, tNozzle, \Wobj := wobj1Star;
		MoveL Offs(pZeroStarMute, -4.134, 6.108, 0.6), v30, z0, tNozzle, \Wobj := wobj1Star;
		MoveL Offs(pZeroStarMute, -4.172, 5.998, 0.6), v30, z0, tNozzle, \Wobj := wobj1Star;
		MoveL Offs(pZeroStarMute, -4.181, 5.975, 0.6), v30, z0, tNozzle, \Wobj := wobj1Star;
		WaitRob \InPos;
		SetDO DO5_Program_Feed, 0;
		MoveL Offs(pZeroStarMute, -3.845, 5.585, 0.6), v100, z0, tNozzle, \Wobj := wobj1Star;
		WaitRob \InPos;
		SetDO DO5_Program_Feed, 1;
		MoveL Offs(pZeroStarMute, 0.778, -7.119, 0.6), v30, z0, tNozzle, \Wobj := wobj1Star;
		WaitRob \InPos;
		SetDO DO5_Program_Feed, 0;
		MoveL Offs(pZeroStarMute, -0.81, -7.141, 0.6), v100, z0, tNozzle, \Wobj := wobj1Star;
		WaitRob \InPos;
		SetDO DO5_Program_Feed, 1;
		MoveL Offs(pZeroStarMute, -5.343, 5.314, 0.6), v30, z0, tNozzle, \Wobj := wobj1Star;
		WaitRob \InPos;
		SetDO DO5_Program_Feed, 0;
		MoveL Offs(pZeroStarMute, -6.93, 5.289, 0.6), v100, z0, tNozzle, \Wobj := wobj1Star;
		WaitRob \InPos;
		SetDO DO5_Program_Feed, 1;
		MoveL Offs(pZeroStarMute, -2.081, -8.034, 0.6), v30, z0, tNozzle, \Wobj := wobj1Star;
		WaitRob \InPos;
		SetDO DO5_Program_Feed, 0;
		MoveL Offs(pZeroStarMute, -3.353, -8.926, 0.6), v100, z0, tNozzle, \Wobj := wobj1Star;
		WaitRob \InPos;
		SetDO DO5_Program_Feed, 1;
		MoveL Offs(pZeroStarMute, -8.517, 5.263, 0.6), v30, z0, tNozzle, \Wobj := wobj1Star;
		WaitRob \InPos;
		SetDO DO5_Program_Feed, 0;
		MoveL Offs(pZeroStarMute, -10.104, 5.238, 0.6), v100, z0, tNozzle, \Wobj := wobj1Star;
		WaitRob \InPos;
		SetDO DO5_Program_Feed, 1;
		MoveL Offs(pZeroStarMute, -7.913, -0.782, 0.6), v30, z0, tNozzle, \Wobj := wobj1Star;
		WaitRob \InPos;
		SetDO DO5_Program_Feed, 0;
		MoveL Offs(pZeroStarMute, -10.111, 0.87, 0.6), v100, z0, tNozzle, \Wobj := wobj1Star;
		WaitRob \InPos;
		SetDO DO5_Program_Feed, 1;
		MoveL Offs(pZeroStarMute, -11.691, 5.212, 0.6), v30, z0, tNozzle, \Wobj := wobj1Star;
		WaitRob \InPos;
		SetDO DO5_Program_Feed, 0;
		MoveL Offs(pZeroStarMute, -13.278, 5.186, 0.6), v100, z0, tNozzle, \Wobj := wobj1Star;
		WaitRob \InPos;
		SetDO DO5_Program_Feed, 1;
		MoveL Offs(pZeroStarMute, -12.308, 2.521, 0.6), v30, z0, tNozzle, \Wobj := wobj1Star;
		WaitRob \InPos;
		SetDO DO5_Program_Feed, 0;
		MoveL Offs(pZeroStarMute, -14.505, 4.172, 0.6), v100, z0, tNozzle, \Wobj := wobj1Star;
		WaitRob \InPos;
		SetDO DO5_Program_Feed, 1;
		MoveL Offs(pZeroStarMute, -14.865, 5.161, 0.6), v30, z0, tNozzle, \Wobj := wobj1Star;
		WaitRob \InPos;
		SetDO DO5_Program_Feed, 0;
		MoveL Offs(pZeroStarMute, -6.811, -3.811, 0.6), v100, z0, tNozzle, \Wobj := wobj1Star;
		WaitRob \InPos;
		SetDO DO5_Program_Feed, 1;
		MoveL Offs(pZeroStarMute, -4.624, -9.819, 0.6), v30, z0, tNozzle, \Wobj := wobj1Star;
		WaitRob \InPos;
		SetDO DO5_Program_Feed, 0;
		MoveL Offs(pZeroStarMute, -5.895, -10.712, 0.6), v100, z0, tNozzle, \Wobj := wobj1Star;
		WaitRob \InPos;
		SetDO DO5_Program_Feed, 1;
		MoveL Offs(pZeroStarMute, -7.541, -6.189, 0.6), v30, z0, tNozzle, \Wobj := wobj1Star;
		WaitRob \InPos;
		SetDO DO5_Program_Feed, 0;
		MoveL Offs(pZeroStarMute, -8.272, -8.567, 0.6), v100, z0, tNozzle, \Wobj := wobj1Star;
		WaitRob \InPos;
		SetDO DO5_Program_Feed, 1;
		MoveL Offs(pZeroStarMute, -7.167, -11.604, 0.6), v30, z0, tNozzle, \Wobj := wobj1Star;
		WaitRob \InPos;
		SetDO DO5_Program_Feed, 0;
		MoveL Offs(pZeroStarMute, -8.438, -12.497, 0.6), v100, z0, tNozzle, \Wobj := wobj1Star;
		WaitRob \InPos;
		SetDO DO5_Program_Feed, 1;
		MoveL Offs(pZeroStarMute, -9.003, -10.946, 0.6), v30, z0, tNozzle, \Wobj := wobj1Star;
		WaitRob \InPos;
		SetDO DO5_Program_Feed, 0;
		MoveL Offs(pZeroStarMute, -9.733, -13.324, 0.6), v100, z0, tNozzle, \Wobj := wobj1Star;
		WaitRob \InPos;
		SetDO DO5_Program_Feed, 1;
		MoveL Offs(pZeroStarMute, -9.709, -13.39, 0.6), v30, z0, tNozzle, \Wobj := wobj1Star;
		WaitRob \InPos;
		SetDO DO5_Program_Feed, 0;
		MoveL Offs(pZeroStarMute, 2.923, -8.624, 0.6), v100, z0, tNozzle, \Wobj := wobj1Star;
		WaitRob \InPos;
		SetDO DO5_Program_Feed, 1;
		MoveL Offs(pZeroStarMute, -3.04, 7.758, 0.6), v30, z0, tNozzle, \Wobj := wobj1Star;
		WaitRob \InPos;
		SetDO DO5_Program_Feed, 0;
		MoveL Offs(pZeroStarMute, -2.266, 10.017, 0.6), v100, z0, tNozzle, \Wobj := wobj1Star;
		WaitRob \InPos;
		SetDO DO5_Program_Feed, 1;
		MoveL Offs(pZeroStarMute, 5.067, -10.13, 0.6), v30, z0, tNozzle, \Wobj := wobj1Star;
		WaitRob \InPos;
		SetDO DO5_Program_Feed, 0;
		MoveL Offs(pZeroStarMute, 7.211, -11.636, 0.6), v100, z0, tNozzle, \Wobj := wobj1Star;
		WaitRob \InPos;
		SetDO DO5_Program_Feed, 1;
		MoveL Offs(pZeroStarMute, -1.492, 12.275, 0.6), v30, z0, tNozzle, \Wobj := wobj1Star;
		WaitRob \InPos;
		SetDO DO5_Program_Feed, 0;
		MoveL Offs(pZeroStarMute, -0.717, 14.533, 0.6), v100, z0, tNozzle, \Wobj := wobj1Star;
		WaitRob \InPos;
		SetDO DO5_Program_Feed, 1;
		MoveL Offs(pZeroStarMute, 9.356, -13.142, 0.6), v30, z0, tNozzle, \Wobj := wobj1Star;
		WaitRob \InPos;
		SetDO DO5_Program_Feed, 0;
		MoveL Offs(pZeroStarMute, 6.767, -1.643, 0.6), v100, z0, tNozzle, \Wobj := wobj1Star;
		WaitRob \InPos;
		SetDO DO5_Program_Feed, 1;
		MoveL Offs(pZeroStarMute, 4.22, 5.354, 0.6), v30, z0, tNozzle, \Wobj := wobj1Star;
		WaitRob \InPos;
		SetDO DO5_Program_Feed, 0;
		MoveL Offs(pZeroStarMute, 5.834, 5.306, 0.6), v100, z0, tNozzle, \Wobj := wobj1Star;
		WaitRob \InPos;
		SetDO DO5_Program_Feed, 1;
		MoveL Offs(pZeroStarMute, 8.02, -0.701, 0.6), v30, z0, tNozzle, \Wobj := wobj1Star;
		WaitRob \InPos;
		SetDO DO5_Program_Feed, 0;
		MoveL Offs(pZeroStarMute, 9.274, 0.241, 0.6), v100, z0, tNozzle, \Wobj := wobj1Star;
		WaitRob \InPos;
		SetDO DO5_Program_Feed, 1;
		MoveL Offs(pZeroStarMute, 7.439, 5.281, 0.6), v30, z0, tNozzle, \Wobj := wobj1Star;
		WaitRob \InPos;
		SetDO DO5_Program_Feed, 0;
		MoveL Offs(pZeroStarMute, 9.045, 5.255, 0.6), v100, z0, tNozzle, \Wobj := wobj1Star;
		WaitRob \InPos;
		SetDO DO5_Program_Feed, 1;
		MoveL Offs(pZeroStarMute, 10.527, 1.183, 0.6), v30, z0, tNozzle, \Wobj := wobj1Star;
		WaitRob \InPos;
		SetDO DO5_Program_Feed, 0;
		MoveL Offs(pZeroStarMute, 11.78, 2.124, 0.6), v100, z0, tNozzle, \Wobj := wobj1Star;
		WaitRob \InPos;
		SetDO DO5_Program_Feed, 1;
		MoveL Offs(pZeroStarMute, 10.651, 5.229, 0.6), v30, z0, tNozzle, \Wobj := wobj1Star;
		WaitRob \InPos;
		SetDO DO5_Program_Feed, 0;
		MoveL Offs(pZeroStarMute, 12.256, 5.203, 0.6), v100, z0, tNozzle, \Wobj := wobj1Star;
		WaitRob \InPos;
		SetDO DO5_Program_Feed, 1;
		MoveL Offs(pZeroStarMute, 13.034, 3.066, 0.6), v30, z0, tNozzle, \Wobj := wobj1Star;
		WaitRob \InPos;
		SetDO DO5_Program_Feed, 0;
		MoveL Offs(pZeroStarMute, 14.287, 4.008, 0.6), v100, z0, tNozzle, \Wobj := wobj1Star;
		WaitRob \InPos;
		SetDO DO5_Program_Feed, 1;
		MoveL Offs(pZeroStarMute, 13.862, 5.177, 0.6), v30, z0, tNozzle, \Wobj := wobj1Star;
		WaitRob \InPos;
		SetDO DO5_Program_Feed, 0;
		MoveL Offs(pZeroStarMute, 15.468, 5.151, 0.6), v100, z0, tNozzle, \Wobj := wobj1Star;
		WaitRob \InPos;
		SetDO DO5_Program_Feed, 1;
		MoveL Offs(pZeroStarMute, 15.541, 4.95, 0.6), v30, z0, tNozzle, \Wobj := wobj1Star;
		WaitRob \InPos;
		SetDO DO6_Between_Layer_Retract, 1;
		SetDO DO5_Program_Feed, 0;
		MoveL Offs(pZeroStarMute, 15.541, 4.95, 5.6), v100, z0, tNozzle, \Wobj := wobj1Star;

		! Layer: 3
		! LayerParams(infillAngleDegrees=20.0, pathWidth=1.5, layerHeight=0.3, infillShiftX=0.0, infillShiftY=0.0, numShells=1, infillOverlap=0.0002)
		! T13
		! M6
		TPWRITE "Layer 3 of 20";
		MoveL Offs(pZeroStarMute, -0.0, 18.167, 5.9), v100, z0, tNozzle, \Wobj := wobj1Star;
		MoveL Offs(pZeroStarMute, -0.0, 18.167, 0.9), v30, z0, tNozzle, \Wobj := wobj1Star;
		WaitRob \InPos;
		SetDO DO6_Between_Layer_Retract, 0;
		WaitRob \InPos;
		SetDO DO5_Program_Feed, 1;
		MoveL Offs(pZeroStarMute, -4.115, 6.164, 0.9), v30, z0, tNozzle, \Wobj := wobj1Star;
		MoveL Offs(pZeroStarMute, -4.172, 5.998, 0.9), v30, z0, tNozzle, \Wobj := wobj1Star;
		MoveL Offs(pZeroStarMute, -4.181, 5.975, 0.9), v30, z0, tNozzle, \Wobj := wobj1Star;
		MoveL Offs(pZeroStarMute, -4.193, 5.952, 0.9), v30, z0, tNozzle, \Wobj := wobj1Star;
		MoveL Offs(pZeroStarMute, -4.207, 5.931, 0.9), v30, z0, tNozzle, \Wobj := wobj1Star;
		MoveL Offs(pZeroStarMute, -4.224, 5.911, 0.9), v30, z0, tNozzle, \Wobj := wobj1Star;
		MoveL Offs(pZeroStarMute, -4.242, 5.893, 0.9), v30, z0, tNozzle, \Wobj := wobj1Star;
		MoveL Offs(pZeroStarMute, -4.261, 5.877, 0.9), v30, z0, tNozzle, \Wobj := wobj1Star;
		MoveL Offs(pZeroStarMute, -4.283, 5.863, 0.9), v30, z0, tNozzle, \Wobj := wobj1Star;
		MoveL Offs(pZeroStarMute, -4.305, 5.852, 0.9), v30, z0, tNozzle, \Wobj := wobj1Star;
		MoveL Offs(pZeroStarMute, -4.329, 5.842, 0.9), v30, z0, tNozzle, \Wobj := wobj1Star;
		MoveL Offs(pZeroStarMute, -4.354, 5.835, 0.9), v30, z0, tNozzle, \Wobj := wobj1Star;
		MoveL Offs(pZeroStarMute, -4.379, 5.831, 0.9), v30, z0, tNozzle, \Wobj := wobj1Star;
		MoveL Offs(pZeroStarMute, -4.404, 5.829, 0.9), v30, z0, tNozzle, \Wobj := wobj1Star;
		MoveL Offs(pZeroStarMute, -17.267, 5.622, 0.9), v30, z0, tNozzle, \Wobj := wobj1Star;
		MoveL Offs(pZeroStarMute, -7.122, -2.001, 0.9), v30, z0, tNozzle, \Wobj := wobj1Star;
		MoveL Offs(pZeroStarMute, -6.983, -2.106, 0.9), v30, z0, tNozzle, \Wobj := wobj1Star;
		MoveL Offs(pZeroStarMute, -6.963, -2.122, 0.9), v30, z0, tNozzle, \Wobj := wobj1Star;
		MoveL Offs(pZeroStarMute, -6.945, -2.141, 0.9), v30, z0, tNozzle, \Wobj := wobj1Star;
		MoveL Offs(pZeroStarMute, -6.929, -2.161, 0.9), v30, z0, tNozzle, \Wobj := wobj1Star;
		MoveL Offs(pZeroStarMute, -6.916, -2.182, 0.9), v30, z0, tNozzle, \Wobj := wobj1Star;
		MoveL Offs(pZeroStarMute, -6.904, -2.205, 0.9), v30, z0, tNozzle, \Wobj := wobj1Star;
		MoveL Offs(pZeroStarMute, -6.895, -2.229, 0.9), v30, z0, tNozzle, \Wobj := wobj1Star;
		MoveL Offs(pZeroStarMute, -6.889, -2.253, 0.9), v30, z0, tNozzle, \Wobj := wobj1Star;
		MoveL Offs(pZeroStarMute, -6.884, -2.278, 0.9), v30, z0, tNozzle, \Wobj := wobj1Star;
		MoveL Offs(pZeroStarMute, -6.883, -2.304, 0.9), v30, z0, tNozzle, \Wobj := wobj1Star;
		MoveL Offs(pZeroStarMute, -6.884, -2.329, 0.9), v30, z0, tNozzle, \Wobj := wobj1Star;
		MoveL Offs(pZeroStarMute, -6.888, -2.355, 0.9), v30, z0, tNozzle, \Wobj := wobj1Star;
		MoveL Offs(pZeroStarMute, -6.894, -2.379, 0.9), v30, z0, tNozzle, \Wobj := wobj1Star;
		MoveL Offs(pZeroStarMute, -10.672, -14.676, 0.9), v30, z0, tNozzle, \Wobj := wobj1Star;
		MoveL Offs(pZeroStarMute, -0.287, -7.384, 0.9), v30, z0, tNozzle, \Wobj := wobj1Star;
		MoveL Offs(pZeroStarMute, -0.144, -7.284, 0.9), v30, z0, tNozzle, \Wobj := wobj1Star;
		MoveL Offs(pZeroStarMute, -0.122, -7.27, 0.9), v30, z0, tNozzle, \Wobj := wobj1Star;
		MoveL Offs(pZeroStarMute, -0.099, -7.259, 0.9), v30, z0, tNozzle, \Wobj := wobj1Star;
		MoveL Offs(pZeroStarMute, -0.075, -7.25, 0.9), v30, z0, tNozzle, \Wobj := wobj1Star;
		MoveL Offs(pZeroStarMute, -0.051, -7.243, 0.9), v30, z0, tNozzle, \Wobj := wobj1Star;
		MoveL Offs(pZeroStarMute, -0.025, -7.24, 0.9), v30, z0, tNozzle, \Wobj := wobj1Star;
		MoveL Offs(pZeroStarMute, 0.0, -7.238, 0.9), v30, z0, tNozzle, \Wobj := wobj1Star;
		MoveL Offs(pZeroStarMute, 0.025, -7.24, 0.9), v30, z0, tNozzle, \Wobj := wobj1Star;
		MoveL Offs(pZeroStarMute, 0.051, -7.243, 0.9), v30, z0, tNozzle, \Wobj := wobj1Star;
		MoveL Offs(pZeroStarMute, 0.075, -7.25, 0.9), v30, z0, tNozzle, \Wobj := wobj1Star;
		MoveL Offs(pZeroStarMute, 0.099, -7.259, 0.9), v30, z0, tNozzle, \Wobj := wobj1Star;
		MoveL Offs(pZeroStarMute, 0.122, -7.27, 0.9), v30, z0, tNozzle, \Wobj := wobj1Star;
		MoveL Offs(pZeroStarMute, 0.144, -7.284, 0.9), v30, z0, tNozzle, \Wobj := wobj1Star;
		MoveL Offs(pZeroStarMute, 10.671, -14.676, 0.9), v30, z0, tNozzle, \Wobj := wobj1Star;
		MoveL Offs(pZeroStarMute, 6.945, -2.546, 0.9), v30, z0, tNozzle, \Wobj := wobj1Star;
		MoveL Offs(pZeroStarMute, 6.894, -2.379, 0.9), v30, z0, tNozzle, \Wobj := wobj1Star;
		MoveL Offs(pZeroStarMute, 6.888, -2.355, 0.9), v30, z0, tNozzle, \Wobj := wobj1Star;
		MoveL Offs(pZeroStarMute, 6.884, -2.329, 0.9), v30, z0, tNozzle, \Wobj := wobj1Star;
		MoveL Offs(pZeroStarMute, 6.883, -2.304, 0.9), v30, z0, tNozzle, \Wobj := wobj1Star;
		MoveL Offs(pZeroStarMute, 6.884, -2.278, 0.9), v30, z0, tNozzle, \Wobj := wobj1Star;
		MoveL Offs(pZeroStarMute, 6.889, -2.253, 0.9), v30, z0, tNozzle, \Wobj := wobj1Star;
		MoveL Offs(pZeroStarMute, 6.895, -2.229, 0.9), v30, z0, tNozzle, \Wobj := wobj1Star;
		MoveL Offs(pZeroStarMute, 6.904, -2.205, 0.9), v30, z0, tNozzle, \Wobj := wobj1Star;
		MoveL Offs(pZeroStarMute, 6.916, -2.182, 0.9), v30, z0, tNozzle, \Wobj := wobj1Star;
		MoveL Offs(pZeroStarMute, 6.929, -2.161, 0.9), v30, z0, tNozzle, \Wobj := wobj1Star;
		MoveL Offs(pZeroStarMute, 6.945, -2.141, 0.9), v30, z0, tNozzle, \Wobj := wobj1Star;
		MoveL Offs(pZeroStarMute, 6.963, -2.122, 0.9), v30, z0, tNozzle, \Wobj := wobj1Star;
		MoveL Offs(pZeroStarMute, 6.983, -2.106, 0.9), v30, z0, tNozzle, \Wobj := wobj1Star;
		MoveL Offs(pZeroStarMute, 17.267, 5.622, 0.9), v30, z0, tNozzle, \Wobj := wobj1Star;
		MoveL Offs(pZeroStarMute, 4.579, 5.827, 0.9), v30, z0, tNozzle, \Wobj := wobj1Star;
		MoveL Offs(pZeroStarMute, 4.404, 5.829, 0.9), v30, z0, tNozzle, \Wobj := wobj1Star;
		MoveL Offs(pZeroStarMute, 4.379, 5.831, 0.9), v30, z0, tNozzle, \Wobj := wobj1Star;
		MoveL Offs(pZeroStarMute, 4.354, 5.835, 0.9), v30, z0, tNozzle, \Wobj := wobj1Star;
		MoveL Offs(pZeroStarMute, 4.329, 5.842, 0.9), v30, z0, tNozzle, \Wobj := wobj1Star;
		MoveL Offs(pZeroStarMute, 4.305, 5.852, 0.9), v30, z0, tNozzle, \Wobj := wobj1Star;
		MoveL Offs(pZeroStarMute, 4.283, 5.863, 0.9), v30, z0, tNozzle, \Wobj := wobj1Star;
		MoveL Offs(pZeroStarMute, 4.261, 5.877, 0.9), v30, z0, tNozzle, \Wobj := wobj1Star;
		MoveL Offs(pZeroStarMute, 4.242, 5.893, 0.9), v30, z0, tNozzle, \Wobj := wobj1Star;
		MoveL Offs(pZeroStarMute, 4.224, 5.911, 0.9), v30, z0, tNozzle, \Wobj := wobj1Star;
		MoveL Offs(pZeroStarMute, 4.207, 5.931, 0.9), v30, z0, tNozzle, \Wobj := wobj1Star;
		MoveL Offs(pZeroStarMute, 4.193, 5.952, 0.9), v30, z0, tNozzle, \Wobj := wobj1Star;
		MoveL Offs(pZeroStarMute, 4.181, 5.975, 0.9), v30, z0, tNozzle, \Wobj := wobj1Star;
		MoveL Offs(pZeroStarMute, 4.172, 5.998, 0.9), v30, z0, tNozzle, \Wobj := wobj1Star;
		MoveL Offs(pZeroStarMute, -0.0, 18.167, 0.9), v30, z0, tNozzle, \Wobj := wobj1Star;
		WaitRob \InPos;
		SetDO DO5_Program_Feed, 0;
		MoveL Offs(pZeroStarMute, 0.445, 15.328, 0.9), v100, z0, tNozzle, \Wobj := wobj1Star;
		WaitRob \InPos;
		SetDO DO5_Program_Feed, 1;
		MoveL Offs(pZeroStarMute, -0.572, 14.958, 0.9), v30, z0, tNozzle, \Wobj := wobj1Star;
		WaitRob \InPos;
		SetDO DO5_Program_Feed, 0;
		MoveL Offs(pZeroStarMute, 0.931, 13.909, 0.9), v100, z0, tNozzle, \Wobj := wobj1Star;
		WaitRob \InPos;
		SetDO DO5_Program_Feed, 1;
		MoveL Offs(pZeroStarMute, -1.197, 13.135, 0.9), v30, z0, tNozzle, \Wobj := wobj1Star;
		WaitRob \InPos;
		SetDO DO5_Program_Feed, 0;
		MoveL Offs(pZeroStarMute, -1.822, 11.311, 0.9), v100, z0, tNozzle, \Wobj := wobj1Star;
		WaitRob \InPos;
		SetDO DO5_Program_Feed, 1;
		MoveL Offs(pZeroStarMute, 1.418, 12.49, 0.9), v30, z0, tNozzle, \Wobj := wobj1Star;
		WaitRob \InPos;
		SetDO DO5_Program_Feed, 0;
		MoveL Offs(pZeroStarMute, 1.904, 11.071, 0.9), v100, z0, tNozzle, \Wobj := wobj1Star;
		WaitRob \InPos;
		SetDO DO5_Program_Feed, 1;
		MoveL Offs(pZeroStarMute, -2.448, 9.487, 0.9), v30, z0, tNozzle, \Wobj := wobj1Star;
		WaitRob \InPos;
		SetDO DO5_Program_Feed, 0;
		MoveL Offs(pZeroStarMute, -3.073, 7.663, 0.9), v100, z0, tNozzle, \Wobj := wobj1Star;
		WaitRob \InPos;
		SetDO DO5_Program_Feed, 1;
		MoveL Offs(pZeroStarMute, 2.391, 9.652, 0.9), v30, z0, tNozzle, \Wobj := wobj1Star;
		WaitRob \InPos;
		SetDO DO5_Program_Feed, 0;
		MoveL Offs(pZeroStarMute, 2.878, 8.233, 0.9), v100, z0, tNozzle, \Wobj := wobj1Star;
		WaitRob \InPos;
		SetDO DO5_Program_Feed, 1;
		MoveL Offs(pZeroStarMute, -3.698, 5.839, 0.9), v30, z0, tNozzle, \Wobj := wobj1Star;
		WaitRob \InPos;
		SetDO DO5_Program_Feed, 0;
		MoveL Offs(pZeroStarMute, -5.131, 5.318, 0.9), v100, z0, tNozzle, \Wobj := wobj1Star;
		WaitRob \InPos;
		SetDO DO5_Program_Feed, 1;
		MoveL Offs(pZeroStarMute, -12.473, 2.645, 0.9), v30, z0, tNozzle, \Wobj := wobj1Star;
		WaitRob \InPos;
		SetDO DO5_Program_Feed, 0;
		MoveL Offs(pZeroStarMute, -11.042, 1.57, 0.9), v100, z0, tNozzle, \Wobj := wobj1Star;
		WaitRob \InPos;
		SetDO DO5_Program_Feed, 1;
		MoveL Offs(pZeroStarMute, 3.364, 6.813, 0.9), v30, z0, tNozzle, \Wobj := wobj1Star;
		WaitRob \InPos;
		SetDO DO5_Program_Feed, 0;
		MoveL Offs(pZeroStarMute, 4.002, 5.449, 0.9), v100, z0, tNozzle, \Wobj := wobj1Star;
		WaitRob \InPos;
		SetDO DO5_Program_Feed, 1;
		MoveL Offs(pZeroStarMute, -9.611, 0.494, 0.9), v30, z0, tNozzle, \Wobj := wobj1Star;
		WaitRob \InPos;
		SetDO DO5_Program_Feed, 0;
		MoveL Offs(pZeroStarMute, -8.18, -0.581, 0.9), v100, z0, tNozzle, \Wobj := wobj1Star;
		WaitRob \InPos;
		SetDO DO5_Program_Feed, 1;
		MoveL Offs(pZeroStarMute, 7.904, 5.273, 0.9), v30, z0, tNozzle, \Wobj := wobj1Star;
		WaitRob \InPos;
		SetDO DO5_Program_Feed, 0;
		MoveL Offs(pZeroStarMute, 12.103, 5.205, 0.9), v100, z0, tNozzle, \Wobj := wobj1Star;
		WaitRob \InPos;
		SetDO DO5_Program_Feed, 1;
		MoveL Offs(pZeroStarMute, -6.749, -1.656, 0.9), v30, z0, tNozzle, \Wobj := wobj1Star;
		WaitRob \InPos;
		SetDO DO5_Program_Feed, 0;
		MoveL Offs(pZeroStarMute, -6.626, -3.208, 0.9), v100, z0, tNozzle, \Wobj := wobj1Star;
		WaitRob \InPos;
		SetDO DO5_Program_Feed, 1;
		MoveL Offs(pZeroStarMute, 15.309, 4.776, 0.9), v30, z0, tNozzle, \Wobj := wobj1Star;
		WaitRob \InPos;
		SetDO DO5_Program_Feed, 0;
		MoveL Offs(pZeroStarMute, 11.189, 1.68, 0.9), v100, z0, tNozzle, \Wobj := wobj1Star;
		WaitRob \InPos;
		SetDO DO5_Program_Feed, 1;
		MoveL Offs(pZeroStarMute, -7.178, -5.005, 0.9), v30, z0, tNozzle, \Wobj := wobj1Star;
		WaitRob \InPos;
		SetDO DO5_Program_Feed, 0;
		MoveL Offs(pZeroStarMute, -7.73, -6.802, 0.9), v100, z0, tNozzle, \Wobj := wobj1Star;
		WaitRob \InPos;
		SetDO DO5_Program_Feed, 1;
		MoveL Offs(pZeroStarMute, 7.07, -1.416, 0.9), v30, z0, tNozzle, \Wobj := wobj1Star;
		WaitRob \InPos;
		SetDO DO5_Program_Feed, 0;
		MoveL Offs(pZeroStarMute, 6.616, -3.177, 0.9), v100, z0, tNozzle, \Wobj := wobj1Star;
		WaitRob \InPos;
		SetDO DO5_Program_Feed, 1;
		MoveL Offs(pZeroStarMute, -8.282, -8.599, 0.9), v30, z0, tNozzle, \Wobj := wobj1Star;
		WaitRob \InPos;
		SetDO DO5_Program_Feed, 0;
		MoveL Offs(pZeroStarMute, -8.834, -10.397, 0.9), v100, z0, tNozzle, \Wobj := wobj1Star;
		WaitRob \InPos;
		SetDO DO5_Program_Feed, 1;
		MoveL Offs(pZeroStarMute, -1.801, -7.837, 0.9), v30, z0, tNozzle, \Wobj := wobj1Star;
		WaitRob \InPos;
		SetDO DO5_Program_Feed, 0;
		MoveL Offs(pZeroStarMute, 0.571, -6.973, 0.9), v100, z0, tNozzle, \Wobj := wobj1Star;
		WaitRob \InPos;
		SetDO DO5_Program_Feed, 1;
		MoveL Offs(pZeroStarMute, 7.057, -4.613, 0.9), v30, z0, tNozzle, \Wobj := wobj1Star;
		WaitRob \InPos;
		SetDO DO5_Program_Feed, 0;
		MoveL Offs(pZeroStarMute, 7.498, -6.048, 0.9), v100, z0, tNozzle, \Wobj := wobj1Star;
		WaitRob \InPos;
		SetDO DO5_Program_Feed, 1;
		MoveL Offs(pZeroStarMute, 2.069, -8.025, 0.9), v30, z0, tNozzle, \Wobj := wobj1Star;
		WaitRob \InPos;
		SetDO DO5_Program_Feed, 0;
		MoveL Offs(pZeroStarMute, 3.566, -9.076, 0.9), v100, z0, tNozzle, \Wobj := wobj1Star;
		WaitRob \InPos;
		SetDO DO5_Program_Feed, 1;
		MoveL Offs(pZeroStarMute, 7.939, -7.484, 0.9), v30, z0, tNozzle, \Wobj := wobj1Star;
		WaitRob \InPos;
		SetDO DO5_Program_Feed, 0;
		MoveL Offs(pZeroStarMute, 8.38, -8.92, 0.9), v100, z0, tNozzle, \Wobj := wobj1Star;
		WaitRob \InPos;
		SetDO DO5_Program_Feed, 1;
		MoveL Offs(pZeroStarMute, 5.063, -10.127, 0.9), v30, z0, tNozzle, \Wobj := wobj1Star;
		WaitRob \InPos;
		SetDO DO5_Program_Feed, 0;
		MoveL Offs(pZeroStarMute, 6.56, -11.179, 0.9), v100, z0, tNozzle, \Wobj := wobj1Star;
		WaitRob \InPos;
		SetDO DO5_Program_Feed, 1;
		MoveL Offs(pZeroStarMute, 8.821, -10.356, 0.9), v30, z0, tNozzle, \Wobj := wobj1Star;
		WaitRob \InPos;
		SetDO DO5_Program_Feed, 0;
		MoveL Offs(pZeroStarMute, 9.262, -11.791, 0.9), v100, z0, tNozzle, \Wobj := wobj1Star;
		WaitRob \InPos;
		SetDO DO5_Program_Feed, 1;
		MoveL Offs(pZeroStarMute, 8.057, -12.23, 0.9), v30, z0, tNozzle, \Wobj := wobj1Star;
		WaitRob \InPos;
		SetDO DO5_Program_Feed, 0;
		MoveL Offs(pZeroStarMute, 9.555, -13.281, 0.9), v100, z0, tNozzle, \Wobj := wobj1Star;
		WaitRob \InPos;
		SetDO DO5_Program_Feed, 1;
		MoveL Offs(pZeroStarMute, 9.703, -13.227, 0.9), v30, z0, tNozzle, \Wobj := wobj1Star;
		WaitRob \InPos;
		SetDO DO5_Program_Feed, 0;
		MoveL Offs(pZeroStarMute, -6.52, -11.151, 0.9), v100, z0, tNozzle, \Wobj := wobj1Star;
		WaitRob \InPos;
		SetDO DO5_Program_Feed, 1;
		MoveL Offs(pZeroStarMute, -9.386, -12.194, 0.9), v30, z0, tNozzle, \Wobj := wobj1Star;
		WaitRob \InPos;
		SetDO DO5_Program_Feed, 0;
		MoveL Offs(pZeroStarMute, -13.905, 3.721, 0.9), v100, z0, tNozzle, \Wobj := wobj1Star;
		WaitRob \InPos;
		SetDO DO5_Program_Feed, 1;
		MoveL Offs(pZeroStarMute, -9.719, 5.244, 0.9), v30, z0, tNozzle, \Wobj := wobj1Star;
		WaitRob \InPos;
		SetDO DO5_Program_Feed, 0;
		MoveL Offs(pZeroStarMute, -14.308, 5.17, 0.9), v100, z0, tNozzle, \Wobj := wobj1Star;
		WaitRob \InPos;
		SetDO DO5_Program_Feed, 1;
		MoveL Offs(pZeroStarMute, -15.336, 4.796, 0.9), v30, z0, tNozzle, \Wobj := wobj1Star;
		WaitRob \InPos;
		SetDO DO6_Between_Layer_Retract, 1;
		SetDO DO5_Program_Feed, 0;
		MoveL Offs(pZeroStarMute, -15.336, 4.796, 5.9), v100, z0, tNozzle, \Wobj := wobj1Star;

		! Layer: 4
		! LayerParams(infillAngleDegrees=110.0, pathWidth=1.5, layerHeight=0.3, infillShiftX=0.0, infillShiftY=0.0, numShells=1, infillOverlap=0.0002)
		! T14
		! M6
		TPWRITE "Layer 4 of 20";
		MoveL Offs(pZeroStarMute, 0.075, -7.25, 6.2), v100, z0, tNozzle, \Wobj := wobj1Star;
		MoveL Offs(pZeroStarMute, 0.075, -7.25, 1.2), v30, z0, tNozzle, \Wobj := wobj1Star;
		WaitRob \InPos;
		SetDO DO6_Between_Layer_Retract, 0;
		WaitRob \InPos;
		SetDO DO5_Program_Feed, 1;
		MoveL Offs(pZeroStarMute, 0.099, -7.259, 1.2), v30, z0, tNozzle, \Wobj := wobj1Star;
		MoveL Offs(pZeroStarMute, 0.122, -7.27, 1.2), v30, z0, tNozzle, \Wobj := wobj1Star;
		MoveL Offs(pZeroStarMute, 0.144, -7.284, 1.2), v30, z0, tNozzle, \Wobj := wobj1Star;
		MoveL Offs(pZeroStarMute, 10.671, -14.676, 1.2), v30, z0, tNozzle, \Wobj := wobj1Star;
		MoveL Offs(pZeroStarMute, 6.962, -2.602, 1.2), v30, z0, tNozzle, \Wobj := wobj1Star;
		MoveL Offs(pZeroStarMute, 6.894, -2.379, 1.2), v30, z0, tNozzle, \Wobj := wobj1Star;
		MoveL Offs(pZeroStarMute, 6.888, -2.355, 1.2), v30, z0, tNozzle, \Wobj := wobj1Star;
		MoveL Offs(pZeroStarMute, 6.884, -2.329, 1.2), v30, z0, tNozzle, \Wobj := wobj1Star;
		MoveL Offs(pZeroStarMute, 6.883, -2.304, 1.2), v30, z0, tNozzle, \Wobj := wobj1Star;
		MoveL Offs(pZeroStarMute, 6.884, -2.278, 1.2), v30, z0, tNozzle, \Wobj := wobj1Star;
		MoveL Offs(pZeroStarMute, 6.889, -2.253, 1.2), v30, z0, tNozzle, \Wobj := wobj1Star;
		MoveL Offs(pZeroStarMute, 6.895, -2.229, 1.2), v30, z0, tNozzle, \Wobj := wobj1Star;
		MoveL Offs(pZeroStarMute, 6.904, -2.205, 1.2), v30, z0, tNozzle, \Wobj := wobj1Star;
		MoveL Offs(pZeroStarMute, 6.916, -2.182, 1.2), v30, z0, tNozzle, \Wobj := wobj1Star;
		MoveL Offs(pZeroStarMute, 6.929, -2.161, 1.2), v30, z0, tNozzle, \Wobj := wobj1Star;
		MoveL Offs(pZeroStarMute, 6.945, -2.141, 1.2), v30, z0, tNozzle, \Wobj := wobj1Star;
		MoveL Offs(pZeroStarMute, 6.963, -2.122, 1.2), v30, z0, tNozzle, \Wobj := wobj1Star;
		MoveL Offs(pZeroStarMute, 6.983, -2.106, 1.2), v30, z0, tNozzle, \Wobj := wobj1Star;
		MoveL Offs(pZeroStarMute, 17.267, 5.622, 1.2), v30, z0, tNozzle, \Wobj := wobj1Star;
		MoveL Offs(pZeroStarMute, 4.637, 5.826, 1.2), v30, z0, tNozzle, \Wobj := wobj1Star;
		MoveL Offs(pZeroStarMute, 4.404, 5.829, 1.2), v30, z0, tNozzle, \Wobj := wobj1Star;
		MoveL Offs(pZeroStarMute, 4.379, 5.831, 1.2), v30, z0, tNozzle, \Wobj := wobj1Star;
		MoveL Offs(pZeroStarMute, 4.354, 5.835, 1.2), v30, z0, tNozzle, \Wobj := wobj1Star;
		MoveL Offs(pZeroStarMute, 4.329, 5.842, 1.2), v30, z0, tNozzle, \Wobj := wobj1Star;
		MoveL Offs(pZeroStarMute, 4.305, 5.852, 1.2), v30, z0, tNozzle, \Wobj := wobj1Star;
		MoveL Offs(pZeroStarMute, 4.283, 5.863, 1.2), v30, z0, tNozzle, \Wobj := wobj1Star;
		MoveL Offs(pZeroStarMute, 4.261, 5.877, 1.2), v30, z0, tNozzle, \Wobj := wobj1Star;
		MoveL Offs(pZeroStarMute, 4.242, 5.893, 1.2), v30, z0, tNozzle, \Wobj := wobj1Star;
		MoveL Offs(pZeroStarMute, 4.224, 5.911, 1.2), v30, z0, tNozzle, \Wobj := wobj1Star;
		MoveL Offs(pZeroStarMute, 4.207, 5.931, 1.2), v30, z0, tNozzle, \Wobj := wobj1Star;
		MoveL Offs(pZeroStarMute, 4.193, 5.952, 1.2), v30, z0, tNozzle, \Wobj := wobj1Star;
		MoveL Offs(pZeroStarMute, 4.181, 5.975, 1.2), v30, z0, tNozzle, \Wobj := wobj1Star;
		MoveL Offs(pZeroStarMute, 4.172, 5.998, 1.2), v30, z0, tNozzle, \Wobj := wobj1Star;
		MoveL Offs(pZeroStarMute, -0.0, 18.167, 1.2), v30, z0, tNozzle, \Wobj := wobj1Star;
		MoveL Offs(pZeroStarMute, -4.096, 6.219, 1.2), v30, z0, tNozzle, \Wobj := wobj1Star;
		MoveL Offs(pZeroStarMute, -4.172, 5.998, 1.2), v30, z0, tNozzle, \Wobj := wobj1Star;
		MoveL Offs(pZeroStarMute, -4.181, 5.975, 1.2), v30, z0, tNozzle, \Wobj := wobj1Star;
		MoveL Offs(pZeroStarMute, -4.193, 5.952, 1.2), v30, z0, tNozzle, \Wobj := wobj1Star;
		MoveL Offs(pZeroStarMute, -4.207, 5.931, 1.2), v30, z0, tNozzle, \Wobj := wobj1Star;
		MoveL Offs(pZeroStarMute, -4.224, 5.911, 1.2), v30, z0, tNozzle, \Wobj := wobj1Star;
		MoveL Offs(pZeroStarMute, -4.242, 5.893, 1.2), v30, z0, tNozzle, \Wobj := wobj1Star;
		MoveL Offs(pZeroStarMute, -4.261, 5.877, 1.2), v30, z0, tNozzle, \Wobj := wobj1Star;
		MoveL Offs(pZeroStarMute, -4.283, 5.863, 1.2), v30, z0, tNozzle, \Wobj := wobj1Star;
		MoveL Offs(pZeroStarMute, -4.305, 5.852, 1.2), v30, z0, tNozzle, \Wobj := wobj1Star;
		MoveL Offs(pZeroStarMute, -4.329, 5.842, 1.2), v30, z0, tNozzle, \Wobj := wobj1Star;
		MoveL Offs(pZeroStarMute, -4.354, 5.835, 1.2), v30, z0, tNozzle, \Wobj := wobj1Star;
		MoveL Offs(pZeroStarMute, -4.379, 5.831, 1.2), v30, z0, tNozzle, \Wobj := wobj1Star;
		MoveL Offs(pZeroStarMute, -4.404, 5.829, 1.2), v30, z0, tNozzle, \Wobj := wobj1Star;
		MoveL Offs(pZeroStarMute, -17.267, 5.622, 1.2), v30, z0, tNozzle, \Wobj := wobj1Star;
		MoveL Offs(pZeroStarMute, -7.169, -1.966, 1.2), v30, z0, tNozzle, \Wobj := wobj1Star;
		MoveL Offs(pZeroStarMute, -6.983, -2.106, 1.2), v30, z0, tNozzle, \Wobj := wobj1Star;
		MoveL Offs(pZeroStarMute, -6.963, -2.122, 1.2), v30, z0, tNozzle, \Wobj := wobj1Star;
		MoveL Offs(pZeroStarMute, -6.945, -2.141, 1.2), v30, z0, tNozzle, \Wobj := wobj1Star;
		MoveL Offs(pZeroStarMute, -6.929, -2.161, 1.2), v30, z0, tNozzle, \Wobj := wobj1Star;
		MoveL Offs(pZeroStarMute, -6.916, -2.182, 1.2), v30, z0, tNozzle, \Wobj := wobj1Star;
		MoveL Offs(pZeroStarMute, -6.904, -2.205, 1.2), v30, z0, tNozzle, \Wobj := wobj1Star;
		MoveL Offs(pZeroStarMute, -6.895, -2.229, 1.2), v30, z0, tNozzle, \Wobj := wobj1Star;
		MoveL Offs(pZeroStarMute, -6.889, -2.253, 1.2), v30, z0, tNozzle, \Wobj := wobj1Star;
		MoveL Offs(pZeroStarMute, -6.884, -2.278, 1.2), v30, z0, tNozzle, \Wobj := wobj1Star;
		MoveL Offs(pZeroStarMute, -6.883, -2.304, 1.2), v30, z0, tNozzle, \Wobj := wobj1Star;
		MoveL Offs(pZeroStarMute, -6.884, -2.329, 1.2), v30, z0, tNozzle, \Wobj := wobj1Star;
		MoveL Offs(pZeroStarMute, -6.888, -2.355, 1.2), v30, z0, tNozzle, \Wobj := wobj1Star;
		MoveL Offs(pZeroStarMute, -6.894, -2.379, 1.2), v30, z0, tNozzle, \Wobj := wobj1Star;
		MoveL Offs(pZeroStarMute, -10.672, -14.676, 1.2), v30, z0, tNozzle, \Wobj := wobj1Star;
		MoveL Offs(pZeroStarMute, -0.334, -7.418, 1.2), v30, z0, tNozzle, \Wobj := wobj1Star;
		MoveL Offs(pZeroStarMute, -0.144, -7.284, 1.2), v30, z0, tNozzle, \Wobj := wobj1Star;
		MoveL Offs(pZeroStarMute, -0.122, -7.27, 1.2), v30, z0, tNozzle, \Wobj := wobj1Star;
		MoveL Offs(pZeroStarMute, -0.099, -7.259, 1.2), v30, z0, tNozzle, \Wobj := wobj1Star;
		MoveL Offs(pZeroStarMute, -0.075, -7.25, 1.2), v30, z0, tNozzle, \Wobj := wobj1Star;
		MoveL Offs(pZeroStarMute, -0.051, -7.243, 1.2), v30, z0, tNozzle, \Wobj := wobj1Star;
		MoveL Offs(pZeroStarMute, -0.025, -7.24, 1.2), v30, z0, tNozzle, \Wobj := wobj1Star;
		MoveL Offs(pZeroStarMute, 0.0, -7.238, 1.2), v30, z0, tNozzle, \Wobj := wobj1Star;
		MoveL Offs(pZeroStarMute, 0.025, -7.24, 1.2), v30, z0, tNozzle, \Wobj := wobj1Star;
		MoveL Offs(pZeroStarMute, 0.051, -7.243, 1.2), v30, z0, tNozzle, \Wobj := wobj1Star;
		MoveL Offs(pZeroStarMute, 0.075, -7.25, 1.2), v30, z0, tNozzle, \Wobj := wobj1Star;
		WaitRob \InPos;
		SetDO DO5_Program_Feed, 0;
		MoveL Offs(pZeroStarMute, 0.778, -7.119, 1.2), v100, z0, tNozzle, \Wobj := wobj1Star;
		WaitRob \InPos;
		SetDO DO5_Program_Feed, 1;
		MoveL Offs(pZeroStarMute, -3.845, 5.585, 1.2), v30, z0, tNozzle, \Wobj := wobj1Star;
		WaitRob \InPos;
		SetDO DO5_Program_Feed, 0;
		MoveL Offs(pZeroStarMute, -5.343, 5.314, 1.2), v100, z0, tNozzle, \Wobj := wobj1Star;
		WaitRob \InPos;
		SetDO DO5_Program_Feed, 1;
		MoveL Offs(pZeroStarMute, -0.81, -7.141, 1.2), v30, z0, tNozzle, \Wobj := wobj1Star;
		WaitRob \InPos;
		SetDO DO5_Program_Feed, 0;
		MoveL Offs(pZeroStarMute, -2.081, -8.034, 1.2), v100, z0, tNozzle, \Wobj := wobj1Star;
		WaitRob \InPos;
		SetDO DO5_Program_Feed, 1;
		MoveL Offs(pZeroStarMute, -6.93, 5.289, 1.2), v30, z0, tNozzle, \Wobj := wobj1Star;
		WaitRob \InPos;
		SetDO DO5_Program_Feed, 0;
		MoveL Offs(pZeroStarMute, -8.517, 5.263, 1.2), v100, z0, tNozzle, \Wobj := wobj1Star;
		WaitRob \InPos;
		SetDO DO5_Program_Feed, 1;
		MoveL Offs(pZeroStarMute, -3.353, -8.926, 1.2), v30, z0, tNozzle, \Wobj := wobj1Star;
		WaitRob \InPos;
		SetDO DO5_Program_Feed, 0;
		MoveL Offs(pZeroStarMute, -4.624, -9.819, 1.2), v100, z0, tNozzle, \Wobj := wobj1Star;
		WaitRob \InPos;
		SetDO DO5_Program_Feed, 1;
		MoveL Offs(pZeroStarMute, -6.811, -3.811, 1.2), v30, z0, tNozzle, \Wobj := wobj1Star;
		WaitRob \InPos;
		SetDO DO5_Program_Feed, 0;
		MoveL Offs(pZeroStarMute, -7.541, -6.189, 1.2), v100, z0, tNozzle, \Wobj := wobj1Star;
		WaitRob \InPos;
		SetDO DO5_Program_Feed, 1;
		MoveL Offs(pZeroStarMute, -5.895, -10.712, 1.2), v30, z0, tNozzle, \Wobj := wobj1Star;
		WaitRob \InPos;
		SetDO DO5_Program_Feed, 0;
		MoveL Offs(pZeroStarMute, -7.167, -11.604, 1.2), v100, z0, tNozzle, \Wobj := wobj1Star;
		WaitRob \InPos;
		SetDO DO5_Program_Feed, 1;
		MoveL Offs(pZeroStarMute, -8.272, -8.567, 1.2), v30, z0, tNozzle, \Wobj := wobj1Star;
		WaitRob \InPos;
		SetDO DO5_Program_Feed, 0;
		MoveL Offs(pZeroStarMute, -9.003, -10.946, 1.2), v100, z0, tNozzle, \Wobj := wobj1Star;
		WaitRob \InPos;
		SetDO DO5_Program_Feed, 1;
		MoveL Offs(pZeroStarMute, -8.438, -12.497, 1.2), v30, z0, tNozzle, \Wobj := wobj1Star;
		WaitRob \InPos;
		SetDO DO5_Program_Feed, 0;
		MoveL Offs(pZeroStarMute, -9.733, -13.324, 1.2), v100, z0, tNozzle, \Wobj := wobj1Star;
		WaitRob \InPos;
		SetDO DO5_Program_Feed, 1;
		MoveL Offs(pZeroStarMute, -9.709, -13.39, 1.2), v30, z0, tNozzle, \Wobj := wobj1Star;
		WaitRob \InPos;
		SetDO DO5_Program_Feed, 0;
		MoveL Offs(pZeroStarMute, -7.913, -0.782, 1.2), v100, z0, tNozzle, \Wobj := wobj1Star;
		WaitRob \InPos;
		SetDO DO5_Program_Feed, 1;
		MoveL Offs(pZeroStarMute, -10.104, 5.238, 1.2), v30, z0, tNozzle, \Wobj := wobj1Star;
		WaitRob \InPos;
		SetDO DO5_Program_Feed, 0;
		MoveL Offs(pZeroStarMute, -11.691, 5.212, 1.2), v100, z0, tNozzle, \Wobj := wobj1Star;
		WaitRob \InPos;
		SetDO DO5_Program_Feed, 1;
		MoveL Offs(pZeroStarMute, -10.111, 0.87, 1.2), v30, z0, tNozzle, \Wobj := wobj1Star;
		WaitRob \InPos;
		SetDO DO5_Program_Feed, 0;
		MoveL Offs(pZeroStarMute, -12.308, 2.521, 1.2), v100, z0, tNozzle, \Wobj := wobj1Star;
		WaitRob \InPos;
		SetDO DO5_Program_Feed, 1;
		MoveL Offs(pZeroStarMute, -13.278, 5.186, 1.2), v30, z0, tNozzle, \Wobj := wobj1Star;
		WaitRob \InPos;
		SetDO DO5_Program_Feed, 0;
		MoveL Offs(pZeroStarMute, -14.865, 5.161, 1.2), v100, z0, tNozzle, \Wobj := wobj1Star;
		WaitRob \InPos;
		SetDO DO5_Program_Feed, 1;
		MoveL Offs(pZeroStarMute, -14.505, 4.172, 1.2), v30, z0, tNozzle, \Wobj := wobj1Star;
		WaitRob \InPos;
		SetDO DO5_Program_Feed, 0;
		MoveL Offs(pZeroStarMute, -3.04, 7.758, 1.2), v100, z0, tNozzle, \Wobj := wobj1Star;
		WaitRob \InPos;
		SetDO DO5_Program_Feed, 1;
		MoveL Offs(pZeroStarMute, 2.923, -8.624, 1.2), v30, z0, tNozzle, \Wobj := wobj1Star;
		WaitRob \InPos;
		SetDO DO5_Program_Feed, 0;
		MoveL Offs(pZeroStarMute, 5.067, -10.13, 1.2), v100, z0, tNozzle, \Wobj := wobj1Star;
		WaitRob \InPos;
		SetDO DO5_Program_Feed, 1;
		MoveL Offs(pZeroStarMute, -2.266, 10.017, 1.2), v30, z0, tNozzle, \Wobj := wobj1Star;
		WaitRob \InPos;
		SetDO DO5_Program_Feed, 0;
		MoveL Offs(pZeroStarMute, -1.492, 12.275, 1.2), v100, z0, tNozzle, \Wobj := wobj1Star;
		WaitRob \InPos;
		SetDO DO5_Program_Feed, 1;
		MoveL Offs(pZeroStarMute, 7.211, -11.636, 1.2), v30, z0, tNozzle, \Wobj := wobj1Star;
		WaitRob \InPos;
		SetDO DO5_Program_Feed, 0;
		MoveL Offs(pZeroStarMute, 9.356, -13.142, 1.2), v100, z0, tNozzle, \Wobj := wobj1Star;
		WaitRob \InPos;
		SetDO DO5_Program_Feed, 1;
		MoveL Offs(pZeroStarMute, -0.717, 14.533, 1.2), v30, z0, tNozzle, \Wobj := wobj1Star;
		WaitRob \InPos;
		SetDO DO5_Program_Feed, 0;
		MoveL Offs(pZeroStarMute, 4.22, 5.354, 1.2), v100, z0, tNozzle, \Wobj := wobj1Star;
		WaitRob \InPos;
		SetDO DO5_Program_Feed, 1;
		MoveL Offs(pZeroStarMute, 6.767, -1.643, 1.2), v30, z0, tNozzle, \Wobj := wobj1Star;
		WaitRob \InPos;
		SetDO DO5_Program_Feed, 0;
		MoveL Offs(pZeroStarMute, 8.02, -0.701, 1.2), v100, z0, tNozzle, \Wobj := wobj1Star;
		WaitRob \InPos;
		SetDO DO5_Program_Feed, 1;
		MoveL Offs(pZeroStarMute, 5.834, 5.306, 1.2), v30, z0, tNozzle, \Wobj := wobj1Star;
		WaitRob \InPos;
		SetDO DO5_Program_Feed, 0;
		MoveL Offs(pZeroStarMute, 7.439, 5.281, 1.2), v100, z0, tNozzle, \Wobj := wobj1Star;
		WaitRob \InPos;
		SetDO DO5_Program_Feed, 1;
		MoveL Offs(pZeroStarMute, 9.274, 0.241, 1.2), v30, z0, tNozzle, \Wobj := wobj1Star;
		WaitRob \InPos;
		SetDO DO5_Program_Feed, 0;
		MoveL Offs(pZeroStarMute, 10.527, 1.183, 1.2), v100, z0, tNozzle, \Wobj := wobj1Star;
		WaitRob \InPos;
		SetDO DO5_Program_Feed, 1;
		MoveL Offs(pZeroStarMute, 9.045, 5.255, 1.2), v30, z0, tNozzle, \Wobj := wobj1Star;
		WaitRob \InPos;
		SetDO DO5_Program_Feed, 0;
		MoveL Offs(pZeroStarMute, 10.651, 5.229, 1.2), v100, z0, tNozzle, \Wobj := wobj1Star;
		WaitRob \InPos;
		SetDO DO5_Program_Feed, 1;
		MoveL Offs(pZeroStarMute, 11.78, 2.124, 1.2), v30, z0, tNozzle, \Wobj := wobj1Star;
		WaitRob \InPos;
		SetDO DO5_Program_Feed, 0;
		MoveL Offs(pZeroStarMute, 13.034, 3.066, 1.2), v100, z0, tNozzle, \Wobj := wobj1Star;
		WaitRob \InPos;
		SetDO DO5_Program_Feed, 1;
		MoveL Offs(pZeroStarMute, 12.256, 5.203, 1.2), v30, z0, tNozzle, \Wobj := wobj1Star;
		WaitRob \InPos;
		SetDO DO5_Program_Feed, 0;
		MoveL Offs(pZeroStarMute, 13.862, 5.177, 1.2), v100, z0, tNozzle, \Wobj := wobj1Star;
		WaitRob \InPos;
		SetDO DO5_Program_Feed, 1;
		MoveL Offs(pZeroStarMute, 14.287, 4.008, 1.2), v30, z0, tNozzle, \Wobj := wobj1Star;
		WaitRob \InPos;
		SetDO DO5_Program_Feed, 0;
		MoveL Offs(pZeroStarMute, 15.541, 4.95, 1.2), v100, z0, tNozzle, \Wobj := wobj1Star;
		WaitRob \InPos;
		SetDO DO5_Program_Feed, 1;
		MoveL Offs(pZeroStarMute, 15.468, 5.151, 1.2), v30, z0, tNozzle, \Wobj := wobj1Star;
		WaitRob \InPos;
		SetDO DO6_Between_Layer_Retract, 1;
		SetDO DO5_Program_Feed, 0;
		MoveL Offs(pZeroStarMute, 15.468, 5.151, 6.2), v100, z0, tNozzle, \Wobj := wobj1Star;

		! Layer: 5
		! LayerParams(infillAngleDegrees=20.0, pathWidth=1.5, layerHeight=0.3, infillShiftX=0.0, infillShiftY=0.0, numShells=1, infillOverlap=0.0002)
		! T15
		! M6
		TPWRITE "Layer 5 of 20";
		MoveL Offs(pZeroStarMute, -6.963, -2.122, 6.5), v100, z0, tNozzle, \Wobj := wobj1Star;
		MoveL Offs(pZeroStarMute, -6.963, -2.122, 1.5), v30, z0, tNozzle, \Wobj := wobj1Star;
		WaitRob \InPos;
		SetDO DO6_Between_Layer_Retract, 0;
		WaitRob \InPos;
		SetDO DO5_Program_Feed, 1;
		MoveL Offs(pZeroStarMute, -6.945, -2.141, 1.5), v30, z0, tNozzle, \Wobj := wobj1Star;
		MoveL Offs(pZeroStarMute, -6.929, -2.161, 1.5), v30, z0, tNozzle, \Wobj := wobj1Star;
		MoveL Offs(pZeroStarMute, -6.916, -2.182, 1.5), v30, z0, tNozzle, \Wobj := wobj1Star;
		MoveL Offs(pZeroStarMute, -6.904, -2.205, 1.5), v30, z0, tNozzle, \Wobj := wobj1Star;
		MoveL Offs(pZeroStarMute, -6.895, -2.229, 1.5), v30, z0, tNozzle, \Wobj := wobj1Star;
		MoveL Offs(pZeroStarMute, -6.889, -2.253, 1.5), v30, z0, tNozzle, \Wobj := wobj1Star;
		MoveL Offs(pZeroStarMute, -6.884, -2.278, 1.5), v30, z0, tNozzle, \Wobj := wobj1Star;
		MoveL Offs(pZeroStarMute, -6.883, -2.304, 1.5), v30, z0, tNozzle, \Wobj := wobj1Star;
		MoveL Offs(pZeroStarMute, -6.884, -2.329, 1.5), v30, z0, tNozzle, \Wobj := wobj1Star;
		MoveL Offs(pZeroStarMute, -6.888, -2.355, 1.5), v30, z0, tNozzle, \Wobj := wobj1Star;
		MoveL Offs(pZeroStarMute, -6.894, -2.379, 1.5), v30, z0, tNozzle, \Wobj := wobj1Star;
		MoveL Offs(pZeroStarMute, -10.672, -14.676, 1.5), v30, z0, tNozzle, \Wobj := wobj1Star;
		MoveL Offs(pZeroStarMute, -0.382, -7.451, 1.5), v30, z0, tNozzle, \Wobj := wobj1Star;
		MoveL Offs(pZeroStarMute, -0.144, -7.284, 1.5), v30, z0, tNozzle, \Wobj := wobj1Star;
		MoveL Offs(pZeroStarMute, -0.122, -7.27, 1.5), v30, z0, tNozzle, \Wobj := wobj1Star;
		MoveL Offs(pZeroStarMute, -0.099, -7.259, 1.5), v30, z0, tNozzle, \Wobj := wobj1Star;
		MoveL Offs(pZeroStarMute, -0.075, -7.25, 1.5), v30, z0, tNozzle, \Wobj := wobj1Star;
		MoveL Offs(pZeroStarMute, -0.051, -7.243, 1.5), v30, z0, tNozzle, \Wobj := wobj1Star;
		MoveL Offs(pZeroStarMute, -0.025, -7.24, 1.5), v30, z0, tNozzle, \Wobj := wobj1Star;
		MoveL Offs(pZeroStarMute, 0.0, -7.238, 1.5), v30, z0, tNozzle, \Wobj := wobj1Star;
		MoveL Offs(pZeroStarMute, 0.025, -7.24, 1.5), v30, z0, tNozzle, \Wobj := wobj1Star;
		MoveL Offs(pZeroStarMute, 0.051, -7.243, 1.5), v30, z0, tNozzle, \Wobj := wobj1Star;
		MoveL Offs(pZeroStarMute, 0.075, -7.25, 1.5), v30, z0, tNozzle, \Wobj := wobj1Star;
		MoveL Offs(pZeroStarMute, 0.099, -7.259, 1.5), v30, z0, tNozzle, \Wobj := wobj1Star;
		MoveL Offs(pZeroStarMute, 0.122, -7.27, 1.5), v30, z0, tNozzle, \Wobj := wobj1Star;
		MoveL Offs(pZeroStarMute, 0.144, -7.284, 1.5), v30, z0, tNozzle, \Wobj := wobj1Star;
		MoveL Offs(pZeroStarMute, 10.671, -14.676, 1.5), v30, z0, tNozzle, \Wobj := wobj1Star;
		MoveL Offs(pZeroStarMute, 6.979, -2.658, 1.5), v30, z0, tNozzle, \Wobj := wobj1Star;
		MoveL Offs(pZeroStarMute, 6.894, -2.379, 1.5), v30, z0, tNozzle, \Wobj := wobj1Star;
		MoveL Offs(pZeroStarMute, 6.888, -2.355, 1.5), v30, z0, tNozzle, \Wobj := wobj1Star;
		MoveL Offs(pZeroStarMute, 6.884, -2.329, 1.5), v30, z0, tNozzle, \Wobj := wobj1Star;
		MoveL Offs(pZeroStarMute, 6.883, -2.304, 1.5), v30, z0, tNozzle, \Wobj := wobj1Star;
		MoveL Offs(pZeroStarMute, 6.884, -2.278, 1.5), v30, z0, tNozzle, \Wobj := wobj1Star;
		MoveL Offs(pZeroStarMute, 6.889, -2.253, 1.5), v30, z0, tNozzle, \Wobj := wobj1Star;
		MoveL Offs(pZeroStarMute, 6.895, -2.229, 1.5), v30, z0, tNozzle, \Wobj := wobj1Star;
		MoveL Offs(pZeroStarMute, 6.904, -2.205, 1.5), v30, z0, tNozzle, \Wobj := wobj1Star;
		MoveL Offs(pZeroStarMute, 6.916, -2.182, 1.5), v30, z0, tNozzle, \Wobj := wobj1Star;
		MoveL Offs(pZeroStarMute, 6.929, -2.161, 1.5), v30, z0, tNozzle, \Wobj := wobj1Star;
		MoveL Offs(pZeroStarMute, 6.945, -2.141, 1.5), v30, z0, tNozzle, \Wobj := wobj1Star;
		MoveL Offs(pZeroStarMute, 6.963, -2.122, 1.5), v30, z0, tNozzle, \Wobj := wobj1Star;
		MoveL Offs(pZeroStarMute, 6.983, -2.106, 1.5), v30, z0, tNozzle, \Wobj := wobj1Star;
		MoveL Offs(pZeroStarMute, 17.267, 5.622, 1.5), v30, z0, tNozzle, \Wobj := wobj1Star;
		MoveL Offs(pZeroStarMute, 4.696, 5.825, 1.5), v30, z0, tNozzle, \Wobj := wobj1Star;
		MoveL Offs(pZeroStarMute, 4.404, 5.829, 1.5), v30, z0, tNozzle, \Wobj := wobj1Star;
		MoveL Offs(pZeroStarMute, 4.379, 5.831, 1.5), v30, z0, tNozzle, \Wobj := wobj1Star;
		MoveL Offs(pZeroStarMute, 4.354, 5.835, 1.5), v30, z0, tNozzle, \Wobj := wobj1Star;
		MoveL Offs(pZeroStarMute, 4.329, 5.842, 1.5), v30, z0, tNozzle, \Wobj := wobj1Star;
		MoveL Offs(pZeroStarMute, 4.305, 5.852, 1.5), v30, z0, tNozzle, \Wobj := wobj1Star;
		MoveL Offs(pZeroStarMute, 4.283, 5.863, 1.5), v30, z0, tNozzle, \Wobj := wobj1Star;
		MoveL Offs(pZeroStarMute, 4.261, 5.877, 1.5), v30, z0, tNozzle, \Wobj := wobj1Star;
		MoveL Offs(pZeroStarMute, 4.242, 5.893, 1.5), v30, z0, tNozzle, \Wobj := wobj1Star;
		MoveL Offs(pZeroStarMute, 4.224, 5.911, 1.5), v30, z0, tNozzle, \Wobj := wobj1Star;
		MoveL Offs(pZeroStarMute, 4.207, 5.931, 1.5), v30, z0, tNozzle, \Wobj := wobj1Star;
		MoveL Offs(pZeroStarMute, 4.193, 5.952, 1.5), v30, z0, tNozzle, \Wobj := wobj1Star;
		MoveL Offs(pZeroStarMute, 4.181, 5.975, 1.5), v30, z0, tNozzle, \Wobj := wobj1Star;
		MoveL Offs(pZeroStarMute, 4.172, 5.998, 1.5), v30, z0, tNozzle, \Wobj := wobj1Star;
		MoveL Offs(pZeroStarMute, -0.0, 18.167, 1.5), v30, z0, tNozzle, \Wobj := wobj1Star;
		MoveL Offs(pZeroStarMute, -4.077, 6.274, 1.5), v30, z0, tNozzle, \Wobj := wobj1Star;
		MoveL Offs(pZeroStarMute, -4.172, 5.998, 1.5), v30, z0, tNozzle, \Wobj := wobj1Star;
		MoveL Offs(pZeroStarMute, -4.181, 5.975, 1.5), v30, z0, tNozzle, \Wobj := wobj1Star;
		MoveL Offs(pZeroStarMute, -4.193, 5.952, 1.5), v30, z0, tNozzle, \Wobj := wobj1Star;
		MoveL Offs(pZeroStarMute, -4.207, 5.931, 1.5), v30, z0, tNozzle, \Wobj := wobj1Star;
		MoveL Offs(pZeroStarMute, -4.224, 5.911, 1.5), v30, z0, tNozzle, \Wobj := wobj1Star;
		MoveL Offs(pZeroStarMute, -4.242, 5.893, 1.5), v30, z0, tNozzle, \Wobj := wobj1Star;
		MoveL Offs(pZeroStarMute, -4.261, 5.877, 1.5), v30, z0, tNozzle, \Wobj := wobj1Star;
		MoveL Offs(pZeroStarMute, -4.283, 5.863, 1.5), v30, z0, tNozzle, \Wobj := wobj1Star;
		MoveL Offs(pZeroStarMute, -4.305, 5.852, 1.5), v30, z0, tNozzle, \Wobj := wobj1Star;
		MoveL Offs(pZeroStarMute, -4.329, 5.842, 1.5), v30, z0, tNozzle, \Wobj := wobj1Star;
		MoveL Offs(pZeroStarMute, -4.354, 5.835, 1.5), v30, z0, tNozzle, \Wobj := wobj1Star;
		MoveL Offs(pZeroStarMute, -4.379, 5.831, 1.5), v30, z0, tNozzle, \Wobj := wobj1Star;
		MoveL Offs(pZeroStarMute, -4.404, 5.829, 1.5), v30, z0, tNozzle, \Wobj := wobj1Star;
		MoveL Offs(pZeroStarMute, -17.267, 5.622, 1.5), v30, z0, tNozzle, \Wobj := wobj1Star;
		MoveL Offs(pZeroStarMute, -7.216, -1.931, 1.5), v30, z0, tNozzle, \Wobj := wobj1Star;
		MoveL Offs(pZeroStarMute, -6.983, -2.106, 1.5), v30, z0, tNozzle, \Wobj := wobj1Star;
		MoveL Offs(pZeroStarMute, -6.963, -2.122, 1.5), v30, z0, tNozzle, \Wobj := wobj1Star;
		WaitRob \InPos;
		SetDO DO5_Program_Feed, 0;
		MoveL Offs(pZeroStarMute, -6.749, -1.656, 1.5), v100, z0, tNozzle, \Wobj := wobj1Star;
		WaitRob \InPos;
		SetDO DO5_Program_Feed, 1;
		MoveL Offs(pZeroStarMute, 12.103, 5.205, 1.5), v30, z0, tNozzle, \Wobj := wobj1Star;
		WaitRob \InPos;
		SetDO DO5_Program_Feed, 0;
		MoveL Offs(pZeroStarMute, 15.309, 4.776, 1.5), v100, z0, tNozzle, \Wobj := wobj1Star;
		WaitRob \InPos;
		SetDO DO5_Program_Feed, 1;
		MoveL Offs(pZeroStarMute, -6.626, -3.208, 1.5), v30, z0, tNozzle, \Wobj := wobj1Star;
		WaitRob \InPos;
		SetDO DO5_Program_Feed, 0;
		MoveL Offs(pZeroStarMute, -7.178, -5.005, 1.5), v100, z0, tNozzle, \Wobj := wobj1Star;
		WaitRob \InPos;
		SetDO DO5_Program_Feed, 1;
		MoveL Offs(pZeroStarMute, 11.189, 1.68, 1.5), v30, z0, tNozzle, \Wobj := wobj1Star;
		WaitRob \InPos;
		SetDO DO5_Program_Feed, 0;
		MoveL Offs(pZeroStarMute, 7.904, 5.273, 1.5), v100, z0, tNozzle, \Wobj := wobj1Star;
		WaitRob \InPos;
		SetDO DO5_Program_Feed, 1;
		MoveL Offs(pZeroStarMute, -8.18, -0.581, 1.5), v30, z0, tNozzle, \Wobj := wobj1Star;
		WaitRob \InPos;
		SetDO DO5_Program_Feed, 0;
		MoveL Offs(pZeroStarMute, -9.611, 0.494, 1.5), v100, z0, tNozzle, \Wobj := wobj1Star;
		WaitRob \InPos;
		SetDO DO5_Program_Feed, 1;
		MoveL Offs(pZeroStarMute, 4.002, 5.449, 1.5), v30, z0, tNozzle, \Wobj := wobj1Star;
		WaitRob \InPos;
		SetDO DO5_Program_Feed, 0;
		MoveL Offs(pZeroStarMute, 3.364, 6.813, 1.5), v100, z0, tNozzle, \Wobj := wobj1Star;
		WaitRob \InPos;
		SetDO DO5_Program_Feed, 1;
		MoveL Offs(pZeroStarMute, -11.042, 1.57, 1.5), v30, z0, tNozzle, \Wobj := wobj1Star;
		WaitRob \InPos;
		SetDO DO5_Program_Feed, 0;
		MoveL Offs(pZeroStarMute, -12.473, 2.645, 1.5), v100, z0, tNozzle, \Wobj := wobj1Star;
		WaitRob \InPos;
		SetDO DO5_Program_Feed, 1;
		MoveL Offs(pZeroStarMute, -5.131, 5.318, 1.5), v30, z0, tNozzle, \Wobj := wobj1Star;
		WaitRob \InPos;
		SetDO DO5_Program_Feed, 0;
		MoveL Offs(pZeroStarMute, -3.698, 5.839, 1.5), v100, z0, tNozzle, \Wobj := wobj1Star;
		WaitRob \InPos;
		SetDO DO5_Program_Feed, 1;
		MoveL Offs(pZeroStarMute, 2.878, 8.233, 1.5), v30, z0, tNozzle, \Wobj := wobj1Star;
		WaitRob \InPos;
		SetDO DO5_Program_Feed, 0;
		MoveL Offs(pZeroStarMute, 2.391, 9.652, 1.5), v100, z0, tNozzle, \Wobj := wobj1Star;
		WaitRob \InPos;
		SetDO DO5_Program_Feed, 1;
		MoveL Offs(pZeroStarMute, -3.073, 7.663, 1.5), v30, z0, tNozzle, \Wobj := wobj1Star;
		WaitRob \InPos;
		SetDO DO5_Program_Feed, 0;
		MoveL Offs(pZeroStarMute, -2.448, 9.487, 1.5), v100, z0, tNozzle, \Wobj := wobj1Star;
		WaitRob \InPos;
		SetDO DO5_Program_Feed, 1;
		MoveL Offs(pZeroStarMute, 1.904, 11.071, 1.5), v30, z0, tNozzle, \Wobj := wobj1Star;
		WaitRob \InPos;
		SetDO DO5_Program_Feed, 0;
		MoveL Offs(pZeroStarMute, 1.418, 12.49, 1.5), v100, z0, tNozzle, \Wobj := wobj1Star;
		WaitRob \InPos;
		SetDO DO5_Program_Feed, 1;
		MoveL Offs(pZeroStarMute, -1.822, 11.311, 1.5), v30, z0, tNozzle, \Wobj := wobj1Star;
		WaitRob \InPos;
		SetDO DO5_Program_Feed, 0;
		MoveL Offs(pZeroStarMute, -1.197, 13.135, 1.5), v100, z0, tNozzle, \Wobj := wobj1Star;
		WaitRob \InPos;
		SetDO DO5_Program_Feed, 1;
		MoveL Offs(pZeroStarMute, 0.931, 13.909, 1.5), v30, z0, tNozzle, \Wobj := wobj1Star;
		WaitRob \InPos;
		SetDO DO5_Program_Feed, 0;
		MoveL Offs(pZeroStarMute, 0.445, 15.328, 1.5), v100, z0, tNozzle, \Wobj := wobj1Star;
		WaitRob \InPos;
		SetDO DO5_Program_Feed, 1;
		MoveL Offs(pZeroStarMute, -0.572, 14.958, 1.5), v30, z0, tNozzle, \Wobj := wobj1Star;
		WaitRob \InPos;
		SetDO DO5_Program_Feed, 0;
		MoveL Offs(pZeroStarMute, -9.719, 5.244, 1.5), v100, z0, tNozzle, \Wobj := wobj1Star;
		WaitRob \InPos;
		SetDO DO5_Program_Feed, 1;
		MoveL Offs(pZeroStarMute, -13.905, 3.721, 1.5), v30, z0, tNozzle, \Wobj := wobj1Star;
		WaitRob \InPos;
		SetDO DO5_Program_Feed, 0;
		MoveL Offs(pZeroStarMute, -14.308, 5.17, 1.5), v100, z0, tNozzle, \Wobj := wobj1Star;
		WaitRob \InPos;
		SetDO DO5_Program_Feed, 1;
		MoveL Offs(pZeroStarMute, -15.336, 4.796, 1.5), v30, z0, tNozzle, \Wobj := wobj1Star;
		WaitRob \InPos;
		SetDO DO5_Program_Feed, 0;
		MoveL Offs(pZeroStarMute, -7.73, -6.802, 1.5), v100, z0, tNozzle, \Wobj := wobj1Star;
		WaitRob \InPos;
		SetDO DO5_Program_Feed, 1;
		MoveL Offs(pZeroStarMute, 7.07, -1.416, 1.5), v30, z0, tNozzle, \Wobj := wobj1Star;
		WaitRob \InPos;
		SetDO DO5_Program_Feed, 0;
		MoveL Offs(pZeroStarMute, 6.616, -3.177, 1.5), v100, z0, tNozzle, \Wobj := wobj1Star;
		WaitRob \InPos;
		SetDO DO5_Program_Feed, 1;
		MoveL Offs(pZeroStarMute, -8.282, -8.599, 1.5), v30, z0, tNozzle, \Wobj := wobj1Star;
		WaitRob \InPos;
		SetDO DO5_Program_Feed, 0;
		MoveL Offs(pZeroStarMute, -8.834, -10.397, 1.5), v100, z0, tNozzle, \Wobj := wobj1Star;
		WaitRob \InPos;
		SetDO DO5_Program_Feed, 1;
		MoveL Offs(pZeroStarMute, -1.801, -7.837, 1.5), v30, z0, tNozzle, \Wobj := wobj1Star;
		WaitRob \InPos;
		SetDO DO5_Program_Feed, 0;
		MoveL Offs(pZeroStarMute, 0.571, -6.973, 1.5), v100, z0, tNozzle, \Wobj := wobj1Star;
		WaitRob \InPos;
		SetDO DO5_Program_Feed, 1;
		MoveL Offs(pZeroStarMute, 7.057, -4.613, 1.5), v30, z0, tNozzle, \Wobj := wobj1Star;
		WaitRob \InPos;
		SetDO DO5_Program_Feed, 0;
		MoveL Offs(pZeroStarMute, 7.498, -6.048, 1.5), v100, z0, tNozzle, \Wobj := wobj1Star;
		WaitRob \InPos;
		SetDO DO5_Program_Feed, 1;
		MoveL Offs(pZeroStarMute, 2.069, -8.025, 1.5), v30, z0, tNozzle, \Wobj := wobj1Star;
		WaitRob \InPos;
		SetDO DO5_Program_Feed, 0;
		MoveL Offs(pZeroStarMute, 3.566, -9.076, 1.5), v100, z0, tNozzle, \Wobj := wobj1Star;
		WaitRob \InPos;
		SetDO DO5_Program_Feed, 1;
		MoveL Offs(pZeroStarMute, 7.939, -7.484, 1.5), v30, z0, tNozzle, \Wobj := wobj1Star;
		WaitRob \InPos;
		SetDO DO5_Program_Feed, 0;
		MoveL Offs(pZeroStarMute, 8.38, -8.92, 1.5), v100, z0, tNozzle, \Wobj := wobj1Star;
		WaitRob \InPos;
		SetDO DO5_Program_Feed, 1;
		MoveL Offs(pZeroStarMute, 5.063, -10.127, 1.5), v30, z0, tNozzle, \Wobj := wobj1Star;
		WaitRob \InPos;
		SetDO DO5_Program_Feed, 0;
		MoveL Offs(pZeroStarMute, 6.56, -11.179, 1.5), v100, z0, tNozzle, \Wobj := wobj1Star;
		WaitRob \InPos;
		SetDO DO5_Program_Feed, 1;
		MoveL Offs(pZeroStarMute, 8.821, -10.356, 1.5), v30, z0, tNozzle, \Wobj := wobj1Star;
		WaitRob \InPos;
		SetDO DO5_Program_Feed, 0;
		MoveL Offs(pZeroStarMute, 9.262, -11.791, 1.5), v100, z0, tNozzle, \Wobj := wobj1Star;
		WaitRob \InPos;
		SetDO DO5_Program_Feed, 1;
		MoveL Offs(pZeroStarMute, 8.057, -12.23, 1.5), v30, z0, tNozzle, \Wobj := wobj1Star;
		WaitRob \InPos;
		SetDO DO5_Program_Feed, 0;
		MoveL Offs(pZeroStarMute, 9.555, -13.281, 1.5), v100, z0, tNozzle, \Wobj := wobj1Star;
		WaitRob \InPos;
		SetDO DO5_Program_Feed, 1;
		MoveL Offs(pZeroStarMute, 9.703, -13.227, 1.5), v30, z0, tNozzle, \Wobj := wobj1Star;
		WaitRob \InPos;
		SetDO DO5_Program_Feed, 0;
		MoveL Offs(pZeroStarMute, -6.52, -11.151, 1.5), v100, z0, tNozzle, \Wobj := wobj1Star;
		WaitRob \InPos;
		SetDO DO5_Program_Feed, 1;
		MoveL Offs(pZeroStarMute, -9.386, -12.194, 1.5), v30, z0, tNozzle, \Wobj := wobj1Star;
		WaitRob \InPos;
		SetDO DO6_Between_Layer_Retract, 1;
		SetDO DO5_Program_Feed, 0;
		MoveL Offs(pZeroStarMute, -9.386, -12.194, 6.5), v100, z0, tNozzle, \Wobj := wobj1Star;

		! Layer: 6
		! LayerParams(infillAngleDegrees=110.0, pathWidth=1.5, layerHeight=0.3, infillShiftX=0.0, infillShiftY=0.0, numShells=1, infillOverlap=0.0002)
		! T16
		! M6
		TPWRITE "Layer 6 of 20";
		MoveL Offs(pZeroStarMute, 4.354, 5.835, 6.8), v100, z0, tNozzle, \Wobj := wobj1Star;
		MoveL Offs(pZeroStarMute, 4.354, 5.835, 1.8), v30, z0, tNozzle, \Wobj := wobj1Star;
		WaitRob \InPos;
		SetDO DO6_Between_Layer_Retract, 0;
		WaitRob \InPos;
		SetDO DO5_Program_Feed, 1;
		MoveL Offs(pZeroStarMute, 4.329, 5.842, 1.8), v30, z0, tNozzle, \Wobj := wobj1Star;
		MoveL Offs(pZeroStarMute, 4.305, 5.852, 1.8), v30, z0, tNozzle, \Wobj := wobj1Star;
		MoveL Offs(pZeroStarMute, 4.283, 5.863, 1.8), v30, z0, tNozzle, \Wobj := wobj1Star;
		MoveL Offs(pZeroStarMute, 4.261, 5.877, 1.8), v30, z0, tNozzle, \Wobj := wobj1Star;
		MoveL Offs(pZeroStarMute, 4.242, 5.893, 1.8), v30, z0, tNozzle, \Wobj := wobj1Star;
		MoveL Offs(pZeroStarMute, 4.224, 5.911, 1.8), v30, z0, tNozzle, \Wobj := wobj1Star;
		MoveL Offs(pZeroStarMute, 4.207, 5.931, 1.8), v30, z0, tNozzle, \Wobj := wobj1Star;
		MoveL Offs(pZeroStarMute, 4.193, 5.952, 1.8), v30, z0, tNozzle, \Wobj := wobj1Star;
		MoveL Offs(pZeroStarMute, 4.181, 5.975, 1.8), v30, z0, tNozzle, \Wobj := wobj1Star;
		MoveL Offs(pZeroStarMute, 4.172, 5.998, 1.8), v30, z0, tNozzle, \Wobj := wobj1Star;
		MoveL Offs(pZeroStarMute, -0.0, 18.167, 1.8), v30, z0, tNozzle, \Wobj := wobj1Star;
		MoveL Offs(pZeroStarMute, -4.059, 6.329, 1.8), v30, z0, tNozzle, \Wobj := wobj1Star;
		MoveL Offs(pZeroStarMute, -4.172, 5.998, 1.8), v30, z0, tNozzle, \Wobj := wobj1Star;
		MoveL Offs(pZeroStarMute, -4.181, 5.975, 1.8), v30, z0, tNozzle, \Wobj := wobj1Star;
		MoveL Offs(pZeroStarMute, -4.193, 5.952, 1.8), v30, z0, tNozzle, \Wobj := wobj1Star;
		MoveL Offs(pZeroStarMute, -4.207, 5.931, 1.8), v30, z0, tNozzle, \Wobj := wobj1Star;
		MoveL Offs(pZeroStarMute, -4.224, 5.911, 1.8), v30, z0, tNozzle, \Wobj := wobj1Star;
		MoveL Offs(pZeroStarMute, -4.242, 5.893, 1.8), v30, z0, tNozzle, \Wobj := wobj1Star;
		MoveL Offs(pZeroStarMute, -4.261, 5.877, 1.8), v30, z0, tNozzle, \Wobj := wobj1Star;
		MoveL Offs(pZeroStarMute, -4.283, 5.863, 1.8), v30, z0, tNozzle, \Wobj := wobj1Star;
		MoveL Offs(pZeroStarMute, -4.305, 5.852, 1.8), v30, z0, tNozzle, \Wobj := wobj1Star;
		MoveL Offs(pZeroStarMute, -4.329, 5.842, 1.8), v30, z0, tNozzle, \Wobj := wobj1Star;
		MoveL Offs(pZeroStarMute, -4.354, 5.835, 1.8), v30, z0, tNozzle, \Wobj := wobj1Star;
		MoveL Offs(pZeroStarMute, -4.379, 5.831, 1.8), v30, z0, tNozzle, \Wobj := wobj1Star;
		MoveL Offs(pZeroStarMute, -4.404, 5.829, 1.8), v30, z0, tNozzle, \Wobj := wobj1Star;
		MoveL Offs(pZeroStarMute, -17.267, 5.622, 1.8), v30, z0, tNozzle, \Wobj := wobj1Star;
		MoveL Offs(pZeroStarMute, -7.262, -1.896, 1.8), v30, z0, tNozzle, \Wobj := wobj1Star;
		MoveL Offs(pZeroStarMute, -6.983, -2.106, 1.8), v30, z0, tNozzle, \Wobj := wobj1Star;
		MoveL Offs(pZeroStarMute, -6.963, -2.122, 1.8), v30, z0, tNozzle, \Wobj := wobj1Star;
		MoveL Offs(pZeroStarMute, -6.945, -2.141, 1.8), v30, z0, tNozzle, \Wobj := wobj1Star;
		MoveL Offs(pZeroStarMute, -6.929, -2.161, 1.8), v30, z0, tNozzle, \Wobj := wobj1Star;
		MoveL Offs(pZeroStarMute, -6.916, -2.182, 1.8), v30, z0, tNozzle, \Wobj := wobj1Star;
		MoveL Offs(pZeroStarMute, -6.904, -2.205, 1.8), v30, z0, tNozzle, \Wobj := wobj1Star;
		MoveL Offs(pZeroStarMute, -6.895, -2.229, 1.8), v30, z0, tNozzle, \Wobj := wobj1Star;
		MoveL Offs(pZeroStarMute, -6.889, -2.253, 1.8), v30, z0, tNozzle, \Wobj := wobj1Star;
		MoveL Offs(pZeroStarMute, -6.884, -2.278, 1.8), v30, z0, tNozzle, \Wobj := wobj1Star;
		MoveL Offs(pZeroStarMute, -6.883, -2.304, 1.8), v30, z0, tNozzle, \Wobj := wobj1Star;
		MoveL Offs(pZeroStarMute, -6.884, -2.329, 1.8), v30, z0, tNozzle, \Wobj := wobj1Star;
		MoveL Offs(pZeroStarMute, -6.888, -2.355, 1.8), v30, z0, tNozzle, \Wobj := wobj1Star;
		MoveL Offs(pZeroStarMute, -6.894, -2.379, 1.8), v30, z0, tNozzle, \Wobj := wobj1Star;
		MoveL Offs(pZeroStarMute, -10.672, -14.676, 1.8), v30, z0, tNozzle, \Wobj := wobj1Star;
		MoveL Offs(pZeroStarMute, -0.43, -7.485, 1.8), v30, z0, tNozzle, \Wobj := wobj1Star;
		MoveL Offs(pZeroStarMute, -0.144, -7.284, 1.8), v30, z0, tNozzle, \Wobj := wobj1Star;
		MoveL Offs(pZeroStarMute, -0.122, -7.27, 1.8), v30, z0, tNozzle, \Wobj := wobj1Star;
		MoveL Offs(pZeroStarMute, -0.099, -7.259, 1.8), v30, z0, tNozzle, \Wobj := wobj1Star;
		MoveL Offs(pZeroStarMute, -0.075, -7.25, 1.8), v30, z0, tNozzle, \Wobj := wobj1Star;
		MoveL Offs(pZeroStarMute, -0.051, -7.243, 1.8), v30, z0, tNozzle, \Wobj := wobj1Star;
		MoveL Offs(pZeroStarMute, -0.025, -7.24, 1.8), v30, z0, tNozzle, \Wobj := wobj1Star;
		MoveL Offs(pZeroStarMute, 0.0, -7.238, 1.8), v30, z0, tNozzle, \Wobj := wobj1Star;
		MoveL Offs(pZeroStarMute, 0.025, -7.24, 1.8), v30, z0, tNozzle, \Wobj := wobj1Star;
		MoveL Offs(pZeroStarMute, 0.051, -7.243, 1.8), v30, z0, tNozzle, \Wobj := wobj1Star;
		MoveL Offs(pZeroStarMute, 0.075, -7.25, 1.8), v30, z0, tNozzle, \Wobj := wobj1Star;
		MoveL Offs(pZeroStarMute, 0.099, -7.259, 1.8), v30, z0, tNozzle, \Wobj := wobj1Star;
		MoveL Offs(pZeroStarMute, 0.122, -7.27, 1.8), v30, z0, tNozzle, \Wobj := wobj1Star;
		MoveL Offs(pZeroStarMute, 0.144, -7.284, 1.8), v30, z0, tNozzle, \Wobj := wobj1Star;
		MoveL Offs(pZeroStarMute, 10.671, -14.676, 1.8), v30, z0, tNozzle, \Wobj := wobj1Star;
		MoveL Offs(pZeroStarMute, 6.997, -2.713, 1.8), v30, z0, tNozzle, \Wobj := wobj1Star;
		MoveL Offs(pZeroStarMute, 6.894, -2.379, 1.8), v30, z0, tNozzle, \Wobj := wobj1Star;
		MoveL Offs(pZeroStarMute, 6.888, -2.355, 1.8), v30, z0, tNozzle, \Wobj := wobj1Star;
		MoveL Offs(pZeroStarMute, 6.884, -2.329, 1.8), v30, z0, tNozzle, \Wobj := wobj1Star;
		MoveL Offs(pZeroStarMute, 6.883, -2.304, 1.8), v30, z0, tNozzle, \Wobj := wobj1Star;
		MoveL Offs(pZeroStarMute, 6.884, -2.278, 1.8), v30, z0, tNozzle, \Wobj := wobj1Star;
		MoveL Offs(pZeroStarMute, 6.889, -2.253, 1.8), v30, z0, tNozzle, \Wobj := wobj1Star;
		MoveL Offs(pZeroStarMute, 6.895, -2.229, 1.8), v30, z0, tNozzle, \Wobj := wobj1Star;
		MoveL Offs(pZeroStarMute, 6.904, -2.205, 1.8), v30, z0, tNozzle, \Wobj := wobj1Star;
		MoveL Offs(pZeroStarMute, 6.916, -2.182, 1.8), v30, z0, tNozzle, \Wobj := wobj1Star;
		MoveL Offs(pZeroStarMute, 6.929, -2.161, 1.8), v30, z0, tNozzle, \Wobj := wobj1Star;
		MoveL Offs(pZeroStarMute, 6.945, -2.141, 1.8), v30, z0, tNozzle, \Wobj := wobj1Star;
		MoveL Offs(pZeroStarMute, 6.963, -2.122, 1.8), v30, z0, tNozzle, \Wobj := wobj1Star;
		MoveL Offs(pZeroStarMute, 6.983, -2.106, 1.8), v30, z0, tNozzle, \Wobj := wobj1Star;
		MoveL Offs(pZeroStarMute, 17.267, 5.622, 1.8), v30, z0, tNozzle, \Wobj := wobj1Star;
		MoveL Offs(pZeroStarMute, 4.754, 5.824, 1.8), v30, z0, tNozzle, \Wobj := wobj1Star;
		MoveL Offs(pZeroStarMute, 4.404, 5.829, 1.8), v30, z0, tNozzle, \Wobj := wobj1Star;
		MoveL Offs(pZeroStarMute, 4.379, 5.831, 1.8), v30, z0, tNozzle, \Wobj := wobj1Star;
		MoveL Offs(pZeroStarMute, 4.354, 5.835, 1.8), v30, z0, tNozzle, \Wobj := wobj1Star;
		WaitRob \InPos;
		SetDO DO5_Program_Feed, 0;
		MoveL Offs(pZeroStarMute, 4.22, 5.354, 1.8), v100, z0, tNozzle, \Wobj := wobj1Star;
		WaitRob \InPos;
		SetDO DO5_Program_Feed, 1;
		MoveL Offs(pZeroStarMute, 6.767, -1.643, 1.8), v30, z0, tNozzle, \Wobj := wobj1Star;
		WaitRob \InPos;
		SetDO DO5_Program_Feed, 0;
		MoveL Offs(pZeroStarMute, 8.02, -0.701, 1.8), v100, z0, tNozzle, \Wobj := wobj1Star;
		WaitRob \InPos;
		SetDO DO5_Program_Feed, 1;
		MoveL Offs(pZeroStarMute, 5.834, 5.306, 1.8), v30, z0, tNozzle, \Wobj := wobj1Star;
		WaitRob \InPos;
		SetDO DO5_Program_Feed, 0;
		MoveL Offs(pZeroStarMute, 7.439, 5.281, 1.8), v100, z0, tNozzle, \Wobj := wobj1Star;
		WaitRob \InPos;
		SetDO DO5_Program_Feed, 1;
		MoveL Offs(pZeroStarMute, 9.274, 0.241, 1.8), v30, z0, tNozzle, \Wobj := wobj1Star;
		WaitRob \InPos;
		SetDO DO5_Program_Feed, 0;
		MoveL Offs(pZeroStarMute, 10.527, 1.183, 1.8), v100, z0, tNozzle, \Wobj := wobj1Star;
		WaitRob \InPos;
		SetDO DO5_Program_Feed, 1;
		MoveL Offs(pZeroStarMute, 9.045, 5.255, 1.8), v30, z0, tNozzle, \Wobj := wobj1Star;
		WaitRob \InPos;
		SetDO DO5_Program_Feed, 0;
		MoveL Offs(pZeroStarMute, 10.651, 5.229, 1.8), v100, z0, tNozzle, \Wobj := wobj1Star;
		WaitRob \InPos;
		SetDO DO5_Program_Feed, 1;
		MoveL Offs(pZeroStarMute, 11.78, 2.124, 1.8), v30, z0, tNozzle, \Wobj := wobj1Star;
		WaitRob \InPos;
		SetDO DO5_Program_Feed, 0;
		MoveL Offs(pZeroStarMute, 13.034, 3.066, 1.8), v100, z0, tNozzle, \Wobj := wobj1Star;
		WaitRob \InPos;
		SetDO DO5_Program_Feed, 1;
		MoveL Offs(pZeroStarMute, 12.256, 5.203, 1.8), v30, z0, tNozzle, \Wobj := wobj1Star;
		WaitRob \InPos;
		SetDO DO5_Program_Feed, 0;
		MoveL Offs(pZeroStarMute, 13.862, 5.177, 1.8), v100, z0, tNozzle, \Wobj := wobj1Star;
		WaitRob \InPos;
		SetDO DO5_Program_Feed, 1;
		MoveL Offs(pZeroStarMute, 14.287, 4.008, 1.8), v30, z0, tNozzle, \Wobj := wobj1Star;
		WaitRob \InPos;
		SetDO DO5_Program_Feed, 0;
		MoveL Offs(pZeroStarMute, 15.541, 4.95, 1.8), v100, z0, tNozzle, \Wobj := wobj1Star;
		WaitRob \InPos;
		SetDO DO5_Program_Feed, 1;
		MoveL Offs(pZeroStarMute, 15.468, 5.151, 1.8), v30, z0, tNozzle, \Wobj := wobj1Star;
		WaitRob \InPos;
		SetDO DO5_Program_Feed, 0;
		MoveL Offs(pZeroStarMute, -2.266, 10.017, 1.8), v100, z0, tNozzle, \Wobj := wobj1Star;
		WaitRob \InPos;
		SetDO DO5_Program_Feed, 1;
		MoveL Offs(pZeroStarMute, 5.067, -10.13, 1.8), v30, z0, tNozzle, \Wobj := wobj1Star;
		WaitRob \InPos;
		SetDO DO5_Program_Feed, 0;
		MoveL Offs(pZeroStarMute, 2.923, -8.624, 1.8), v100, z0, tNozzle, \Wobj := wobj1Star;
		WaitRob \InPos;
		SetDO DO5_Program_Feed, 1;
		MoveL Offs(pZeroStarMute, -3.04, 7.758, 1.8), v30, z0, tNozzle, \Wobj := wobj1Star;
		WaitRob \InPos;
		SetDO DO5_Program_Feed, 0;
		MoveL Offs(pZeroStarMute, -3.845, 5.585, 1.8), v100, z0, tNozzle, \Wobj := wobj1Star;
		WaitRob \InPos;
		SetDO DO5_Program_Feed, 1;
		MoveL Offs(pZeroStarMute, 0.778, -7.119, 1.8), v30, z0, tNozzle, \Wobj := wobj1Star;
		WaitRob \InPos;
		SetDO DO5_Program_Feed, 0;
		MoveL Offs(pZeroStarMute, -0.81, -7.141, 1.8), v100, z0, tNozzle, \Wobj := wobj1Star;
		WaitRob \InPos;
		SetDO DO5_Program_Feed, 1;
		MoveL Offs(pZeroStarMute, -5.343, 5.314, 1.8), v30, z0, tNozzle, \Wobj := wobj1Star;
		WaitRob \InPos;
		SetDO DO5_Program_Feed, 0;
		MoveL Offs(pZeroStarMute, -6.93, 5.289, 1.8), v100, z0, tNozzle, \Wobj := wobj1Star;
		WaitRob \InPos;
		SetDO DO5_Program_Feed, 1;
		MoveL Offs(pZeroStarMute, -2.081, -8.034, 1.8), v30, z0, tNozzle, \Wobj := wobj1Star;
		WaitRob \InPos;
		SetDO DO5_Program_Feed, 0;
		MoveL Offs(pZeroStarMute, -3.353, -8.926, 1.8), v100, z0, tNozzle, \Wobj := wobj1Star;
		WaitRob \InPos;
		SetDO DO5_Program_Feed, 1;
		MoveL Offs(pZeroStarMute, -8.517, 5.263, 1.8), v30, z0, tNozzle, \Wobj := wobj1Star;
		WaitRob \InPos;
		SetDO DO5_Program_Feed, 0;
		MoveL Offs(pZeroStarMute, -10.104, 5.238, 1.8), v100, z0, tNozzle, \Wobj := wobj1Star;
		WaitRob \InPos;
		SetDO DO5_Program_Feed, 1;
		MoveL Offs(pZeroStarMute, -7.913, -0.782, 1.8), v30, z0, tNozzle, \Wobj := wobj1Star;
		WaitRob \InPos;
		SetDO DO5_Program_Feed, 0;
		MoveL Offs(pZeroStarMute, -10.111, 0.87, 1.8), v100, z0, tNozzle, \Wobj := wobj1Star;
		WaitRob \InPos;
		SetDO DO5_Program_Feed, 1;
		MoveL Offs(pZeroStarMute, -11.691, 5.212, 1.8), v30, z0, tNozzle, \Wobj := wobj1Star;
		WaitRob \InPos;
		SetDO DO5_Program_Feed, 0;
		MoveL Offs(pZeroStarMute, -13.278, 5.186, 1.8), v100, z0, tNozzle, \Wobj := wobj1Star;
		WaitRob \InPos;
		SetDO DO5_Program_Feed, 1;
		MoveL Offs(pZeroStarMute, -12.308, 2.521, 1.8), v30, z0, tNozzle, \Wobj := wobj1Star;
		WaitRob \InPos;
		SetDO DO5_Program_Feed, 0;
		MoveL Offs(pZeroStarMute, -14.505, 4.172, 1.8), v100, z0, tNozzle, \Wobj := wobj1Star;
		WaitRob \InPos;
		SetDO DO5_Program_Feed, 1;
		MoveL Offs(pZeroStarMute, -14.865, 5.161, 1.8), v30, z0, tNozzle, \Wobj := wobj1Star;
		WaitRob \InPos;
		SetDO DO5_Program_Feed, 0;
		MoveL Offs(pZeroStarMute, -6.811, -3.811, 1.8), v100, z0, tNozzle, \Wobj := wobj1Star;
		WaitRob \InPos;
		SetDO DO5_Program_Feed, 1;
		MoveL Offs(pZeroStarMute, -4.624, -9.819, 1.8), v30, z0, tNozzle, \Wobj := wobj1Star;
		WaitRob \InPos;
		SetDO DO5_Program_Feed, 0;
		MoveL Offs(pZeroStarMute, -5.895, -10.712, 1.8), v100, z0, tNozzle, \Wobj := wobj1Star;
		WaitRob \InPos;
		SetDO DO5_Program_Feed, 1;
		MoveL Offs(pZeroStarMute, -7.541, -6.189, 1.8), v30, z0, tNozzle, \Wobj := wobj1Star;
		WaitRob \InPos;
		SetDO DO5_Program_Feed, 0;
		MoveL Offs(pZeroStarMute, -8.272, -8.567, 1.8), v100, z0, tNozzle, \Wobj := wobj1Star;
		WaitRob \InPos;
		SetDO DO5_Program_Feed, 1;
		MoveL Offs(pZeroStarMute, -7.167, -11.604, 1.8), v30, z0, tNozzle, \Wobj := wobj1Star;
		WaitRob \InPos;
		SetDO DO5_Program_Feed, 0;
		MoveL Offs(pZeroStarMute, -8.438, -12.497, 1.8), v100, z0, tNozzle, \Wobj := wobj1Star;
		WaitRob \InPos;
		SetDO DO5_Program_Feed, 1;
		MoveL Offs(pZeroStarMute, -9.003, -10.946, 1.8), v30, z0, tNozzle, \Wobj := wobj1Star;
		WaitRob \InPos;
		SetDO DO5_Program_Feed, 0;
		MoveL Offs(pZeroStarMute, -9.733, -13.324, 1.8), v100, z0, tNozzle, \Wobj := wobj1Star;
		WaitRob \InPos;
		SetDO DO5_Program_Feed, 1;
		MoveL Offs(pZeroStarMute, -9.709, -13.39, 1.8), v30, z0, tNozzle, \Wobj := wobj1Star;
		WaitRob \InPos;
		SetDO DO5_Program_Feed, 0;
		MoveL Offs(pZeroStarMute, 7.211, -11.636, 1.8), v100, z0, tNozzle, \Wobj := wobj1Star;
		WaitRob \InPos;
		SetDO DO5_Program_Feed, 1;
		MoveL Offs(pZeroStarMute, -1.492, 12.275, 1.8), v30, z0, tNozzle, \Wobj := wobj1Star;
		WaitRob \InPos;
		SetDO DO5_Program_Feed, 0;
		MoveL Offs(pZeroStarMute, -0.717, 14.533, 1.8), v100, z0, tNozzle, \Wobj := wobj1Star;
		WaitRob \InPos;
		SetDO DO5_Program_Feed, 1;
		MoveL Offs(pZeroStarMute, 9.356, -13.142, 1.8), v30, z0, tNozzle, \Wobj := wobj1Star;
		WaitRob \InPos;
		SetDO DO6_Between_Layer_Retract, 1;
		SetDO DO5_Program_Feed, 0;
		MoveL Offs(pZeroStarMute, 9.356, -13.142, 6.8), v100, z0, tNozzle, \Wobj := wobj1Star;

		! Layer: 7
		! LayerParams(infillAngleDegrees=20.0, pathWidth=1.5, layerHeight=0.3, infillShiftX=0.0, infillShiftY=0.0, numShells=1, infillOverlap=0.0002)
		! T17
		! M6
		TPWRITE "Layer 7 of 20";
		MoveL Offs(pZeroStarMute, -17.267, 5.622, 7.1), v100, z0, tNozzle, \Wobj := wobj1Star;
		MoveL Offs(pZeroStarMute, -17.267, 5.622, 2.1), v30, z0, tNozzle, \Wobj := wobj1Star;
		WaitRob \InPos;
		SetDO DO6_Between_Layer_Retract, 0;
		WaitRob \InPos;
		SetDO DO5_Program_Feed, 1;
		MoveL Offs(pZeroStarMute, -7.309, -1.861, 2.1), v30, z0, tNozzle, \Wobj := wobj1Star;
		MoveL Offs(pZeroStarMute, -6.983, -2.106, 2.1), v30, z0, tNozzle, \Wobj := wobj1Star;
		MoveL Offs(pZeroStarMute, -6.963, -2.122, 2.1), v30, z0, tNozzle, \Wobj := wobj1Star;
		MoveL Offs(pZeroStarMute, -6.945, -2.141, 2.1), v30, z0, tNozzle, \Wobj := wobj1Star;
		MoveL Offs(pZeroStarMute, -6.929, -2.161, 2.1), v30, z0, tNozzle, \Wobj := wobj1Star;
		MoveL Offs(pZeroStarMute, -6.916, -2.182, 2.1), v30, z0, tNozzle, \Wobj := wobj1Star;
		MoveL Offs(pZeroStarMute, -6.904, -2.205, 2.1), v30, z0, tNozzle, \Wobj := wobj1Star;
		MoveL Offs(pZeroStarMute, -6.895, -2.229, 2.1), v30, z0, tNozzle, \Wobj := wobj1Star;
		MoveL Offs(pZeroStarMute, -6.889, -2.253, 2.1), v30, z0, tNozzle, \Wobj := wobj1Star;
		MoveL Offs(pZeroStarMute, -6.884, -2.278, 2.1), v30, z0, tNozzle, \Wobj := wobj1Star;
		MoveL Offs(pZeroStarMute, -6.883, -2.304, 2.1), v30, z0, tNozzle, \Wobj := wobj1Star;
		MoveL Offs(pZeroStarMute, -6.884, -2.329, 2.1), v30, z0, tNozzle, \Wobj := wobj1Star;
		MoveL Offs(pZeroStarMute, -6.888, -2.355, 2.1), v30, z0, tNozzle, \Wobj := wobj1Star;
		MoveL Offs(pZeroStarMute, -6.894, -2.379, 2.1), v30, z0, tNozzle, \Wobj := wobj1Star;
		MoveL Offs(pZeroStarMute, -10.672, -14.676, 2.1), v30, z0, tNozzle, \Wobj := wobj1Star;
		MoveL Offs(pZeroStarMute, -0.477, -7.518, 2.1), v30, z0, tNozzle, \Wobj := wobj1Star;
		MoveL Offs(pZeroStarMute, -0.144, -7.284, 2.1), v30, z0, tNozzle, \Wobj := wobj1Star;
		MoveL Offs(pZeroStarMute, -0.122, -7.27, 2.1), v30, z0, tNozzle, \Wobj := wobj1Star;
		MoveL Offs(pZeroStarMute, -0.099, -7.259, 2.1), v30, z0, tNozzle, \Wobj := wobj1Star;
		MoveL Offs(pZeroStarMute, -0.075, -7.25, 2.1), v30, z0, tNozzle, \Wobj := wobj1Star;
		MoveL Offs(pZeroStarMute, -0.051, -7.243, 2.1), v30, z0, tNozzle, \Wobj := wobj1Star;
		MoveL Offs(pZeroStarMute, -0.025, -7.24, 2.1), v30, z0, tNozzle, \Wobj := wobj1Star;
		MoveL Offs(pZeroStarMute, 0.0, -7.238, 2.1), v30, z0, tNozzle, \Wobj := wobj1Star;
		MoveL Offs(pZeroStarMute, 0.025, -7.24, 2.1), v30, z0, tNozzle, \Wobj := wobj1Star;
		MoveL Offs(pZeroStarMute, 0.051, -7.243, 2.1), v30, z0, tNozzle, \Wobj := wobj1Star;
		MoveL Offs(pZeroStarMute, 0.075, -7.25, 2.1), v30, z0, tNozzle, \Wobj := wobj1Star;
		MoveL Offs(pZeroStarMute, 0.099, -7.259, 2.1), v30, z0, tNozzle, \Wobj := wobj1Star;
		MoveL Offs(pZeroStarMute, 0.122, -7.27, 2.1), v30, z0, tNozzle, \Wobj := wobj1Star;
		MoveL Offs(pZeroStarMute, 0.144, -7.284, 2.1), v30, z0, tNozzle, \Wobj := wobj1Star;
		MoveL Offs(pZeroStarMute, 10.671, -14.676, 2.1), v30, z0, tNozzle, \Wobj := wobj1Star;
		MoveL Offs(pZeroStarMute, 7.014, -2.769, 2.1), v30, z0, tNozzle, \Wobj := wobj1Star;
		MoveL Offs(pZeroStarMute, 6.894, -2.379, 2.1), v30, z0, tNozzle, \Wobj := wobj1Star;
		MoveL Offs(pZeroStarMute, 6.888, -2.355, 2.1), v30, z0, tNozzle, \Wobj := wobj1Star;
		MoveL Offs(pZeroStarMute, 6.884, -2.329, 2.1), v30, z0, tNozzle, \Wobj := wobj1Star;
		MoveL Offs(pZeroStarMute, 6.883, -2.304, 2.1), v30, z0, tNozzle, \Wobj := wobj1Star;
		MoveL Offs(pZeroStarMute, 6.884, -2.278, 2.1), v30, z0, tNozzle, \Wobj := wobj1Star;
		MoveL Offs(pZeroStarMute, 6.889, -2.253, 2.1), v30, z0, tNozzle, \Wobj := wobj1Star;
		MoveL Offs(pZeroStarMute, 6.895, -2.229, 2.1), v30, z0, tNozzle, \Wobj := wobj1Star;
		MoveL Offs(pZeroStarMute, 6.904, -2.205, 2.1), v30, z0, tNozzle, \Wobj := wobj1Star;
		MoveL Offs(pZeroStarMute, 6.916, -2.182, 2.1), v30, z0, tNozzle, \Wobj := wobj1Star;
		MoveL Offs(pZeroStarMute, 6.929, -2.161, 2.1), v30, z0, tNozzle, \Wobj := wobj1Star;
		MoveL Offs(pZeroStarMute, 6.945, -2.141, 2.1), v30, z0, tNozzle, \Wobj := wobj1Star;
		MoveL Offs(pZeroStarMute, 6.963, -2.122, 2.1), v30, z0, tNozzle, \Wobj := wobj1Star;
		MoveL Offs(pZeroStarMute, 6.983, -2.106, 2.1), v30, z0, tNozzle, \Wobj := wobj1Star;
		MoveL Offs(pZeroStarMute, 17.267, 5.622, 2.1), v30, z0, tNozzle, \Wobj := wobj1Star;
		MoveL Offs(pZeroStarMute, 4.812, 5.823, 2.1), v30, z0, tNozzle, \Wobj := wobj1Star;
		MoveL Offs(pZeroStarMute, 4.404, 5.829, 2.1), v30, z0, tNozzle, \Wobj := wobj1Star;
		MoveL Offs(pZeroStarMute, 4.379, 5.831, 2.1), v30, z0, tNozzle, \Wobj := wobj1Star;
		MoveL Offs(pZeroStarMute, 4.354, 5.835, 2.1), v30, z0, tNozzle, \Wobj := wobj1Star;
		MoveL Offs(pZeroStarMute, 4.329, 5.842, 2.1), v30, z0, tNozzle, \Wobj := wobj1Star;
		MoveL Offs(pZeroStarMute, 4.305, 5.852, 2.1), v30, z0, tNozzle, \Wobj := wobj1Star;
		MoveL Offs(pZeroStarMute, 4.283, 5.863, 2.1), v30, z0, tNozzle, \Wobj := wobj1Star;
		MoveL Offs(pZeroStarMute, 4.261, 5.877, 2.1), v30, z0, tNozzle, \Wobj := wobj1Star;
		MoveL Offs(pZeroStarMute, 4.242, 5.893, 2.1), v30, z0, tNozzle, \Wobj := wobj1Star;
		MoveL Offs(pZeroStarMute, 4.224, 5.911, 2.1), v30, z0, tNozzle, \Wobj := wobj1Star;
		MoveL Offs(pZeroStarMute, 4.207, 5.931, 2.1), v30, z0, tNozzle, \Wobj := wobj1Star;
		MoveL Offs(pZeroStarMute, 4.193, 5.952, 2.1), v30, z0, tNozzle, \Wobj := wobj1Star;
		MoveL Offs(pZeroStarMute, 4.181, 5.975, 2.1), v30, z0, tNozzle, \Wobj := wobj1Star;
		MoveL Offs(pZeroStarMute, 4.172, 5.998, 2.1), v30, z0, tNozzle, \Wobj := wobj1Star;
		MoveL Offs(pZeroStarMute, -0.0, 18.167, 2.1), v30, z0, tNozzle, \Wobj := wobj1Star;
		MoveL Offs(pZeroStarMute, -4.04, 6.384, 2.1), v30, z0, tNozzle, \Wobj := wobj1Star;
		MoveL Offs(pZeroStarMute, -4.172, 5.998, 2.1), v30, z0, tNozzle, \Wobj := wobj1Star;
		MoveL Offs(pZeroStarMute, -4.181, 5.975, 2.1), v30, z0, tNozzle, \Wobj := wobj1Star;
		MoveL Offs(pZeroStarMute, -4.193, 5.952, 2.1), v30, z0, tNozzle, \Wobj := wobj1Star;
		MoveL Offs(pZeroStarMute, -4.207, 5.931, 2.1), v30, z0, tNozzle, \Wobj := wobj1Star;
		MoveL Offs(pZeroStarMute, -4.224, 5.911, 2.1), v30, z0, tNozzle, \Wobj := wobj1Star;
		MoveL Offs(pZeroStarMute, -4.242, 5.893, 2.1), v30, z0, tNozzle, \Wobj := wobj1Star;
		MoveL Offs(pZeroStarMute, -4.261, 5.877, 2.1), v30, z0, tNozzle, \Wobj := wobj1Star;
		MoveL Offs(pZeroStarMute, -4.283, 5.863, 2.1), v30, z0, tNozzle, \Wobj := wobj1Star;
		MoveL Offs(pZeroStarMute, -4.305, 5.852, 2.1), v30, z0, tNozzle, \Wobj := wobj1Star;
		MoveL Offs(pZeroStarMute, -4.329, 5.842, 2.1), v30, z0, tNozzle, \Wobj := wobj1Star;
		MoveL Offs(pZeroStarMute, -4.354, 5.835, 2.1), v30, z0, tNozzle, \Wobj := wobj1Star;
		MoveL Offs(pZeroStarMute, -4.379, 5.831, 2.1), v30, z0, tNozzle, \Wobj := wobj1Star;
		MoveL Offs(pZeroStarMute, -4.404, 5.829, 2.1), v30, z0, tNozzle, \Wobj := wobj1Star;
		MoveL Offs(pZeroStarMute, -17.267, 5.622, 2.1), v30, z0, tNozzle, \Wobj := wobj1Star;
		WaitRob \InPos;
		SetDO DO5_Program_Feed, 0;
		MoveL Offs(pZeroStarMute, -15.336, 4.796, 2.1), v100, z0, tNozzle, \Wobj := wobj1Star;
		WaitRob \InPos;
		SetDO DO5_Program_Feed, 1;
		MoveL Offs(pZeroStarMute, -14.308, 5.17, 2.1), v30, z0, tNozzle, \Wobj := wobj1Star;
		WaitRob \InPos;
		SetDO DO5_Program_Feed, 0;
		MoveL Offs(pZeroStarMute, -13.905, 3.721, 2.1), v100, z0, tNozzle, \Wobj := wobj1Star;
		WaitRob \InPos;
		SetDO DO5_Program_Feed, 1;
		MoveL Offs(pZeroStarMute, -9.719, 5.244, 2.1), v30, z0, tNozzle, \Wobj := wobj1Star;
		WaitRob \InPos;
		SetDO DO5_Program_Feed, 0;
		MoveL Offs(pZeroStarMute, -12.473, 2.645, 2.1), v100, z0, tNozzle, \Wobj := wobj1Star;
		WaitRob \InPos;
		SetDO DO5_Program_Feed, 1;
		MoveL Offs(pZeroStarMute, -5.131, 5.318, 2.1), v30, z0, tNozzle, \Wobj := wobj1Star;
		WaitRob \InPos;
		SetDO DO5_Program_Feed, 0;
		MoveL Offs(pZeroStarMute, -3.698, 5.839, 2.1), v100, z0, tNozzle, \Wobj := wobj1Star;
		WaitRob \InPos;
		SetDO DO5_Program_Feed, 1;
		MoveL Offs(pZeroStarMute, 2.878, 8.233, 2.1), v30, z0, tNozzle, \Wobj := wobj1Star;
		WaitRob \InPos;
		SetDO DO5_Program_Feed, 0;
		MoveL Offs(pZeroStarMute, 3.364, 6.813, 2.1), v100, z0, tNozzle, \Wobj := wobj1Star;
		WaitRob \InPos;
		SetDO DO5_Program_Feed, 1;
		MoveL Offs(pZeroStarMute, -11.042, 1.57, 2.1), v30, z0, tNozzle, \Wobj := wobj1Star;
		WaitRob \InPos;
		SetDO DO5_Program_Feed, 0;
		MoveL Offs(pZeroStarMute, -9.611, 0.494, 2.1), v100, z0, tNozzle, \Wobj := wobj1Star;
		WaitRob \InPos;
		SetDO DO5_Program_Feed, 1;
		MoveL Offs(pZeroStarMute, 4.002, 5.449, 2.1), v30, z0, tNozzle, \Wobj := wobj1Star;
		WaitRob \InPos;
		SetDO DO5_Program_Feed, 0;
		MoveL Offs(pZeroStarMute, 7.904, 5.273, 2.1), v100, z0, tNozzle, \Wobj := wobj1Star;
		WaitRob \InPos;
		SetDO DO5_Program_Feed, 1;
		MoveL Offs(pZeroStarMute, -8.18, -0.581, 2.1), v30, z0, tNozzle, \Wobj := wobj1Star;
		WaitRob \InPos;
		SetDO DO5_Program_Feed, 0;
		MoveL Offs(pZeroStarMute, -6.749, -1.656, 2.1), v100, z0, tNozzle, \Wobj := wobj1Star;
		WaitRob \InPos;
		SetDO DO5_Program_Feed, 1;
		MoveL Offs(pZeroStarMute, 12.103, 5.205, 2.1), v30, z0, tNozzle, \Wobj := wobj1Star;
		WaitRob \InPos;
		SetDO DO5_Program_Feed, 0;
		MoveL Offs(pZeroStarMute, 15.309, 4.776, 2.1), v100, z0, tNozzle, \Wobj := wobj1Star;
		WaitRob \InPos;
		SetDO DO5_Program_Feed, 1;
		MoveL Offs(pZeroStarMute, -6.626, -3.208, 2.1), v30, z0, tNozzle, \Wobj := wobj1Star;
		WaitRob \InPos;
		SetDO DO5_Program_Feed, 0;
		MoveL Offs(pZeroStarMute, -7.178, -5.005, 2.1), v100, z0, tNozzle, \Wobj := wobj1Star;
		WaitRob \InPos;
		SetDO DO5_Program_Feed, 1;
		MoveL Offs(pZeroStarMute, 11.189, 1.68, 2.1), v30, z0, tNozzle, \Wobj := wobj1Star;
		WaitRob \InPos;
		SetDO DO5_Program_Feed, 0;
		MoveL Offs(pZeroStarMute, 7.07, -1.416, 2.1), v100, z0, tNozzle, \Wobj := wobj1Star;
		WaitRob \InPos;
		SetDO DO5_Program_Feed, 1;
		MoveL Offs(pZeroStarMute, -7.73, -6.802, 2.1), v30, z0, tNozzle, \Wobj := wobj1Star;
		WaitRob \InPos;
		SetDO DO5_Program_Feed, 0;
		MoveL Offs(pZeroStarMute, -8.282, -8.599, 2.1), v100, z0, tNozzle, \Wobj := wobj1Star;
		WaitRob \InPos;
		SetDO DO5_Program_Feed, 1;
		MoveL Offs(pZeroStarMute, 6.616, -3.177, 2.1), v30, z0, tNozzle, \Wobj := wobj1Star;
		WaitRob \InPos;
		SetDO DO5_Program_Feed, 0;
		MoveL Offs(pZeroStarMute, 7.057, -4.613, 2.1), v100, z0, tNozzle, \Wobj := wobj1Star;
		WaitRob \InPos;
		SetDO DO5_Program_Feed, 1;
		MoveL Offs(pZeroStarMute, 0.571, -6.973, 2.1), v30, z0, tNozzle, \Wobj := wobj1Star;
		WaitRob \InPos;
		SetDO DO5_Program_Feed, 0;
		MoveL Offs(pZeroStarMute, 2.069, -8.025, 2.1), v100, z0, tNozzle, \Wobj := wobj1Star;
		WaitRob \InPos;
		SetDO DO5_Program_Feed, 1;
		MoveL Offs(pZeroStarMute, 7.498, -6.048, 2.1), v30, z0, tNozzle, \Wobj := wobj1Star;
		WaitRob \InPos;
		SetDO DO5_Program_Feed, 0;
		MoveL Offs(pZeroStarMute, 7.939, -7.484, 2.1), v100, z0, tNozzle, \Wobj := wobj1Star;
		WaitRob \InPos;
		SetDO DO5_Program_Feed, 1;
		MoveL Offs(pZeroStarMute, 3.566, -9.076, 2.1), v30, z0, tNozzle, \Wobj := wobj1Star;
		WaitRob \InPos;
		SetDO DO5_Program_Feed, 0;
		MoveL Offs(pZeroStarMute, 5.063, -10.127, 2.1), v100, z0, tNozzle, \Wobj := wobj1Star;
		WaitRob \InPos;
		SetDO DO5_Program_Feed, 1;
		MoveL Offs(pZeroStarMute, 8.38, -8.92, 2.1), v30, z0, tNozzle, \Wobj := wobj1Star;
		WaitRob \InPos;
		SetDO DO5_Program_Feed, 0;
		MoveL Offs(pZeroStarMute, 8.821, -10.356, 2.1), v100, z0, tNozzle, \Wobj := wobj1Star;
		WaitRob \InPos;
		SetDO DO5_Program_Feed, 1;
		MoveL Offs(pZeroStarMute, 6.56, -11.179, 2.1), v30, z0, tNozzle, \Wobj := wobj1Star;
		WaitRob \InPos;
		SetDO DO5_Program_Feed, 0;
		MoveL Offs(pZeroStarMute, 8.057, -12.23, 2.1), v100, z0, tNozzle, \Wobj := wobj1Star;
		WaitRob \InPos;
		SetDO DO5_Program_Feed, 1;
		MoveL Offs(pZeroStarMute, 9.262, -11.791, 2.1), v30, z0, tNozzle, \Wobj := wobj1Star;
		WaitRob \InPos;
		SetDO DO5_Program_Feed, 0;
		MoveL Offs(pZeroStarMute, 9.703, -13.227, 2.1), v100, z0, tNozzle, \Wobj := wobj1Star;
		WaitRob \InPos;
		SetDO DO5_Program_Feed, 1;
		MoveL Offs(pZeroStarMute, 9.555, -13.281, 2.1), v30, z0, tNozzle, \Wobj := wobj1Star;
		WaitRob \InPos;
		SetDO DO5_Program_Feed, 0;
		MoveL Offs(pZeroStarMute, -1.801, -7.837, 2.1), v100, z0, tNozzle, \Wobj := wobj1Star;
		WaitRob \InPos;
		SetDO DO5_Program_Feed, 1;
		MoveL Offs(pZeroStarMute, -8.834, -10.397, 2.1), v30, z0, tNozzle, \Wobj := wobj1Star;
		WaitRob \InPos;
		SetDO DO5_Program_Feed, 0;
		MoveL Offs(pZeroStarMute, -9.386, -12.194, 2.1), v100, z0, tNozzle, \Wobj := wobj1Star;
		WaitRob \InPos;
		SetDO DO5_Program_Feed, 1;
		MoveL Offs(pZeroStarMute, -6.52, -11.151, 2.1), v30, z0, tNozzle, \Wobj := wobj1Star;
		WaitRob \InPos;
		SetDO DO5_Program_Feed, 0;
		MoveL Offs(pZeroStarMute, -3.073, 7.663, 2.1), v100, z0, tNozzle, \Wobj := wobj1Star;
		WaitRob \InPos;
		SetDO DO5_Program_Feed, 1;
		MoveL Offs(pZeroStarMute, 2.391, 9.652, 2.1), v30, z0, tNozzle, \Wobj := wobj1Star;
		WaitRob \InPos;
		SetDO DO5_Program_Feed, 0;
		MoveL Offs(pZeroStarMute, 1.904, 11.071, 2.1), v100, z0, tNozzle, \Wobj := wobj1Star;
		WaitRob \InPos;
		SetDO DO5_Program_Feed, 1;
		MoveL Offs(pZeroStarMute, -2.448, 9.487, 2.1), v30, z0, tNozzle, \Wobj := wobj1Star;
		WaitRob \InPos;
		SetDO DO5_Program_Feed, 0;
		MoveL Offs(pZeroStarMute, -1.822, 11.311, 2.1), v100, z0, tNozzle, \Wobj := wobj1Star;
		WaitRob \InPos;
		SetDO DO5_Program_Feed, 1;
		MoveL Offs(pZeroStarMute, 1.418, 12.49, 2.1), v30, z0, tNozzle, \Wobj := wobj1Star;
		WaitRob \InPos;
		SetDO DO5_Program_Feed, 0;
		MoveL Offs(pZeroStarMute, 0.931, 13.909, 2.1), v100, z0, tNozzle, \Wobj := wobj1Star;
		WaitRob \InPos;
		SetDO DO5_Program_Feed, 1;
		MoveL Offs(pZeroStarMute, -1.197, 13.135, 2.1), v30, z0, tNozzle, \Wobj := wobj1Star;
		WaitRob \InPos;
		SetDO DO5_Program_Feed, 0;
		MoveL Offs(pZeroStarMute, -0.572, 14.958, 2.1), v100, z0, tNozzle, \Wobj := wobj1Star;
		WaitRob \InPos;
		SetDO DO5_Program_Feed, 1;
		MoveL Offs(pZeroStarMute, 0.445, 15.328, 2.1), v30, z0, tNozzle, \Wobj := wobj1Star;
		WaitRob \InPos;
		SetDO DO6_Between_Layer_Retract, 1;
		SetDO DO5_Program_Feed, 0;
		MoveL Offs(pZeroStarMute, 0.445, 15.328, 7.1), v100, z0, tNozzle, \Wobj := wobj1Star;

		! Layer: 8
		! LayerParams(infillAngleDegrees=110.0, pathWidth=1.5, layerHeight=0.3, infillShiftX=0.0, infillShiftY=0.0, numShells=1, infillOverlap=0.0002)
		! T18
		! M6
		TPWRITE "Layer 8 of 20";
		MoveL Offs(pZeroStarMute, 6.884, -2.329, 7.4), v100, z0, tNozzle, \Wobj := wobj1Star;
		MoveL Offs(pZeroStarMute, 6.884, -2.329, 2.4), v30, z0, tNozzle, \Wobj := wobj1Star;
		WaitRob \InPos;
		SetDO DO6_Between_Layer_Retract, 0;
		WaitRob \InPos;
		SetDO DO5_Program_Feed, 1;
		MoveL Offs(pZeroStarMute, 6.883, -2.304, 2.4), v30, z0, tNozzle, \Wobj := wobj1Star;
		MoveL Offs(pZeroStarMute, 6.884, -2.278, 2.4), v30, z0, tNozzle, \Wobj := wobj1Star;
		MoveL Offs(pZeroStarMute, 6.889, -2.253, 2.4), v30, z0, tNozzle, \Wobj := wobj1Star;
		MoveL Offs(pZeroStarMute, 6.895, -2.229, 2.4), v30, z0, tNozzle, \Wobj := wobj1Star;
		MoveL Offs(pZeroStarMute, 6.904, -2.205, 2.4), v30, z0, tNozzle, \Wobj := wobj1Star;
		MoveL Offs(pZeroStarMute, 6.916, -2.182, 2.4), v30, z0, tNozzle, \Wobj := wobj1Star;
		MoveL Offs(pZeroStarMute, 6.929, -2.161, 2.4), v30, z0, tNozzle, \Wobj := wobj1Star;
		MoveL Offs(pZeroStarMute, 6.945, -2.141, 2.4), v30, z0, tNozzle, \Wobj := wobj1Star;
		MoveL Offs(pZeroStarMute, 6.963, -2.122, 2.4), v30, z0, tNozzle, \Wobj := wobj1Star;
