MODULE MainModule
	PROC main()
		Heat;
		SetDO DO1_Auto_Mode, 1;

		

		! Part number: 1
		! PartParams(extrusionFactor=0.98, printSpeed=30, shiftX=0.0, shiftY=0.0, shiftZ=0.0, numLayers=20, designType=0, brims=0, horizontalExpansion=0.0, randomStartLocation=1)

		! Layer: 1
		! LayerParams(infillAngleDegrees=20.0, pathWidth=1.5, layerHeight=0.3, infillShiftX=0.0, infillShiftY=0.0, numShells=2, infillOverlap=0.0002)
		! T11
		! M6
		TPWRITE "Layer 1 of 20";
		MoveL Offs(pZeroStarMute, 11.574, -15.93, 5.3), v100, z0, tNozzle, \Wobj := wobj1Star;
		MoveL Offs(pZeroStarMute, 11.574, -15.93, 0.3), v30, z0, tNozzle, \Wobj := wobj1Star;
		WaitRob \InPos;
		SetDO DO5_Program_Feed, 1;
		MoveL Offs(pZeroStarMute, 18.727, 6.085, 0.3), v30, z0, tNozzle, \Wobj := wobj1Star;
		MoveL Offs(pZeroStarMute, 0.0, 19.691, 0.3), v30, z0, tNozzle, \Wobj := wobj1Star;
		MoveL Offs(pZeroStarMute, -18.727, 6.085, 0.3), v30, z0, tNozzle, \Wobj := wobj1Star;
		MoveL Offs(pZeroStarMute, -11.574, -15.93, 0.3), v30, z0, tNozzle, \Wobj := wobj1Star;
		MoveL Offs(pZeroStarMute, 11.574, -15.93, 0.3), v30, z0, tNozzle, \Wobj := wobj1Star;
		WaitRob \InPos;
		SetDO DO5_Program_Feed, 0;
		MoveL Offs(pZeroStarMute, 11.211, -15.43, 0.3), v100, z0, tNozzle, \Wobj := wobj1Star;
		WaitRob \InPos;
		SetDO DO5_Program_Feed, 1;
		MoveL Offs(pZeroStarMute, 18.139, 5.894, 0.3), v30, z0, tNozzle, \Wobj := wobj1Star;
		MoveL Offs(pZeroStarMute, 0.0, 19.073, 0.3), v30, z0, tNozzle, \Wobj := wobj1Star;
		MoveL Offs(pZeroStarMute, -18.139, 5.894, 0.3), v30, z0, tNozzle, \Wobj := wobj1Star;
		MoveL Offs(pZeroStarMute, -11.211, -15.43, 0.3), v30, z0, tNozzle, \Wobj := wobj1Star;
		MoveL Offs(pZeroStarMute, 11.211, -15.43, 0.3), v30, z0, tNozzle, \Wobj := wobj1Star;
		WaitRob \InPos;
		SetDO DO5_Program_Feed, 0;
		MoveL Offs(pZeroStarMute, 11.101, -14.151, 0.3), v100, z0, tNozzle, \Wobj := wobj1Star;
		WaitRob \InPos;
		SetDO DO5_Program_Feed, 1;
		MoveL Offs(pZeroStarMute, 8.958, -14.931, 0.3), v30, z0, tNozzle, \Wobj := wobj1Star;
		WaitRob \InPos;
		SetDO DO5_Program_Feed, 0;
		MoveL Offs(pZeroStarMute, 11.689, -12.34, 0.3), v100, z0, tNozzle, \Wobj := wobj1Star;
		WaitRob \InPos;
		SetDO DO5_Program_Feed, 1;
		MoveL Offs(pZeroStarMute, 4.572, -14.931, 0.3), v30, z0, tNozzle, \Wobj := wobj1Star;
		WaitRob \InPos;
		SetDO DO5_Program_Feed, 0;
		MoveL Offs(pZeroStarMute, 0.187, -14.931, 0.3), v100, z0, tNozzle, \Wobj := wobj1Star;
		WaitRob \InPos;
		SetDO DO5_Program_Feed, 1;
		MoveL Offs(pZeroStarMute, 12.278, -10.53, 0.3), v30, z0, tNozzle, \Wobj := wobj1Star;
		WaitRob \InPos;
		SetDO DO5_Program_Feed, 0;
		MoveL Offs(pZeroStarMute, 12.866, -8.719, 0.3), v100, z0, tNozzle, \Wobj := wobj1Star;
		WaitRob \InPos;
		SetDO DO5_Program_Feed, 1;
		MoveL Offs(pZeroStarMute, -4.199, -14.931, 0.3), v30, z0, tNozzle, \Wobj := wobj1Star;
		WaitRob \InPos;
		SetDO DO5_Program_Feed, 0;
		MoveL Offs(pZeroStarMute, -8.585, -14.931, 0.3), v100, z0, tNozzle, \Wobj := wobj1Star;
		WaitRob \InPos;
		SetDO DO5_Program_Feed, 1;
		MoveL Offs(pZeroStarMute, 13.454, -6.909, 0.3), v30, z0, tNozzle, \Wobj := wobj1Star;
		WaitRob \InPos;
		SetDO DO5_Program_Feed, 0;
		MoveL Offs(pZeroStarMute, 14.042, -5.099, 0.3), v100, z0, tNozzle, \Wobj := wobj1Star;
		WaitRob \InPos;
		SetDO DO5_Program_Feed, 1;
		MoveL Offs(pZeroStarMute, -11.072, -14.24, 0.3), v30, z0, tNozzle, \Wobj := wobj1Star;
		WaitRob \InPos;
		SetDO DO5_Program_Feed, 0;
		MoveL Offs(pZeroStarMute, -11.536, -12.812, 0.3), v100, z0, tNozzle, \Wobj := wobj1Star;
		WaitRob \InPos;
		SetDO DO5_Program_Feed, 1;
		MoveL Offs(pZeroStarMute, 14.63, -3.288, 0.3), v30, z0, tNozzle, \Wobj := wobj1Star;
		WaitRob \InPos;
		SetDO DO5_Program_Feed, 0;
		MoveL Offs(pZeroStarMute, 15.219, -1.478, 0.3), v100, z0, tNozzle, \Wobj := wobj1Star;
		WaitRob \InPos;
		SetDO DO5_Program_Feed, 1;
		MoveL Offs(pZeroStarMute, -12.0, -11.385, 0.3), v30, z0, tNozzle, \Wobj := wobj1Star;
		WaitRob \InPos;
		SetDO DO5_Program_Feed, 0;
		MoveL Offs(pZeroStarMute, -12.464, -9.957, 0.3), v100, z0, tNozzle, \Wobj := wobj1Star;
		WaitRob \InPos;
		SetDO DO5_Program_Feed, 1;
		MoveL Offs(pZeroStarMute, 15.807, 0.332, 0.3), v30, z0, tNozzle, \Wobj := wobj1Star;
		WaitRob \InPos;
		SetDO DO5_Program_Feed, 0;
		MoveL Offs(pZeroStarMute, 16.395, 2.143, 0.3), v100, z0, tNozzle, \Wobj := wobj1Star;
		WaitRob \InPos;
		SetDO DO5_Program_Feed, 1;
		MoveL Offs(pZeroStarMute, -12.927, -8.53, 0.3), v30, z0, tNozzle, \Wobj := wobj1Star;
		WaitRob \InPos;
		SetDO DO5_Program_Feed, 0;
		MoveL Offs(pZeroStarMute, -13.391, -7.102, 0.3), v100, z0, tNozzle, \Wobj := wobj1Star;
		WaitRob \InPos;
		SetDO DO5_Program_Feed, 1;
		MoveL Offs(pZeroStarMute, 16.983, 3.953, 0.3), v30, z0, tNozzle, \Wobj := wobj1Star;
		WaitRob \InPos;
		SetDO DO5_Program_Feed, 0;
		MoveL Offs(pZeroStarMute, 17.503, 5.738, 0.3), v100, z0, tNozzle, \Wobj := wobj1Star;
		WaitRob \InPos;
		SetDO DO5_Program_Feed, 1;
		MoveL Offs(pZeroStarMute, -13.855, -5.675, 0.3), v30, z0, tNozzle, \Wobj := wobj1Star;
		WaitRob \InPos;
		SetDO DO5_Program_Feed, 0;
		MoveL Offs(pZeroStarMute, -14.319, -4.247, 0.3), v100, z0, tNozzle, \Wobj := wobj1Star;
		WaitRob \InPos;
		SetDO DO5_Program_Feed, 1;
		MoveL Offs(pZeroStarMute, 16.039, 6.802, 0.3), v30, z0, tNozzle, \Wobj := wobj1Star;
		WaitRob \InPos;
		SetDO DO5_Program_Feed, 0;
		MoveL Offs(pZeroStarMute, 14.575, 7.865, 0.3), v100, z0, tNozzle, \Wobj := wobj1Star;
		WaitRob \InPos;
		SetDO DO5_Program_Feed, 1;
		MoveL Offs(pZeroStarMute, -14.783, -2.82, 0.3), v30, z0, tNozzle, \Wobj := wobj1Star;
		WaitRob \InPos;
		SetDO DO5_Program_Feed, 0;
		MoveL Offs(pZeroStarMute, -15.246, -1.393, 0.3), v100, z0, tNozzle, \Wobj := wobj1Star;
		WaitRob \InPos;
		SetDO DO5_Program_Feed, 1;
		MoveL Offs(pZeroStarMute, 13.112, 8.929, 0.3), v30, z0, tNozzle, \Wobj := wobj1Star;
		WaitRob \InPos;
		SetDO DO5_Program_Feed, 0;
		MoveL Offs(pZeroStarMute, 11.648, 9.992, 0.3), v100, z0, tNozzle, \Wobj := wobj1Star;
		WaitRob \InPos;
		SetDO DO5_Program_Feed, 1;
		MoveL Offs(pZeroStarMute, -15.71, 0.035, 0.3), v30, z0, tNozzle, \Wobj := wobj1Star;
		WaitRob \InPos;
		SetDO DO5_Program_Feed, 0;
		MoveL Offs(pZeroStarMute, -16.174, 1.462, 0.3), v100, z0, tNozzle, \Wobj := wobj1Star;
		WaitRob \InPos;
		SetDO DO5_Program_Feed, 1;
		MoveL Offs(pZeroStarMute, 10.184, 11.056, 0.3), v30, z0, tNozzle, \Wobj := wobj1Star;
		WaitRob \InPos;
		SetDO DO5_Program_Feed, 0;
		MoveL Offs(pZeroStarMute, 8.72, 12.119, 0.3), v100, z0, tNozzle, \Wobj := wobj1Star;
		WaitRob \InPos;
		SetDO DO5_Program_Feed, 1;
		MoveL Offs(pZeroStarMute, -16.638, 2.89, 0.3), v30, z0, tNozzle, \Wobj := wobj1Star;
		WaitRob \InPos;
		SetDO DO5_Program_Feed, 0;
		MoveL Offs(pZeroStarMute, -17.102, 4.317, 0.3), v100, z0, tNozzle, \Wobj := wobj1Star;
		WaitRob \InPos;
		SetDO DO5_Program_Feed, 1;
		MoveL Offs(pZeroStarMute, 7.257, 13.183, 0.3), v30, z0, tNozzle, \Wobj := wobj1Star;
		WaitRob \InPos;
		SetDO DO5_Program_Feed, 0;
		MoveL Offs(pZeroStarMute, 5.793, 14.246, 0.3), v100, z0, tNozzle, \Wobj := wobj1Star;
		WaitRob \InPos;
		SetDO DO5_Program_Feed, 1;
		MoveL Offs(pZeroStarMute, -17.423, 5.797, 0.3), v30, z0, tNozzle, \Wobj := wobj1Star;
		WaitRob \InPos;
		SetDO DO5_Program_Feed, 0;
		MoveL Offs(pZeroStarMute, -13.02, 8.995, 0.3), v100, z0, tNozzle, \Wobj := wobj1Star;
		WaitRob \InPos;
		SetDO DO5_Program_Feed, 1;
		MoveL Offs(pZeroStarMute, 4.329, 15.31, 0.3), v30, z0, tNozzle, \Wobj := wobj1Star;
		WaitRob \InPos;
		SetDO DO5_Program_Feed, 0;
		MoveL Offs(pZeroStarMute, 2.865, 16.373, 0.3), v100, z0, tNozzle, \Wobj := wobj1Star;
		WaitRob \InPos;
		SetDO DO5_Program_Feed, 1;
		MoveL Offs(pZeroStarMute, -8.618, 12.194, 0.3), v30, z0, tNozzle, \Wobj := wobj1Star;
		WaitRob \InPos;
		SetDO DO5_Program_Feed, 0;
		MoveL Offs(pZeroStarMute, -4.215, 15.393, 0.3), v100, z0, tNozzle, \Wobj := wobj1Star;
		WaitRob \InPos;
		SetDO DO5_Program_Feed, 1;
		MoveL Offs(pZeroStarMute, 1.401, 17.437, 0.3), v30, z0, tNozzle, \Wobj := wobj1Star;
		WaitRob \InPos;
		SetDO DO6_Between_Layer_Retract, 1;
		SetDO DO5_Program_Feed, 0;
		MoveL Offs(pZeroStarMute, 1.401, 17.437, 5.3), v100, z0, tNozzle, \Wobj := wobj1Star;

		! Layer: 2
		! LayerParams(infillAngleDegrees=108.0, pathWidth=1.5, layerHeight=0.3, infillShiftX=0.0, infillShiftY=0.0, numShells=2, infillOverlap=0.0002)
		! T12
		! M6
		TPWRITE "Layer 2 of 20";
		MoveL Offs(pZeroStarMute, -18.727, 6.085, 5.6), v100, z0, tNozzle, \Wobj := wobj1Star;
		MoveL Offs(pZeroStarMute, -18.727, 6.085, 0.6), v30, z0, tNozzle, \Wobj := wobj1Star;
		WaitRob \InPos;
		SetDO DO6_Between_Layer_Retract, 0;
		WaitRob \InPos;
		SetDO DO5_Program_Feed, 1;
		MoveL Offs(pZeroStarMute, -11.574, -15.93, 0.6), v30, z0, tNozzle, \Wobj := wobj1Star;
		MoveL Offs(pZeroStarMute, 11.574, -15.93, 0.6), v30, z0, tNozzle, \Wobj := wobj1Star;
		MoveL Offs(pZeroStarMute, 18.727, 6.085, 0.6), v30, z0, tNozzle, \Wobj := wobj1Star;
		MoveL Offs(pZeroStarMute, 0.0, 19.691, 0.6), v30, z0, tNozzle, \Wobj := wobj1Star;
		MoveL Offs(pZeroStarMute, -18.727, 6.085, 0.6), v30, z0, tNozzle, \Wobj := wobj1Star;
		WaitRob \InPos;
		SetDO DO5_Program_Feed, 0;
		MoveL Offs(pZeroStarMute, -18.139, 5.894, 0.6), v100, z0, tNozzle, \Wobj := wobj1Star;
		WaitRob \InPos;
		SetDO DO5_Program_Feed, 1;
		MoveL Offs(pZeroStarMute, -11.211, -15.43, 0.6), v30, z0, tNozzle, \Wobj := wobj1Star;
		MoveL Offs(pZeroStarMute, 11.211, -15.43, 0.6), v30, z0, tNozzle, \Wobj := wobj1Star;
		MoveL Offs(pZeroStarMute, 18.139, 5.894, 0.6), v30, z0, tNozzle, \Wobj := wobj1Star;
		MoveL Offs(pZeroStarMute, 0.0, 19.073, 0.6), v30, z0, tNozzle, \Wobj := wobj1Star;
		MoveL Offs(pZeroStarMute, -18.139, 5.894, 0.6), v30, z0, tNozzle, \Wobj := wobj1Star;
		WaitRob \InPos;
		SetDO DO5_Program_Feed, 0;
		MoveL Offs(pZeroStarMute, -16.51, 6.46, 0.6), v100, z0, tNozzle, \Wobj := wobj1Star;
		WaitRob \InPos;
		SetDO DO5_Program_Feed, 1;
		MoveL Offs(pZeroStarMute, -9.56, -14.931, 0.6), v30, z0, tNozzle, \Wobj := wobj1Star;
		WaitRob \InPos;
		SetDO DO5_Program_Feed, 0;
		MoveL Offs(pZeroStarMute, -7.982, -14.931, 0.6), v100, z0, tNozzle, \Wobj := wobj1Star;
		WaitRob \InPos;
		SetDO DO5_Program_Feed, 1;
		MoveL Offs(pZeroStarMute, -15.234, 7.387, 0.6), v30, z0, tNozzle, \Wobj := wobj1Star;
		WaitRob \InPos;
		SetDO DO5_Program_Feed, 0;
		MoveL Offs(pZeroStarMute, -13.958, 8.314, 0.6), v100, z0, tNozzle, \Wobj := wobj1Star;
		WaitRob \InPos;
		SetDO DO5_Program_Feed, 1;
		MoveL Offs(pZeroStarMute, -6.405, -14.931, 0.6), v30, z0, tNozzle, \Wobj := wobj1Star;
		WaitRob \InPos;
		SetDO DO5_Program_Feed, 0;
		MoveL Offs(pZeroStarMute, -4.828, -14.931, 0.6), v100, z0, tNozzle, \Wobj := wobj1Star;
		WaitRob \InPos;
		SetDO DO5_Program_Feed, 1;
		MoveL Offs(pZeroStarMute, -12.682, 9.241, 0.6), v30, z0, tNozzle, \Wobj := wobj1Star;
		WaitRob \InPos;
		SetDO DO5_Program_Feed, 0;
		MoveL Offs(pZeroStarMute, -11.406, 10.168, 0.6), v100, z0, tNozzle, \Wobj := wobj1Star;
		WaitRob \InPos;
		SetDO DO5_Program_Feed, 1;
		MoveL Offs(pZeroStarMute, -3.251, -14.931, 0.6), v30, z0, tNozzle, \Wobj := wobj1Star;
		WaitRob \InPos;
		SetDO DO5_Program_Feed, 0;
		MoveL Offs(pZeroStarMute, -1.674, -14.931, 0.6), v100, z0, tNozzle, \Wobj := wobj1Star;
		WaitRob \InPos;
		SetDO DO5_Program_Feed, 1;
		MoveL Offs(pZeroStarMute, -10.13, 11.095, 0.6), v30, z0, tNozzle, \Wobj := wobj1Star;
		WaitRob \InPos;
		SetDO DO5_Program_Feed, 0;
		MoveL Offs(pZeroStarMute, -8.854, 12.022, 0.6), v100, z0, tNozzle, \Wobj := wobj1Star;
		WaitRob \InPos;
		SetDO DO5_Program_Feed, 1;
		MoveL Offs(pZeroStarMute, -0.096, -14.931, 0.6), v30, z0, tNozzle, \Wobj := wobj1Star;
		WaitRob \InPos;
		SetDO DO5_Program_Feed, 0;
		MoveL Offs(pZeroStarMute, 1.481, -14.931, 0.6), v100, z0, tNozzle, \Wobj := wobj1Star;
		WaitRob \InPos;
		SetDO DO5_Program_Feed, 1;
		MoveL Offs(pZeroStarMute, -7.578, 12.949, 0.6), v30, z0, tNozzle, \Wobj := wobj1Star;
		WaitRob \InPos;
		SetDO DO5_Program_Feed, 0;
		MoveL Offs(pZeroStarMute, -6.302, 13.877, 0.6), v100, z0, tNozzle, \Wobj := wobj1Star;
		WaitRob \InPos;
		SetDO DO5_Program_Feed, 1;
		MoveL Offs(pZeroStarMute, 3.058, -14.931, 0.6), v30, z0, tNozzle, \Wobj := wobj1Star;
		WaitRob \InPos;
		SetDO DO5_Program_Feed, 0;
		MoveL Offs(pZeroStarMute, 4.635, -14.931, 0.6), v100, z0, tNozzle, \Wobj := wobj1Star;
		WaitRob \InPos;
		SetDO DO5_Program_Feed, 1;
		MoveL Offs(pZeroStarMute, -5.026, 14.804, 0.6), v30, z0, tNozzle, \Wobj := wobj1Star;
		WaitRob \InPos;
		SetDO DO5_Program_Feed, 0;
		MoveL Offs(pZeroStarMute, -3.75, 15.731, 0.6), v100, z0, tNozzle, \Wobj := wobj1Star;
		WaitRob \InPos;
		SetDO DO5_Program_Feed, 1;
		MoveL Offs(pZeroStarMute, 6.212, -14.931, 0.6), v30, z0, tNozzle, \Wobj := wobj1Star;
		WaitRob \InPos;
		SetDO DO5_Program_Feed, 0;
		MoveL Offs(pZeroStarMute, 7.79, -14.931, 0.6), v100, z0, tNozzle, \Wobj := wobj1Star;
		WaitRob \InPos;
		SetDO DO5_Program_Feed, 1;
		MoveL Offs(pZeroStarMute, -2.474, 16.658, 0.6), v30, z0, tNozzle, \Wobj := wobj1Star;
		WaitRob \InPos;
		SetDO DO5_Program_Feed, 0;
		MoveL Offs(pZeroStarMute, -1.198, 17.585, 0.6), v100, z0, tNozzle, \Wobj := wobj1Star;
		WaitRob \InPos;
		SetDO DO5_Program_Feed, 1;
		MoveL Offs(pZeroStarMute, 9.367, -14.931, 0.6), v30, z0, tNozzle, \Wobj := wobj1Star;
		WaitRob \InPos;
		SetDO DO5_Program_Feed, 0;
		MoveL Offs(pZeroStarMute, 10.896, -14.782, 0.6), v100, z0, tNozzle, \Wobj := wobj1Star;
		WaitRob \InPos;
		SetDO DO5_Program_Feed, 1;
		MoveL Offs(pZeroStarMute, 0.126, 18.364, 0.6), v30, z0, tNozzle, \Wobj := wobj1Star;
		WaitRob \InPos;
		SetDO DO5_Program_Feed, 0;
		MoveL Offs(pZeroStarMute, 2.191, 16.864, 0.6), v100, z0, tNozzle, \Wobj := wobj1Star;
		WaitRob \InPos;
		SetDO DO5_Program_Feed, 1;
		MoveL Offs(pZeroStarMute, 11.684, -12.355, 0.6), v30, z0, tNozzle, \Wobj := wobj1Star;
		WaitRob \InPos;
		SetDO DO5_Program_Feed, 0;
		MoveL Offs(pZeroStarMute, 12.473, -9.928, 0.6), v100, z0, tNozzle, \Wobj := wobj1Star;
		WaitRob \InPos;
		SetDO DO5_Program_Feed, 1;
		MoveL Offs(pZeroStarMute, 4.255, 15.364, 0.6), v30, z0, tNozzle, \Wobj := wobj1Star;
		WaitRob \InPos;
		SetDO DO5_Program_Feed, 0;
		MoveL Offs(pZeroStarMute, 6.32, 13.864, 0.6), v100, z0, tNozzle, \Wobj := wobj1Star;
		WaitRob \InPos;
		SetDO DO5_Program_Feed, 1;
		MoveL Offs(pZeroStarMute, 13.262, -7.501, 0.6), v30, z0, tNozzle, \Wobj := wobj1Star;
		WaitRob \InPos;
		SetDO DO5_Program_Feed, 0;
		MoveL Offs(pZeroStarMute, 14.05, -5.074, 0.6), v100, z0, tNozzle, \Wobj := wobj1Star;
		WaitRob \InPos;
		SetDO DO5_Program_Feed, 1;
		MoveL Offs(pZeroStarMute, 8.384, 12.364, 0.6), v30, z0, tNozzle, \Wobj := wobj1Star;
		WaitRob \InPos;
		SetDO DO5_Program_Feed, 0;
		MoveL Offs(pZeroStarMute, 10.449, 10.864, 0.6), v100, z0, tNozzle, \Wobj := wobj1Star;
		WaitRob \InPos;
		SetDO DO5_Program_Feed, 1;
		MoveL Offs(pZeroStarMute, 14.839, -2.647, 0.6), v30, z0, tNozzle, \Wobj := wobj1Star;
		WaitRob \InPos;
		SetDO DO5_Program_Feed, 0;
		MoveL Offs(pZeroStarMute, 15.627, -0.22, 0.6), v100, z0, tNozzle, \Wobj := wobj1Star;
		WaitRob \InPos;
		SetDO DO5_Program_Feed, 1;
		MoveL Offs(pZeroStarMute, 12.514, 9.364, 0.6), v30, z0, tNozzle, \Wobj := wobj1Star;
		WaitRob \InPos;
		SetDO DO5_Program_Feed, 0;
		MoveL Offs(pZeroStarMute, 14.578, 7.864, 0.6), v100, z0, tNozzle, \Wobj := wobj1Star;
		WaitRob \InPos;
		SetDO DO5_Program_Feed, 1;
		MoveL Offs(pZeroStarMute, 16.416, 2.207, 0.6), v30, z0, tNozzle, \Wobj := wobj1Star;
		WaitRob \InPos;
		SetDO DO5_Program_Feed, 0;
		MoveL Offs(pZeroStarMute, 17.205, 4.634, 0.6), v100, z0, tNozzle, \Wobj := wobj1Star;
		WaitRob \InPos;
		SetDO DO5_Program_Feed, 1;
		MoveL Offs(pZeroStarMute, 16.643, 6.364, 0.6), v30, z0, tNozzle, \Wobj := wobj1Star;
		WaitRob \InPos;
		SetDO DO6_Between_Layer_Retract, 1;
		SetDO DO5_Program_Feed, 0;
		MoveL Offs(pZeroStarMute, 16.643, 6.364, 5.6), v100, z0, tNozzle, \Wobj := wobj1Star;

		! Layer: 3
		! LayerParams(infillAngleDegrees=20.0, pathWidth=1.5, layerHeight=0.3, infillShiftX=0.0, infillShiftY=0.0, numShells=2, infillOverlap=0.0002)
		! T13
		! M6
		TPWRITE "Layer 3 of 20";
		MoveL Offs(pZeroStarMute, -18.727, 6.085, 5.9), v100, z0, tNozzle, \Wobj := wobj1Star;
		MoveL Offs(pZeroStarMute, -18.727, 6.085, 0.9), v30, z0, tNozzle, \Wobj := wobj1Star;
		WaitRob \InPos;
		SetDO DO6_Between_Layer_Retract, 0;
		WaitRob \InPos;
		SetDO DO5_Program_Feed, 1;
		MoveL Offs(pZeroStarMute, -11.574, -15.93, 0.9), v30, z0, tNozzle, \Wobj := wobj1Star;
		MoveL Offs(pZeroStarMute, 11.574, -15.93, 0.9), v30, z0, tNozzle, \Wobj := wobj1Star;
		MoveL Offs(pZeroStarMute, 18.727, 6.085, 0.9), v30, z0, tNozzle, \Wobj := wobj1Star;
		MoveL Offs(pZeroStarMute, 0.0, 19.691, 0.9), v30, z0, tNozzle, \Wobj := wobj1Star;
		MoveL Offs(pZeroStarMute, -18.727, 6.085, 0.9), v30, z0, tNozzle, \Wobj := wobj1Star;
		WaitRob \InPos;
		SetDO DO5_Program_Feed, 0;
		MoveL Offs(pZeroStarMute, -18.139, 5.894, 0.9), v100, z0, tNozzle, \Wobj := wobj1Star;
		WaitRob \InPos;
		SetDO DO5_Program_Feed, 1;
		MoveL Offs(pZeroStarMute, -11.211, -15.43, 0.9), v30, z0, tNozzle, \Wobj := wobj1Star;
		MoveL Offs(pZeroStarMute, 11.211, -15.43, 0.9), v30, z0, tNozzle, \Wobj := wobj1Star;
		MoveL Offs(pZeroStarMute, 18.139, 5.894, 0.9), v30, z0, tNozzle, \Wobj := wobj1Star;
		MoveL Offs(pZeroStarMute, 0.0, 19.073, 0.9), v30, z0, tNozzle, \Wobj := wobj1Star;
		MoveL Offs(pZeroStarMute, -18.139, 5.894, 0.9), v30, z0, tNozzle, \Wobj := wobj1Star;
		WaitRob \InPos;
		SetDO DO5_Program_Feed, 0;
		MoveL Offs(pZeroStarMute, -17.423, 5.797, 0.9), v100, z0, tNozzle, \Wobj := wobj1Star;
		WaitRob \InPos;
		SetDO DO5_Program_Feed, 1;
		MoveL Offs(pZeroStarMute, 5.793, 14.246, 0.9), v30, z0, tNozzle, \Wobj := wobj1Star;
		WaitRob \InPos;
		SetDO DO5_Program_Feed, 0;
		MoveL Offs(pZeroStarMute, 4.329, 15.31, 0.9), v100, z0, tNozzle, \Wobj := wobj1Star;
		WaitRob \InPos;
		SetDO DO5_Program_Feed, 1;
		MoveL Offs(pZeroStarMute, -13.02, 8.995, 0.9), v30, z0, tNozzle, \Wobj := wobj1Star;
		WaitRob \InPos;
		SetDO DO5_Program_Feed, 0;
		MoveL Offs(pZeroStarMute, -8.618, 12.194, 0.9), v100, z0, tNozzle, \Wobj := wobj1Star;
		WaitRob \InPos;
		SetDO DO5_Program_Feed, 1;
		MoveL Offs(pZeroStarMute, 2.865, 16.373, 0.9), v30, z0, tNozzle, \Wobj := wobj1Star;
		WaitRob \InPos;
		SetDO DO5_Program_Feed, 0;
		MoveL Offs(pZeroStarMute, 1.401, 17.437, 0.9), v100, z0, tNozzle, \Wobj := wobj1Star;
		WaitRob \InPos;
		SetDO DO5_Program_Feed, 1;
		MoveL Offs(pZeroStarMute, -4.215, 15.393, 0.9), v30, z0, tNozzle, \Wobj := wobj1Star;
		WaitRob \InPos;
		SetDO DO5_Program_Feed, 0;
		MoveL Offs(pZeroStarMute, 7.257, 13.183, 0.9), v100, z0, tNozzle, \Wobj := wobj1Star;
		WaitRob \InPos;
		SetDO DO5_Program_Feed, 1;
		MoveL Offs(pZeroStarMute, -17.102, 4.317, 0.9), v30, z0, tNozzle, \Wobj := wobj1Star;
		WaitRob \InPos;
		SetDO DO5_Program_Feed, 0;
		MoveL Offs(pZeroStarMute, -16.638, 2.89, 0.9), v100, z0, tNozzle, \Wobj := wobj1Star;
		WaitRob \InPos;
		SetDO DO5_Program_Feed, 1;
		MoveL Offs(pZeroStarMute, 8.72, 12.119, 0.9), v30, z0, tNozzle, \Wobj := wobj1Star;
		WaitRob \InPos;
		SetDO DO5_Program_Feed, 0;
		MoveL Offs(pZeroStarMute, 10.184, 11.056, 0.9), v100, z0, tNozzle, \Wobj := wobj1Star;
		WaitRob \InPos;
		SetDO DO5_Program_Feed, 1;
		MoveL Offs(pZeroStarMute, -16.174, 1.462, 0.9), v30, z0, tNozzle, \Wobj := wobj1Star;
		WaitRob \InPos;
		SetDO DO5_Program_Feed, 0;
		MoveL Offs(pZeroStarMute, -15.71, 0.035, 0.9), v100, z0, tNozzle, \Wobj := wobj1Star;
		WaitRob \InPos;
		SetDO DO5_Program_Feed, 1;
		MoveL Offs(pZeroStarMute, 11.648, 9.992, 0.9), v30, z0, tNozzle, \Wobj := wobj1Star;
		WaitRob \InPos;
		SetDO DO5_Program_Feed, 0;
		MoveL Offs(pZeroStarMute, 13.112, 8.929, 0.9), v100, z0, tNozzle, \Wobj := wobj1Star;
		WaitRob \InPos;
		SetDO DO5_Program_Feed, 1;
		MoveL Offs(pZeroStarMute, -15.246, -1.393, 0.9), v30, z0, tNozzle, \Wobj := wobj1Star;
		WaitRob \InPos;
		SetDO DO5_Program_Feed, 0;
		MoveL Offs(pZeroStarMute, -14.783, -2.82, 0.9), v100, z0, tNozzle, \Wobj := wobj1Star;
		WaitRob \InPos;
		SetDO DO5_Program_Feed, 1;
		MoveL Offs(pZeroStarMute, 14.575, 7.865, 0.9), v30, z0, tNozzle, \Wobj := wobj1Star;
		WaitRob \InPos;
		SetDO DO5_Program_Feed, 0;
		MoveL Offs(pZeroStarMute, 16.039, 6.802, 0.9), v100, z0, tNozzle, \Wobj := wobj1Star;
		WaitRob \InPos;
		SetDO DO5_Program_Feed, 1;
		MoveL Offs(pZeroStarMute, -14.319, -4.247, 0.9), v30, z0, tNozzle, \Wobj := wobj1Star;
		WaitRob \InPos;
		SetDO DO5_Program_Feed, 0;
		MoveL Offs(pZeroStarMute, -13.855, -5.675, 0.9), v100, z0, tNozzle, \Wobj := wobj1Star;
		WaitRob \InPos;
		SetDO DO5_Program_Feed, 1;
		MoveL Offs(pZeroStarMute, 17.503, 5.738, 0.9), v30, z0, tNozzle, \Wobj := wobj1Star;
		WaitRob \InPos;
		SetDO DO5_Program_Feed, 0;
		MoveL Offs(pZeroStarMute, 16.983, 3.953, 0.9), v100, z0, tNozzle, \Wobj := wobj1Star;
		WaitRob \InPos;
		SetDO DO5_Program_Feed, 1;
		MoveL Offs(pZeroStarMute, -13.391, -7.102, 0.9), v30, z0, tNozzle, \Wobj := wobj1Star;
		WaitRob \InPos;
		SetDO DO5_Program_Feed, 0;
		MoveL Offs(pZeroStarMute, -12.927, -8.53, 0.9), v100, z0, tNozzle, \Wobj := wobj1Star;
		WaitRob \InPos;
		SetDO DO5_Program_Feed, 1;
		MoveL Offs(pZeroStarMute, 16.395, 2.143, 0.9), v30, z0, tNozzle, \Wobj := wobj1Star;
		WaitRob \InPos;
		SetDO DO5_Program_Feed, 0;
		MoveL Offs(pZeroStarMute, 15.807, 0.332, 0.9), v100, z0, tNozzle, \Wobj := wobj1Star;
		WaitRob \InPos;
		SetDO DO5_Program_Feed, 1;
		MoveL Offs(pZeroStarMute, -12.464, -9.957, 0.9), v30, z0, tNozzle, \Wobj := wobj1Star;
		WaitRob \InPos;
		SetDO DO5_Program_Feed, 0;
		MoveL Offs(pZeroStarMute, -12.0, -11.385, 0.9), v100, z0, tNozzle, \Wobj := wobj1Star;
		WaitRob \InPos;
		SetDO DO5_Program_Feed, 1;
		MoveL Offs(pZeroStarMute, 15.219, -1.478, 0.9), v30, z0, tNozzle, \Wobj := wobj1Star;
		WaitRob \InPos;
		SetDO DO5_Program_Feed, 0;
		MoveL Offs(pZeroStarMute, 14.63, -3.288, 0.9), v100, z0, tNozzle, \Wobj := wobj1Star;
		WaitRob \InPos;
		SetDO DO5_Program_Feed, 1;
		MoveL Offs(pZeroStarMute, -11.536, -12.812, 0.9), v30, z0, tNozzle, \Wobj := wobj1Star;
		WaitRob \InPos;
		SetDO DO5_Program_Feed, 0;
		MoveL Offs(pZeroStarMute, -11.072, -14.24, 0.9), v100, z0, tNozzle, \Wobj := wobj1Star;
		WaitRob \InPos;
		SetDO DO5_Program_Feed, 1;
		MoveL Offs(pZeroStarMute, 14.042, -5.099, 0.9), v30, z0, tNozzle, \Wobj := wobj1Star;
		WaitRob \InPos;
		SetDO DO5_Program_Feed, 0;
		MoveL Offs(pZeroStarMute, 13.454, -6.909, 0.9), v100, z0, tNozzle, \Wobj := wobj1Star;
		WaitRob \InPos;
		SetDO DO5_Program_Feed, 1;
		MoveL Offs(pZeroStarMute, -8.585, -14.931, 0.9), v30, z0, tNozzle, \Wobj := wobj1Star;
		WaitRob \InPos;
		SetDO DO5_Program_Feed, 0;
		MoveL Offs(pZeroStarMute, -4.199, -14.931, 0.9), v100, z0, tNozzle, \Wobj := wobj1Star;
		WaitRob \InPos;
		SetDO DO5_Program_Feed, 1;
		MoveL Offs(pZeroStarMute, 12.866, -8.719, 0.9), v30, z0, tNozzle, \Wobj := wobj1Star;
		WaitRob \InPos;
		SetDO DO5_Program_Feed, 0;
		MoveL Offs(pZeroStarMute, 12.278, -10.53, 0.9), v100, z0, tNozzle, \Wobj := wobj1Star;
		WaitRob \InPos;
		SetDO DO5_Program_Feed, 1;
		MoveL Offs(pZeroStarMute, 0.187, -14.931, 0.9), v30, z0, tNozzle, \Wobj := wobj1Star;
		WaitRob \InPos;
		SetDO DO5_Program_Feed, 0;
		MoveL Offs(pZeroStarMute, 4.572, -14.931, 0.9), v100, z0, tNozzle, \Wobj := wobj1Star;
		WaitRob \InPos;
		SetDO DO5_Program_Feed, 1;
		MoveL Offs(pZeroStarMute, 11.689, -12.34, 0.9), v30, z0, tNozzle, \Wobj := wobj1Star;
		WaitRob \InPos;
		SetDO DO5_Program_Feed, 0;
		MoveL Offs(pZeroStarMute, 11.101, -14.151, 0.9), v100, z0, tNozzle, \Wobj := wobj1Star;
		WaitRob \InPos;
		SetDO DO5_Program_Feed, 1;
		MoveL Offs(pZeroStarMute, 8.958, -14.931, 0.9), v30, z0, tNozzle, \Wobj := wobj1Star;
		WaitRob \InPos;
		SetDO DO6_Between_Layer_Retract, 1;
		SetDO DO5_Program_Feed, 0;
		MoveL Offs(pZeroStarMute, 8.958, -14.931, 5.9), v100, z0, tNozzle, \Wobj := wobj1Star;

		! Layer: 4
		! LayerParams(infillAngleDegrees=108.0, pathWidth=1.5, layerHeight=0.3, infillShiftX=0.0, infillShiftY=0.0, numShells=2, infillOverlap=0.0002)
		! T14
		! M6
		TPWRITE "Layer 4 of 20";
		MoveL Offs(pZeroStarMute, 18.727, 6.085, 6.2), v100, z0, tNozzle, \Wobj := wobj1Star;
		MoveL Offs(pZeroStarMute, 18.727, 6.085, 1.2), v30, z0, tNozzle, \Wobj := wobj1Star;
		WaitRob \InPos;
		SetDO DO6_Between_Layer_Retract, 0;
		WaitRob \InPos;
		SetDO DO5_Program_Feed, 1;
		MoveL Offs(pZeroStarMute, 0.0, 19.691, 1.2), v30, z0, tNozzle, \Wobj := wobj1Star;
		MoveL Offs(pZeroStarMute, -18.727, 6.085, 1.2), v30, z0, tNozzle, \Wobj := wobj1Star;
		MoveL Offs(pZeroStarMute, -11.574, -15.93, 1.2), v30, z0, tNozzle, \Wobj := wobj1Star;
		MoveL Offs(pZeroStarMute, 11.574, -15.93, 1.2), v30, z0, tNozzle, \Wobj := wobj1Star;
		MoveL Offs(pZeroStarMute, 18.727, 6.085, 1.2), v30, z0, tNozzle, \Wobj := wobj1Star;
		WaitRob \InPos;
		SetDO DO5_Program_Feed, 0;
		MoveL Offs(pZeroStarMute, 18.139, 5.894, 1.2), v100, z0, tNozzle, \Wobj := wobj1Star;
		WaitRob \InPos;
		SetDO DO5_Program_Feed, 1;
		MoveL Offs(pZeroStarMute, 0.0, 19.073, 1.2), v30, z0, tNozzle, \Wobj := wobj1Star;
		MoveL Offs(pZeroStarMute, -18.139, 5.894, 1.2), v30, z0, tNozzle, \Wobj := wobj1Star;
		MoveL Offs(pZeroStarMute, -11.211, -15.43, 1.2), v30, z0, tNozzle, \Wobj := wobj1Star;
		MoveL Offs(pZeroStarMute, 11.211, -15.43, 1.2), v30, z0, tNozzle, \Wobj := wobj1Star;
		MoveL Offs(pZeroStarMute, 18.139, 5.894, 1.2), v30, z0, tNozzle, \Wobj := wobj1Star;
		WaitRob \InPos;
		SetDO DO5_Program_Feed, 0;
		MoveL Offs(pZeroStarMute, 16.643, 6.364, 1.2), v100, z0, tNozzle, \Wobj := wobj1Star;
		WaitRob \InPos;
		SetDO DO5_Program_Feed, 1;
		MoveL Offs(pZeroStarMute, 17.205, 4.634, 1.2), v30, z0, tNozzle, \Wobj := wobj1Star;
		WaitRob \InPos;
		SetDO DO5_Program_Feed, 0;
		MoveL Offs(pZeroStarMute, 16.416, 2.207, 1.2), v100, z0, tNozzle, \Wobj := wobj1Star;
		WaitRob \InPos;
		SetDO DO5_Program_Feed, 1;
		MoveL Offs(pZeroStarMute, 14.578, 7.864, 1.2), v30, z0, tNozzle, \Wobj := wobj1Star;
		WaitRob \InPos;
		SetDO DO5_Program_Feed, 0;
		MoveL Offs(pZeroStarMute, 12.514, 9.364, 1.2), v100, z0, tNozzle, \Wobj := wobj1Star;
		WaitRob \InPos;
		SetDO DO5_Program_Feed, 1;
		MoveL Offs(pZeroStarMute, 15.627, -0.22, 1.2), v30, z0, tNozzle, \Wobj := wobj1Star;
		WaitRob \InPos;
		SetDO DO5_Program_Feed, 0;
		MoveL Offs(pZeroStarMute, 14.839, -2.647, 1.2), v100, z0, tNozzle, \Wobj := wobj1Star;
		WaitRob \InPos;
		SetDO DO5_Program_Feed, 1;
		MoveL Offs(pZeroStarMute, 10.449, 10.864, 1.2), v30, z0, tNozzle, \Wobj := wobj1Star;
		WaitRob \InPos;
		SetDO DO5_Program_Feed, 0;
		MoveL Offs(pZeroStarMute, 8.384, 12.364, 1.2), v100, z0, tNozzle, \Wobj := wobj1Star;
		WaitRob \InPos;
		SetDO DO5_Program_Feed, 1;
		MoveL Offs(pZeroStarMute, 14.05, -5.074, 1.2), v30, z0, tNozzle, \Wobj := wobj1Star;
		WaitRob \InPos;
		SetDO DO5_Program_Feed, 0;
		MoveL Offs(pZeroStarMute, 13.262, -7.501, 1.2), v100, z0, tNozzle, \Wobj := wobj1Star;
		WaitRob \InPos;
		SetDO DO5_Program_Feed, 1;
		MoveL Offs(pZeroStarMute, 6.32, 13.864, 1.2), v30, z0, tNozzle, \Wobj := wobj1Star;
		WaitRob \InPos;
		SetDO DO5_Program_Feed, 0;
		MoveL Offs(pZeroStarMute, 4.255, 15.364, 1.2), v100, z0, tNozzle, \Wobj := wobj1Star;
		WaitRob \InPos;
		SetDO DO5_Program_Feed, 1;
		MoveL Offs(pZeroStarMute, 12.473, -9.928, 1.2), v30, z0, tNozzle, \Wobj := wobj1Star;
		WaitRob \InPos;
		SetDO DO5_Program_Feed, 0;
		MoveL Offs(pZeroStarMute, 11.684, -12.355, 1.2), v100, z0, tNozzle, \Wobj := wobj1Star;
		WaitRob \InPos;
		SetDO DO5_Program_Feed, 1;
		MoveL Offs(pZeroStarMute, 2.191, 16.864, 1.2), v30, z0, tNozzle, \Wobj := wobj1Star;
		WaitRob \InPos;
		SetDO DO5_Program_Feed, 0;
		MoveL Offs(pZeroStarMute, 0.126, 18.364, 1.2), v100, z0, tNozzle, \Wobj := wobj1Star;
		WaitRob \InPos;
		SetDO DO5_Program_Feed, 1;
		MoveL Offs(pZeroStarMute, 10.896, -14.782, 1.2), v30, z0, tNozzle, \Wobj := wobj1Star;
		WaitRob \InPos;
		SetDO DO5_Program_Feed, 0;
		MoveL Offs(pZeroStarMute, 9.367, -14.931, 1.2), v100, z0, tNozzle, \Wobj := wobj1Star;
		WaitRob \InPos;
		SetDO DO5_Program_Feed, 1;
		MoveL Offs(pZeroStarMute, -1.198, 17.585, 1.2), v30, z0, tNozzle, \Wobj := wobj1Star;
		WaitRob \InPos;
		SetDO DO5_Program_Feed, 0;
		MoveL Offs(pZeroStarMute, -2.474, 16.658, 1.2), v100, z0, tNozzle, \Wobj := wobj1Star;
		WaitRob \InPos;
		SetDO DO5_Program_Feed, 1;
		MoveL Offs(pZeroStarMute, 7.79, -14.931, 1.2), v30, z0, tNozzle, \Wobj := wobj1Star;
		WaitRob \InPos;
		SetDO DO5_Program_Feed, 0;
		MoveL Offs(pZeroStarMute, 6.212, -14.931, 1.2), v100, z0, tNozzle, \Wobj := wobj1Star;
		WaitRob \InPos;
		SetDO DO5_Program_Feed, 1;
		MoveL Offs(pZeroStarMute, -3.75, 15.731, 1.2), v30, z0, tNozzle, \Wobj := wobj1Star;
		WaitRob \InPos;
		SetDO DO5_Program_Feed, 0;
		MoveL Offs(pZeroStarMute, -5.026, 14.804, 1.2), v100, z0, tNozzle, \Wobj := wobj1Star;
		WaitRob \InPos;
		SetDO DO5_Program_Feed, 1;
		MoveL Offs(pZeroStarMute, 4.635, -14.931, 1.2), v30, z0, tNozzle, \Wobj := wobj1Star;
		WaitRob \InPos;
		SetDO DO5_Program_Feed, 0;
		MoveL Offs(pZeroStarMute, 3.058, -14.931, 1.2), v100, z0, tNozzle, \Wobj := wobj1Star;
		WaitRob \InPos;
		SetDO DO5_Program_Feed, 1;
		MoveL Offs(pZeroStarMute, -6.302, 13.877, 1.2), v30, z0, tNozzle, \Wobj := wobj1Star;
		WaitRob \InPos;
		SetDO DO5_Program_Feed, 0;
		MoveL Offs(pZeroStarMute, -7.578, 12.949, 1.2), v100, z0, tNozzle, \Wobj := wobj1Star;
		WaitRob \InPos;
		SetDO DO5_Program_Feed, 1;
		MoveL Offs(pZeroStarMute, 1.481, -14.931, 1.2), v30, z0, tNozzle, \Wobj := wobj1Star;
		WaitRob \InPos;
		SetDO DO5_Program_Feed, 0;
		MoveL Offs(pZeroStarMute, -0.096, -14.931, 1.2), v100, z0, tNozzle, \Wobj := wobj1Star;
		WaitRob \InPos;
		SetDO DO5_Program_Feed, 1;
		MoveL Offs(pZeroStarMute, -8.854, 12.022, 1.2), v30, z0, tNozzle, \Wobj := wobj1Star;
		WaitRob \InPos;
		SetDO DO5_Program_Feed, 0;
		MoveL Offs(pZeroStarMute, -10.13, 11.095, 1.2), v100, z0, tNozzle, \Wobj := wobj1Star;
		WaitRob \InPos;
		SetDO DO5_Program_Feed, 1;
		MoveL Offs(pZeroStarMute, -1.674, -14.931, 1.2), v30, z0, tNozzle, \Wobj := wobj1Star;
		WaitRob \InPos;
		SetDO DO5_Program_Feed, 0;
		MoveL Offs(pZeroStarMute, -3.251, -14.931, 1.2), v100, z0, tNozzle, \Wobj := wobj1Star;
		WaitRob \InPos;
		SetDO DO5_Program_Feed, 1;
		MoveL Offs(pZeroStarMute, -11.406, 10.168, 1.2), v30, z0, tNozzle, \Wobj := wobj1Star;
		WaitRob \InPos;
		SetDO DO5_Program_Feed, 0;
		MoveL Offs(pZeroStarMute, -12.682, 9.241, 1.2), v100, z0, tNozzle, \Wobj := wobj1Star;
		WaitRob \InPos;
		SetDO DO5_Program_Feed, 1;
		MoveL Offs(pZeroStarMute, -4.828, -14.931, 1.2), v30, z0, tNozzle, \Wobj := wobj1Star;
		WaitRob \InPos;
		SetDO DO5_Program_Feed, 0;
		MoveL Offs(pZeroStarMute, -6.405, -14.931, 1.2), v100, z0, tNozzle, \Wobj := wobj1Star;
		WaitRob \InPos;
		SetDO DO5_Program_Feed, 1;
		MoveL Offs(pZeroStarMute, -13.958, 8.314, 1.2), v30, z0, tNozzle, \Wobj := wobj1Star;
		WaitRob \InPos;
		SetDO DO5_Program_Feed, 0;
		MoveL Offs(pZeroStarMute, -15.234, 7.387, 1.2), v100, z0, tNozzle, \Wobj := wobj1Star;
		WaitRob \InPos;
		SetDO DO5_Program_Feed, 1;
		MoveL Offs(pZeroStarMute, -7.982, -14.931, 1.2), v30, z0, tNozzle, \Wobj := wobj1Star;
		WaitRob \InPos;
		SetDO DO5_Program_Feed, 0;
		MoveL Offs(pZeroStarMute, -9.56, -14.931, 1.2), v100, z0, tNozzle, \Wobj := wobj1Star;
		WaitRob \InPos;
		SetDO DO5_Program_Feed, 1;
		MoveL Offs(pZeroStarMute, -16.51, 6.46, 1.2), v30, z0, tNozzle, \Wobj := wobj1Star;
		WaitRob \InPos;
		SetDO DO6_Between_Layer_Retract, 1;
		SetDO DO5_Program_Feed, 0;
		MoveL Offs(pZeroStarMute, -16.51, 6.46, 6.2), v100, z0, tNozzle, \Wobj := wobj1Star;

		! Layer: 5
		! LayerParams(infillAngleDegrees=20.0, pathWidth=1.5, layerHeight=0.3, infillShiftX=0.0, infillShiftY=0.0, numShells=2, infillOverlap=0.0002)
		! T15
		! M6
		TPWRITE "Layer 5 of 20";
		MoveL Offs(pZeroStarMute, 11.574, -15.93, 6.5), v100, z0, tNozzle, \Wobj := wobj1Star;
		MoveL Offs(pZeroStarMute, 11.574, -15.93, 1.5), v30, z0, tNozzle, \Wobj := wobj1Star;
		WaitRob \InPos;
		SetDO DO6_Between_Layer_Retract, 0;
		WaitRob \InPos;
		SetDO DO5_Program_Feed, 1;
		MoveL Offs(pZeroStarMute, 18.727, 6.085, 1.5), v30, z0, tNozzle, \Wobj := wobj1Star;
		MoveL Offs(pZeroStarMute, 0.0, 19.691, 1.5), v30, z0, tNozzle, \Wobj := wobj1Star;
		MoveL Offs(pZeroStarMute, -18.727, 6.085, 1.5), v30, z0, tNozzle, \Wobj := wobj1Star;
		MoveL Offs(pZeroStarMute, -11.574, -15.93, 1.5), v30, z0, tNozzle, \Wobj := wobj1Star;
		MoveL Offs(pZeroStarMute, 11.574, -15.93, 1.5), v30, z0, tNozzle, \Wobj := wobj1Star;
		WaitRob \InPos;
		SetDO DO5_Program_Feed, 0;
		MoveL Offs(pZeroStarMute, 11.211, -15.43, 1.5), v100, z0, tNozzle, \Wobj := wobj1Star;
		WaitRob \InPos;
		SetDO DO5_Program_Feed, 1;
		MoveL Offs(pZeroStarMute, 18.139, 5.894, 1.5), v30, z0, tNozzle, \Wobj := wobj1Star;
		MoveL Offs(pZeroStarMute, 0.0, 19.073, 1.5), v30, z0, tNozzle, \Wobj := wobj1Star;
		MoveL Offs(pZeroStarMute, -18.139, 5.894, 1.5), v30, z0, tNozzle, \Wobj := wobj1Star;
		MoveL Offs(pZeroStarMute, -11.211, -15.43, 1.5), v30, z0, tNozzle, \Wobj := wobj1Star;
		MoveL Offs(pZeroStarMute, 11.211, -15.43, 1.5), v30, z0, tNozzle, \Wobj := wobj1Star;
		WaitRob \InPos;
		SetDO DO5_Program_Feed, 0;
		MoveL Offs(pZeroStarMute, 11.101, -14.151, 1.5), v100, z0, tNozzle, \Wobj := wobj1Star;
		WaitRob \InPos;
		SetDO DO5_Program_Feed, 1;
		MoveL Offs(pZeroStarMute, 8.958, -14.931, 1.5), v30, z0, tNozzle, \Wobj := wobj1Star;
		WaitRob \InPos;
		SetDO DO5_Program_Feed, 0;
		MoveL Offs(pZeroStarMute, 11.689, -12.34, 1.5), v100, z0, tNozzle, \Wobj := wobj1Star;
		WaitRob \InPos;
		SetDO DO5_Program_Feed, 1;
		MoveL Offs(pZeroStarMute, 4.572, -14.931, 1.5), v30, z0, tNozzle, \Wobj := wobj1Star;
		WaitRob \InPos;
		SetDO DO5_Program_Feed, 0;
		MoveL Offs(pZeroStarMute, 0.187, -14.931, 1.5), v100, z0, tNozzle, \Wobj := wobj1Star;
		WaitRob \InPos;
		SetDO DO5_Program_Feed, 1;
		MoveL Offs(pZeroStarMute, 12.278, -10.53, 1.5), v30, z0, tNozzle, \Wobj := wobj1Star;
		WaitRob \InPos;
		SetDO DO5_Program_Feed, 0;
		MoveL Offs(pZeroStarMute, 12.866, -8.719, 1.5), v100, z0, tNozzle, \Wobj := wobj1Star;
		WaitRob \InPos;
		SetDO DO5_Program_Feed, 1;
		MoveL Offs(pZeroStarMute, -4.199, -14.931, 1.5), v30, z0, tNozzle, \Wobj := wobj1Star;
		WaitRob \InPos;
		SetDO DO5_Program_Feed, 0;
		MoveL Offs(pZeroStarMute, -8.585, -14.931, 1.5), v100, z0, tNozzle, \Wobj := wobj1Star;
		WaitRob \InPos;
		SetDO DO5_Program_Feed, 1;
		MoveL Offs(pZeroStarMute, 13.454, -6.909, 1.5), v30, z0, tNozzle, \Wobj := wobj1Star;
		WaitRob \InPos;
		SetDO DO5_Program_Feed, 0;
		MoveL Offs(pZeroStarMute, 14.042, -5.099, 1.5), v100, z0, tNozzle, \Wobj := wobj1Star;
		WaitRob \InPos;
		SetDO DO5_Program_Feed, 1;
		MoveL Offs(pZeroStarMute, -11.072, -14.24, 1.5), v30, z0, tNozzle, \Wobj := wobj1Star;
		WaitRob \InPos;
		SetDO DO5_Program_Feed, 0;
		MoveL Offs(pZeroStarMute, -11.536, -12.812, 1.5), v100, z0, tNozzle, \Wobj := wobj1Star;
		WaitRob \InPos;
		SetDO DO5_Program_Feed, 1;
		MoveL Offs(pZeroStarMute, 14.63, -3.288, 1.5), v30, z0, tNozzle, \Wobj := wobj1Star;
		WaitRob \InPos;
		SetDO DO5_Program_Feed, 0;
		MoveL Offs(pZeroStarMute, 15.219, -1.478, 1.5), v100, z0, tNozzle, \Wobj := wobj1Star;
		WaitRob \InPos;
		SetDO DO5_Program_Feed, 1;
		MoveL Offs(pZeroStarMute, -12.0, -11.385, 1.5), v30, z0, tNozzle, \Wobj := wobj1Star;
		WaitRob \InPos;
		SetDO DO5_Program_Feed, 0;
		MoveL Offs(pZeroStarMute, -12.464, -9.957, 1.5), v100, z0, tNozzle, \Wobj := wobj1Star;
		WaitRob \InPos;
		SetDO DO5_Program_Feed, 1;
		MoveL Offs(pZeroStarMute, 15.807, 0.332, 1.5), v30, z0, tNozzle, \Wobj := wobj1Star;
		WaitRob \InPos;
		SetDO DO5_Program_Feed, 0;
		MoveL Offs(pZeroStarMute, 16.395, 2.143, 1.5), v100, z0, tNozzle, \Wobj := wobj1Star;
		WaitRob \InPos;
		SetDO DO5_Program_Feed, 1;
		MoveL Offs(pZeroStarMute, -12.927, -8.53, 1.5), v30, z0, tNozzle, \Wobj := wobj1Star;
		WaitRob \InPos;
		SetDO DO5_Program_Feed, 0;
		MoveL Offs(pZeroStarMute, -13.391, -7.102, 1.5), v100, z0, tNozzle, \Wobj := wobj1Star;
		WaitRob \InPos;
		SetDO DO5_Program_Feed, 1;
		MoveL Offs(pZeroStarMute, 16.983, 3.953, 1.5), v30, z0, tNozzle, \Wobj := wobj1Star;
		WaitRob \InPos;
		SetDO DO5_Program_Feed, 0;
		MoveL Offs(pZeroStarMute, 17.503, 5.738, 1.5), v100, z0, tNozzle, \Wobj := wobj1Star;
		WaitRob \InPos;
		SetDO DO5_Program_Feed, 1;
		MoveL Offs(pZeroStarMute, -13.855, -5.675, 1.5), v30, z0, tNozzle, \Wobj := wobj1Star;
		WaitRob \InPos;
		SetDO DO5_Program_Feed, 0;
		MoveL Offs(pZeroStarMute, -14.319, -4.247, 1.5), v100, z0, tNozzle, \Wobj := wobj1Star;
		WaitRob \InPos;
		SetDO DO5_Program_Feed, 1;
		MoveL Offs(pZeroStarMute, 16.039, 6.802, 1.5), v30, z0, tNozzle, \Wobj := wobj1Star;
		WaitRob \InPos;
		SetDO DO5_Program_Feed, 0;
		MoveL Offs(pZeroStarMute, 14.575, 7.865, 1.5), v100, z0, tNozzle, \Wobj := wobj1Star;
		WaitRob \InPos;
		SetDO DO5_Program_Feed, 1;
		MoveL Offs(pZeroStarMute, -14.783, -2.82, 1.5), v30, z0, tNozzle, \Wobj := wobj1Star;
		WaitRob \InPos;
		SetDO DO5_Program_Feed, 0;
		MoveL Offs(pZeroStarMute, -15.246, -1.393, 1.5), v100, z0, tNozzle, \Wobj := wobj1Star;
		WaitRob \InPos;
		SetDO DO5_Program_Feed, 1;
		MoveL Offs(pZeroStarMute, 13.112, 8.929, 1.5), v30, z0, tNozzle, \Wobj := wobj1Star;
		WaitRob \InPos;
		SetDO DO5_Program_Feed, 0;
		MoveL Offs(pZeroStarMute, 11.648, 9.992, 1.5), v100, z0, tNozzle, \Wobj := wobj1Star;
		WaitRob \InPos;
		SetDO DO5_Program_Feed, 1;
		MoveL Offs(pZeroStarMute, -15.71, 0.035, 1.5), v30, z0, tNozzle, \Wobj := wobj1Star;
		WaitRob \InPos;
		SetDO DO5_Program_Feed, 0;
		MoveL Offs(pZeroStarMute, -16.174, 1.462, 1.5), v100, z0, tNozzle, \Wobj := wobj1Star;
		WaitRob \InPos;
		SetDO DO5_Program_Feed, 1;
		MoveL Offs(pZeroStarMute, 10.184, 11.056, 1.5), v30, z0, tNozzle, \Wobj := wobj1Star;
		WaitRob \InPos;
		SetDO DO5_Program_Feed, 0;
		MoveL Offs(pZeroStarMute, 8.72, 12.119, 1.5), v100, z0, tNozzle, \Wobj := wobj1Star;
		WaitRob \InPos;
		SetDO DO5_Program_Feed, 1;
		MoveL Offs(pZeroStarMute, -16.638, 2.89, 1.5), v30, z0, tNozzle, \Wobj := wobj1Star;
		WaitRob \InPos;
		SetDO DO5_Program_Feed, 0;
		MoveL Offs(pZeroStarMute, -17.102, 4.317, 1.5), v100, z0, tNozzle, \Wobj := wobj1Star;
		WaitRob \InPos;
		SetDO DO5_Program_Feed, 1;
		MoveL Offs(pZeroStarMute, 7.257, 13.183, 1.5), v30, z0, tNozzle, \Wobj := wobj1Star;
		WaitRob \InPos;
		SetDO DO5_Program_Feed, 0;
		MoveL Offs(pZeroStarMute, 5.793, 14.246, 1.5), v100, z0, tNozzle, \Wobj := wobj1Star;
		WaitRob \InPos;
		SetDO DO5_Program_Feed, 1;
		MoveL Offs(pZeroStarMute, -17.423, 5.797, 1.5), v30, z0, tNozzle, \Wobj := wobj1Star;
		WaitRob \InPos;
		SetDO DO5_Program_Feed, 0;
		MoveL Offs(pZeroStarMute, -13.02, 8.995, 1.5), v100, z0, tNozzle, \Wobj := wobj1Star;
		WaitRob \InPos;
		SetDO DO5_Program_Feed, 1;
		MoveL Offs(pZeroStarMute, 4.329, 15.31, 1.5), v30, z0, tNozzle, \Wobj := wobj1Star;
		WaitRob \InPos;
		SetDO DO5_Program_Feed, 0;
		MoveL Offs(pZeroStarMute, 2.865, 16.373, 1.5), v100, z0, tNozzle, \Wobj := wobj1Star;
		WaitRob \InPos;
		SetDO DO5_Program_Feed, 1;
		MoveL Offs(pZeroStarMute, -8.618, 12.194, 1.5), v30, z0, tNozzle, \Wobj := wobj1Star;
		WaitRob \InPos;
		SetDO DO5_Program_Feed, 0;
		MoveL Offs(pZeroStarMute, -4.215, 15.393, 1.5), v100, z0, tNozzle, \Wobj := wobj1Star;
		WaitRob \InPos;
		SetDO DO5_Program_Feed, 1;
		MoveL Offs(pZeroStarMute, 1.401, 17.437, 1.5), v30, z0, tNozzle, \Wobj := wobj1Star;
		WaitRob \InPos;
		SetDO DO6_Between_Layer_Retract, 1;
		SetDO DO5_Program_Feed, 0;
		MoveL Offs(pZeroStarMute, 1.401, 17.437, 6.5), v100, z0, tNozzle, \Wobj := wobj1Star;

		! Layer: 6
		! LayerParams(infillAngleDegrees=108.0, pathWidth=1.5, layerHeight=0.3, infillShiftX=0.0, infillShiftY=0.0, numShells=2, infillOverlap=0.0002)
		! T16
		! M6
		TPWRITE "Layer 6 of 20";
		MoveL Offs(pZeroStarMute, -18.727, 6.085, 6.8), v100, z0, tNozzle, \Wobj := wobj1Star;
		MoveL Offs(pZeroStarMute, -18.727, 6.085, 1.8), v30, z0, tNozzle, \Wobj := wobj1Star;
		WaitRob \InPos;
		SetDO DO6_Between_Layer_Retract, 0;
		WaitRob \InPos;
		SetDO DO5_Program_Feed, 1;
		MoveL Offs(pZeroStarMute, -11.574, -15.93, 1.8), v30, z0, tNozzle, \Wobj := wobj1Star;
		MoveL Offs(pZeroStarMute, 11.574, -15.93, 1.8), v30, z0, tNozzle, \Wobj := wobj1Star;
		MoveL Offs(pZeroStarMute, 18.727, 6.085, 1.8), v30, z0, tNozzle, \Wobj := wobj1Star;
		MoveL Offs(pZeroStarMute, 0.0, 19.691, 1.8), v30, z0, tNozzle, \Wobj := wobj1Star;
		MoveL Offs(pZeroStarMute, -18.727, 6.085, 1.8), v30, z0, tNozzle, \Wobj := wobj1Star;
		WaitRob \InPos;
		SetDO DO5_Program_Feed, 0;
		MoveL Offs(pZeroStarMute, -18.139, 5.894, 1.8), v100, z0, tNozzle, \Wobj := wobj1Star;
		WaitRob \InPos;
		SetDO DO5_Program_Feed, 1;
		MoveL Offs(pZeroStarMute, -11.211, -15.43, 1.8), v30, z0, tNozzle, \Wobj := wobj1Star;
		MoveL Offs(pZeroStarMute, 11.211, -15.43, 1.8), v30, z0, tNozzle, \Wobj := wobj1Star;
		MoveL Offs(pZeroStarMute, 18.139, 5.894, 1.8), v30, z0, tNozzle, \Wobj := wobj1Star;
		MoveL Offs(pZeroStarMute, 0.0, 19.073, 1.8), v30, z0, tNozzle, \Wobj := wobj1Star;
		MoveL Offs(pZeroStarMute, -18.139, 5.894, 1.8), v30, z0, tNozzle, \Wobj := wobj1Star;
		WaitRob \InPos;
		SetDO DO5_Program_Feed, 0;
		MoveL Offs(pZeroStarMute, -16.51, 6.46, 1.8), v100, z0, tNozzle, \Wobj := wobj1Star;
		WaitRob \InPos;
		SetDO DO5_Program_Feed, 1;
		MoveL Offs(pZeroStarMute, -9.56, -14.931, 1.8), v30, z0, tNozzle, \Wobj := wobj1Star;
		WaitRob \InPos;
		SetDO DO5_Program_Feed, 0;
		MoveL Offs(pZeroStarMute, -7.982, -14.931, 1.8), v100, z0, tNozzle, \Wobj := wobj1Star;
		WaitRob \InPos;
		SetDO DO5_Program_Feed, 1;
		MoveL Offs(pZeroStarMute, -15.234, 7.387, 1.8), v30, z0, tNozzle, \Wobj := wobj1Star;
		WaitRob \InPos;
		SetDO DO5_Program_Feed, 0;
		MoveL Offs(pZeroStarMute, -13.958, 8.314, 1.8), v100, z0, tNozzle, \Wobj := wobj1Star;
		WaitRob \InPos;
		SetDO DO5_Program_Feed, 1;
		MoveL Offs(pZeroStarMute, -6.405, -14.931, 1.8), v30, z0, tNozzle, \Wobj := wobj1Star;
		WaitRob \InPos;
		SetDO DO5_Program_Feed, 0;
		MoveL Offs(pZeroStarMute, -4.828, -14.931, 1.8), v100, z0, tNozzle, \Wobj := wobj1Star;
		WaitRob \InPos;
		SetDO DO5_Program_Feed, 1;
		MoveL Offs(pZeroStarMute, -12.682, 9.241, 1.8), v30, z0, tNozzle, \Wobj := wobj1Star;
		WaitRob \InPos;
		SetDO DO5_Program_Feed, 0;
		MoveL Offs(pZeroStarMute, -11.406, 10.168, 1.8), v100, z0, tNozzle, \Wobj := wobj1Star;
		WaitRob \InPos;
		SetDO DO5_Program_Feed, 1;
		MoveL Offs(pZeroStarMute, -3.251, -14.931, 1.8), v30, z0, tNozzle, \Wobj := wobj1Star;
		WaitRob \InPos;
		SetDO DO5_Program_Feed, 0;
		MoveL Offs(pZeroStarMute, -1.674, -14.931, 1.8), v100, z0, tNozzle, \Wobj := wobj1Star;
		WaitRob \InPos;
		SetDO DO5_Program_Feed, 1;
		MoveL Offs(pZeroStarMute, -10.13, 11.095, 1.8), v30, z0, tNozzle, \Wobj := wobj1Star;
		WaitRob \InPos;
		SetDO DO5_Program_Feed, 0;
		MoveL Offs(pZeroStarMute, -8.854, 12.022, 1.8), v100, z0, tNozzle, \Wobj := wobj1Star;
		WaitRob \InPos;
		SetDO DO5_Program_Feed, 1;
		MoveL Offs(pZeroStarMute, -0.096, -14.931, 1.8), v30, z0, tNozzle, \Wobj := wobj1Star;
		WaitRob \InPos;
		SetDO DO5_Program_Feed, 0;
		MoveL Offs(pZeroStarMute, 1.481, -14.931, 1.8), v100, z0, tNozzle, \Wobj := wobj1Star;
		WaitRob \InPos;
		SetDO DO5_Program_Feed, 1;
		MoveL Offs(pZeroStarMute, -7.578, 12.949, 1.8), v30, z0, tNozzle, \Wobj := wobj1Star;
		WaitRob \InPos;
		SetDO DO5_Program_Feed, 0;
		MoveL Offs(pZeroStarMute, -6.302, 13.877, 1.8), v100, z0, tNozzle, \Wobj := wobj1Star;
		WaitRob \InPos;
		SetDO DO5_Program_Feed, 1;
		MoveL Offs(pZeroStarMute, 3.058, -14.931, 1.8), v30, z0, tNozzle, \Wobj := wobj1Star;
		WaitRob \InPos;
		SetDO DO5_Program_Feed, 0;
		MoveL Offs(pZeroStarMute, 4.635, -14.931, 1.8), v100, z0, tNozzle, \Wobj := wobj1Star;
		WaitRob \InPos;
		SetDO DO5_Program_Feed, 1;
		MoveL Offs(pZeroStarMute, -5.026, 14.804, 1.8), v30, z0, tNozzle, \Wobj := wobj1Star;
		WaitRob \InPos;
		SetDO DO5_Program_Feed, 0;
		MoveL Offs(pZeroStarMute, -3.75, 15.731, 1.8), v100, z0, tNozzle, \Wobj := wobj1Star;
		WaitRob \InPos;
		SetDO DO5_Program_Feed, 1;
		MoveL Offs(pZeroStarMute, 6.212, -14.931, 1.8), v30, z0, tNozzle, \Wobj := wobj1Star;
		WaitRob \InPos;
		SetDO DO5_Program_Feed, 0;
		MoveL Offs(pZeroStarMute, 7.79, -14.931, 1.8), v100, z0, tNozzle, \Wobj := wobj1Star;
		WaitRob \InPos;
		SetDO DO5_Program_Feed, 1;
		MoveL Offs(pZeroStarMute, -2.474, 16.658, 1.8), v30, z0, tNozzle, \Wobj := wobj1Star;
		WaitRob \InPos;
		SetDO DO5_Program_Feed, 0;
		MoveL Offs(pZeroStarMute, -1.198, 17.585, 1.8), v100, z0, tNozzle, \Wobj := wobj1Star;
		WaitRob \InPos;
		SetDO DO5_Program_Feed, 1;
		MoveL Offs(pZeroStarMute, 9.367, -14.931, 1.8), v30, z0, tNozzle, \Wobj := wobj1Star;
		WaitRob \InPos;
		SetDO DO5_Program_Feed, 0;
		MoveL Offs(pZeroStarMute, 10.896, -14.782, 1.8), v100, z0, tNozzle, \Wobj := wobj1Star;
		WaitRob \InPos;
		SetDO DO5_Program_Feed, 1;
		MoveL Offs(pZeroStarMute, 0.126, 18.364, 1.8), v30, z0, tNozzle, \Wobj := wobj1Star;
		WaitRob \InPos;
		SetDO DO5_Program_Feed, 0;
		MoveL Offs(pZeroStarMute, 2.191, 16.864, 1.8), v100, z0, tNozzle, \Wobj := wobj1Star;
		WaitRob \InPos;
		SetDO DO5_Program_Feed, 1;
		MoveL Offs(pZeroStarMute, 11.684, -12.355, 1.8), v30, z0, tNozzle, \Wobj := wobj1Star;
		WaitRob \InPos;
		SetDO DO5_Program_Feed, 0;
		MoveL Offs(pZeroStarMute, 12.473, -9.928, 1.8), v100, z0, tNozzle, \Wobj := wobj1Star;
		WaitRob \InPos;
		SetDO DO5_Program_Feed, 1;
		MoveL Offs(pZeroStarMute, 4.255, 15.364, 1.8), v30, z0, tNozzle, \Wobj := wobj1Star;
		WaitRob \InPos;
		SetDO DO5_Program_Feed, 0;
		MoveL Offs(pZeroStarMute, 6.32, 13.864, 1.8), v100, z0, tNozzle, \Wobj := wobj1Star;
		WaitRob \InPos;
		SetDO DO5_Program_Feed, 1;
		MoveL Offs(pZeroStarMute, 13.262, -7.501, 1.8), v30, z0, tNozzle, \Wobj := wobj1Star;
		WaitRob \InPos;
		SetDO DO5_Program_Feed, 0;
		MoveL Offs(pZeroStarMute, 14.05, -5.074, 1.8), v100, z0, tNozzle, \Wobj := wobj1Star;
		WaitRob \InPos;
		SetDO DO5_Program_Feed, 1;
		MoveL Offs(pZeroStarMute, 8.384, 12.364, 1.8), v30, z0, tNozzle, \Wobj := wobj1Star;
		WaitRob \InPos;
		SetDO DO5_Program_Feed, 0;
		MoveL Offs(pZeroStarMute, 10.449, 10.864, 1.8), v100, z0, tNozzle, \Wobj := wobj1Star;
		WaitRob \InPos;
		SetDO DO5_Program_Feed, 1;
		MoveL Offs(pZeroStarMute, 14.839, -2.647, 1.8), v30, z0, tNozzle, \Wobj := wobj1Star;
		WaitRob \InPos;
		SetDO DO5_Program_Feed, 0;
		MoveL Offs(pZeroStarMute, 15.627, -0.22, 1.8), v100, z0, tNozzle, \Wobj := wobj1Star;
		WaitRob \InPos;
		SetDO DO5_Program_Feed, 1;
		MoveL Offs(pZeroStarMute, 12.514, 9.364, 1.8), v30, z0, tNozzle, \Wobj := wobj1Star;
		WaitRob \InPos;
		SetDO DO5_Program_Feed, 0;
		MoveL Offs(pZeroStarMute, 14.578, 7.864, 1.8), v100, z0, tNozzle, \Wobj := wobj1Star;
		WaitRob \InPos;
		SetDO DO5_Program_Feed, 1;
		MoveL Offs(pZeroStarMute, 16.416, 2.207, 1.8), v30, z0, tNozzle, \Wobj := wobj1Star;
		WaitRob \InPos;
		SetDO DO5_Program_Feed, 0;
		MoveL Offs(pZeroStarMute, 17.205, 4.634, 1.8), v100, z0, tNozzle, \Wobj := wobj1Star;
		WaitRob \InPos;
		SetDO DO5_Program_Feed, 1;
		MoveL Offs(pZeroStarMute, 16.643, 6.364, 1.8), v30, z0, tNozzle, \Wobj := wobj1Star;
		WaitRob \InPos;
		SetDO DO6_Between_Layer_Retract, 1;
		SetDO DO5_Program_Feed, 0;
		MoveL Offs(pZeroStarMute, 16.643, 6.364, 6.8), v100, z0, tNozzle, \Wobj := wobj1Star;

		! Layer: 7
		! LayerParams(infillAngleDegrees=20.0, pathWidth=1.5, layerHeight=0.3, infillShiftX=0.0, infillShiftY=0.0, numShells=2, infillOverlap=0.0002)
		! T17
		! M6
		TPWRITE "Layer 7 of 20";
		MoveL Offs(pZeroStarMute, 11.574, -15.93, 7.1), v100, z0, tNozzle, \Wobj := wobj1Star;
		MoveL Offs(pZeroStarMute, 11.574, -15.93, 2.1), v30, z0, tNozzle, \Wobj := wobj1Star;
		WaitRob \InPos;
		SetDO DO6_Between_Layer_Retract, 0;
		WaitRob \InPos;
		SetDO DO5_Program_Feed, 1;
		MoveL Offs(pZeroStarMute, 18.727, 6.085, 2.1), v30, z0, tNozzle, \Wobj := wobj1Star;
		MoveL Offs(pZeroStarMute, 0.0, 19.691, 2.1), v30, z0, tNozzle, \Wobj := wobj1Star;
		MoveL Offs(pZeroStarMute, -18.727, 6.085, 2.1), v30, z0, tNozzle, \Wobj := wobj1Star;
		MoveL Offs(pZeroStarMute, -11.574, -15.93, 2.1), v30, z0, tNozzle, \Wobj := wobj1Star;
		MoveL Offs(pZeroStarMute, 11.574, -15.93, 2.1), v30, z0, tNozzle, \Wobj := wobj1Star;
		WaitRob \InPos;
		SetDO DO5_Program_Feed, 0;
		MoveL Offs(pZeroStarMute, 11.211, -15.43, 2.1), v100, z0, tNozzle, \Wobj := wobj1Star;
		WaitRob \InPos;
		SetDO DO5_Program_Feed, 1;
		MoveL Offs(pZeroStarMute, 18.139, 5.894, 2.1), v30, z0, tNozzle, \Wobj := wobj1Star;
		MoveL Offs(pZeroStarMute, 0.0, 19.073, 2.1), v30, z0, tNozzle, \Wobj := wobj1Star;
		MoveL Offs(pZeroStarMute, -18.139, 5.894, 2.1), v30, z0, tNozzle, \Wobj := wobj1Star;
		MoveL Offs(pZeroStarMute, -11.211, -15.43, 2.1), v30, z0, tNozzle, \Wobj := wobj1Star;
		MoveL Offs(pZeroStarMute, 11.211, -15.43, 2.1), v30, z0, tNozzle, \Wobj := wobj1Star;
		WaitRob \InPos;
		SetDO DO5_Program_Feed, 0;
		MoveL Offs(pZeroStarMute, 11.101, -14.151, 2.1), v100, z0, tNozzle, \Wobj := wobj1Star;
		WaitRob \InPos;
		SetDO DO5_Program_Feed, 1;
		MoveL Offs(pZeroStarMute, 8.958, -14.931, 2.1), v30, z0, tNozzle, \Wobj := wobj1Star;
		WaitRob \InPos;
		SetDO DO5_Program_Feed, 0;
		MoveL Offs(pZeroStarMute, 11.689, -12.34, 2.1), v100, z0, tNozzle, \Wobj := wobj1Star;
		WaitRob \InPos;
		SetDO DO5_Program_Feed, 1;
		MoveL Offs(pZeroStarMute, 4.572, -14.931, 2.1), v30, z0, tNozzle, \Wobj := wobj1Star;
		WaitRob \InPos;
		SetDO DO5_Program_Feed, 0;
		MoveL Offs(pZeroStarMute, 0.187, -14.931, 2.1), v100, z0, tNozzle, \Wobj := wobj1Star;
		WaitRob \InPos;
		SetDO DO5_Program_Feed, 1;
		MoveL Offs(pZeroStarMute, 12.278, -10.53, 2.1), v30, z0, tNozzle, \Wobj := wobj1Star;
		WaitRob \InPos;
		SetDO DO5_Program_Feed, 0;
		MoveL Offs(pZeroStarMute, 12.866, -8.719, 2.1), v100, z0, tNozzle, \Wobj := wobj1Star;
		WaitRob \InPos;
		SetDO DO5_Program_Feed, 1;
		MoveL Offs(pZeroStarMute, -4.199, -14.931, 2.1), v30, z0, tNozzle, \Wobj := wobj1Star;
		WaitRob \InPos;
		SetDO DO5_Program_Feed, 0;
		MoveL Offs(pZeroStarMute, -8.585, -14.931, 2.1), v100, z0, tNozzle, \Wobj := wobj1Star;
		WaitRob \InPos;
		SetDO DO5_Program_Feed, 1;
		MoveL Offs(pZeroStarMute, 13.454, -6.909, 2.1), v30, z0, tNozzle, \Wobj := wobj1Star;
		WaitRob \InPos;
		SetDO DO5_Program_Feed, 0;
		MoveL Offs(pZeroStarMute, 14.042, -5.099, 2.1), v100, z0, tNozzle, \Wobj := wobj1Star;
		WaitRob \InPos;
		SetDO DO5_Program_Feed, 1;
		MoveL Offs(pZeroStarMute, -11.072, -14.24, 2.1), v30, z0, tNozzle, \Wobj := wobj1Star;
		WaitRob \InPos;
		SetDO DO5_Program_Feed, 0;
		MoveL Offs(pZeroStarMute, -11.536, -12.812, 2.1), v100, z0, tNozzle, \Wobj := wobj1Star;
		WaitRob \InPos;
		SetDO DO5_Program_Feed, 1;
		MoveL Offs(pZeroStarMute, 14.63, -3.288, 2.1), v30, z0, tNozzle, \Wobj := wobj1Star;
		WaitRob \InPos;
		SetDO DO5_Program_Feed, 0;
		MoveL Offs(pZeroStarMute, 15.219, -1.478, 2.1), v100, z0, tNozzle, \Wobj := wobj1Star;
		WaitRob \InPos;
		SetDO DO5_Program_Feed, 1;
		MoveL Offs(pZeroStarMute, -12.0, -11.385, 2.1), v30, z0, tNozzle, \Wobj := wobj1Star;
		WaitRob \InPos;
		SetDO DO5_Program_Feed, 0;
		MoveL Offs(pZeroStarMute, -12.464, -9.957, 2.1), v100, z0, tNozzle, \Wobj := wobj1Star;
		WaitRob \InPos;
		SetDO DO5_Program_Feed, 1;
		MoveL Offs(pZeroStarMute, 15.807, 0.332, 2.1), v30, z0, tNozzle, \Wobj := wobj1Star;
		WaitRob \InPos;
		SetDO DO5_Program_Feed, 0;
		MoveL Offs(pZeroStarMute, 16.395, 2.143, 2.1), v100, z0, tNozzle, \Wobj := wobj1Star;
		WaitRob \InPos;
		SetDO DO5_Program_Feed, 1;
		MoveL Offs(pZeroStarMute, -12.927, -8.53, 2.1), v30, z0, tNozzle, \Wobj := wobj1Star;
		WaitRob \InPos;
		SetDO DO5_Program_Feed, 0;
		MoveL Offs(pZeroStarMute, -13.391, -7.102, 2.1), v100, z0, tNozzle, \Wobj := wobj1Star;
		WaitRob \InPos;
		SetDO DO5_Program_Feed, 1;
		MoveL Offs(pZeroStarMute, 16.983, 3.953, 2.1), v30, z0, tNozzle, \Wobj := wobj1Star;
		WaitRob \InPos;
		SetDO DO5_Program_Feed, 0;
		MoveL Offs(pZeroStarMute, 17.503, 5.738, 2.1), v100, z0, tNozzle, \Wobj := wobj1Star;
		WaitRob \InPos;
		SetDO DO5_Program_Feed, 1;
		MoveL Offs(pZeroStarMute, -13.855, -5.675, 2.1), v30, z0, tNozzle, \Wobj := wobj1Star;
		WaitRob \InPos;
		SetDO DO5_Program_Feed, 0;
		MoveL Offs(pZeroStarMute, -14.319, -4.247, 2.1), v100, z0, tNozzle, \Wobj := wobj1Star;
		WaitRob \InPos;
		SetDO DO5_Program_Feed, 1;
		MoveL Offs(pZeroStarMute, 16.039, 6.802, 2.1), v30, z0, tNozzle, \Wobj := wobj1Star;
		WaitRob \InPos;
		SetDO DO5_Program_Feed, 0;
		MoveL Offs(pZeroStarMute, 14.575, 7.865, 2.1), v100, z0, tNozzle, \Wobj := wobj1Star;
		WaitRob \InPos;
		SetDO DO5_Program_Feed, 1;
		MoveL Offs(pZeroStarMute, -14.783, -2.82, 2.1), v30, z0, tNozzle, \Wobj := wobj1Star;
		WaitRob \InPos;
		SetDO DO5_Program_Feed, 0;
		MoveL Offs(pZeroStarMute, -15.246, -1.393, 2.1), v100, z0, tNozzle, \Wobj := wobj1Star;
		WaitRob \InPos;
		SetDO DO5_Program_Feed, 1;
		MoveL Offs(pZeroStarMute, 13.112, 8.929, 2.1), v30, z0, tNozzle, \Wobj := wobj1Star;
		WaitRob \InPos;
		SetDO DO5_Program_Feed, 0;
		MoveL Offs(pZeroStarMute, 11.648, 9.992, 2.1), v100, z0, tNozzle, \Wobj := wobj1Star;
		WaitRob \InPos;
		SetDO DO5_Program_Feed, 1;
		MoveL Offs(pZeroStarMute, -15.71, 0.035, 2.1), v30, z0, tNozzle, \Wobj := wobj1Star;
		WaitRob \InPos;
		SetDO DO5_Program_Feed, 0;
		MoveL Offs(pZeroStarMute, -16.174, 1.462, 2.1), v100, z0, tNozzle, \Wobj := wobj1Star;
		WaitRob \InPos;
		SetDO DO5_Program_Feed, 1;
		MoveL Offs(pZeroStarMute, 10.184, 11.056, 2.1), v30, z0, tNozzle, \Wobj := wobj1Star;
		WaitRob \InPos;
		SetDO DO5_Program_Feed, 0;
		MoveL Offs(pZeroStarMute, 8.72, 12.119, 2.1), v100, z0, tNozzle, \Wobj := wobj1Star;
		WaitRob \InPos;
		SetDO DO5_Program_Feed, 1;
		MoveL Offs(pZeroStarMute, -16.638, 2.89, 2.1), v30, z0, tNozzle, \Wobj := wobj1Star;
		WaitRob \InPos;
		SetDO DO5_Program_Feed, 0;
		MoveL Offs(pZeroStarMute, -17.102, 4.317, 2.1), v100, z0, tNozzle, \Wobj := wobj1Star;
		WaitRob \InPos;
		SetDO DO5_Program_Feed, 1;
		MoveL Offs(pZeroStarMute, 7.257, 13.183, 2.1), v30, z0, tNozzle, \Wobj := wobj1Star;
		WaitRob \InPos;
		SetDO DO5_Program_Feed, 0;
		MoveL Offs(pZeroStarMute, 5.793, 14.246, 2.1), v100, z0, tNozzle, \Wobj := wobj1Star;
		WaitRob \InPos;
		SetDO DO5_Program_Feed, 1;
		MoveL Offs(pZeroStarMute, -17.423, 5.797, 2.1), v30, z0, tNozzle, \Wobj := wobj1Star;
		WaitRob \InPos;
		SetDO DO5_Program_Feed, 0;
		MoveL Offs(pZeroStarMute, -13.02, 8.995, 2.1), v100, z0, tNozzle, \Wobj := wobj1Star;
		WaitRob \InPos;
		SetDO DO5_Program_Feed, 1;
		MoveL Offs(pZeroStarMute, 4.329, 15.31, 2.1), v30, z0, tNozzle, \Wobj := wobj1Star;
		WaitRob \InPos;
		SetDO DO5_Program_Feed, 0;
		MoveL Offs(pZeroStarMute, 2.865, 16.373, 2.1), v100, z0, tNozzle, \Wobj := wobj1Star;
		WaitRob \InPos;
		SetDO DO5_Program_Feed, 1;
		MoveL Offs(pZeroStarMute, -8.618, 12.194, 2.1), v30, z0, tNozzle, \Wobj := wobj1Star;
		WaitRob \InPos;
		SetDO DO5_Program_Feed, 0;
		MoveL Offs(pZeroStarMute, -4.215, 15.393, 2.1), v100, z0, tNozzle, \Wobj := wobj1Star;
		WaitRob \InPos;
		SetDO DO5_Program_Feed, 1;
		MoveL Offs(pZeroStarMute, 1.401, 17.437, 2.1), v30, z0, tNozzle, \Wobj := wobj1Star;
		WaitRob \InPos;
		SetDO DO6_Between_Layer_Retract, 1;
		SetDO DO5_Program_Feed, 0;
		MoveL Offs(pZeroStarMute, 1.401, 17.437, 7.1), v100, z0, tNozzle, \Wobj := wobj1Star;

		! Layer: 8
		! LayerParams(infillAngleDegrees=108.0, pathWidth=1.5, layerHeight=0.3, infillShiftX=0.0, infillShiftY=0.0, numShells=2, infillOverlap=0.0002)
		! T18
		! M6
		TPWRITE "Layer 8 of 20";
		MoveL Offs(pZeroStarMute, 0.0, 19.691, 7.4), v100, z0, tNozzle, \Wobj := wobj1Star;
		MoveL Offs(pZeroStarMute, 0.0, 19.691, 2.4), v30, z0, tNozzle, \Wobj := wobj1Star;
		WaitRob \InPos;
		SetDO DO6_Between_Layer_Retract, 0;
		WaitRob \InPos;
		SetDO DO5_Program_Feed, 1;
		MoveL Offs(pZeroStarMute, -18.727, 6.085, 2.4), v30, z0, tNozzle, \Wobj := wobj1Star;
		MoveL Offs(pZeroStarMute, -11.574, -15.93, 2.4), v30, z0, tNozzle, \Wobj := wobj1Star;
		MoveL Offs(pZeroStarMute, 11.574, -15.93, 2.4), v30, z0, tNozzle, \Wobj := wobj1Star;
		MoveL Offs(pZeroStarMute, 18.727, 6.085, 2.4), v30, z0, tNozzle, \Wobj := wobj1Star;
		MoveL Offs(pZeroStarMute, 0.0, 19.691, 2.4), v30, z0, tNozzle, \Wobj := wobj1Star;
		WaitRob \InPos;
		SetDO DO5_Program_Feed, 0;
		MoveL Offs(pZeroStarMute, 0.0, 19.073, 2.4), v100, z0, tNozzle, \Wobj := wobj1Star;
		WaitRob \InPos;
		SetDO DO5_Program_Feed, 1;
		MoveL Offs(pZeroStarMute, -18.139, 5.894, 2.4), v30, z0, tNozzle, \Wobj := wobj1Star;
		MoveL Offs(pZeroStarMute, -11.211, -15.43, 2.4), v30, z0, tNozzle, \Wobj := wobj1Star;
		MoveL Offs(pZeroStarMute, 11.211, -15.43, 2.4), v30, z0, tNozzle, \Wobj := wobj1Star;
		MoveL Offs(pZeroStarMute, 18.139, 5.894, 2.4), v30, z0, tNozzle, \Wobj := wobj1Star;
		MoveL Offs(pZeroStarMute, 0.0, 19.073, 2.4), v30, z0, tNozzle, \Wobj := wobj1Star;
		WaitRob \InPos;
		SetDO DO5_Program_Feed, 0;
		MoveL Offs(pZeroStarMute, 0.126, 18.364, 2.4), v100, z0, tNozzle, \Wobj := wobj1Star;
		WaitRob \InPos;
		SetDO DO5_Program_Feed, 1;
		MoveL Offs(pZeroStarMute, 10.896, -14.782, 2.4), v30, z0, tNozzle, \Wobj := wobj1Star;
		WaitRob \InPos;
		SetDO DO5_Program_Feed, 0;
		MoveL Offs(pZeroStarMute, 9.367, -14.931, 2.4), v100, z0, tNozzle, \Wobj := wobj1Star;
		WaitRob \InPos;
		SetDO DO5_Program_Feed, 1;
		MoveL Offs(pZeroStarMute, -1.198, 17.585, 2.4), v30, z0, tNozzle, \Wobj := wobj1Star;
		WaitRob \InPos;
		SetDO DO5_Program_Feed, 0;
		MoveL Offs(pZeroStarMute, -2.474, 16.658, 2.4), v100, z0, tNozzle, \Wobj := wobj1Star;
		WaitRob \InPos;
		SetDO DO5_Program_Feed, 1;
		MoveL Offs(pZeroStarMute, 7.79, -14.931, 2.4), v30, z0, tNozzle, \Wobj := wobj1Star;
		WaitRob \InPos;
		SetDO DO5_Program_Feed, 0;
		MoveL Offs(pZeroStarMute, 6.212, -14.931, 2.4), v100, z0, tNozzle, \Wobj := wobj1Star;
		WaitRob \InPos;
		SetDO DO5_Program_Feed, 1;
		MoveL Offs(pZeroStarMute, -3.75, 15.731, 2.4), v30, z0, tNozzle, \Wobj := wobj1Star;
		WaitRob \InPos;
		SetDO DO5_Program_Feed, 0;
		MoveL Offs(pZeroStarMute, -5.026, 14.804, 2.4), v100, z0, tNozzle, \Wobj := wobj1Star;
		WaitRob \InPos;
		SetDO DO5_Program_Feed, 1;
		MoveL Offs(pZeroStarMute, 4.635, -14.931, 2.4), v30, z0, tNozzle, \Wobj := wobj1Star;
		WaitRob \InPos;
		SetDO DO5_Program_Feed, 0;
		MoveL Offs(pZeroStarMute, 3.058, -14.931, 2.4), v100, z0, tNozzle, \Wobj := wobj1Star;
		WaitRob \InPos;
		SetDO DO5_Program_Feed, 1;
		MoveL Offs(pZeroStarMute, -6.302, 13.877, 2.4), v30, z0, tNozzle, \Wobj := wobj1Star;
		WaitRob \InPos;
		SetDO DO5_Program_Feed, 0;
		MoveL Offs(pZeroStarMute, -7.578, 12.949, 2.4), v100, z0, tNozzle, \Wobj := wobj1Star;
		WaitRob \InPos;
		SetDO DO5_Program_Feed, 1;
		MoveL Offs(pZeroStarMute, 1.481, -14.931, 2.4), v30, z0, tNozzle, \Wobj := wobj1Star;
		WaitRob \InPos;
		SetDO DO5_Program_Feed, 0;
		MoveL Offs(pZeroStarMute, -0.096, -14.931, 2.4), v100, z0, tNozzle, \Wobj := wobj1Star;
		WaitRob \InPos;
		SetDO DO5_Program_Feed, 1;
		MoveL Offs(pZeroStarMute, -8.854, 12.022, 2.4), v30, z0, tNozzle, \Wobj := wobj1Star;
		WaitRob \InPos;
		SetDO DO5_Program_Feed, 0;
		MoveL Offs(pZeroStarMute, -10.13, 11.095, 2.4), v100, z0, tNozzle, \Wobj := wobj1Star;
		WaitRob \InPos;
		SetDO DO5_Program_Feed, 1;
		MoveL Offs(pZeroStarMute, -1.674, -14.931, 2.4), v30, z0, tNozzle, \Wobj := wobj1Star;
		WaitRob \InPos;
		SetDO DO5_Program_Feed, 0;
		MoveL Offs(pZeroStarMute, -3.251, -14.931, 2.4), v100, z0, tNozzle, \Wobj := wobj1Star;
		WaitRob \InPos;
		SetDO DO5_Program_Feed, 1;
		MoveL Offs(pZeroStarMute, -11.406, 10.168, 2.4), v30, z0, tNozzle, \Wobj := wobj1Star;
		WaitRob \InPos;
		SetDO DO5_Program_Feed, 0;
		MoveL Offs(pZeroStarMute, -12.682, 9.241, 2.4), v100, z0, tNozzle, \Wobj := wobj1Star;
		WaitRob \InPos;
		SetDO DO5_Program_Feed, 1;
		MoveL Offs(pZeroStarMute, -4.828, -14.931, 2.4), v30, z0, tNozzle, \Wobj := wobj1Star;
		WaitRob \InPos;
		SetDO DO5_Program_Feed, 0;
		MoveL Offs(pZeroStarMute, -6.405, -14.931, 2.4), v100, z0, tNozzle, \Wobj := wobj1Star;
		WaitRob \InPos;
		SetDO DO5_Program_Feed, 1;
		MoveL Offs(pZeroStarMute, -13.958, 8.314, 2.4), v30, z0, tNozzle, \Wobj := wobj1Star;
		WaitRob \InPos;
		SetDO DO5_Program_Feed, 0;
		MoveL Offs(pZeroStarMute, -15.234, 7.387, 2.4), v100, z0, tNozzle, \Wobj := wobj1Star;
		WaitRob \InPos;
		SetDO DO5_Program_Feed, 1;
		MoveL Offs(pZeroStarMute, -7.982, -14.931, 2.4), v30, z0, tNozzle, \Wobj := wobj1Star;
		WaitRob \InPos;
		SetDO DO5_Program_Feed, 0;
		MoveL Offs(pZeroStarMute, -9.56, -14.931, 2.4), v100, z0, tNozzle, \Wobj := wobj1Star;
		WaitRob \InPos;
		SetDO DO5_Program_Feed, 1;
		MoveL Offs(pZeroStarMute, -16.51, 6.46, 2.4), v30, z0, tNozzle, \Wobj := wobj1Star;
		WaitRob \InPos;
		SetDO DO5_Program_Feed, 0;
		MoveL Offs(pZeroStarMute, 2.191, 16.864, 2.4), v100, z0, tNozzle, \Wobj := wobj1Star;
		WaitRob \InPos;
		SetDO DO5_Program_Feed, 1;
		MoveL Offs(pZeroStarMute, 11.684, -12.355, 2.4), v30, z0, tNozzle, \Wobj := wobj1Star;
		WaitRob \InPos;
		SetDO DO5_Program_Feed, 0;
		MoveL Offs(pZeroStarMute, 12.473, -9.928, 2.4), v100, z0, tNozzle, \Wobj := wobj1Star;
		WaitRob \InPos;
		SetDO DO5_Program_Feed, 1;
		MoveL Offs(pZeroStarMute, 4.255, 15.364, 2.4), v30, z0, tNozzle, \Wobj := wobj1Star;
		WaitRob \InPos;
		SetDO DO5_Program_Feed, 0;
		MoveL Offs(pZeroStarMute, 6.32, 13.864, 2.4), v100, z0, tNozzle, \Wobj := wobj1Star;
		WaitRob \InPos;
		SetDO DO5_Program_Feed, 1;
		MoveL Offs(pZeroStarMute, 13.262, -7.501, 2.4), v30, z0, tNozzle, \Wobj := wobj1Star;
		WaitRob \InPos;
		SetDO DO5_Program_Feed, 0;
		MoveL Offs(pZeroStarMute, 14.05, -5.074, 2.4), v100, z0, tNozzle, \Wobj := wobj1Star;
		WaitRob \InPos;
		SetDO DO5_Program_Feed, 1;
		MoveL Offs(pZeroStarMute, 8.384, 12.364, 2.4), v30, z0, tNozzle, \Wobj := wobj1Star;
		WaitRob \InPos;
		SetDO DO5_Program_Feed, 0;
		MoveL Offs(pZeroStarMute, 10.449, 10.864, 2.4), v100, z0, tNozzle, \Wobj := wobj1Star;
		WaitRob \InPos;
		SetDO DO5_Program_Feed, 1;
		MoveL Offs(pZeroStarMute, 14.839, -2.647, 2.4), v30, z0, tNozzle, \Wobj := wobj1Star;
		WaitRob \InPos;
		SetDO DO5_Program_Feed, 0;
		MoveL Offs(pZeroStarMute, 15.627, -0.22, 2.4), v100, z0, tNozzle, \Wobj := wobj1Star;
		WaitRob \InPos;
		SetDO DO5_Program_Feed, 1;
		MoveL Offs(pZeroStarMute, 12.514, 9.364, 2.4), v30, z0, tNozzle, \Wobj := wobj1Star;
		WaitRob \InPos;
		SetDO DO5_Program_Feed, 0;
		MoveL Offs(pZeroStarMute, 14.578, 7.864, 2.4), v100, z0, tNozzle, \Wobj := wobj1Star;
		WaitRob \InPos;
		SetDO DO5_Program_Feed, 1;
		MoveL Offs(pZeroStarMute, 16.416, 2.207, 2.4), v30, z0, tNozzle, \Wobj := wobj1Star;
		WaitRob \InPos;
		SetDO DO5_Program_Feed, 0;
		MoveL Offs(pZeroStarMute, 17.205, 4.634, 2.4), v100, z0, tNozzle, \Wobj := wobj1Star;
		WaitRob \InPos;
		SetDO DO5_Program_Feed, 1;
		MoveL Offs(pZeroStarMute, 16.643, 6.364, 2.4), v30, z0, tNozzle, \Wobj := wobj1Star;
		WaitRob \InPos;
		SetDO DO6_Between_Layer_Retract, 1;
		SetDO DO5_Program_Feed, 0;
		MoveL Offs(pZeroStarMute, 16.643, 6.364, 7.4), v100, z0, tNozzle, \Wobj := wobj1Star;

		! Layer: 9
		! LayerParams(infillAngleDegrees=20.0, pathWidth=1.5, layerHeight=0.3, infillShiftX=0.0, infillShiftY=0.0, numShells=2, infillOverlap=0.0002)
		! T19
		! M6
		TPWRITE "Layer 9 of 20";
		MoveL Offs(pZeroStarMute, 18.727, 6.085, 7.7), v100, z0, tNozzle, \Wobj := wobj1Star;
		MoveL Offs(pZeroStarMute, 18.727, 6.085, 2.7), v30, z0, tNozzle, \Wobj := wobj1Star;
		WaitRob \InPos;
		SetDO DO6_Between_Layer_Retract, 0;
		WaitRob \InPos;
		SetDO DO5_Program_Feed, 1;
		MoveL Offs(pZeroStarMute, 0.0, 19.691, 2.7), v30, z0, tNozzle, \Wobj := wobj1Star;
		MoveL Offs(pZeroStarMute, -18.727, 6.085, 2.7), v30, z0, tNozzle, \Wobj := wobj1Star;
		MoveL Offs(pZeroStarMute, -11.574, -15.93, 2.7), v30, z0, tNozzle, \Wobj := wobj1Star;
		MoveL Offs(pZeroStarMute, 11.574, -15.93, 2.7), v30, z0, tNozzle, \Wobj := wobj1Star;
		MoveL Offs(pZeroStarMute, 18.727, 6.085, 2.7), v30, z0, tNozzle, \Wobj := wobj1Star;
		WaitRob \InPos;
		SetDO DO5_Program_Feed, 0;
		MoveL Offs(pZeroStarMute, 18.139, 5.894, 2.7), v100, z0, tNozzle, \Wobj := wobj1Star;
		WaitRob \InPos;
		SetDO DO5_Program_Feed, 1;
		MoveL Offs(pZeroStarMute, 0.0, 19.073, 2.7), v30, z0, tNozzle, \Wobj := wobj1Star;
		MoveL Offs(pZeroStarMute, -18.139, 5.894, 2.7), v30, z0, tNozzle, \Wobj := wobj1Star;
		MoveL Offs(pZeroStarMute, -11.211, -15.43, 2.7), v30, z0, tNozzle, \Wobj := wobj1Star;
		MoveL Offs(pZeroStarMute, 11.211, -15.43, 2.7), v30, z0, tNozzle, \Wobj := wobj1Star;
		MoveL Offs(pZeroStarMute, 18.139, 5.894, 2.7), v30, z0, tNozzle, \Wobj := wobj1Star;
		WaitRob \InPos;
		SetDO DO5_Program_Feed, 0;
		MoveL Offs(pZeroStarMute, 17.503, 5.738, 2.7), v100, z0, tNozzle, \Wobj := wobj1Star;
		WaitRob \InPos;
		SetDO DO5_Program_Feed, 1;
		MoveL Offs(pZeroStarMute, -13.855, -5.675, 2.7), v30, z0, tNozzle, \Wobj := wobj1Star;
		WaitRob \InPos;
		SetDO DO5_Program_Feed, 0;
		MoveL Offs(pZeroStarMute, -14.319, -4.247, 2.7), v100, z0, tNozzle, \Wobj := wobj1Star;
		WaitRob \InPos;
		SetDO DO5_Program_Feed, 1;
		MoveL Offs(pZeroStarMute, 16.039, 6.802, 2.7), v30, z0, tNozzle, \Wobj := wobj1Star;
		WaitRob \InPos;
		SetDO DO5_Program_Feed, 0;
		MoveL Offs(pZeroStarMute, 14.575, 7.865, 2.7), v100, z0, tNozzle, \Wobj := wobj1Star;
		WaitRob \InPos;
		SetDO DO5_Program_Feed, 1;
		MoveL Offs(pZeroStarMute, -14.783, -2.82, 2.7), v30, z0, tNozzle, \Wobj := wobj1Star;
		WaitRob \InPos;
		SetDO DO5_Program_Feed, 0;
		MoveL Offs(pZeroStarMute, -15.246, -1.393, 2.7), v100, z0, tNozzle, \Wobj := wobj1Star;
		WaitRob \InPos;
		SetDO DO5_Program_Feed, 1;
		MoveL Offs(pZeroStarMute, 13.112, 8.929, 2.7), v30, z0, tNozzle, \Wobj := wobj1Star;
		WaitRob \InPos;
		SetDO DO5_Program_Feed, 0;
		MoveL Offs(pZeroStarMute, 11.648, 9.992, 2.7), v100, z0, tNozzle, \Wobj := wobj1Star;
		WaitRob \InPos;
		SetDO DO5_Program_Feed, 1;
		MoveL Offs(pZeroStarMute, -15.71, 0.035, 2.7), v30, z0, tNozzle, \Wobj := wobj1Star;
		WaitRob \InPos;
		SetDO DO5_Program_Feed, 0;
		MoveL Offs(pZeroStarMute, -16.174, 1.462, 2.7), v100, z0, tNozzle, \Wobj := wobj1Star;
		WaitRob \InPos;
		SetDO DO5_Program_Feed, 1;
		MoveL Offs(pZeroStarMute, 10.184, 11.056, 2.7), v30, z0, tNozzle, \Wobj := wobj1Star;
		WaitRob \InPos;
		SetDO DO5_Program_Feed, 0;
		MoveL Offs(pZeroStarMute, 8.72, 12.119, 2.7), v100, z0, tNozzle, \Wobj := wobj1Star;
		WaitRob \InPos;
		SetDO DO5_Program_Feed, 1;
		MoveL Offs(pZeroStarMute, -16.638, 2.89, 2.7), v30, z0, tNozzle, \Wobj := wobj1Star;
		WaitRob \InPos;
		SetDO DO5_Program_Feed, 0;
		MoveL Offs(pZeroStarMute, -17.102, 4.317, 2.7), v100, z0, tNozzle, \Wobj := wobj1Star;
		WaitRob \InPos;
		SetDO DO5_Program_Feed, 1;
		MoveL Offs(pZeroStarMute, 7.257, 13.183, 2.7), v30, z0, tNozzle, \Wobj := wobj1Star;
		WaitRob \InPos;
		SetDO DO5_Program_Feed, 0;
		MoveL Offs(pZeroStarMute, 5.793, 14.246, 2.7), v100, z0, tNozzle, \Wobj := wobj1Star;
		WaitRob \InPos;
		SetDO DO5_Program_Feed, 1;
		MoveL Offs(pZeroStarMute, -17.423, 5.797, 2.7), v30, z0, tNozzle, \Wobj := wobj1Star;
		WaitRob \InPos;
		SetDO DO5_Program_Feed, 0;
		MoveL Offs(pZeroStarMute, -13.02, 8.995, 2.7), v100, z0, tNozzle, \Wobj := wobj1Star;
		WaitRob \InPos;
		SetDO DO5_Program_Feed, 1;
		MoveL Offs(pZeroStarMute, 4.329, 15.31, 2.7), v30, z0, tNozzle, \Wobj := wobj1Star;
		WaitRob \InPos;
		SetDO DO5_Program_Feed, 0;
		MoveL Offs(pZeroStarMute, 2.865, 16.373, 2.7), v100, z0, tNozzle, \Wobj := wobj1Star;
		WaitRob \InPos;
		SetDO DO5_Program_Feed, 1;
		MoveL Offs(pZeroStarMute, -8.618, 12.194, 2.7), v30, z0, tNozzle, \Wobj := wobj1Star;
		WaitRob \InPos;
		SetDO DO5_Program_Feed, 0;
		MoveL Offs(pZeroStarMute, -4.215, 15.393, 2.7), v100, z0, tNozzle, \Wobj := wobj1Star;
		WaitRob \InPos;
		SetDO DO5_Program_Feed, 1;
		MoveL Offs(pZeroStarMute, 1.401, 17.437, 2.7), v30, z0, tNozzle, \Wobj := wobj1Star;
		WaitRob \InPos;
		SetDO DO5_Program_Feed, 0;
		MoveL Offs(pZeroStarMute, 16.983, 3.953, 2.7), v100, z0, tNozzle, \Wobj := wobj1Star;
		WaitRob \InPos;
		SetDO DO5_Program_Feed, 1;
		MoveL Offs(pZeroStarMute, -13.391, -7.102, 2.7), v30, z0, tNozzle, \Wobj := wobj1Star;
		WaitRob \InPos;
		SetDO DO5_Program_Feed, 0;
		MoveL Offs(pZeroStarMute, -12.927, -8.53, 2.7), v100, z0, tNozzle, \Wobj := wobj1Star;
		WaitRob \InPos;
		SetDO DO5_Program_Feed, 1;
		MoveL Offs(pZeroStarMute, 16.395, 2.143, 2.7), v30, z0, tNozzle, \Wobj := wobj1Star;
		WaitRob \InPos;
		SetDO DO5_Program_Feed, 0;
		MoveL Offs(pZeroStarMute, 15.807, 0.332, 2.7), v100, z0, tNozzle, \Wobj := wobj1Star;
		WaitRob \InPos;
		SetDO DO5_Program_Feed, 1;
		MoveL Offs(pZeroStarMute, -12.464, -9.957, 2.7), v30, z0, tNozzle, \Wobj := wobj1Star;
		WaitRob \InPos;
		SetDO DO5_Program_Feed, 0;
		MoveL Offs(pZeroStarMute, -12.0, -11.385, 2.7), v100, z0, tNozzle, \Wobj := wobj1Star;
		WaitRob \InPos;
		SetDO DO5_Program_Feed, 1;
		MoveL Offs(pZeroStarMute, 15.219, -1.478, 2.7), v30, z0, tNozzle, \Wobj := wobj1Star;
		WaitRob \InPos;
		SetDO DO5_Program_Feed, 0;
		MoveL Offs(pZeroStarMute, 14.63, -3.288, 2.7), v100, z0, tNozzle, \Wobj := wobj1Star;
		WaitRob \InPos;
		SetDO DO5_Program_Feed, 1;
		MoveL Offs(pZeroStarMute, -11.536, -12.812, 2.7), v30, z0, tNozzle, \Wobj := wobj1Star;
		WaitRob \InPos;
		SetDO DO5_Program_Feed, 0;
		MoveL Offs(pZeroStarMute, -11.072, -14.24, 2.7), v100, z0, tNozzle, \Wobj := wobj1Star;
		WaitRob \InPos;
		SetDO DO5_Program_Feed, 1;
		MoveL Offs(pZeroStarMute, 14.042, -5.099, 2.7), v30, z0, tNozzle, \Wobj := wobj1Star;
		WaitRob \InPos;
		SetDO DO5_Program_Feed, 0;
		MoveL Offs(pZeroStarMute, 13.454, -6.909, 2.7), v100, z0, tNozzle, \Wobj := wobj1Star;
		WaitRob \InPos;
		SetDO DO5_Program_Feed, 1;
		MoveL Offs(pZeroStarMute, -8.585, -14.931, 2.7), v30, z0, tNozzle, \Wobj := wobj1Star;
		WaitRob \InPos;
		SetDO DO5_Program_Feed, 0;
		MoveL Offs(pZeroStarMute, -4.199, -14.931, 2.7), v100, z0, tNozzle, \Wobj := wobj1Star;
		WaitRob \InPos;
		SetDO DO5_Program_Feed, 1;
		MoveL Offs(pZeroStarMute, 12.866, -8.719, 2.7), v30, z0, tNozzle, \Wobj := wobj1Star;
		WaitRob \InPos;
		SetDO DO5_Program_Feed, 0;
		MoveL Offs(pZeroStarMute, 12.278, -10.53, 2.7), v100, z0, tNozzle, \Wobj := wobj1Star;
		WaitRob \InPos;
		SetDO DO5_Program_Feed, 1;
		MoveL Offs(pZeroStarMute, 0.187, -14.931, 2.7), v30, z0, tNozzle, \Wobj := wobj1Star;
		WaitRob \InPos;
		SetDO DO5_Program_Feed, 0;
		MoveL Offs(pZeroStarMute, 4.572, -14.931, 2.7), v100, z0, tNozzle, \Wobj := wobj1Star;
		WaitRob \InPos;
		SetDO DO5_Program_Feed, 1;
		MoveL Offs(pZeroStarMute, 11.689, -12.34, 2.7), v30, z0, tNozzle, \Wobj := wobj1Star;
		WaitRob \InPos;
		SetDO DO5_Program_Feed, 0;
		MoveL Offs(pZeroStarMute, 11.101, -14.151, 2.7), v100, z0, tNozzle, \Wobj := wobj1Star;
		WaitRob \InPos;
		SetDO DO5_Program_Feed, 1;
		MoveL Offs(pZeroStarMute, 8.958, -14.931, 2.7), v30, z0, tNozzle, \Wobj := wobj1Star;
		WaitRob \InPos;
		SetDO DO6_Between_Layer_Retract, 1;
		SetDO DO5_Program_Feed, 0;
		MoveL Offs(pZeroStarMute, 8.958, -14.931, 7.7), v100, z0, tNozzle, \Wobj := wobj1Star;

		! Layer: 10
		! LayerParams(infillAngleDegrees=108.0, pathWidth=1.5, layerHeight=0.3, infillShiftX=0.0, infillShiftY=0.0, numShells=2, infillOverlap=0.0002)
		! T110
		! M6
		TPWRITE "Layer 10 of 20";
		MoveL Offs(pZeroStarMute, 11.574, -15.93, 8.0), v100, z0, tNozzle, \Wobj := wobj1Star;
		MoveL Offs(pZeroStarMute, 11.574, -15.93, 3.0), v30, z0, tNozzle, \Wobj := wobj1Star;
		WaitRob \InPos;
		SetDO DO6_Between_Layer_Retract, 0;
		WaitRob \InPos;
		SetDO DO5_Program_Feed, 1;
		MoveL Offs(pZeroStarMute, 18.727, 6.085, 3.0), v30, z0, tNozzle, \Wobj := wobj1Star;
		MoveL Offs(pZeroStarMute, 0.0, 19.691, 3.0), v30, z0, tNozzle, \Wobj := wobj1Star;
		MoveL Offs(pZeroStarMute, -18.727, 6.085, 3.0), v30, z0, tNozzle, \Wobj := wobj1Star;
		MoveL Offs(pZeroStarMute, -11.574, -15.93, 3.0), v30, z0, tNozzle, \Wobj := wobj1Star;
		MoveL Offs(pZeroStarMute, 11.574, -15.93, 3.0), v30, z0, tNozzle, \Wobj := wobj1Star;
		WaitRob \InPos;
		SetDO DO5_Program_Feed, 0;
		MoveL Offs(pZeroStarMute, 11.211, -15.43, 3.0), v100, z0, tNozzle, \Wobj := wobj1Star;
		WaitRob \InPos;
		SetDO DO5_Program_Feed, 1;
		MoveL Offs(pZeroStarMute, 18.139, 5.894, 3.0), v30, z0, tNozzle, \Wobj := wobj1Star;
		MoveL Offs(pZeroStarMute, 0.0, 19.073, 3.0), v30, z0, tNozzle, \Wobj := wobj1Star;
		MoveL Offs(pZeroStarMute, -18.139, 5.894, 3.0), v30, z0, tNozzle, \Wobj := wobj1Star;
		MoveL Offs(pZeroStarMute, -11.211, -15.43, 3.0), v30, z0, tNozzle, \Wobj := wobj1Star;
		MoveL Offs(pZeroStarMute, 11.211, -15.43, 3.0), v30, z0, tNozzle, \Wobj := wobj1Star;
		WaitRob \InPos;
		SetDO DO5_Program_Feed, 0;
		MoveL Offs(pZeroStarMute, 10.896, -14.782, 3.0), v100, z0, tNozzle, \Wobj := wobj1Star;
		WaitRob \InPos;
		SetDO DO5_Program_Feed, 1;
		MoveL Offs(pZeroStarMute, 0.126, 18.364, 3.0), v30, z0, tNozzle, \Wobj := wobj1Star;
		WaitRob \InPos;
		SetDO DO5_Program_Feed, 0;
		MoveL Offs(pZeroStarMute, -1.198, 17.585, 3.0), v100, z0, tNozzle, \Wobj := wobj1Star;
		WaitRob \InPos;
		SetDO DO5_Program_Feed, 1;
		MoveL Offs(pZeroStarMute, 9.367, -14.931, 3.0), v30, z0, tNozzle, \Wobj := wobj1Star;
		WaitRob \InPos;
		SetDO DO5_Program_Feed, 0;
		MoveL Offs(pZeroStarMute, 7.79, -14.931, 3.0), v100, z0, tNozzle, \Wobj := wobj1Star;
		WaitRob \InPos;
		SetDO DO5_Program_Feed, 1;
		MoveL Offs(pZeroStarMute, -2.474, 16.658, 3.0), v30, z0, tNozzle, \Wobj := wobj1Star;
		WaitRob \InPos;
		SetDO DO5_Program_Feed, 0;
		MoveL Offs(pZeroStarMute, -3.75, 15.731, 3.0), v100, z0, tNozzle, \Wobj := wobj1Star;
		WaitRob \InPos;
		SetDO DO5_Program_Feed, 1;
		MoveL Offs(pZeroStarMute, 6.212, -14.931, 3.0), v30, z0, tNozzle, \Wobj := wobj1Star;
		WaitRob \InPos;
		SetDO DO5_Program_Feed, 0;
		MoveL Offs(pZeroStarMute, 4.635, -14.931, 3.0), v100, z0, tNozzle, \Wobj := wobj1Star;
		WaitRob \InPos;
		SetDO DO5_Program_Feed, 1;
		MoveL Offs(pZeroStarMute, -5.026, 14.804, 3.0), v30, z0, tNozzle, \Wobj := wobj1Star;
		WaitRob \InPos;
		SetDO DO5_Program_Feed, 0;
		MoveL Offs(pZeroStarMute, -6.302, 13.877, 3.0), v100, z0, tNozzle, \Wobj := wobj1Star;
		WaitRob \InPos;
		SetDO DO5_Program_Feed, 1;
		MoveL Offs(pZeroStarMute, 3.058, -14.931, 3.0), v30, z0, tNozzle, \Wobj := wobj1Star;
		WaitRob \InPos;
		SetDO DO5_Program_Feed, 0;
		MoveL Offs(pZeroStarMute, 1.481, -14.931, 3.0), v100, z0, tNozzle, \Wobj := wobj1Star;
		WaitRob \InPos;
		SetDO DO5_Program_Feed, 1;
		MoveL Offs(pZeroStarMute, -7.578, 12.949, 3.0), v30, z0, tNozzle, \Wobj := wobj1Star;
		WaitRob \InPos;
		SetDO DO5_Program_Feed, 0;
		MoveL Offs(pZeroStarMute, -8.854, 12.022, 3.0), v100, z0, tNozzle, \Wobj := wobj1Star;
		WaitRob \InPos;
		SetDO DO5_Program_Feed, 1;
		MoveL Offs(pZeroStarMute, -0.096, -14.931, 3.0), v30, z0, tNozzle, \Wobj := wobj1Star;
		WaitRob \InPos;
		SetDO DO5_Program_Feed, 0;
		MoveL Offs(pZeroStarMute, -1.674, -14.931, 3.0), v100, z0, tNozzle, \Wobj := wobj1Star;
		WaitRob \InPos;
		SetDO DO5_Program_Feed, 1;
		MoveL Offs(pZeroStarMute, -10.13, 11.095, 3.0), v30, z0, tNozzle, \Wobj := wobj1Star;
		WaitRob \InPos;
		SetDO DO5_Program_Feed, 0;
		MoveL Offs(pZeroStarMute, -11.406, 10.168, 3.0), v100, z0, tNozzle, \Wobj := wobj1Star;
		WaitRob \InPos;
		SetDO DO5_Program_Feed, 1;
		MoveL Offs(pZeroStarMute, -3.251, -14.931, 3.0), v30, z0, tNozzle, \Wobj := wobj1Star;
		WaitRob \InPos;
		SetDO DO5_Program_Feed, 0;
		MoveL Offs(pZeroStarMute, -4.828, -14.931, 3.0), v100, z0, tNozzle, \Wobj := wobj1Star;
		WaitRob \InPos;
		SetDO DO5_Program_Feed, 1;
		MoveL Offs(pZeroStarMute, -12.682, 9.241, 3.0), v30, z0, tNozzle, \Wobj := wobj1Star;
		WaitRob \InPos;
		SetDO DO5_Program_Feed, 0;
		MoveL Offs(pZeroStarMute, -13.958, 8.314, 3.0), v100, z0, tNozzle, \Wobj := wobj1Star;
		WaitRob \InPos;
		SetDO DO5_Program_Feed, 1;
		MoveL Offs(pZeroStarMute, -6.405, -14.931, 3.0), v30, z0, tNozzle, \Wobj := wobj1Star;
		WaitRob \InPos;
		SetDO DO5_Program_Feed, 0;
		MoveL Offs(pZeroStarMute, -7.982, -14.931, 3.0), v100, z0, tNozzle, \Wobj := wobj1Star;
		WaitRob \InPos;
		SetDO DO5_Program_Feed, 1;
		MoveL Offs(pZeroStarMute, -15.234, 7.387, 3.0), v30, z0, tNozzle, \Wobj := wobj1Star;
		WaitRob \InPos;
		SetDO DO5_Program_Feed, 0;
		MoveL Offs(pZeroStarMute, -16.51, 6.46, 3.0), v100, z0, tNozzle, \Wobj := wobj1Star;
		WaitRob \InPos;
		SetDO DO5_Program_Feed, 1;
		MoveL Offs(pZeroStarMute, -9.56, -14.931, 3.0), v30, z0, tNozzle, \Wobj := wobj1Star;
		WaitRob \InPos;
		SetDO DO5_Program_Feed, 0;
		MoveL Offs(pZeroStarMute, 11.684, -12.355, 3.0), v100, z0, tNozzle, \Wobj := wobj1Star;
		WaitRob \InPos;
		SetDO DO5_Program_Feed, 1;
		MoveL Offs(pZeroStarMute, 2.191, 16.864, 3.0), v30, z0, tNozzle, \Wobj := wobj1Star;
		WaitRob \InPos;
		SetDO DO5_Program_Feed, 0;
		MoveL Offs(pZeroStarMute, 4.255, 15.364, 3.0), v100, z0, tNozzle, \Wobj := wobj1Star;
		WaitRob \InPos;
		SetDO DO5_Program_Feed, 1;
		MoveL Offs(pZeroStarMute, 12.473, -9.928, 3.0), v30, z0, tNozzle, \Wobj := wobj1Star;
		WaitRob \InPos;
		SetDO DO5_Program_Feed, 0;
		MoveL Offs(pZeroStarMute, 13.262, -7.501, 3.0), v100, z0, tNozzle, \Wobj := wobj1Star;
		WaitRob \InPos;
		SetDO DO5_Program_Feed, 1;
		MoveL Offs(pZeroStarMute, 6.32, 13.864, 3.0), v30, z0, tNozzle, \Wobj := wobj1Star;
		WaitRob \InPos;
		SetDO DO5_Program_Feed, 0;
		MoveL Offs(pZeroStarMute, 8.384, 12.364, 3.0), v100, z0, tNozzle, \Wobj := wobj1Star;
		WaitRob \InPos;
		SetDO DO5_Program_Feed, 1;
		MoveL Offs(pZeroStarMute, 14.05, -5.074, 3.0), v30, z0, tNozzle, \Wobj := wobj1Star;
		WaitRob \InPos;
		SetDO DO5_Program_Feed, 0;
		MoveL Offs(pZeroStarMute, 14.839, -2.647, 3.0), v100, z0, tNozzle, \Wobj := wobj1Star;
		WaitRob \InPos;
		SetDO DO5_Program_Feed, 1;
		MoveL Offs(pZeroStarMute, 10.449, 10.864, 3.0), v30, z0, tNozzle, \Wobj := wobj1Star;
		WaitRob \InPos;
		SetDO DO5_Program_Feed, 0;
		MoveL Offs(pZeroStarMute, 12.514, 9.364, 3.0), v100, z0, tNozzle, \Wobj := wobj1Star;
		WaitRob \InPos;
		SetDO DO5_Program_Feed, 1;
		MoveL Offs(pZeroStarMute, 15.627, -0.22, 3.0), v30, z0, tNozzle, \Wobj := wobj1Star;
		WaitRob \InPos;
		SetDO DO5_Program_Feed, 0;
		MoveL Offs(pZeroStarMute, 16.416, 2.207, 3.0), v100, z0, tNozzle, \Wobj := wobj1Star;
		WaitRob \InPos;
		SetDO DO5_Program_Feed, 1;
		MoveL Offs(pZeroStarMute, 14.578, 7.864, 3.0), v30, z0, tNozzle, \Wobj := wobj1Star;
		WaitRob \InPos;
		SetDO DO5_Program_Feed, 0;
		MoveL Offs(pZeroStarMute, 16.643, 6.364, 3.0), v100, z0, tNozzle, \Wobj := wobj1Star;
		WaitRob \InPos;
		SetDO DO5_Program_Feed, 1;
		MoveL Offs(pZeroStarMute, 17.205, 4.634, 3.0), v30, z0, tNozzle, \Wobj := wobj1Star;
		WaitRob \InPos;
		SetDO DO6_Between_Layer_Retract, 1;
		SetDO DO5_Program_Feed, 0;
		MoveL Offs(pZeroStarMute, 17.205, 4.634, 8.0), v100, z0, tNozzle, \Wobj := wobj1Star;

		! Layer: 11
		! LayerParams(infillAngleDegrees=20.0, pathWidth=1.5, layerHeight=0.3, infillShiftX=0.0, infillShiftY=0.0, numShells=2, infillOverlap=0.0002)
		! T111
		! M6
		TPWRITE "Layer 11 of 20";
		MoveL Offs(pZeroStarMute, 11.574, -15.93, 8.3), v100, z0, tNozzle, \Wobj := wobj1Star;
		MoveL Offs(pZeroStarMute, 11.574, -15.93, 3.3), v30, z0, tNozzle, \Wobj := wobj1Star;
		WaitRob \InPos;
		SetDO DO6_Between_Layer_Retract, 0;
		WaitRob \InPos;
		SetDO DO5_Program_Feed, 1;
		MoveL Offs(pZeroStarMute, 18.727, 6.085, 3.3), v30, z0, tNozzle, \Wobj := wobj1Star;
		MoveL Offs(pZeroStarMute, 0.0, 19.691, 3.3), v30, z0, tNozzle, \Wobj := wobj1Star;
		MoveL Offs(pZeroStarMute, -18.727, 6.085, 3.3), v30, z0, tNozzle, \Wobj := wobj1Star;
		MoveL Offs(pZeroStarMute, -11.574, -15.93, 3.3), v30, z0, tNozzle, \Wobj := wobj1Star;
		MoveL Offs(pZeroStarMute, 11.574, -15.93, 3.3), v30, z0, tNozzle, \Wobj := wobj1Star;
		WaitRob \InPos;
		SetDO DO5_Program_Feed, 0;
		MoveL Offs(pZeroStarMute, 11.211, -15.43, 3.3), v100, z0, tNozzle, \Wobj := wobj1Star;
		WaitRob \InPos;
		SetDO DO5_Program_Feed, 1;
		MoveL Offs(pZeroStarMute, 18.139, 5.894, 3.3), v30, z0, tNozzle, \Wobj := wobj1Star;
		MoveL Offs(pZeroStarMute, 0.0, 19.073, 3.3), v30, z0, tNozzle, \Wobj := wobj1Star;
		MoveL Offs(pZeroStarMute, -18.139, 5.894, 3.3), v30, z0, tNozzle, \Wobj := wobj1Star;
		MoveL Offs(pZeroStarMute, -11.211, -15.43, 3.3), v30, z0, tNozzle, \Wobj := wobj1Star;
		MoveL Offs(pZeroStarMute, 11.211, -15.43, 3.3), v30, z0, tNozzle, \Wobj := wobj1Star;
		WaitRob \InPos;
		SetDO DO5_Program_Feed, 0;
		MoveL Offs(pZeroStarMute, 11.101, -14.151, 3.3), v100, z0, tNozzle, \Wobj := wobj1Star;
		WaitRob \InPos;
		SetDO DO5_Program_Feed, 1;
		MoveL Offs(pZeroStarMute, 8.958, -14.931, 3.3), v30, z0, tNozzle, \Wobj := wobj1Star;
		WaitRob \InPos;
		SetDO DO5_Program_Feed, 0;
		MoveL Offs(pZeroStarMute, 11.689, -12.34, 3.3), v100, z0, tNozzle, \Wobj := wobj1Star;
		WaitRob \InPos;
		SetDO DO5_Program_Feed, 1;
		MoveL Offs(pZeroStarMute, 4.572, -14.931, 3.3), v30, z0, tNozzle, \Wobj := wobj1Star;
		WaitRob \InPos;
		SetDO DO5_Program_Feed, 0;
		MoveL Offs(pZeroStarMute, 0.187, -14.931, 3.3), v100, z0, tNozzle, \Wobj := wobj1Star;
		WaitRob \InPos;
		SetDO DO5_Program_Feed, 1;
		MoveL Offs(pZeroStarMute, 12.278, -10.53, 3.3), v30, z0, tNozzle, \Wobj := wobj1Star;
		WaitRob \InPos;
		SetDO DO5_Program_Feed, 0;
		MoveL Offs(pZeroStarMute, 12.866, -8.719, 3.3), v100, z0, tNozzle, \Wobj := wobj1Star;
		WaitRob \InPos;
		SetDO DO5_Program_Feed, 1;
		MoveL Offs(pZeroStarMute, -4.199, -14.931, 3.3), v30, z0, tNozzle, \Wobj := wobj1Star;
		WaitRob \InPos;
		SetDO DO5_Program_Feed, 0;
		MoveL Offs(pZeroStarMute, -8.585, -14.931, 3.3), v100, z0, tNozzle, \Wobj := wobj1Star;
		WaitRob \InPos;
		SetDO DO5_Program_Feed, 1;
		MoveL Offs(pZeroStarMute, 13.454, -6.909, 3.3), v30, z0, tNozzle, \Wobj := wobj1Star;
		WaitRob \InPos;
		SetDO DO5_Program_Feed, 0;
		MoveL Offs(pZeroStarMute, 14.042, -5.099, 3.3), v100, z0, tNozzle, \Wobj := wobj1Star;
		WaitRob \InPos;
		SetDO DO5_Program_Feed, 1;
		MoveL Offs(pZeroStarMute, -11.072, -14.24, 3.3), v30, z0, tNozzle, \Wobj := wobj1Star;
		WaitRob \InPos;
		SetDO DO5_Program_Feed, 0;
		MoveL Offs(pZeroStarMute, -11.536, -12.812, 3.3), v100, z0, tNozzle, \Wobj := wobj1Star;
		WaitRob \InPos;
		SetDO DO5_Program_Feed, 1;
		MoveL Offs(pZeroStarMute, 14.63, -3.288, 3.3), v30, z0, tNozzle, \Wobj := wobj1Star;
		WaitRob \InPos;
		SetDO DO5_Program_Feed, 0;
		MoveL Offs(pZeroStarMute, 15.219, -1.478, 3.3), v100, z0, tNozzle, \Wobj := wobj1Star;
		WaitRob \InPos;
		SetDO DO5_Program_Feed, 1;
		MoveL Offs(pZeroStarMute, -12.0, -11.385, 3.3), v30, z0, tNozzle, \Wobj := wobj1Star;
		WaitRob \InPos;
		SetDO DO5_Program_Feed, 0;
		MoveL Offs(pZeroStarMute, -12.464, -9.957, 3.3), v100, z0, tNozzle, \Wobj := wobj1Star;
		WaitRob \InPos;
		SetDO DO5_Program_Feed, 1;
		MoveL Offs(pZeroStarMute, 15.807, 0.332, 3.3), v30, z0, tNozzle, \Wobj := wobj1Star;
		WaitRob \InPos;
		SetDO DO5_Program_Feed, 0;
		MoveL Offs(pZeroStarMute, 16.395, 2.143, 3.3), v100, z0, tNozzle, \Wobj := wobj1Star;
		WaitRob \InPos;
		SetDO DO5_Program_Feed, 1;
		MoveL Offs(pZeroStarMute, -12.927, -8.53, 3.3), v30, z0, tNozzle, \Wobj := wobj1Star;
		WaitRob \InPos;
		SetDO DO5_Program_Feed, 0;
		MoveL Offs(pZeroStarMute, -13.391, -7.102, 3.3), v100, z0, tNozzle, \Wobj := wobj1Star;
		WaitRob \InPos;
		SetDO DO5_Program_Feed, 1;
		MoveL Offs(pZeroStarMute, 16.983, 3.953, 3.3), v30, z0, tNozzle, \Wobj := wobj1Star;
		WaitRob \InPos;
		SetDO DO5_Program_Feed, 0;
		MoveL Offs(pZeroStarMute, 17.503, 5.738, 3.3), v100, z0, tNozzle, \Wobj := wobj1Star;
		WaitRob \InPos;
		SetDO DO5_Program_Feed, 1;
		MoveL Offs(pZeroStarMute, -13.855, -5.675, 3.3), v30, z0, tNozzle, \Wobj := wobj1Star;
		WaitRob \InPos;
		SetDO DO5_Program_Feed, 0;
		MoveL Offs(pZeroStarMute, -14.319, -4.247, 3.3), v100, z0, tNozzle, \Wobj := wobj1Star;
		WaitRob \InPos;
		SetDO DO5_Program_Feed, 1;
		MoveL Offs(pZeroStarMute, 16.039, 6.802, 3.3), v30, z0, tNozzle, \Wobj := wobj1Star;
		WaitRob \InPos;
		SetDO DO5_Program_Feed, 0;
		MoveL Offs(pZeroStarMute, 14.575, 7.865, 3.3), v100, z0, tNozzle, \Wobj := wobj1Star;
		WaitRob \InPos;
		SetDO DO5_Program_Feed, 1;
		MoveL Offs(pZeroStarMute, -14.783, -2.82, 3.3), v30, z0, tNozzle, \Wobj := wobj1Star;
		WaitRob \InPos;
		SetDO DO5_Program_Feed, 0;
		MoveL Offs(pZeroStarMute, -15.246, -1.393, 3.3), v100, z0, tNozzle, \Wobj := wobj1Star;
		WaitRob \InPos;
		SetDO DO5_Program_Feed, 1;
		MoveL Offs(pZeroStarMute, 13.112, 8.929, 3.3), v30, z0, tNozzle, \Wobj := wobj1Star;
		WaitRob \InPos;
		SetDO DO5_Program_Feed, 0;
		MoveL Offs(pZeroStarMute, 11.648, 9.992, 3.3), v100, z0, tNozzle, \Wobj := wobj1Star;
		WaitRob \InPos;
		SetDO DO5_Program_Feed, 1;
		MoveL Offs(pZeroStarMute, -15.71, 0.035, 3.3), v30, z0, tNozzle, \Wobj := wobj1Star;
		WaitRob \InPos;
		SetDO DO5_Program_Feed, 0;
		MoveL Offs(pZeroStarMute, -16.174, 1.462, 3.3), v100, z0, tNozzle, \Wobj := wobj1Star;
		WaitRob \InPos;
		SetDO DO5_Program_Feed, 1;
		MoveL Offs(pZeroStarMute, 10.184, 11.056, 3.3), v30, z0, tNozzle, \Wobj := wobj1Star;
		WaitRob \InPos;
		SetDO DO5_Program_Feed, 0;
		MoveL Offs(pZeroStarMute, 8.72, 12.119, 3.3), v100, z0, tNozzle, \Wobj := wobj1Star;
		WaitRob \InPos;
		SetDO DO5_Program_Feed, 1;
		MoveL Offs(pZeroStarMute, -16.638, 2.89, 3.3), v30, z0, tNozzle, \Wobj := wobj1Star;
		WaitRob \InPos;
		SetDO DO5_Program_Feed, 0;
		MoveL Offs(pZeroStarMute, -17.102, 4.317, 3.3), v100, z0, tNozzle, \Wobj := wobj1Star;
		WaitRob \InPos;
		SetDO DO5_Program_Feed, 1;
		MoveL Offs(pZeroStarMute, 7.257, 13.183, 3.3), v30, z0, tNozzle, \Wobj := wobj1Star;
		WaitRob \InPos;
		SetDO DO5_Program_Feed, 0;
		MoveL Offs(pZeroStarMute, 5.793, 14.246, 3.3), v100, z0, tNozzle, \Wobj := wobj1Star;
		WaitRob \InPos;
		SetDO DO5_Program_Feed, 1;
		MoveL Offs(pZeroStarMute, -17.423, 5.797, 3.3), v30, z0, tNozzle, \Wobj := wobj1Star;
		WaitRob \InPos;
		SetDO DO5_Program_Feed, 0;
		MoveL Offs(pZeroStarMute, -13.02, 8.995, 3.3), v100, z0, tNozzle, \Wobj := wobj1Star;
		WaitRob \InPos;
		SetDO DO5_Program_Feed, 1;
		MoveL Offs(pZeroStarMute, 4.329, 15.31, 3.3), v30, z0, tNozzle, \Wobj := wobj1Star;
		WaitRob \InPos;
		SetDO DO5_Program_Feed, 0;
		MoveL Offs(pZeroStarMute, 2.865, 16.373, 3.3), v100, z0, tNozzle, \Wobj := wobj1Star;
		WaitRob \InPos;
		SetDO DO5_Program_Feed, 1;
		MoveL Offs(pZeroStarMute, -8.618, 12.194, 3.3), v30, z0, tNozzle, \Wobj := wobj1Star;
		WaitRob \InPos;
		SetDO DO5_Program_Feed, 0;
		MoveL Offs(pZeroStarMute, -4.215, 15.393, 3.3), v100, z0, tNozzle, \Wobj := wobj1Star;
		WaitRob \InPos;
		SetDO DO5_Program_Feed, 1;
		MoveL Offs(pZeroStarMute, 1.401, 17.437, 3.3), v30, z0, tNozzle, \Wobj := wobj1Star;
		WaitRob \InPos;
		SetDO DO6_Between_Layer_Retract, 1;
		SetDO DO5_Program_Feed, 0;
		MoveL Offs(pZeroStarMute, 1.401, 17.437, 8.3), v100, z0, tNozzle, \Wobj := wobj1Star;

		! Layer: 12
		! LayerParams(infillAngleDegrees=108.0, pathWidth=1.5, layerHeight=0.3, infillShiftX=0.0, infillShiftY=0.0, numShells=2, infillOverlap=0.0002)
		! T112
		! M6
		TPWRITE "Layer 12 of 20";
		MoveL Offs(pZeroStarMute, -11.574, -15.93, 8.6), v100, z0, tNozzle, \Wobj := wobj1Star;
		MoveL Offs(pZeroStarMute, -11.574, -15.93, 3.6), v30, z0, tNozzle, \Wobj := wobj1Star;
		WaitRob \InPos;
		SetDO DO6_Between_Layer_Retract, 0;
		WaitRob \InPos;
		SetDO DO5_Program_Feed, 1;
		MoveL Offs(pZeroStarMute, 11.574, -15.93, 3.6), v30, z0, tNozzle, \Wobj := wobj1Star;
		MoveL Offs(pZeroStarMute, 18.727, 6.085, 3.6), v30, z0, tNozzle, \Wobj := wobj1Star;
		MoveL Offs(pZeroStarMute, 0.0, 19.691, 3.6), v30, z0, tNozzle, \Wobj := wobj1Star;
		MoveL Offs(pZeroStarMute, -18.727, 6.085, 3.6), v30, z0, tNozzle, \Wobj := wobj1Star;
		MoveL Offs(pZeroStarMute, -11.574, -15.93, 3.6), v30, z0, tNozzle, \Wobj := wobj1Star;
		WaitRob \InPos;
		SetDO DO5_Program_Feed, 0;
		MoveL Offs(pZeroStarMute, -11.211, -15.43, 3.6), v100, z0, tNozzle, \Wobj := wobj1Star;
		WaitRob \InPos;
		SetDO DO5_Program_Feed, 1;
		MoveL Offs(pZeroStarMute, 11.211, -15.43, 3.6), v30, z0, tNozzle, \Wobj := wobj1Star;
		MoveL Offs(pZeroStarMute, 18.139, 5.894, 3.6), v30, z0, tNozzle, \Wobj := wobj1Star;
		MoveL Offs(pZeroStarMute, 0.0, 19.073, 3.6), v30, z0, tNozzle, \Wobj := wobj1Star;
		MoveL Offs(pZeroStarMute, -18.139, 5.894, 3.6), v30, z0, tNozzle, \Wobj := wobj1Star;
		MoveL Offs(pZeroStarMute, -11.211, -15.43, 3.6), v30, z0, tNozzle, \Wobj := wobj1Star;
		WaitRob \InPos;
		SetDO DO5_Program_Feed, 0;
		MoveL Offs(pZeroStarMute, -9.56, -14.931, 3.6), v100, z0, tNozzle, \Wobj := wobj1Star;
		WaitRob \InPos;
		SetDO DO5_Program_Feed, 1;
		MoveL Offs(pZeroStarMute, -16.51, 6.46, 3.6), v30, z0, tNozzle, \Wobj := wobj1Star;
		WaitRob \InPos;
		SetDO DO5_Program_Feed, 0;
		MoveL Offs(pZeroStarMute, -15.234, 7.387, 3.6), v100, z0, tNozzle, \Wobj := wobj1Star;
		WaitRob \InPos;
		SetDO DO5_Program_Feed, 1;
		MoveL Offs(pZeroStarMute, -7.982, -14.931, 3.6), v30, z0, tNozzle, \Wobj := wobj1Star;
		WaitRob \InPos;
		SetDO DO5_Program_Feed, 0;
		MoveL Offs(pZeroStarMute, -6.405, -14.931, 3.6), v100, z0, tNozzle, \Wobj := wobj1Star;
		WaitRob \InPos;
		SetDO DO5_Program_Feed, 1;
		MoveL Offs(pZeroStarMute, -13.958, 8.314, 3.6), v30, z0, tNozzle, \Wobj := wobj1Star;
		WaitRob \InPos;
		SetDO DO5_Program_Feed, 0;
		MoveL Offs(pZeroStarMute, -12.682, 9.241, 3.6), v100, z0, tNozzle, \Wobj := wobj1Star;
		WaitRob \InPos;
		SetDO DO5_Program_Feed, 1;
		MoveL Offs(pZeroStarMute, -4.828, -14.931, 3.6), v30, z0, tNozzle, \Wobj := wobj1Star;
		WaitRob \InPos;
		SetDO DO5_Program_Feed, 0;
		MoveL Offs(pZeroStarMute, -3.251, -14.931, 3.6), v100, z0, tNozzle, \Wobj := wobj1Star;
		WaitRob \InPos;
		SetDO DO5_Program_Feed, 1;
		MoveL Offs(pZeroStarMute, -11.406, 10.168, 3.6), v30, z0, tNozzle, \Wobj := wobj1Star;
		WaitRob \InPos;
		SetDO DO5_Program_Feed, 0;
		MoveL Offs(pZeroStarMute, -10.13, 11.095, 3.6), v100, z0, tNozzle, \Wobj := wobj1Star;
		WaitRob \InPos;
		SetDO DO5_Program_Feed, 1;
		MoveL Offs(pZeroStarMute, -1.674, -14.931, 3.6), v30, z0, tNozzle, \Wobj := wobj1Star;
		WaitRob \InPos;
		SetDO DO5_Program_Feed, 0;
		MoveL Offs(pZeroStarMute, -0.096, -14.931, 3.6), v100, z0, tNozzle, \Wobj := wobj1Star;
		WaitRob \InPos;
		SetDO DO5_Program_Feed, 1;
		MoveL Offs(pZeroStarMute, -8.854, 12.022, 3.6), v30, z0, tNozzle, \Wobj := wobj1Star;
		WaitRob \InPos;
		SetDO DO5_Program_Feed, 0;
		MoveL Offs(pZeroStarMute, -7.578, 12.949, 3.6), v100, z0, tNozzle, \Wobj := wobj1Star;
		WaitRob \InPos;
		SetDO DO5_Program_Feed, 1;
		MoveL Offs(pZeroStarMute, 1.481, -14.931, 3.6), v30, z0, tNozzle, \Wobj := wobj1Star;
		WaitRob \InPos;
		SetDO DO5_Program_Feed, 0;
		MoveL Offs(pZeroStarMute, 3.058, -14.931, 3.6), v100, z0, tNozzle, \Wobj := wobj1Star;
		WaitRob \InPos;
		SetDO DO5_Program_Feed, 1;
		MoveL Offs(pZeroStarMute, -6.302, 13.877, 3.6), v30, z0, tNozzle, \Wobj := wobj1Star;
		WaitRob \InPos;
		SetDO DO5_Program_Feed, 0;
		MoveL Offs(pZeroStarMute, -5.026, 14.804, 3.6), v100, z0, tNozzle, \Wobj := wobj1Star;
		WaitRob \InPos;
		SetDO DO5_Program_Feed, 1;
		MoveL Offs(pZeroStarMute, 4.635, -14.931, 3.6), v30, z0, tNozzle, \Wobj := wobj1Star;
		WaitRob \InPos;
		SetDO DO5_Program_Feed, 0;
		MoveL Offs(pZeroStarMute, 6.212, -14.931, 3.6), v100, z0, tNozzle, \Wobj := wobj1Star;
		WaitRob \InPos;
		SetDO DO5_Program_Feed, 1;
		MoveL Offs(pZeroStarMute, -3.75, 15.731, 3.6), v30, z0, tNozzle, \Wobj := wobj1Star;
		WaitRob \InPos;
		SetDO DO5_Program_Feed, 0;
		MoveL Offs(pZeroStarMute, -2.474, 16.658, 3.6), v100, z0, tNozzle, \Wobj := wobj1Star;
		WaitRob \InPos;
		SetDO DO5_Program_Feed, 1;
		MoveL Offs(pZeroStarMute, 7.79, -14.931, 3.6), v30, z0, tNozzle, \Wobj := wobj1Star;
		WaitRob \InPos;
		SetDO DO5_Program_Feed, 0;
		MoveL Offs(pZeroStarMute, 9.367, -14.931, 3.6), v100, z0, tNozzle, \Wobj := wobj1Star;
		WaitRob \InPos;
		SetDO DO5_Program_Feed, 1;
		MoveL Offs(pZeroStarMute, -1.198, 17.585, 3.6), v30, z0, tNozzle, \Wobj := wobj1Star;
		WaitRob \InPos;
		SetDO DO5_Program_Feed, 0;
		MoveL Offs(pZeroStarMute, 0.126, 18.364, 3.6), v100, z0, tNozzle, \Wobj := wobj1Star;
		WaitRob \InPos;
		SetDO DO5_Program_Feed, 1;
		MoveL Offs(pZeroStarMute, 10.896, -14.782, 3.6), v30, z0, tNozzle, \Wobj := wobj1Star;
		WaitRob \InPos;
		SetDO DO5_Program_Feed, 0;
		MoveL Offs(pZeroStarMute, 11.684, -12.355, 3.6), v100, z0, tNozzle, \Wobj := wobj1Star;
		WaitRob \InPos;
		SetDO DO5_Program_Feed, 1;
		MoveL Offs(pZeroStarMute, 2.191, 16.864, 3.6), v30, z0, tNozzle, \Wobj := wobj1Star;
		WaitRob \InPos;
		SetDO DO5_Program_Feed, 0;
		MoveL Offs(pZeroStarMute, 4.255, 15.364, 3.6), v100, z0, tNozzle, \Wobj := wobj1Star;
		WaitRob \InPos;
		SetDO DO5_Program_Feed, 1;
		MoveL Offs(pZeroStarMute, 12.473, -9.928, 3.6), v30, z0, tNozzle, \Wobj := wobj1Star;
		WaitRob \InPos;
		SetDO DO5_Program_Feed, 0;
		MoveL Offs(pZeroStarMute, 13.262, -7.501, 3.6), v100, z0, tNozzle, \Wobj := wobj1Star;
		WaitRob \InPos;
		SetDO DO5_Program_Feed, 1;
		MoveL Offs(pZeroStarMute, 6.32, 13.864, 3.6), v30, z0, tNozzle, \Wobj := wobj1Star;
		WaitRob \InPos;
		SetDO DO5_Program_Feed, 0;
		MoveL Offs(pZeroStarMute, 8.384, 12.364, 3.6), v100, z0, tNozzle, \Wobj := wobj1Star;
		WaitRob \InPos;
		SetDO DO5_Program_Feed, 1;
		MoveL Offs(pZeroStarMute, 14.05, -5.074, 3.6), v30, z0, tNozzle, \Wobj := wobj1Star;
		WaitRob \InPos;
		SetDO DO5_Program_Feed, 0;
		MoveL Offs(pZeroStarMute, 14.839, -2.647, 3.6), v100, z0, tNozzle, \Wobj := wobj1Star;
		WaitRob \InPos;
		SetDO DO5_Program_Feed, 1;
		MoveL Offs(pZeroStarMute, 10.449, 10.864, 3.6), v30, z0, tNozzle, \Wobj := wobj1Star;
		WaitRob \InPos;
		SetDO DO5_Program_Feed, 0;
		MoveL Offs(pZeroStarMute, 12.514, 9.364, 3.6), v100, z0, tNozzle, \Wobj := wobj1Star;
		WaitRob \InPos;
		SetDO DO5_Program_Feed, 1;
		MoveL Offs(pZeroStarMute, 15.627, -0.22, 3.6), v30, z0, tNozzle, \Wobj := wobj1Star;
		WaitRob \InPos;
		SetDO DO5_Program_Feed, 0;
		MoveL Offs(pZeroStarMute, 16.416, 2.207, 3.6), v100, z0, tNozzle, \Wobj := wobj1Star;
		WaitRob \InPos;
		SetDO DO5_Program_Feed, 1;
		MoveL Offs(pZeroStarMute, 14.578, 7.864, 3.6), v30, z0, tNozzle, \Wobj := wobj1Star;
		WaitRob \InPos;
		SetDO DO5_Program_Feed, 0;
		MoveL Offs(pZeroStarMute, 16.643, 6.364, 3.6), v100, z0, tNozzle, \Wobj := wobj1Star;
		WaitRob \InPos;
		SetDO DO5_Program_Feed, 1;
		MoveL Offs(pZeroStarMute, 17.205, 4.634, 3.6), v30, z0, tNozzle, \Wobj := wobj1Star;
		WaitRob \InPos;
		SetDO DO6_Between_Layer_Retract, 1;
		SetDO DO5_Program_Feed, 0;
		MoveL Offs(pZeroStarMute, 17.205, 4.634, 8.6), v100, z0, tNozzle, \Wobj := wobj1Star;

		! Layer: 13
		! LayerParams(infillAngleDegrees=20.0, pathWidth=1.5, layerHeight=0.3, infillShiftX=0.0, infillShiftY=0.0, numShells=2, infillOverlap=0.0002)
		! T113
		! M6
		TPWRITE "Layer 13 of 20";
		MoveL Offs(pZeroStarMute, -18.727, 6.085, 8.9), v100, z0, tNozzle, \Wobj := wobj1Star;
		MoveL Offs(pZeroStarMute, -18.727, 6.085, 3.9), v30, z0, tNozzle, \Wobj := wobj1Star;
		WaitRob \InPos;
		SetDO DO6_Between_Layer_Retract, 0;
		WaitRob \InPos;
		SetDO DO5_Program_Feed, 1;
		MoveL Offs(pZeroStarMute, -11.574, -15.93, 3.9), v30, z0, tNozzle, \Wobj := wobj1Star;
		MoveL Offs(pZeroStarMute, 11.574, -15.93, 3.9), v30, z0, tNozzle, \Wobj := wobj1Star;
		MoveL Offs(pZeroStarMute, 18.727, 6.085, 3.9), v30, z0, tNozzle, \Wobj := wobj1Star;
		MoveL Offs(pZeroStarMute, 0.0, 19.691, 3.9), v30, z0, tNozzle, \Wobj := wobj1Star;
		MoveL Offs(pZeroStarMute, -18.727, 6.085, 3.9), v30, z0, tNozzle, \Wobj := wobj1Star;
		WaitRob \InPos;
		SetDO DO5_Program_Feed, 0;
		MoveL Offs(pZeroStarMute, -18.139, 5.894, 3.9), v100, z0, tNozzle, \Wobj := wobj1Star;
		WaitRob \InPos;
		SetDO DO5_Program_Feed, 1;
		MoveL Offs(pZeroStarMute, -11.211, -15.43, 3.9), v30, z0, tNozzle, \Wobj := wobj1Star;
		MoveL Offs(pZeroStarMute, 11.211, -15.43, 3.9), v30, z0, tNozzle, \Wobj := wobj1Star;
		MoveL Offs(pZeroStarMute, 18.139, 5.894, 3.9), v30, z0, tNozzle, \Wobj := wobj1Star;
		MoveL Offs(pZeroStarMute, 0.0, 19.073, 3.9), v30, z0, tNozzle, \Wobj := wobj1Star;
		MoveL Offs(pZeroStarMute, -18.139, 5.894, 3.9), v30, z0, tNozzle, \Wobj := wobj1Star;
		WaitRob \InPos;
		SetDO DO5_Program_Feed, 0;
		MoveL Offs(pZeroStarMute, -17.423, 5.797, 3.9), v100, z0, tNozzle, \Wobj := wobj1Star;
		WaitRob \InPos;
		SetDO DO5_Program_Feed, 1;
		MoveL Offs(pZeroStarMute, 5.793, 14.246, 3.9), v30, z0, tNozzle, \Wobj := wobj1Star;
		WaitRob \InPos;
		SetDO DO5_Program_Feed, 0;
		MoveL Offs(pZeroStarMute, 4.329, 15.31, 3.9), v100, z0, tNozzle, \Wobj := wobj1Star;
		WaitRob \InPos;
		SetDO DO5_Program_Feed, 1;
		MoveL Offs(pZeroStarMute, -13.02, 8.995, 3.9), v30, z0, tNozzle, \Wobj := wobj1Star;
		WaitRob \InPos;
		SetDO DO5_Program_Feed, 0;
		MoveL Offs(pZeroStarMute, -8.618, 12.194, 3.9), v100, z0, tNozzle, \Wobj := wobj1Star;
		WaitRob \InPos;
		SetDO DO5_Program_Feed, 1;
		MoveL Offs(pZeroStarMute, 2.865, 16.373, 3.9), v30, z0, tNozzle, \Wobj := wobj1Star;
		WaitRob \InPos;
		SetDO DO5_Program_Feed, 0;
		MoveL Offs(pZeroStarMute, 1.401, 17.437, 3.9), v100, z0, tNozzle, \Wobj := wobj1Star;
		WaitRob \InPos;
		SetDO DO5_Program_Feed, 1;
		MoveL Offs(pZeroStarMute, -4.215, 15.393, 3.9), v30, z0, tNozzle, \Wobj := wobj1Star;
		WaitRob \InPos;
		SetDO DO5_Program_Feed, 0;
		MoveL Offs(pZeroStarMute, 7.257, 13.183, 3.9), v100, z0, tNozzle, \Wobj := wobj1Star;
		WaitRob \InPos;
		SetDO DO5_Program_Feed, 1;
		MoveL Offs(pZeroStarMute, -17.102, 4.317, 3.9), v30, z0, tNozzle, \Wobj := wobj1Star;
		WaitRob \InPos;
		SetDO DO5_Program_Feed, 0;
		MoveL Offs(pZeroStarMute, -16.638, 2.89, 3.9), v100, z0, tNozzle, \Wobj := wobj1Star;
		WaitRob \InPos;
		SetDO DO5_Program_Feed, 1;
		MoveL Offs(pZeroStarMute, 8.72, 12.119, 3.9), v30, z0, tNozzle, \Wobj := wobj1Star;
		WaitRob \InPos;
		SetDO DO5_Program_Feed, 0;
		MoveL Offs(pZeroStarMute, 10.184, 11.056, 3.9), v100, z0, tNozzle, \Wobj := wobj1Star;
		WaitRob \InPos;
		SetDO DO5_Program_Feed, 1;
		MoveL Offs(pZeroStarMute, -16.174, 1.462, 3.9), v30, z0, tNozzle, \Wobj := wobj1Star;
		WaitRob \InPos;
		SetDO DO5_Program_Feed, 0;
		MoveL Offs(pZeroStarMute, -15.71, 0.035, 3.9), v100, z0, tNozzle, \Wobj := wobj1Star;
		WaitRob \InPos;
		SetDO DO5_Program_Feed, 1;
		MoveL Offs(pZeroStarMute, 11.648, 9.992, 3.9), v30, z0, tNozzle, \Wobj := wobj1Star;
		WaitRob \InPos;
		SetDO DO5_Program_Feed, 0;
		MoveL Offs(pZeroStarMute, 13.112, 8.929, 3.9), v100, z0, tNozzle, \Wobj := wobj1Star;
		WaitRob \InPos;
		SetDO DO5_Program_Feed, 1;
		MoveL Offs(pZeroStarMute, -15.246, -1.393, 3.9), v30, z0, tNozzle, \Wobj := wobj1Star;
		WaitRob \InPos;
		SetDO DO5_Program_Feed, 0;
		MoveL Offs(pZeroStarMute, -14.783, -2.82, 3.9), v100, z0, tNozzle, \Wobj := wobj1Star;
		WaitRob \InPos;
		SetDO DO5_Program_Feed, 1;
		MoveL Offs(pZeroStarMute, 14.575, 7.865, 3.9), v30, z0, tNozzle, \Wobj := wobj1Star;
		WaitRob \InPos;
		SetDO DO5_Program_Feed, 0;
		MoveL Offs(pZeroStarMute, 16.039, 6.802, 3.9), v100, z0, tNozzle, \Wobj := wobj1Star;
		WaitRob \InPos;
		SetDO DO5_Program_Feed, 1;
		MoveL Offs(pZeroStarMute, -14.319, -4.247, 3.9), v30, z0, tNozzle, \Wobj := wobj1Star;
		WaitRob \InPos;
		SetDO DO5_Program_Feed, 0;
		MoveL Offs(pZeroStarMute, -13.855, -5.675, 3.9), v100, z0, tNozzle, \Wobj := wobj1Star;
		WaitRob \InPos;
		SetDO DO5_Program_Feed, 1;
		MoveL Offs(pZeroStarMute, 17.503, 5.738, 3.9), v30, z0, tNozzle, \Wobj := wobj1Star;
		WaitRob \InPos;
		SetDO DO5_Program_Feed, 0;
		MoveL Offs(pZeroStarMute, 16.983, 3.953, 3.9), v100, z0, tNozzle, \Wobj := wobj1Star;
		WaitRob \InPos;
		SetDO DO5_Program_Feed, 1;
		MoveL Offs(pZeroStarMute, -13.391, -7.102, 3.9), v30, z0, tNozzle, \Wobj := wobj1Star;
		WaitRob \InPos;
		SetDO DO5_Program_Feed, 0;
		MoveL Offs(pZeroStarMute, -12.927, -8.53, 3.9), v100, z0, tNozzle, \Wobj := wobj1Star;
		WaitRob \InPos;
		SetDO DO5_Program_Feed, 1;
		MoveL Offs(pZeroStarMute, 16.395, 2.143, 3.9), v30, z0, tNozzle, \Wobj := wobj1Star;
		WaitRob \InPos;
		SetDO DO5_Program_Feed, 0;
		MoveL Offs(pZeroStarMute, 15.807, 0.332, 3.9), v100, z0, tNozzle, \Wobj := wobj1Star;
		WaitRob \InPos;
		SetDO DO5_Program_Feed, 1;
		MoveL Offs(pZeroStarMute, -12.464, -9.957, 3.9), v30, z0, tNozzle, \Wobj := wobj1Star;
		WaitRob \InPos;
		SetDO DO5_Program_Feed, 0;
		MoveL Offs(pZeroStarMute, -12.0, -11.385, 3.9), v100, z0, tNozzle, \Wobj := wobj1Star;
		WaitRob \InPos;
		SetDO DO5_Program_Feed, 1;
		MoveL Offs(pZeroStarMute, 15.219, -1.478, 3.9), v30, z0, tNozzle, \Wobj := wobj1Star;
		WaitRob \InPos;
		SetDO DO5_Program_Feed, 0;
		MoveL Offs(pZeroStarMute, 14.63, -3.288, 3.9), v100, z0, tNozzle, \Wobj := wobj1Star;
		WaitRob \InPos;
		SetDO DO5_Program_Feed, 1;
		MoveL Offs(pZeroStarMute, -11.536, -12.812, 3.9), v30, z0, tNozzle, \Wobj := wobj1Star;
		WaitRob \InPos;
		SetDO DO5_Program_Feed, 0;
