MODULE MainModule
	PROC main()
		Heat;
		SetDO DO1_Auto_Mode, 1;

		

		! Part number: 1
		! PartParams(extrusionFactor=0.98, printSpeed=30, shiftX=-17.5, shiftY=-17.5, shiftZ=0.0, numLayers=20, designType=0, brims=0, horizontalExpansion=0.0, randomStartLocation=1)

		! Layer: 1
		! LayerParams(infillAngleDegrees=45.0, pathWidth=3.0, layerHeight=0.3, infillShiftX=0.0, infillShiftY=0.0, numShells=1, infillOverlap=0.0002)
		! T11
		! M6
		TPWRITE "Layer 1 of 20";
		MoveL Offs(pZeroCircle, -13.381, -10.927, 5.3), v100, z0, tNozzle, \Wobj := wobj2Circle;
		MoveL Offs(pZeroCircle, -13.381, -10.927, 0.3), v30, z0, tNozzle, \Wobj := wobj2Circle;
		WaitRob \InPos;
		SetDO DO5_Program_Feed, 1;
		MoveL Offs(pZeroCircle, -11.774, -12.647, 0.3), v30, z0, tNozzle, \Wobj := wobj2Circle;
		MoveL Offs(pZeroCircle, -9.947, -14.133, 0.3), v30, z0, tNozzle, \Wobj := wobj2Circle;
		MoveL Offs(pZeroCircle, -7.936, -15.356, 0.3), v30, z0, tNozzle, \Wobj := wobj2Circle;
		MoveL Offs(pZeroCircle, -5.776, -16.294, 0.3), v30, z0, tNozzle, \Wobj := wobj2Circle;
		MoveL Offs(pZeroCircle, -3.509, -16.929, 0.3), v30, z0, tNozzle, \Wobj := wobj2Circle;
		MoveL Offs(pZeroCircle, -1.177, -17.25, 0.3), v30, z0, tNozzle, \Wobj := wobj2Circle;
		MoveL Offs(pZeroCircle, 1.177, -17.25, 0.3), v30, z0, tNozzle, \Wobj := wobj2Circle;
		MoveL Offs(pZeroCircle, 3.509, -16.929, 0.3), v30, z0, tNozzle, \Wobj := wobj2Circle;
		MoveL Offs(pZeroCircle, 5.776, -16.294, 0.3), v30, z0, tNozzle, \Wobj := wobj2Circle;
		MoveL Offs(pZeroCircle, 7.936, -15.356, 0.3), v30, z0, tNozzle, \Wobj := wobj2Circle;
		MoveL Offs(pZeroCircle, 9.947, -14.133, 0.3), v30, z0, tNozzle, \Wobj := wobj2Circle;
		MoveL Offs(pZeroCircle, 11.774, -12.647, 0.3), v30, z0, tNozzle, \Wobj := wobj2Circle;
		MoveL Offs(pZeroCircle, 13.381, -10.927, 0.3), v30, z0, tNozzle, \Wobj := wobj2Circle;
		MoveL Offs(pZeroCircle, 14.738, -9.003, 0.3), v30, z0, tNozzle, \Wobj := wobj2Circle;
		MoveL Offs(pZeroCircle, 15.821, -6.913, 0.3), v30, z0, tNozzle, \Wobj := wobj2Circle;
		MoveL Offs(pZeroCircle, 16.61, -4.695, 0.3), v30, z0, tNozzle, \Wobj := wobj2Circle;
		MoveL Offs(pZeroCircle, 17.089, -2.39, 0.3), v30, z0, tNozzle, \Wobj := wobj2Circle;
		MoveL Offs(pZeroCircle, 17.249, -0.041, 0.3), v30, z0, tNozzle, \Wobj := wobj2Circle;
		MoveL Offs(pZeroCircle, 17.089, 2.308, 0.3), v30, z0, tNozzle, \Wobj := wobj2Circle;
		MoveL Offs(pZeroCircle, 16.61, 4.613, 0.3), v30, z0, tNozzle, \Wobj := wobj2Circle;
		MoveL Offs(pZeroCircle, 15.821, 6.831, 0.3), v30, z0, tNozzle, \Wobj := wobj2Circle;
		MoveL Offs(pZeroCircle, 14.738, 8.922, 0.3), v30, z0, tNozzle, \Wobj := wobj2Circle;
		MoveL Offs(pZeroCircle, 13.381, 10.845, 0.3), v30, z0, tNozzle, \Wobj := wobj2Circle;
		MoveL Offs(pZeroCircle, 11.774, 12.566, 0.3), v30, z0, tNozzle, \Wobj := wobj2Circle;
		MoveL Offs(pZeroCircle, 9.947, 14.051, 0.3), v30, z0, tNozzle, \Wobj := wobj2Circle;
		MoveL Offs(pZeroCircle, 7.936, 15.275, 0.3), v30, z0, tNozzle, \Wobj := wobj2Circle;
		MoveL Offs(pZeroCircle, 5.776, 16.213, 0.3), v30, z0, tNozzle, \Wobj := wobj2Circle;
		MoveL Offs(pZeroCircle, 3.509, 16.848, 0.3), v30, z0, tNozzle, \Wobj := wobj2Circle;
		MoveL Offs(pZeroCircle, 1.177, 17.168, 0.3), v30, z0, tNozzle, \Wobj := wobj2Circle;
		MoveL Offs(pZeroCircle, -1.177, 17.168, 0.3), v30, z0, tNozzle, \Wobj := wobj2Circle;
		MoveL Offs(pZeroCircle, -3.509, 16.848, 0.3), v30, z0, tNozzle, \Wobj := wobj2Circle;
		MoveL Offs(pZeroCircle, -5.776, 16.213, 0.3), v30, z0, tNozzle, \Wobj := wobj2Circle;
		MoveL Offs(pZeroCircle, -7.936, 15.275, 0.3), v30, z0, tNozzle, \Wobj := wobj2Circle;
		MoveL Offs(pZeroCircle, -9.947, 14.051, 0.3), v30, z0, tNozzle, \Wobj := wobj2Circle;
		MoveL Offs(pZeroCircle, -11.774, 12.566, 0.3), v30, z0, tNozzle, \Wobj := wobj2Circle;
		MoveL Offs(pZeroCircle, -13.381, 10.845, 0.3), v30, z0, tNozzle, \Wobj := wobj2Circle;
		MoveL Offs(pZeroCircle, -14.738, 8.922, 0.3), v30, z0, tNozzle, \Wobj := wobj2Circle;
		MoveL Offs(pZeroCircle, -15.821, 6.831, 0.3), v30, z0, tNozzle, \Wobj := wobj2Circle;
		MoveL Offs(pZeroCircle, -16.61, 4.613, 0.3), v30, z0, tNozzle, \Wobj := wobj2Circle;
		MoveL Offs(pZeroCircle, -17.089, 2.308, 0.3), v30, z0, tNozzle, \Wobj := wobj2Circle;
		MoveL Offs(pZeroCircle, -17.249, -0.041, 0.3), v30, z0, tNozzle, \Wobj := wobj2Circle;
		MoveL Offs(pZeroCircle, -17.089, -2.39, 0.3), v30, z0, tNozzle, \Wobj := wobj2Circle;
		MoveL Offs(pZeroCircle, -16.61, -4.695, 0.3), v30, z0, tNozzle, \Wobj := wobj2Circle;
		MoveL Offs(pZeroCircle, -15.821, -6.913, 0.3), v30, z0, tNozzle, \Wobj := wobj2Circle;
		MoveL Offs(pZeroCircle, -14.738, -9.003, 0.3), v30, z0, tNozzle, \Wobj := wobj2Circle;
		MoveL Offs(pZeroCircle, -13.381, -10.927, 0.3), v30, z0, tNozzle, \Wobj := wobj2Circle;
		WaitRob \InPos;
		SetDO DO5_Program_Feed, 0;
		MoveL Offs(pZeroCircle, -12.847, -10.766, 0.3), v100, z0, tNozzle, \Wobj := wobj2Circle;
		WaitRob \InPos;
		SetDO DO5_Program_Feed, 1;
		MoveL Offs(pZeroCircle, 10.708, 12.788, 0.3), v30, z0, tNozzle, \Wobj := wobj2Circle;
		WaitRob \InPos;
		SetDO DO5_Program_Feed, 0;
		MoveL Offs(pZeroCircle, 12.847, 10.685, 0.3), v100, z0, tNozzle, \Wobj := wobj2Circle;
		WaitRob \InPos;
		SetDO DO5_Program_Feed, 1;
		MoveL Offs(pZeroCircle, -10.708, -12.87, 0.3), v30, z0, tNozzle, \Wobj := wobj2Circle;
		WaitRob \InPos;
		SetDO DO5_Program_Feed, 0;
		MoveL Offs(pZeroCircle, -8.204, -14.608, 0.3), v100, z0, tNozzle, \Wobj := wobj2Circle;
		WaitRob \InPos;
		SetDO DO5_Program_Feed, 1;
		MoveL Offs(pZeroCircle, 14.568, 8.163, 0.3), v30, z0, tNozzle, \Wobj := wobj2Circle;
		WaitRob \InPos;
		SetDO DO5_Program_Feed, 0;
		MoveL Offs(pZeroCircle, 15.865, 5.217, 0.3), v100, z0, tNozzle, \Wobj := wobj2Circle;
		WaitRob \InPos;
		SetDO DO5_Program_Feed, 1;
		MoveL Offs(pZeroCircle, -5.27, -15.917, 0.3), v30, z0, tNozzle, \Wobj := wobj2Circle;
		WaitRob \InPos;
		SetDO DO5_Program_Feed, 0;
		MoveL Offs(pZeroCircle, -1.773, -16.664, 0.3), v100, z0, tNozzle, \Wobj := wobj2Circle;
		WaitRob \InPos;
		SetDO DO5_Program_Feed, 1;
		MoveL Offs(pZeroCircle, 16.627, 1.737, 0.3), v30, z0, tNozzle, \Wobj := wobj2Circle;
		WaitRob \InPos;
		SetDO DO5_Program_Feed, 0;
		MoveL Offs(pZeroCircle, 16.535, -2.598, 0.3), v100, z0, tNozzle, \Wobj := wobj2Circle;
		WaitRob \InPos;
		SetDO DO5_Program_Feed, 1;
		MoveL Offs(pZeroCircle, 2.58, -16.553, 0.3), v30, z0, tNozzle, \Wobj := wobj2Circle;
		WaitRob \InPos;
		SetDO DO5_Program_Feed, 0;
		MoveL Offs(pZeroCircle, 9.641, -13.735, 0.3), v100, z0, tNozzle, \Wobj := wobj2Circle;
		WaitRob \InPos;
		SetDO DO5_Program_Feed, 1;
		MoveL Offs(pZeroCircle, 13.537, -9.838, 0.3), v30, z0, tNozzle, \Wobj := wobj2Circle;
		WaitRob \InPos;
		SetDO DO5_Program_Feed, 0;
		MoveL Offs(pZeroCircle, 8.204, 14.527, 0.3), v100, z0, tNozzle, \Wobj := wobj2Circle;
		WaitRob \InPos;
		SetDO DO5_Program_Feed, 1;
		MoveL Offs(pZeroCircle, -14.568, -8.245, 0.3), v30, z0, tNozzle, \Wobj := wobj2Circle;
		WaitRob \InPos;
		SetDO DO5_Program_Feed, 0;
		MoveL Offs(pZeroCircle, -15.865, -5.299, 0.3), v100, z0, tNozzle, \Wobj := wobj2Circle;
		WaitRob \InPos;
		SetDO DO5_Program_Feed, 1;
		MoveL Offs(pZeroCircle, 5.27, 15.836, 0.3), v30, z0, tNozzle, \Wobj := wobj2Circle;
		WaitRob \InPos;
		SetDO DO5_Program_Feed, 0;
		MoveL Offs(pZeroCircle, 1.773, 16.582, 0.3), v100, z0, tNozzle, \Wobj := wobj2Circle;
		WaitRob \InPos;
		SetDO DO5_Program_Feed, 1;
		MoveL Offs(pZeroCircle, -16.627, -1.818, 0.3), v30, z0, tNozzle, \Wobj := wobj2Circle;
		WaitRob \InPos;
		SetDO DO5_Program_Feed, 0;
		MoveL Offs(pZeroCircle, -16.535, 2.516, 0.3), v100, z0, tNozzle, \Wobj := wobj2Circle;
		WaitRob \InPos;
		SetDO DO5_Program_Feed, 1;
		MoveL Offs(pZeroCircle, -2.58, 16.471, 0.3), v30, z0, tNozzle, \Wobj := wobj2Circle;
		WaitRob \InPos;
		SetDO DO5_Program_Feed, 0;
		MoveL Offs(pZeroCircle, -9.641, 13.653, 0.3), v100, z0, tNozzle, \Wobj := wobj2Circle;
		WaitRob \InPos;
		SetDO DO5_Program_Feed, 1;
		MoveL Offs(pZeroCircle, -13.537, 9.757, 0.3), v30, z0, tNozzle, \Wobj := wobj2Circle;
		WaitRob \InPos;
		SetDO DO6_Between_Layer_Retract, 1;
		SetDO DO5_Program_Feed, 0;
		MoveL Offs(pZeroCircle, -13.537, 9.757, 5.3), v100, z0, tNozzle, \Wobj := wobj2Circle;

		! Layer: 2
		! LayerParams(infillAngleDegrees=-45.0, pathWidth=3.0, layerHeight=0.3, infillShiftX=0.0, infillShiftY=0.0, numShells=1, infillOverlap=0.0002)
		! T12
		! M6
		TPWRITE "Layer 2 of 20";
		MoveL Offs(pZeroCircle, 5.78, 16.211, 5.6), v100, z0, tNozzle, \Wobj := wobj2Circle;
		MoveL Offs(pZeroCircle, 5.78, 16.211, 0.6), v30, z0, tNozzle, \Wobj := wobj2Circle;
		WaitRob \InPos;
		SetDO DO6_Between_Layer_Retract, 0;
		WaitRob \InPos;
		SetDO DO5_Program_Feed, 1;
		MoveL Offs(pZeroCircle, 5.776, 16.213, 0.6), v30, z0, tNozzle, \Wobj := wobj2Circle;
		MoveL Offs(pZeroCircle, 3.513, 16.847, 0.6), v30, z0, tNozzle, \Wobj := wobj2Circle;
		MoveL Offs(pZeroCircle, 3.509, 16.848, 0.6), v30, z0, tNozzle, \Wobj := wobj2Circle;
		MoveL Offs(pZeroCircle, 1.18, 17.168, 0.6), v30, z0, tNozzle, \Wobj := wobj2Circle;
		MoveL Offs(pZeroCircle, 1.177, 17.168, 0.6), v30, z0, tNozzle, \Wobj := wobj2Circle;
		MoveL Offs(pZeroCircle, -1.177, 17.168, 0.6), v30, z0, tNozzle, \Wobj := wobj2Circle;
		MoveL Offs(pZeroCircle, -3.506, 16.848, 0.6), v30, z0, tNozzle, \Wobj := wobj2Circle;
		MoveL Offs(pZeroCircle, -3.509, 16.848, 0.6), v30, z0, tNozzle, \Wobj := wobj2Circle;
		MoveL Offs(pZeroCircle, -5.773, 16.214, 0.6), v30, z0, tNozzle, \Wobj := wobj2Circle;
		MoveL Offs(pZeroCircle, -5.776, 16.213, 0.6), v30, z0, tNozzle, \Wobj := wobj2Circle;
		MoveL Offs(pZeroCircle, -7.933, 15.276, 0.6), v30, z0, tNozzle, \Wobj := wobj2Circle;
		MoveL Offs(pZeroCircle, -7.936, 15.275, 0.6), v30, z0, tNozzle, \Wobj := wobj2Circle;
		MoveL Offs(pZeroCircle, -9.945, 14.053, 0.6), v30, z0, tNozzle, \Wobj := wobj2Circle;
		MoveL Offs(pZeroCircle, -9.947, 14.051, 0.6), v30, z0, tNozzle, \Wobj := wobj2Circle;
		MoveL Offs(pZeroCircle, -11.771, 12.568, 0.6), v30, z0, tNozzle, \Wobj := wobj2Circle;
		MoveL Offs(pZeroCircle, -11.774, 12.566, 0.6), v30, z0, tNozzle, \Wobj := wobj2Circle;
		MoveL Offs(pZeroCircle, -13.378, 10.848, 0.6), v30, z0, tNozzle, \Wobj := wobj2Circle;
		MoveL Offs(pZeroCircle, -13.381, 10.845, 0.6), v30, z0, tNozzle, \Wobj := wobj2Circle;
		MoveL Offs(pZeroCircle, -14.736, 8.924, 0.6), v30, z0, tNozzle, \Wobj := wobj2Circle;
		MoveL Offs(pZeroCircle, -14.738, 8.922, 0.6), v30, z0, tNozzle, \Wobj := wobj2Circle;
		MoveL Offs(pZeroCircle, -15.82, 6.834, 0.6), v30, z0, tNozzle, \Wobj := wobj2Circle;
		MoveL Offs(pZeroCircle, -15.821, 6.831, 0.6), v30, z0, tNozzle, \Wobj := wobj2Circle;
		MoveL Offs(pZeroCircle, -16.609, 4.616, 0.6), v30, z0, tNozzle, \Wobj := wobj2Circle;
		MoveL Offs(pZeroCircle, -16.61, 4.613, 0.6), v30, z0, tNozzle, \Wobj := wobj2Circle;
		MoveL Offs(pZeroCircle, -17.088, 2.311, 0.6), v30, z0, tNozzle, \Wobj := wobj2Circle;
		MoveL Offs(pZeroCircle, -17.089, 2.308, 0.6), v30, z0, tNozzle, \Wobj := wobj2Circle;
		MoveL Offs(pZeroCircle, -17.249, -0.037, 0.6), v30, z0, tNozzle, \Wobj := wobj2Circle;
		MoveL Offs(pZeroCircle, -17.249, -0.041, 0.6), v30, z0, tNozzle, \Wobj := wobj2Circle;
		MoveL Offs(pZeroCircle, -17.089, -2.386, 0.6), v30, z0, tNozzle, \Wobj := wobj2Circle;
		MoveL Offs(pZeroCircle, -17.089, -2.39, 0.6), v30, z0, tNozzle, \Wobj := wobj2Circle;
		MoveL Offs(pZeroCircle, -16.61, -4.691, 0.6), v30, z0, tNozzle, \Wobj := wobj2Circle;
		MoveL Offs(pZeroCircle, -16.61, -4.695, 0.6), v30, z0, tNozzle, \Wobj := wobj2Circle;
		MoveL Offs(pZeroCircle, -15.822, -6.91, 0.6), v30, z0, tNozzle, \Wobj := wobj2Circle;
		MoveL Offs(pZeroCircle, -15.821, -6.913, 0.6), v30, z0, tNozzle, \Wobj := wobj2Circle;
		MoveL Offs(pZeroCircle, -14.74, -9.0, 0.6), v30, z0, tNozzle, \Wobj := wobj2Circle;
		MoveL Offs(pZeroCircle, -14.738, -9.003, 0.6), v30, z0, tNozzle, \Wobj := wobj2Circle;
		MoveL Offs(pZeroCircle, -13.383, -10.924, 0.6), v30, z0, tNozzle, \Wobj := wobj2Circle;
		MoveL Offs(pZeroCircle, -13.381, -10.927, 0.6), v30, z0, tNozzle, \Wobj := wobj2Circle;
		MoveL Offs(pZeroCircle, -11.776, -12.645, 0.6), v30, z0, tNozzle, \Wobj := wobj2Circle;
		MoveL Offs(pZeroCircle, -11.774, -12.647, 0.6), v30, z0, tNozzle, \Wobj := wobj2Circle;
		MoveL Offs(pZeroCircle, -9.95, -14.131, 0.6), v30, z0, tNozzle, \Wobj := wobj2Circle;
		MoveL Offs(pZeroCircle, -9.947, -14.133, 0.6), v30, z0, tNozzle, \Wobj := wobj2Circle;
		MoveL Offs(pZeroCircle, -7.939, -15.355, 0.6), v30, z0, tNozzle, \Wobj := wobj2Circle;
		MoveL Offs(pZeroCircle, -7.936, -15.356, 0.6), v30, z0, tNozzle, \Wobj := wobj2Circle;
		MoveL Offs(pZeroCircle, -5.78, -16.293, 0.6), v30, z0, tNozzle, \Wobj := wobj2Circle;
		MoveL Offs(pZeroCircle, -5.776, -16.294, 0.6), v30, z0, tNozzle, \Wobj := wobj2Circle;
		MoveL Offs(pZeroCircle, -3.513, -16.929, 0.6), v30, z0, tNozzle, \Wobj := wobj2Circle;
		MoveL Offs(pZeroCircle, -3.509, -16.929, 0.6), v30, z0, tNozzle, \Wobj := wobj2Circle;
		MoveL Offs(pZeroCircle, -1.18, -17.25, 0.6), v30, z0, tNozzle, \Wobj := wobj2Circle;
		MoveL Offs(pZeroCircle, -1.177, -17.25, 0.6), v30, z0, tNozzle, \Wobj := wobj2Circle;
		MoveL Offs(pZeroCircle, 1.177, -17.25, 0.6), v30, z0, tNozzle, \Wobj := wobj2Circle;
		MoveL Offs(pZeroCircle, 3.506, -16.93, 0.6), v30, z0, tNozzle, \Wobj := wobj2Circle;
		MoveL Offs(pZeroCircle, 3.509, -16.929, 0.6), v30, z0, tNozzle, \Wobj := wobj2Circle;
		MoveL Offs(pZeroCircle, 5.773, -16.295, 0.6), v30, z0, tNozzle, \Wobj := wobj2Circle;
		MoveL Offs(pZeroCircle, 5.776, -16.294, 0.6), v30, z0, tNozzle, \Wobj := wobj2Circle;
		MoveL Offs(pZeroCircle, 7.933, -15.358, 0.6), v30, z0, tNozzle, \Wobj := wobj2Circle;
		MoveL Offs(pZeroCircle, 7.936, -15.356, 0.6), v30, z0, tNozzle, \Wobj := wobj2Circle;
		MoveL Offs(pZeroCircle, 9.945, -14.135, 0.6), v30, z0, tNozzle, \Wobj := wobj2Circle;
		MoveL Offs(pZeroCircle, 9.947, -14.133, 0.6), v30, z0, tNozzle, \Wobj := wobj2Circle;
		MoveL Offs(pZeroCircle, 11.771, -12.649, 0.6), v30, z0, tNozzle, \Wobj := wobj2Circle;
		MoveL Offs(pZeroCircle, 11.774, -12.647, 0.6), v30, z0, tNozzle, \Wobj := wobj2Circle;
		MoveL Offs(pZeroCircle, 13.378, -10.929, 0.6), v30, z0, tNozzle, \Wobj := wobj2Circle;
		MoveL Offs(pZeroCircle, 13.381, -10.927, 0.6), v30, z0, tNozzle, \Wobj := wobj2Circle;
		MoveL Offs(pZeroCircle, 14.736, -9.006, 0.6), v30, z0, tNozzle, \Wobj := wobj2Circle;
		MoveL Offs(pZeroCircle, 14.738, -9.003, 0.6), v30, z0, tNozzle, \Wobj := wobj2Circle;
		MoveL Offs(pZeroCircle, 15.82, -6.916, 0.6), v30, z0, tNozzle, \Wobj := wobj2Circle;
		MoveL Offs(pZeroCircle, 15.821, -6.913, 0.6), v30, z0, tNozzle, \Wobj := wobj2Circle;
		MoveL Offs(pZeroCircle, 16.609, -4.698, 0.6), v30, z0, tNozzle, \Wobj := wobj2Circle;
		MoveL Offs(pZeroCircle, 16.61, -4.695, 0.6), v30, z0, tNozzle, \Wobj := wobj2Circle;
		MoveL Offs(pZeroCircle, 17.088, -2.393, 0.6), v30, z0, tNozzle, \Wobj := wobj2Circle;
		MoveL Offs(pZeroCircle, 17.089, -2.39, 0.6), v30, z0, tNozzle, \Wobj := wobj2Circle;
		MoveL Offs(pZeroCircle, 17.249, -0.044, 0.6), v30, z0, tNozzle, \Wobj := wobj2Circle;
		MoveL Offs(pZeroCircle, 17.249, -0.041, 0.6), v30, z0, tNozzle, \Wobj := wobj2Circle;
		MoveL Offs(pZeroCircle, 17.089, 2.305, 0.6), v30, z0, tNozzle, \Wobj := wobj2Circle;
		MoveL Offs(pZeroCircle, 17.089, 2.308, 0.6), v30, z0, tNozzle, \Wobj := wobj2Circle;
		MoveL Offs(pZeroCircle, 16.61, 4.61, 0.6), v30, z0, tNozzle, \Wobj := wobj2Circle;
		MoveL Offs(pZeroCircle, 16.61, 4.613, 0.6), v30, z0, tNozzle, \Wobj := wobj2Circle;
		MoveL Offs(pZeroCircle, 15.822, 6.828, 0.6), v30, z0, tNozzle, \Wobj := wobj2Circle;
		MoveL Offs(pZeroCircle, 15.821, 6.831, 0.6), v30, z0, tNozzle, \Wobj := wobj2Circle;
		MoveL Offs(pZeroCircle, 14.74, 8.919, 0.6), v30, z0, tNozzle, \Wobj := wobj2Circle;
		MoveL Offs(pZeroCircle, 14.738, 8.922, 0.6), v30, z0, tNozzle, \Wobj := wobj2Circle;
		MoveL Offs(pZeroCircle, 13.383, 10.842, 0.6), v30, z0, tNozzle, \Wobj := wobj2Circle;
		MoveL Offs(pZeroCircle, 13.381, 10.845, 0.6), v30, z0, tNozzle, \Wobj := wobj2Circle;
		MoveL Offs(pZeroCircle, 11.776, 12.563, 0.6), v30, z0, tNozzle, \Wobj := wobj2Circle;
		MoveL Offs(pZeroCircle, 11.774, 12.566, 0.6), v30, z0, tNozzle, \Wobj := wobj2Circle;
		MoveL Offs(pZeroCircle, 9.95, 14.049, 0.6), v30, z0, tNozzle, \Wobj := wobj2Circle;
		MoveL Offs(pZeroCircle, 9.947, 14.051, 0.6), v30, z0, tNozzle, \Wobj := wobj2Circle;
		MoveL Offs(pZeroCircle, 7.939, 15.273, 0.6), v30, z0, tNozzle, \Wobj := wobj2Circle;
		MoveL Offs(pZeroCircle, 7.936, 15.275, 0.6), v30, z0, tNozzle, \Wobj := wobj2Circle;
		MoveL Offs(pZeroCircle, 5.78, 16.211, 0.6), v30, z0, tNozzle, \Wobj := wobj2Circle;
		WaitRob \InPos;
		SetDO DO5_Program_Feed, 0;
		MoveL Offs(pZeroCircle, 2.58, 16.471, 0.6), v100, z0, tNozzle, \Wobj := wobj2Circle;
		WaitRob \InPos;
		SetDO DO5_Program_Feed, 1;
		MoveL Offs(pZeroCircle, 16.535, 2.516, 0.6), v30, z0, tNozzle, \Wobj := wobj2Circle;
		WaitRob \InPos;
		SetDO DO5_Program_Feed, 0;
		MoveL Offs(pZeroCircle, 16.627, -1.818, 0.6), v100, z0, tNozzle, \Wobj := wobj2Circle;
		WaitRob \InPos;
		SetDO DO5_Program_Feed, 1;
		MoveL Offs(pZeroCircle, -1.774, 16.582, 0.6), v30, z0, tNozzle, \Wobj := wobj2Circle;
		WaitRob \InPos;
		SetDO DO5_Program_Feed, 0;
		MoveL Offs(pZeroCircle, -5.27, 15.835, 0.6), v100, z0, tNozzle, \Wobj := wobj2Circle;
		WaitRob \InPos;
		SetDO DO5_Program_Feed, 1;
		MoveL Offs(pZeroCircle, 15.864, -5.299, 0.6), v30, z0, tNozzle, \Wobj := wobj2Circle;
		WaitRob \InPos;
		SetDO DO5_Program_Feed, 0;
		MoveL Offs(pZeroCircle, 14.568, -8.245, 0.6), v100, z0, tNozzle, \Wobj := wobj2Circle;
		WaitRob \InPos;
		SetDO DO5_Program_Feed, 1;
		MoveL Offs(pZeroCircle, -8.204, 14.527, 0.6), v30, z0, tNozzle, \Wobj := wobj2Circle;
		WaitRob \InPos;
		SetDO DO5_Program_Feed, 0;
		MoveL Offs(pZeroCircle, -10.708, 12.788, 0.6), v100, z0, tNozzle, \Wobj := wobj2Circle;
		WaitRob \InPos;
		SetDO DO5_Program_Feed, 1;
		MoveL Offs(pZeroCircle, 12.847, -10.766, 0.6), v30, z0, tNozzle, \Wobj := wobj2Circle;
		WaitRob \InPos;
		SetDO DO5_Program_Feed, 0;
		MoveL Offs(pZeroCircle, 10.708, -12.87, 0.6), v100, z0, tNozzle, \Wobj := wobj2Circle;
		WaitRob \InPos;
		SetDO DO5_Program_Feed, 1;
		MoveL Offs(pZeroCircle, -12.847, 10.684, 0.6), v30, z0, tNozzle, \Wobj := wobj2Circle;
		WaitRob \InPos;
		SetDO DO5_Program_Feed, 0;
		MoveL Offs(pZeroCircle, -14.568, 8.163, 0.6), v100, z0, tNozzle, \Wobj := wobj2Circle;
		WaitRob \InPos;
		SetDO DO5_Program_Feed, 1;
		MoveL Offs(pZeroCircle, 8.203, -14.608, 0.6), v30, z0, tNozzle, \Wobj := wobj2Circle;
		WaitRob \InPos;
		SetDO DO5_Program_Feed, 0;
		MoveL Offs(pZeroCircle, 5.27, -15.917, 0.6), v100, z0, tNozzle, \Wobj := wobj2Circle;
		WaitRob \InPos;
		SetDO DO5_Program_Feed, 1;
		MoveL Offs(pZeroCircle, -15.865, 5.217, 0.6), v30, z0, tNozzle, \Wobj := wobj2Circle;
		WaitRob \InPos;
		SetDO DO5_Program_Feed, 0;
		MoveL Offs(pZeroCircle, -16.627, 1.736, 0.6), v100, z0, tNozzle, \Wobj := wobj2Circle;
		WaitRob \InPos;
		SetDO DO5_Program_Feed, 1;
		MoveL Offs(pZeroCircle, 1.773, -16.664, 0.6), v30, z0, tNozzle, \Wobj := wobj2Circle;
		WaitRob \InPos;
		SetDO DO5_Program_Feed, 0;
		MoveL Offs(pZeroCircle, -2.58, -16.552, 0.6), v100, z0, tNozzle, \Wobj := wobj2Circle;
		WaitRob \InPos;
		SetDO DO5_Program_Feed, 1;
		MoveL Offs(pZeroCircle, -16.535, -2.598, 0.6), v30, z0, tNozzle, \Wobj := wobj2Circle;
		WaitRob \InPos;
		SetDO DO5_Program_Feed, 0;
		MoveL Offs(pZeroCircle, -13.536, -9.839, 0.6), v100, z0, tNozzle, \Wobj := wobj2Circle;
		WaitRob \InPos;
		SetDO DO5_Program_Feed, 1;
		MoveL Offs(pZeroCircle, -9.642, -13.733, 0.6), v30, z0, tNozzle, \Wobj := wobj2Circle;
		WaitRob \InPos;
		SetDO DO6_Between_Layer_Retract, 1;
		SetDO DO5_Program_Feed, 0;
		MoveL Offs(pZeroCircle, -9.642, -13.733, 5.6), v100, z0, tNozzle, \Wobj := wobj2Circle;
		MoveL Offs(pZeroCircle, 13.537, 9.757, 5.6), v100, z0, tNozzle, \Wobj := wobj2Circle;
		WaitRob \InPos;
		SetDO DO6_Between_Layer_Retract, 0;
		MoveL Offs(pZeroCircle, 13.537, 9.757, 0.6), v30, z0, tNozzle, \Wobj := wobj2Circle;
		WaitRob \InPos;
		SetDO DO5_Program_Feed, 1;
		MoveL Offs(pZeroCircle, 9.642, 13.652, 0.6), v30, z0, tNozzle, \Wobj := wobj2Circle;
		WaitRob \InPos;
		SetDO DO6_Between_Layer_Retract, 1;
		SetDO DO5_Program_Feed, 0;
		MoveL Offs(pZeroCircle, 9.642, 13.652, 5.6), v100, z0, tNozzle, \Wobj := wobj2Circle;

		! Layer: 3
		! LayerParams(infillAngleDegrees=45.0, pathWidth=3.0, layerHeight=0.3, infillShiftX=0.0, infillShiftY=0.0, numShells=1, infillOverlap=0.0002)
		! T13
		! M6
		TPWRITE "Layer 3 of 20";
		MoveL Offs(pZeroCircle, 9.947, 14.051, 5.9), v100, z0, tNozzle, \Wobj := wobj2Circle;
		MoveL Offs(pZeroCircle, 9.947, 14.051, 0.9), v30, z0, tNozzle, \Wobj := wobj2Circle;
		WaitRob \InPos;
		SetDO DO6_Between_Layer_Retract, 0;
		WaitRob \InPos;
		SetDO DO5_Program_Feed, 1;
		MoveL Offs(pZeroCircle, 7.947, 15.268, 0.9), v30, z0, tNozzle, \Wobj := wobj2Circle;
		MoveL Offs(pZeroCircle, 7.936, 15.275, 0.9), v30, z0, tNozzle, \Wobj := wobj2Circle;
		MoveL Offs(pZeroCircle, 5.789, 16.207, 0.9), v30, z0, tNozzle, \Wobj := wobj2Circle;
		MoveL Offs(pZeroCircle, 5.776, 16.213, 0.9), v30, z0, tNozzle, \Wobj := wobj2Circle;
		MoveL Offs(pZeroCircle, 3.523, 16.844, 0.9), v30, z0, tNozzle, \Wobj := wobj2Circle;
		MoveL Offs(pZeroCircle, 3.509, 16.848, 0.9), v30, z0, tNozzle, \Wobj := wobj2Circle;
		MoveL Offs(pZeroCircle, 1.191, 17.167, 0.9), v30, z0, tNozzle, \Wobj := wobj2Circle;
		MoveL Offs(pZeroCircle, 1.177, 17.168, 0.9), v30, z0, tNozzle, \Wobj := wobj2Circle;
		MoveL Offs(pZeroCircle, -1.177, 17.168, 0.9), v30, z0, tNozzle, \Wobj := wobj2Circle;
		MoveL Offs(pZeroCircle, -3.496, 16.85, 0.9), v30, z0, tNozzle, \Wobj := wobj2Circle;
		MoveL Offs(pZeroCircle, -3.509, 16.848, 0.9), v30, z0, tNozzle, \Wobj := wobj2Circle;
		MoveL Offs(pZeroCircle, -5.763, 16.216, 0.9), v30, z0, tNozzle, \Wobj := wobj2Circle;
		MoveL Offs(pZeroCircle, -5.776, 16.213, 0.9), v30, z0, tNozzle, \Wobj := wobj2Circle;
		MoveL Offs(pZeroCircle, -7.923, 15.28, 0.9), v30, z0, tNozzle, \Wobj := wobj2Circle;
		MoveL Offs(pZeroCircle, -7.936, 15.275, 0.9), v30, z0, tNozzle, \Wobj := wobj2Circle;
		MoveL Offs(pZeroCircle, -9.936, 14.059, 0.9), v30, z0, tNozzle, \Wobj := wobj2Circle;
		MoveL Offs(pZeroCircle, -9.947, 14.051, 0.9), v30, z0, tNozzle, \Wobj := wobj2Circle;
		MoveL Offs(pZeroCircle, -11.763, 12.574, 0.9), v30, z0, tNozzle, \Wobj := wobj2Circle;
		MoveL Offs(pZeroCircle, -11.774, 12.566, 0.9), v30, z0, tNozzle, \Wobj := wobj2Circle;
		MoveL Offs(pZeroCircle, -13.371, 10.855, 0.9), v30, z0, tNozzle, \Wobj := wobj2Circle;
		MoveL Offs(pZeroCircle, -13.381, 10.845, 0.9), v30, z0, tNozzle, \Wobj := wobj2Circle;
		MoveL Offs(pZeroCircle, -14.73, 8.933, 0.9), v30, z0, tNozzle, \Wobj := wobj2Circle;
		MoveL Offs(pZeroCircle, -14.738, 8.922, 0.9), v30, z0, tNozzle, \Wobj := wobj2Circle;
		MoveL Offs(pZeroCircle, -15.815, 6.843, 0.9), v30, z0, tNozzle, \Wobj := wobj2Circle;
		MoveL Offs(pZeroCircle, -15.821, 6.831, 0.9), v30, z0, tNozzle, \Wobj := wobj2Circle;
		MoveL Offs(pZeroCircle, -16.605, 4.626, 0.9), v30, z0, tNozzle, \Wobj := wobj2Circle;
		MoveL Offs(pZeroCircle, -16.61, 4.613, 0.9), v30, z0, tNozzle, \Wobj := wobj2Circle;
		MoveL Offs(pZeroCircle, -17.086, 2.321, 0.9), v30, z0, tNozzle, \Wobj := wobj2Circle;
		MoveL Offs(pZeroCircle, -17.089, 2.308, 0.9), v30, z0, tNozzle, \Wobj := wobj2Circle;
		MoveL Offs(pZeroCircle, -17.248, -0.027, 0.9), v30, z0, tNozzle, \Wobj := wobj2Circle;
		MoveL Offs(pZeroCircle, -17.249, -0.041, 0.9), v30, z0, tNozzle, \Wobj := wobj2Circle;
		MoveL Offs(pZeroCircle, -17.09, -2.376, 0.9), v30, z0, tNozzle, \Wobj := wobj2Circle;
		MoveL Offs(pZeroCircle, -17.089, -2.39, 0.9), v30, z0, tNozzle, \Wobj := wobj2Circle;
		MoveL Offs(pZeroCircle, -16.613, -4.681, 0.9), v30, z0, tNozzle, \Wobj := wobj2Circle;
		MoveL Offs(pZeroCircle, -16.61, -4.695, 0.9), v30, z0, tNozzle, \Wobj := wobj2Circle;
		MoveL Offs(pZeroCircle, -15.826, -6.9, 0.9), v30, z0, tNozzle, \Wobj := wobj2Circle;
		MoveL Offs(pZeroCircle, -15.821, -6.913, 0.9), v30, z0, tNozzle, \Wobj := wobj2Circle;
		MoveL Offs(pZeroCircle, -14.744, -8.991, 0.9), v30, z0, tNozzle, \Wobj := wobj2Circle;
		MoveL Offs(pZeroCircle, -14.738, -9.003, 0.9), v30, z0, tNozzle, \Wobj := wobj2Circle;
		MoveL Offs(pZeroCircle, -13.388, -10.916, 0.9), v30, z0, tNozzle, \Wobj := wobj2Circle;
		MoveL Offs(pZeroCircle, -13.381, -10.927, 0.9), v30, z0, tNozzle, \Wobj := wobj2Circle;
		MoveL Offs(pZeroCircle, -11.783, -12.637, 0.9), v30, z0, tNozzle, \Wobj := wobj2Circle;
		MoveL Offs(pZeroCircle, -11.774, -12.647, 0.9), v30, z0, tNozzle, \Wobj := wobj2Circle;
		MoveL Offs(pZeroCircle, -9.958, -14.124, 0.9), v30, z0, tNozzle, \Wobj := wobj2Circle;
		MoveL Offs(pZeroCircle, -9.947, -14.133, 0.9), v30, z0, tNozzle, \Wobj := wobj2Circle;
		MoveL Offs(pZeroCircle, -7.947, -15.349, 0.9), v30, z0, tNozzle, \Wobj := wobj2Circle;
		MoveL Offs(pZeroCircle, -7.936, -15.356, 0.9), v30, z0, tNozzle, \Wobj := wobj2Circle;
		MoveL Offs(pZeroCircle, -5.789, -16.289, 0.9), v30, z0, tNozzle, \Wobj := wobj2Circle;
		MoveL Offs(pZeroCircle, -5.776, -16.294, 0.9), v30, z0, tNozzle, \Wobj := wobj2Circle;
		MoveL Offs(pZeroCircle, -3.523, -16.926, 0.9), v30, z0, tNozzle, \Wobj := wobj2Circle;
		MoveL Offs(pZeroCircle, -3.509, -16.929, 0.9), v30, z0, tNozzle, \Wobj := wobj2Circle;
		MoveL Offs(pZeroCircle, -1.191, -17.248, 0.9), v30, z0, tNozzle, \Wobj := wobj2Circle;
		MoveL Offs(pZeroCircle, -1.177, -17.25, 0.9), v30, z0, tNozzle, \Wobj := wobj2Circle;
		MoveL Offs(pZeroCircle, 1.177, -17.25, 0.9), v30, z0, tNozzle, \Wobj := wobj2Circle;
		MoveL Offs(pZeroCircle, 3.496, -16.931, 0.9), v30, z0, tNozzle, \Wobj := wobj2Circle;
		MoveL Offs(pZeroCircle, 3.509, -16.929, 0.9), v30, z0, tNozzle, \Wobj := wobj2Circle;
		MoveL Offs(pZeroCircle, 5.763, -16.298, 0.9), v30, z0, tNozzle, \Wobj := wobj2Circle;
		MoveL Offs(pZeroCircle, 5.776, -16.294, 0.9), v30, z0, tNozzle, \Wobj := wobj2Circle;
		MoveL Offs(pZeroCircle, 7.923, -15.362, 0.9), v30, z0, tNozzle, \Wobj := wobj2Circle;
		MoveL Offs(pZeroCircle, 7.936, -15.356, 0.9), v30, z0, tNozzle, \Wobj := wobj2Circle;
		MoveL Offs(pZeroCircle, 9.936, -14.14, 0.9), v30, z0, tNozzle, \Wobj := wobj2Circle;
		MoveL Offs(pZeroCircle, 9.947, -14.133, 0.9), v30, z0, tNozzle, \Wobj := wobj2Circle;
		MoveL Offs(pZeroCircle, 11.763, -12.656, 0.9), v30, z0, tNozzle, \Wobj := wobj2Circle;
		MoveL Offs(pZeroCircle, 11.774, -12.647, 0.9), v30, z0, tNozzle, \Wobj := wobj2Circle;
		MoveL Offs(pZeroCircle, 13.371, -10.937, 0.9), v30, z0, tNozzle, \Wobj := wobj2Circle;
		MoveL Offs(pZeroCircle, 13.381, -10.927, 0.9), v30, z0, tNozzle, \Wobj := wobj2Circle;
		MoveL Offs(pZeroCircle, 14.73, -9.014, 0.9), v30, z0, tNozzle, \Wobj := wobj2Circle;
		MoveL Offs(pZeroCircle, 14.738, -9.003, 0.9), v30, z0, tNozzle, \Wobj := wobj2Circle;
		MoveL Offs(pZeroCircle, 15.815, -6.925, 0.9), v30, z0, tNozzle, \Wobj := wobj2Circle;
		MoveL Offs(pZeroCircle, 15.821, -6.913, 0.9), v30, z0, tNozzle, \Wobj := wobj2Circle;
		MoveL Offs(pZeroCircle, 16.605, -4.707, 0.9), v30, z0, tNozzle, \Wobj := wobj2Circle;
		MoveL Offs(pZeroCircle, 16.61, -4.695, 0.9), v30, z0, tNozzle, \Wobj := wobj2Circle;
		MoveL Offs(pZeroCircle, 17.086, -2.403, 0.9), v30, z0, tNozzle, \Wobj := wobj2Circle;
		MoveL Offs(pZeroCircle, 17.089, -2.39, 0.9), v30, z0, tNozzle, \Wobj := wobj2Circle;
		MoveL Offs(pZeroCircle, 17.248, -0.054, 0.9), v30, z0, tNozzle, \Wobj := wobj2Circle;
		MoveL Offs(pZeroCircle, 17.249, -0.041, 0.9), v30, z0, tNozzle, \Wobj := wobj2Circle;
		MoveL Offs(pZeroCircle, 17.09, 2.294, 0.9), v30, z0, tNozzle, \Wobj := wobj2Circle;
		MoveL Offs(pZeroCircle, 17.089, 2.308, 0.9), v30, z0, tNozzle, \Wobj := wobj2Circle;
		MoveL Offs(pZeroCircle, 16.613, 4.6, 0.9), v30, z0, tNozzle, \Wobj := wobj2Circle;
		MoveL Offs(pZeroCircle, 16.61, 4.613, 0.9), v30, z0, tNozzle, \Wobj := wobj2Circle;
		MoveL Offs(pZeroCircle, 15.826, 6.819, 0.9), v30, z0, tNozzle, \Wobj := wobj2Circle;
		MoveL Offs(pZeroCircle, 15.821, 6.831, 0.9), v30, z0, tNozzle, \Wobj := wobj2Circle;
		MoveL Offs(pZeroCircle, 14.744, 8.91, 0.9), v30, z0, tNozzle, \Wobj := wobj2Circle;
		MoveL Offs(pZeroCircle, 14.738, 8.922, 0.9), v30, z0, tNozzle, \Wobj := wobj2Circle;
		MoveL Offs(pZeroCircle, 13.388, 10.834, 0.9), v30, z0, tNozzle, \Wobj := wobj2Circle;
		MoveL Offs(pZeroCircle, 13.381, 10.845, 0.9), v30, z0, tNozzle, \Wobj := wobj2Circle;
		MoveL Offs(pZeroCircle, 11.783, 12.556, 0.9), v30, z0, tNozzle, \Wobj := wobj2Circle;
		MoveL Offs(pZeroCircle, 11.774, 12.566, 0.9), v30, z0, tNozzle, \Wobj := wobj2Circle;
		MoveL Offs(pZeroCircle, 9.958, 14.043, 0.9), v30, z0, tNozzle, \Wobj := wobj2Circle;
		MoveL Offs(pZeroCircle, 9.947, 14.051, 0.9), v30, z0, tNozzle, \Wobj := wobj2Circle;
		WaitRob \InPos;
		SetDO DO5_Program_Feed, 0;
		MoveL Offs(pZeroCircle, 10.708, 12.788, 0.9), v100, z0, tNozzle, \Wobj := wobj2Circle;
		WaitRob \InPos;
		SetDO DO5_Program_Feed, 1;
		MoveL Offs(pZeroCircle, -12.847, -10.766, 0.9), v30, z0, tNozzle, \Wobj := wobj2Circle;
		WaitRob \InPos;
		SetDO DO5_Program_Feed, 0;
		MoveL Offs(pZeroCircle, -10.708, -12.87, 0.9), v100, z0, tNozzle, \Wobj := wobj2Circle;
		WaitRob \InPos;
		SetDO DO5_Program_Feed, 1;
		MoveL Offs(pZeroCircle, 12.847, 10.685, 0.9), v30, z0, tNozzle, \Wobj := wobj2Circle;
		WaitRob \InPos;
		SetDO DO5_Program_Feed, 0;
		MoveL Offs(pZeroCircle, 14.568, 8.163, 0.9), v100, z0, tNozzle, \Wobj := wobj2Circle;
		WaitRob \InPos;
		SetDO DO5_Program_Feed, 1;
		MoveL Offs(pZeroCircle, -8.204, -14.608, 0.9), v30, z0, tNozzle, \Wobj := wobj2Circle;
		WaitRob \InPos;
		SetDO DO5_Program_Feed, 0;
		MoveL Offs(pZeroCircle, -5.27, -15.917, 0.9), v100, z0, tNozzle, \Wobj := wobj2Circle;
		WaitRob \InPos;
		SetDO DO5_Program_Feed, 1;
		MoveL Offs(pZeroCircle, 15.865, 5.217, 0.9), v30, z0, tNozzle, \Wobj := wobj2Circle;
		WaitRob \InPos;
		SetDO DO5_Program_Feed, 0;
		MoveL Offs(pZeroCircle, 16.627, 1.737, 0.9), v100, z0, tNozzle, \Wobj := wobj2Circle;
		WaitRob \InPos;
		SetDO DO5_Program_Feed, 1;
		MoveL Offs(pZeroCircle, -1.773, -16.664, 0.9), v30, z0, tNozzle, \Wobj := wobj2Circle;
		WaitRob \InPos;
		SetDO DO5_Program_Feed, 0;
		MoveL Offs(pZeroCircle, 2.58, -16.553, 0.9), v100, z0, tNozzle, \Wobj := wobj2Circle;
		WaitRob \InPos;
		SetDO DO5_Program_Feed, 1;
		MoveL Offs(pZeroCircle, 16.535, -2.598, 0.9), v30, z0, tNozzle, \Wobj := wobj2Circle;
		WaitRob \InPos;
		SetDO DO5_Program_Feed, 0;
		MoveL Offs(pZeroCircle, 13.537, -9.838, 0.9), v100, z0, tNozzle, \Wobj := wobj2Circle;
		WaitRob \InPos;
		SetDO DO5_Program_Feed, 1;
		MoveL Offs(pZeroCircle, 9.641, -13.735, 0.9), v30, z0, tNozzle, \Wobj := wobj2Circle;
		WaitRob \InPos;
		SetDO DO5_Program_Feed, 0;
		MoveL Offs(pZeroCircle, -14.568, -8.245, 0.9), v100, z0, tNozzle, \Wobj := wobj2Circle;
		WaitRob \InPos;
		SetDO DO5_Program_Feed, 1;
		MoveL Offs(pZeroCircle, 8.204, 14.527, 0.9), v30, z0, tNozzle, \Wobj := wobj2Circle;
		WaitRob \InPos;
		SetDO DO5_Program_Feed, 0;
		MoveL Offs(pZeroCircle, 5.27, 15.836, 0.9), v100, z0, tNozzle, \Wobj := wobj2Circle;
		WaitRob \InPos;
		SetDO DO5_Program_Feed, 1;
		MoveL Offs(pZeroCircle, -15.865, -5.299, 0.9), v30, z0, tNozzle, \Wobj := wobj2Circle;
		WaitRob \InPos;
		SetDO DO5_Program_Feed, 0;
		MoveL Offs(pZeroCircle, -16.627, -1.818, 0.9), v100, z0, tNozzle, \Wobj := wobj2Circle;
		WaitRob \InPos;
		SetDO DO5_Program_Feed, 1;
		MoveL Offs(pZeroCircle, 1.773, 16.582, 0.9), v30, z0, tNozzle, \Wobj := wobj2Circle;
		WaitRob \InPos;
		SetDO DO5_Program_Feed, 0;
		MoveL Offs(pZeroCircle, -2.58, 16.471, 0.9), v100, z0, tNozzle, \Wobj := wobj2Circle;
		WaitRob \InPos;
		SetDO DO5_Program_Feed, 1;
		MoveL Offs(pZeroCircle, -16.535, 2.516, 0.9), v30, z0, tNozzle, \Wobj := wobj2Circle;
		WaitRob \InPos;
		SetDO DO5_Program_Feed, 0;
		MoveL Offs(pZeroCircle, -13.537, 9.757, 0.9), v100, z0, tNozzle, \Wobj := wobj2Circle;
		WaitRob \InPos;
		SetDO DO5_Program_Feed, 1;
		MoveL Offs(pZeroCircle, -9.641, 13.653, 0.9), v30, z0, tNozzle, \Wobj := wobj2Circle;
		WaitRob \InPos;
		SetDO DO6_Between_Layer_Retract, 1;
		SetDO DO5_Program_Feed, 0;
		MoveL Offs(pZeroCircle, -9.641, 13.653, 5.9), v100, z0, tNozzle, \Wobj := wobj2Circle;

		! Layer: 4
		! LayerParams(infillAngleDegrees=-45.0, pathWidth=3.0, layerHeight=0.3, infillShiftX=0.0, infillShiftY=0.0, numShells=1, infillOverlap=0.0002)
		! T14
		! M6
		TPWRITE "Layer 4 of 20";
		MoveL Offs(pZeroCircle, 3.509, -16.929, 6.2), v100, z0, tNozzle, \Wobj := wobj2Circle;
		MoveL Offs(pZeroCircle, 3.509, -16.929, 1.2), v30, z0, tNozzle, \Wobj := wobj2Circle;
		WaitRob \InPos;
		SetDO DO6_Between_Layer_Retract, 0;
		WaitRob \InPos;
		SetDO DO5_Program_Feed, 1;
		MoveL Offs(pZeroCircle, 5.754, -16.301, 1.2), v30, z0, tNozzle, \Wobj := wobj2Circle;
		MoveL Offs(pZeroCircle, 5.776, -16.294, 1.2), v30, z0, tNozzle, \Wobj := wobj2Circle;
		MoveL Offs(pZeroCircle, 7.914, -15.366, 1.2), v30, z0, tNozzle, \Wobj := wobj2Circle;
		MoveL Offs(pZeroCircle, 7.936, -15.356, 1.2), v30, z0, tNozzle, \Wobj := wobj2Circle;
		MoveL Offs(pZeroCircle, 9.927, -14.145, 1.2), v30, z0, tNozzle, \Wobj := wobj2Circle;
		MoveL Offs(pZeroCircle, 9.947, -14.133, 1.2), v30, z0, tNozzle, \Wobj := wobj2Circle;
		MoveL Offs(pZeroCircle, 11.755, -12.662, 1.2), v30, z0, tNozzle, \Wobj := wobj2Circle;
		MoveL Offs(pZeroCircle, 11.774, -12.647, 1.2), v30, z0, tNozzle, \Wobj := wobj2Circle;
		MoveL Offs(pZeroCircle, 13.364, -10.944, 1.2), v30, z0, tNozzle, \Wobj := wobj2Circle;
		MoveL Offs(pZeroCircle, 13.381, -10.927, 1.2), v30, z0, tNozzle, \Wobj := wobj2Circle;
		MoveL Offs(pZeroCircle, 14.724, -9.023, 1.2), v30, z0, tNozzle, \Wobj := wobj2Circle;
		MoveL Offs(pZeroCircle, 14.738, -9.003, 1.2), v30, z0, tNozzle, \Wobj := wobj2Circle;
		MoveL Offs(pZeroCircle, 15.81, -6.934, 1.2), v30, z0, tNozzle, \Wobj := wobj2Circle;
		MoveL Offs(pZeroCircle, 15.821, -6.913, 1.2), v30, z0, tNozzle, \Wobj := wobj2Circle;
		MoveL Offs(pZeroCircle, 16.602, -4.717, 1.2), v30, z0, tNozzle, \Wobj := wobj2Circle;
		MoveL Offs(pZeroCircle, 16.61, -4.695, 1.2), v30, z0, tNozzle, \Wobj := wobj2Circle;
		MoveL Offs(pZeroCircle, 17.084, -2.413, 1.2), v30, z0, tNozzle, \Wobj := wobj2Circle;
		MoveL Offs(pZeroCircle, 17.089, -2.39, 1.2), v30, z0, tNozzle, \Wobj := wobj2Circle;
		MoveL Offs(pZeroCircle, 17.248, -0.065, 1.2), v30, z0, tNozzle, \Wobj := wobj2Circle;
		MoveL Offs(pZeroCircle, 17.249, -0.041, 1.2), v30, z0, tNozzle, \Wobj := wobj2Circle;
		MoveL Offs(pZeroCircle, 17.09, 2.284, 1.2), v30, z0, tNozzle, \Wobj := wobj2Circle;
		MoveL Offs(pZeroCircle, 17.089, 2.308, 1.2), v30, z0, tNozzle, \Wobj := wobj2Circle;
		MoveL Offs(pZeroCircle, 16.615, 4.59, 1.2), v30, z0, tNozzle, \Wobj := wobj2Circle;
		MoveL Offs(pZeroCircle, 16.61, 4.613, 1.2), v30, z0, tNozzle, \Wobj := wobj2Circle;
		MoveL Offs(pZeroCircle, 15.829, 6.809, 1.2), v30, z0, tNozzle, \Wobj := wobj2Circle;
		MoveL Offs(pZeroCircle, 15.821, 6.831, 1.2), v30, z0, tNozzle, \Wobj := wobj2Circle;
		MoveL Offs(pZeroCircle, 14.749, 8.901, 1.2), v30, z0, tNozzle, \Wobj := wobj2Circle;
		MoveL Offs(pZeroCircle, 14.738, 8.922, 1.2), v30, z0, tNozzle, \Wobj := wobj2Circle;
		MoveL Offs(pZeroCircle, 13.394, 10.826, 1.2), v30, z0, tNozzle, \Wobj := wobj2Circle;
		MoveL Offs(pZeroCircle, 13.381, 10.845, 1.2), v30, z0, tNozzle, \Wobj := wobj2Circle;
		MoveL Offs(pZeroCircle, 11.79, 12.548, 1.2), v30, z0, tNozzle, \Wobj := wobj2Circle;
		MoveL Offs(pZeroCircle, 11.774, 12.566, 1.2), v30, z0, tNozzle, \Wobj := wobj2Circle;
		MoveL Offs(pZeroCircle, 9.966, 14.036, 1.2), v30, z0, tNozzle, \Wobj := wobj2Circle;
		MoveL Offs(pZeroCircle, 9.947, 14.051, 1.2), v30, z0, tNozzle, \Wobj := wobj2Circle;
		MoveL Offs(pZeroCircle, 7.956, 15.262, 1.2), v30, z0, tNozzle, \Wobj := wobj2Circle;
		MoveL Offs(pZeroCircle, 7.936, 15.275, 1.2), v30, z0, tNozzle, \Wobj := wobj2Circle;
		MoveL Offs(pZeroCircle, 5.798, 16.203, 1.2), v30, z0, tNozzle, \Wobj := wobj2Circle;
		MoveL Offs(pZeroCircle, 5.776, 16.213, 1.2), v30, z0, tNozzle, \Wobj := wobj2Circle;
		MoveL Offs(pZeroCircle, 3.532, 16.841, 1.2), v30, z0, tNozzle, \Wobj := wobj2Circle;
		MoveL Offs(pZeroCircle, 3.509, 16.848, 1.2), v30, z0, tNozzle, \Wobj := wobj2Circle;
		MoveL Offs(pZeroCircle, 1.201, 17.165, 1.2), v30, z0, tNozzle, \Wobj := wobj2Circle;
		MoveL Offs(pZeroCircle, 1.177, 17.168, 1.2), v30, z0, tNozzle, \Wobj := wobj2Circle;
		MoveL Offs(pZeroCircle, -1.177, 17.168, 1.2), v30, z0, tNozzle, \Wobj := wobj2Circle;
		MoveL Offs(pZeroCircle, -3.486, 16.851, 1.2), v30, z0, tNozzle, \Wobj := wobj2Circle;
		MoveL Offs(pZeroCircle, -3.509, 16.848, 1.2), v30, z0, tNozzle, \Wobj := wobj2Circle;
		MoveL Offs(pZeroCircle, -5.754, 16.219, 1.2), v30, z0, tNozzle, \Wobj := wobj2Circle;
		MoveL Offs(pZeroCircle, -5.776, 16.213, 1.2), v30, z0, tNozzle, \Wobj := wobj2Circle;
		MoveL Offs(pZeroCircle, -7.914, 15.284, 1.2), v30, z0, tNozzle, \Wobj := wobj2Circle;
		MoveL Offs(pZeroCircle, -7.936, 15.275, 1.2), v30, z0, tNozzle, \Wobj := wobj2Circle;
		MoveL Offs(pZeroCircle, -9.927, 14.064, 1.2), v30, z0, tNozzle, \Wobj := wobj2Circle;
		MoveL Offs(pZeroCircle, -9.947, 14.051, 1.2), v30, z0, tNozzle, \Wobj := wobj2Circle;
		MoveL Offs(pZeroCircle, -11.755, 12.581, 1.2), v30, z0, tNozzle, \Wobj := wobj2Circle;
		MoveL Offs(pZeroCircle, -11.774, 12.566, 1.2), v30, z0, tNozzle, \Wobj := wobj2Circle;
		MoveL Offs(pZeroCircle, -13.364, 10.863, 1.2), v30, z0, tNozzle, \Wobj := wobj2Circle;
		MoveL Offs(pZeroCircle, -13.381, 10.845, 1.2), v30, z0, tNozzle, \Wobj := wobj2Circle;
		MoveL Offs(pZeroCircle, -14.724, 8.941, 1.2), v30, z0, tNozzle, \Wobj := wobj2Circle;
		MoveL Offs(pZeroCircle, -14.738, 8.922, 1.2), v30, z0, tNozzle, \Wobj := wobj2Circle;
		MoveL Offs(pZeroCircle, -15.81, 6.853, 1.2), v30, z0, tNozzle, \Wobj := wobj2Circle;
		MoveL Offs(pZeroCircle, -15.821, 6.831, 1.2), v30, z0, tNozzle, \Wobj := wobj2Circle;
		MoveL Offs(pZeroCircle, -16.602, 4.636, 1.2), v30, z0, tNozzle, \Wobj := wobj2Circle;
		MoveL Offs(pZeroCircle, -16.61, 4.613, 1.2), v30, z0, tNozzle, \Wobj := wobj2Circle;
		MoveL Offs(pZeroCircle, -17.084, 2.331, 1.2), v30, z0, tNozzle, \Wobj := wobj2Circle;
		MoveL Offs(pZeroCircle, -17.089, 2.308, 1.2), v30, z0, tNozzle, \Wobj := wobj2Circle;
		MoveL Offs(pZeroCircle, -17.248, -0.017, 1.2), v30, z0, tNozzle, \Wobj := wobj2Circle;
		MoveL Offs(pZeroCircle, -17.249, -0.041, 1.2), v30, z0, tNozzle, \Wobj := wobj2Circle;
		MoveL Offs(pZeroCircle, -17.09, -2.366, 1.2), v30, z0, tNozzle, \Wobj := wobj2Circle;
		MoveL Offs(pZeroCircle, -17.089, -2.39, 1.2), v30, z0, tNozzle, \Wobj := wobj2Circle;
		MoveL Offs(pZeroCircle, -16.615, -4.671, 1.2), v30, z0, tNozzle, \Wobj := wobj2Circle;
		MoveL Offs(pZeroCircle, -16.61, -4.695, 1.2), v30, z0, tNozzle, \Wobj := wobj2Circle;
		MoveL Offs(pZeroCircle, -15.829, -6.891, 1.2), v30, z0, tNozzle, \Wobj := wobj2Circle;
		MoveL Offs(pZeroCircle, -15.821, -6.913, 1.2), v30, z0, tNozzle, \Wobj := wobj2Circle;
		MoveL Offs(pZeroCircle, -14.749, -8.982, 1.2), v30, z0, tNozzle, \Wobj := wobj2Circle;
		MoveL Offs(pZeroCircle, -14.738, -9.003, 1.2), v30, z0, tNozzle, \Wobj := wobj2Circle;
		MoveL Offs(pZeroCircle, -13.394, -10.907, 1.2), v30, z0, tNozzle, \Wobj := wobj2Circle;
		MoveL Offs(pZeroCircle, -13.381, -10.927, 1.2), v30, z0, tNozzle, \Wobj := wobj2Circle;
		MoveL Offs(pZeroCircle, -11.79, -12.63, 1.2), v30, z0, tNozzle, \Wobj := wobj2Circle;
		MoveL Offs(pZeroCircle, -11.774, -12.647, 1.2), v30, z0, tNozzle, \Wobj := wobj2Circle;
		MoveL Offs(pZeroCircle, -9.966, -14.118, 1.2), v30, z0, tNozzle, \Wobj := wobj2Circle;
		MoveL Offs(pZeroCircle, -9.947, -14.133, 1.2), v30, z0, tNozzle, \Wobj := wobj2Circle;
		MoveL Offs(pZeroCircle, -7.956, -15.344, 1.2), v30, z0, tNozzle, \Wobj := wobj2Circle;
		MoveL Offs(pZeroCircle, -7.936, -15.356, 1.2), v30, z0, tNozzle, \Wobj := wobj2Circle;
		MoveL Offs(pZeroCircle, -5.798, -16.285, 1.2), v30, z0, tNozzle, \Wobj := wobj2Circle;
		MoveL Offs(pZeroCircle, -5.776, -16.294, 1.2), v30, z0, tNozzle, \Wobj := wobj2Circle;
		MoveL Offs(pZeroCircle, -3.532, -16.923, 1.2), v30, z0, tNozzle, \Wobj := wobj2Circle;
		MoveL Offs(pZeroCircle, -3.509, -16.929, 1.2), v30, z0, tNozzle, \Wobj := wobj2Circle;
		MoveL Offs(pZeroCircle, -1.201, -17.247, 1.2), v30, z0, tNozzle, \Wobj := wobj2Circle;
		MoveL Offs(pZeroCircle, -1.177, -17.25, 1.2), v30, z0, tNozzle, \Wobj := wobj2Circle;
		MoveL Offs(pZeroCircle, 1.177, -17.25, 1.2), v30, z0, tNozzle, \Wobj := wobj2Circle;
		MoveL Offs(pZeroCircle, 3.486, -16.933, 1.2), v30, z0, tNozzle, \Wobj := wobj2Circle;
		MoveL Offs(pZeroCircle, 3.509, -16.929, 1.2), v30, z0, tNozzle, \Wobj := wobj2Circle;
		WaitRob \InPos;
		SetDO DO5_Program_Feed, 0;
		MoveL Offs(pZeroCircle, 1.773, -16.664, 1.2), v100, z0, tNozzle, \Wobj := wobj2Circle;
		WaitRob \InPos;
		SetDO DO5_Program_Feed, 1;
		MoveL Offs(pZeroCircle, -16.627, 1.737, 1.2), v30, z0, tNozzle, \Wobj := wobj2Circle;
		WaitRob \InPos;
		SetDO DO5_Program_Feed, 0;
		MoveL Offs(pZeroCircle, -15.865, 5.217, 1.2), v100, z0, tNozzle, \Wobj := wobj2Circle;
		WaitRob \InPos;
		SetDO DO5_Program_Feed, 1;
		MoveL Offs(pZeroCircle, 5.27, -15.917, 1.2), v30, z0, tNozzle, \Wobj := wobj2Circle;
		WaitRob \InPos;
		SetDO DO5_Program_Feed, 0;
		MoveL Offs(pZeroCircle, 8.204, -14.608, 1.2), v100, z0, tNozzle, \Wobj := wobj2Circle;
		WaitRob \InPos;
		SetDO DO5_Program_Feed, 1;
		MoveL Offs(pZeroCircle, -14.568, 8.163, 1.2), v30, z0, tNozzle, \Wobj := wobj2Circle;
		WaitRob \InPos;
		SetDO DO5_Program_Feed, 0;
		MoveL Offs(pZeroCircle, -12.847, 10.685, 1.2), v100, z0, tNozzle, \Wobj := wobj2Circle;
		WaitRob \InPos;
		SetDO DO5_Program_Feed, 1;
		MoveL Offs(pZeroCircle, 10.708, -12.87, 1.2), v30, z0, tNozzle, \Wobj := wobj2Circle;
		WaitRob \InPos;
		SetDO DO5_Program_Feed, 0;
		MoveL Offs(pZeroCircle, 12.847, -10.766, 1.2), v100, z0, tNozzle, \Wobj := wobj2Circle;
		WaitRob \InPos;
		SetDO DO5_Program_Feed, 1;
		MoveL Offs(pZeroCircle, -10.708, 12.788, 1.2), v30, z0, tNozzle, \Wobj := wobj2Circle;
		WaitRob \InPos;
		SetDO DO5_Program_Feed, 0;
		MoveL Offs(pZeroCircle, -8.204, 14.527, 1.2), v100, z0, tNozzle, \Wobj := wobj2Circle;
		WaitRob \InPos;
		SetDO DO5_Program_Feed, 1;
		MoveL Offs(pZeroCircle, 14.568, -8.245, 1.2), v30, z0, tNozzle, \Wobj := wobj2Circle;
		WaitRob \InPos;
		SetDO DO5_Program_Feed, 0;
		MoveL Offs(pZeroCircle, 15.865, -5.299, 1.2), v100, z0, tNozzle, \Wobj := wobj2Circle;
		WaitRob \InPos;
		SetDO DO5_Program_Feed, 1;
		MoveL Offs(pZeroCircle, -5.27, 15.836, 1.2), v30, z0, tNozzle, \Wobj := wobj2Circle;
		WaitRob \InPos;
		SetDO DO5_Program_Feed, 0;
		MoveL Offs(pZeroCircle, -1.773, 16.582, 1.2), v100, z0, tNozzle, \Wobj := wobj2Circle;
		WaitRob \InPos;
		SetDO DO5_Program_Feed, 1;
		MoveL Offs(pZeroCircle, 16.627, -1.818, 1.2), v30, z0, tNozzle, \Wobj := wobj2Circle;
		WaitRob \InPos;
		SetDO DO5_Program_Feed, 0;
		MoveL Offs(pZeroCircle, 16.535, 2.516, 1.2), v100, z0, tNozzle, \Wobj := wobj2Circle;
		WaitRob \InPos;
		SetDO DO5_Program_Feed, 1;
		MoveL Offs(pZeroCircle, 2.58, 16.471, 1.2), v30, z0, tNozzle, \Wobj := wobj2Circle;
		WaitRob \InPos;
		SetDO DO5_Program_Feed, 0;
		MoveL Offs(pZeroCircle, 9.641, 13.653, 1.2), v100, z0, tNozzle, \Wobj := wobj2Circle;
		WaitRob \InPos;
		SetDO DO5_Program_Feed, 1;
		MoveL Offs(pZeroCircle, 13.537, 9.757, 1.2), v30, z0, tNozzle, \Wobj := wobj2Circle;
		WaitRob \InPos;
		SetDO DO6_Between_Layer_Retract, 1;
		SetDO DO5_Program_Feed, 0;
		MoveL Offs(pZeroCircle, 13.537, 9.757, 6.2), v100, z0, tNozzle, \Wobj := wobj2Circle;
		MoveL Offs(pZeroCircle, -2.58, -16.553, 6.2), v100, z0, tNozzle, \Wobj := wobj2Circle;
		WaitRob \InPos;
		SetDO DO6_Between_Layer_Retract, 0;
		MoveL Offs(pZeroCircle, -2.58, -16.553, 1.2), v30, z0, tNozzle, \Wobj := wobj2Circle;
		WaitRob \InPos;
		SetDO DO5_Program_Feed, 1;
		MoveL Offs(pZeroCircle, -16.535, -2.598, 1.2), v30, z0, tNozzle, \Wobj := wobj2Circle;
		WaitRob \InPos;
		SetDO DO5_Program_Feed, 0;
		MoveL Offs(pZeroCircle, -13.537, -9.838, 1.2), v100, z0, tNozzle, \Wobj := wobj2Circle;
		WaitRob \InPos;
		SetDO DO5_Program_Feed, 1;
		MoveL Offs(pZeroCircle, -9.641, -13.735, 1.2), v30, z0, tNozzle, \Wobj := wobj2Circle;
		WaitRob \InPos;
		SetDO DO6_Between_Layer_Retract, 1;
		SetDO DO5_Program_Feed, 0;
		MoveL Offs(pZeroCircle, -9.641, -13.735, 6.2), v100, z0, tNozzle, \Wobj := wobj2Circle;

		! Layer: 5
		! LayerParams(infillAngleDegrees=45.0, pathWidth=3.0, layerHeight=0.3, infillShiftX=0.0, infillShiftY=0.0, numShells=1, infillOverlap=0.0002)
		! T15
		! M6
		TPWRITE "Layer 5 of 20";
		MoveL Offs(pZeroCircle, -17.089, -2.39, 6.5), v100, z0, tNozzle, \Wobj := wobj2Circle;
		MoveL Offs(pZeroCircle, -17.089, -2.39, 1.5), v30, z0, tNozzle, \Wobj := wobj2Circle;
		WaitRob \InPos;
		SetDO DO6_Between_Layer_Retract, 0;
		WaitRob \InPos;
		SetDO DO5_Program_Feed, 1;
		MoveL Offs(pZeroCircle, -16.617, -4.661, 1.5), v30, z0, tNozzle, \Wobj := wobj2Circle;
		MoveL Offs(pZeroCircle, -16.61, -4.695, 1.5), v30, z0, tNozzle, \Wobj := wobj2Circle;
		MoveL Offs(pZeroCircle, -15.833, -6.881, 1.5), v30, z0, tNozzle, \Wobj := wobj2Circle;
		MoveL Offs(pZeroCircle, -15.821, -6.913, 1.5), v30, z0, tNozzle, \Wobj := wobj2Circle;
		MoveL Offs(pZeroCircle, -14.754, -8.973, 1.5), v30, z0, tNozzle, \Wobj := wobj2Circle;
		MoveL Offs(pZeroCircle, -14.738, -9.003, 1.5), v30, z0, tNozzle, \Wobj := wobj2Circle;
		MoveL Offs(pZeroCircle, -13.4, -10.899, 1.5), v30, z0, tNozzle, \Wobj := wobj2Circle;
		MoveL Offs(pZeroCircle, -13.381, -10.927, 1.5), v30, z0, tNozzle, \Wobj := wobj2Circle;
		MoveL Offs(pZeroCircle, -11.797, -12.622, 1.5), v30, z0, tNozzle, \Wobj := wobj2Circle;
		MoveL Offs(pZeroCircle, -11.774, -12.647, 1.5), v30, z0, tNozzle, \Wobj := wobj2Circle;
		MoveL Offs(pZeroCircle, -9.974, -14.112, 1.5), v30, z0, tNozzle, \Wobj := wobj2Circle;
		MoveL Offs(pZeroCircle, -9.947, -14.133, 1.5), v30, z0, tNozzle, \Wobj := wobj2Circle;
		MoveL Offs(pZeroCircle, -7.965, -15.339, 1.5), v30, z0, tNozzle, \Wobj := wobj2Circle;
		MoveL Offs(pZeroCircle, -7.936, -15.356, 1.5), v30, z0, tNozzle, \Wobj := wobj2Circle;
		MoveL Offs(pZeroCircle, -5.808, -16.281, 1.5), v30, z0, tNozzle, \Wobj := wobj2Circle;
		MoveL Offs(pZeroCircle, -5.776, -16.294, 1.5), v30, z0, tNozzle, \Wobj := wobj2Circle;
		MoveL Offs(pZeroCircle, -3.542, -16.92, 1.5), v30, z0, tNozzle, \Wobj := wobj2Circle;
		MoveL Offs(pZeroCircle, -3.509, -16.929, 1.5), v30, z0, tNozzle, \Wobj := wobj2Circle;
		MoveL Offs(pZeroCircle, -1.211, -17.245, 1.5), v30, z0, tNozzle, \Wobj := wobj2Circle;
		MoveL Offs(pZeroCircle, -1.177, -17.25, 1.5), v30, z0, tNozzle, \Wobj := wobj2Circle;
		MoveL Offs(pZeroCircle, 1.177, -17.25, 1.5), v30, z0, tNozzle, \Wobj := wobj2Circle;
		MoveL Offs(pZeroCircle, 3.476, -16.934, 1.5), v30, z0, tNozzle, \Wobj := wobj2Circle;
		MoveL Offs(pZeroCircle, 3.509, -16.929, 1.5), v30, z0, tNozzle, \Wobj := wobj2Circle;
		MoveL Offs(pZeroCircle, 5.744, -16.303, 1.5), v30, z0, tNozzle, \Wobj := wobj2Circle;
		MoveL Offs(pZeroCircle, 5.776, -16.294, 1.5), v30, z0, tNozzle, \Wobj := wobj2Circle;
		MoveL Offs(pZeroCircle, 7.905, -15.37, 1.5), v30, z0, tNozzle, \Wobj := wobj2Circle;
		MoveL Offs(pZeroCircle, 7.936, -15.356, 1.5), v30, z0, tNozzle, \Wobj := wobj2Circle;
		MoveL Offs(pZeroCircle, 9.918, -14.151, 1.5), v30, z0, tNozzle, \Wobj := wobj2Circle;
		MoveL Offs(pZeroCircle, 9.947, -14.133, 1.5), v30, z0, tNozzle, \Wobj := wobj2Circle;
		MoveL Offs(pZeroCircle, 11.747, -12.669, 1.5), v30, z0, tNozzle, \Wobj := wobj2Circle;
		MoveL Offs(pZeroCircle, 11.774, -12.647, 1.5), v30, z0, tNozzle, \Wobj := wobj2Circle;
		MoveL Offs(pZeroCircle, 13.357, -10.952, 1.5), v30, z0, tNozzle, \Wobj := wobj2Circle;
		MoveL Offs(pZeroCircle, 13.381, -10.927, 1.5), v30, z0, tNozzle, \Wobj := wobj2Circle;
		MoveL Offs(pZeroCircle, 14.719, -9.031, 1.5), v30, z0, tNozzle, \Wobj := wobj2Circle;
		MoveL Offs(pZeroCircle, 14.738, -9.003, 1.5), v30, z0, tNozzle, \Wobj := wobj2Circle;
		MoveL Offs(pZeroCircle, 15.806, -6.943, 1.5), v30, z0, tNozzle, \Wobj := wobj2Circle;
		MoveL Offs(pZeroCircle, 15.821, -6.913, 1.5), v30, z0, tNozzle, \Wobj := wobj2Circle;
		MoveL Offs(pZeroCircle, 16.598, -4.727, 1.5), v30, z0, tNozzle, \Wobj := wobj2Circle;
		MoveL Offs(pZeroCircle, 16.61, -4.695, 1.5), v30, z0, tNozzle, \Wobj := wobj2Circle;
		MoveL Offs(pZeroCircle, 17.082, -2.423, 1.5), v30, z0, tNozzle, \Wobj := wobj2Circle;
		MoveL Offs(pZeroCircle, 17.089, -2.39, 1.5), v30, z0, tNozzle, \Wobj := wobj2Circle;
		MoveL Offs(pZeroCircle, 17.247, -0.075, 1.5), v30, z0, tNozzle, \Wobj := wobj2Circle;
		MoveL Offs(pZeroCircle, 17.249, -0.041, 1.5), v30, z0, tNozzle, \Wobj := wobj2Circle;
		MoveL Offs(pZeroCircle, 17.091, 2.274, 1.5), v30, z0, tNozzle, \Wobj := wobj2Circle;
		MoveL Offs(pZeroCircle, 17.089, 2.308, 1.5), v30, z0, tNozzle, \Wobj := wobj2Circle;
		MoveL Offs(pZeroCircle, 16.617, 4.58, 1.5), v30, z0, tNozzle, \Wobj := wobj2Circle;
		MoveL Offs(pZeroCircle, 16.61, 4.613, 1.5), v30, z0, tNozzle, \Wobj := wobj2Circle;
		MoveL Offs(pZeroCircle, 15.833, 6.799, 1.5), v30, z0, tNozzle, \Wobj := wobj2Circle;
		MoveL Offs(pZeroCircle, 15.821, 6.831, 1.5), v30, z0, tNozzle, \Wobj := wobj2Circle;
		MoveL Offs(pZeroCircle, 14.754, 8.891, 1.5), v30, z0, tNozzle, \Wobj := wobj2Circle;
		MoveL Offs(pZeroCircle, 14.738, 8.922, 1.5), v30, z0, tNozzle, \Wobj := wobj2Circle;
		MoveL Offs(pZeroCircle, 13.4, 10.817, 1.5), v30, z0, tNozzle, \Wobj := wobj2Circle;
		MoveL Offs(pZeroCircle, 13.381, 10.845, 1.5), v30, z0, tNozzle, \Wobj := wobj2Circle;
		MoveL Offs(pZeroCircle, 11.797, 12.541, 1.5), v30, z0, tNozzle, \Wobj := wobj2Circle;
		MoveL Offs(pZeroCircle, 11.774, 12.566, 1.5), v30, z0, tNozzle, \Wobj := wobj2Circle;
		MoveL Offs(pZeroCircle, 9.974, 14.03, 1.5), v30, z0, tNozzle, \Wobj := wobj2Circle;
		MoveL Offs(pZeroCircle, 9.947, 14.051, 1.5), v30, z0, tNozzle, \Wobj := wobj2Circle;
		MoveL Offs(pZeroCircle, 7.965, 15.257, 1.5), v30, z0, tNozzle, \Wobj := wobj2Circle;
		MoveL Offs(pZeroCircle, 7.936, 15.275, 1.5), v30, z0, tNozzle, \Wobj := wobj2Circle;
		MoveL Offs(pZeroCircle, 5.808, 16.199, 1.5), v30, z0, tNozzle, \Wobj := wobj2Circle;
		MoveL Offs(pZeroCircle, 5.776, 16.213, 1.5), v30, z0, tNozzle, \Wobj := wobj2Circle;
		MoveL Offs(pZeroCircle, 3.542, 16.839, 1.5), v30, z0, tNozzle, \Wobj := wobj2Circle;
		MoveL Offs(pZeroCircle, 3.509, 16.848, 1.5), v30, z0, tNozzle, \Wobj := wobj2Circle;
		MoveL Offs(pZeroCircle, 1.211, 17.164, 1.5), v30, z0, tNozzle, \Wobj := wobj2Circle;
		MoveL Offs(pZeroCircle, 1.177, 17.168, 1.5), v30, z0, tNozzle, \Wobj := wobj2Circle;
		MoveL Offs(pZeroCircle, -1.177, 17.168, 1.5), v30, z0, tNozzle, \Wobj := wobj2Circle;
		MoveL Offs(pZeroCircle, -3.476, 16.852, 1.5), v30, z0, tNozzle, \Wobj := wobj2Circle;
		MoveL Offs(pZeroCircle, -3.509, 16.848, 1.5), v30, z0, tNozzle, \Wobj := wobj2Circle;
		MoveL Offs(pZeroCircle, -5.744, 16.222, 1.5), v30, z0, tNozzle, \Wobj := wobj2Circle;
		MoveL Offs(pZeroCircle, -5.776, 16.213, 1.5), v30, z0, tNozzle, \Wobj := wobj2Circle;
		MoveL Offs(pZeroCircle, -7.905, 15.288, 1.5), v30, z0, tNozzle, \Wobj := wobj2Circle;
		MoveL Offs(pZeroCircle, -7.936, 15.275, 1.5), v30, z0, tNozzle, \Wobj := wobj2Circle;
		MoveL Offs(pZeroCircle, -9.918, 14.069, 1.5), v30, z0, tNozzle, \Wobj := wobj2Circle;
		MoveL Offs(pZeroCircle, -9.947, 14.051, 1.5), v30, z0, tNozzle, \Wobj := wobj2Circle;
		MoveL Offs(pZeroCircle, -11.747, 12.587, 1.5), v30, z0, tNozzle, \Wobj := wobj2Circle;
		MoveL Offs(pZeroCircle, -11.774, 12.566, 1.5), v30, z0, tNozzle, \Wobj := wobj2Circle;
		MoveL Offs(pZeroCircle, -13.357, 10.87, 1.5), v30, z0, tNozzle, \Wobj := wobj2Circle;
		MoveL Offs(pZeroCircle, -13.381, 10.845, 1.5), v30, z0, tNozzle, \Wobj := wobj2Circle;
		MoveL Offs(pZeroCircle, -14.719, 8.95, 1.5), v30, z0, tNozzle, \Wobj := wobj2Circle;
		MoveL Offs(pZeroCircle, -14.738, 8.922, 1.5), v30, z0, tNozzle, \Wobj := wobj2Circle;
		MoveL Offs(pZeroCircle, -15.806, 6.862, 1.5), v30, z0, tNozzle, \Wobj := wobj2Circle;
		MoveL Offs(pZeroCircle, -15.821, 6.831, 1.5), v30, z0, tNozzle, \Wobj := wobj2Circle;
		MoveL Offs(pZeroCircle, -16.598, 4.645, 1.5), v30, z0, tNozzle, \Wobj := wobj2Circle;
		MoveL Offs(pZeroCircle, -16.61, 4.613, 1.5), v30, z0, tNozzle, \Wobj := wobj2Circle;
		MoveL Offs(pZeroCircle, -17.082, 2.341, 1.5), v30, z0, tNozzle, \Wobj := wobj2Circle;
		MoveL Offs(pZeroCircle, -17.089, 2.308, 1.5), v30, z0, tNozzle, \Wobj := wobj2Circle;
		MoveL Offs(pZeroCircle, -17.247, -0.007, 1.5), v30, z0, tNozzle, \Wobj := wobj2Circle;
		MoveL Offs(pZeroCircle, -17.249, -0.041, 1.5), v30, z0, tNozzle, \Wobj := wobj2Circle;
		MoveL Offs(pZeroCircle, -17.091, -2.356, 1.5), v30, z0, tNozzle, \Wobj := wobj2Circle;
		MoveL Offs(pZeroCircle, -17.089, -2.39, 1.5), v30, z0, tNozzle, \Wobj := wobj2Circle;
		WaitRob \InPos;
		SetDO DO5_Program_Feed, 0;
		MoveL Offs(pZeroCircle, -16.627, -1.818, 1.5), v100, z0, tNozzle, \Wobj := wobj2Circle;
		WaitRob \InPos;
		SetDO DO5_Program_Feed, 1;
		MoveL Offs(pZeroCircle, 1.773, 16.582, 1.5), v30, z0, tNozzle, \Wobj := wobj2Circle;
		WaitRob \InPos;
		SetDO DO5_Program_Feed, 0;
		MoveL Offs(pZeroCircle, 5.27, 15.836, 1.5), v100, z0, tNozzle, \Wobj := wobj2Circle;
		WaitRob \InPos;
		SetDO DO5_Program_Feed, 1;
		MoveL Offs(pZeroCircle, -15.865, -5.299, 1.5), v30, z0, tNozzle, \Wobj := wobj2Circle;
		WaitRob \InPos;
		SetDO DO5_Program_Feed, 0;
		MoveL Offs(pZeroCircle, -14.568, -8.245, 1.5), v100, z0, tNozzle, \Wobj := wobj2Circle;
		WaitRob \InPos;
		SetDO DO5_Program_Feed, 1;
		MoveL Offs(pZeroCircle, 8.204, 14.527, 1.5), v30, z0, tNozzle, \Wobj := wobj2Circle;
		WaitRob \InPos;
		SetDO DO5_Program_Feed, 0;
		MoveL Offs(pZeroCircle, 10.708, 12.788, 1.5), v100, z0, tNozzle, \Wobj := wobj2Circle;
		WaitRob \InPos;
		SetDO DO5_Program_Feed, 1;
		MoveL Offs(pZeroCircle, -12.847, -10.766, 1.5), v30, z0, tNozzle, \Wobj := wobj2Circle;
		WaitRob \InPos;
		SetDO DO5_Program_Feed, 0;
		MoveL Offs(pZeroCircle, -10.708, -12.87, 1.5), v100, z0, tNozzle, \Wobj := wobj2Circle;
		WaitRob \InPos;
		SetDO DO5_Program_Feed, 1;
		MoveL Offs(pZeroCircle, 12.847, 10.685, 1.5), v30, z0, tNozzle, \Wobj := wobj2Circle;
		WaitRob \InPos;
		SetDO DO5_Program_Feed, 0;
		MoveL Offs(pZeroCircle, 14.568, 8.163, 1.5), v100, z0, tNozzle, \Wobj := wobj2Circle;
		WaitRob \InPos;
		SetDO DO5_Program_Feed, 1;
		MoveL Offs(pZeroCircle, -8.204, -14.608, 1.5), v30, z0, tNozzle, \Wobj := wobj2Circle;
		WaitRob \InPos;
		SetDO DO5_Program_Feed, 0;
		MoveL Offs(pZeroCircle, -5.27, -15.917, 1.5), v100, z0, tNozzle, \Wobj := wobj2Circle;
		WaitRob \InPos;
		SetDO DO5_Program_Feed, 1;
		MoveL Offs(pZeroCircle, 15.865, 5.217, 1.5), v30, z0, tNozzle, \Wobj := wobj2Circle;
		WaitRob \InPos;
		SetDO DO5_Program_Feed, 0;
		MoveL Offs(pZeroCircle, 16.627, 1.737, 1.5), v100, z0, tNozzle, \Wobj := wobj2Circle;
		WaitRob \InPos;
		SetDO DO5_Program_Feed, 1;
		MoveL Offs(pZeroCircle, -1.773, -16.664, 1.5), v30, z0, tNozzle, \Wobj := wobj2Circle;
		WaitRob \InPos;
		SetDO DO5_Program_Feed, 0;
		MoveL Offs(pZeroCircle, 2.58, -16.553, 1.5), v100, z0, tNozzle, \Wobj := wobj2Circle;
		WaitRob \InPos;
		SetDO DO5_Program_Feed, 1;
		MoveL Offs(pZeroCircle, 16.535, -2.598, 1.5), v30, z0, tNozzle, \Wobj := wobj2Circle;
		WaitRob \InPos;
		SetDO DO5_Program_Feed, 0;
		MoveL Offs(pZeroCircle, 13.537, -9.838, 1.5), v100, z0, tNozzle, \Wobj := wobj2Circle;
		WaitRob \InPos;
		SetDO DO5_Program_Feed, 1;
		MoveL Offs(pZeroCircle, 9.641, -13.735, 1.5), v30, z0, tNozzle, \Wobj := wobj2Circle;
		WaitRob \InPos;
		SetDO DO6_Between_Layer_Retract, 1;
		SetDO DO5_Program_Feed, 0;
		MoveL Offs(pZeroCircle, 9.641, -13.735, 6.5), v100, z0, tNozzle, \Wobj := wobj2Circle;
		MoveL Offs(pZeroCircle, -16.535, 2.516, 6.5), v100, z0, tNozzle, \Wobj := wobj2Circle;
		WaitRob \InPos;
		SetDO DO6_Between_Layer_Retract, 0;
		MoveL Offs(pZeroCircle, -16.535, 2.516, 1.5), v30, z0, tNozzle, \Wobj := wobj2Circle;
		WaitRob \InPos;
		SetDO DO5_Program_Feed, 1;
		MoveL Offs(pZeroCircle, -2.58, 16.471, 1.5), v30, z0, tNozzle, \Wobj := wobj2Circle;
		WaitRob \InPos;
		SetDO DO5_Program_Feed, 0;
		MoveL Offs(pZeroCircle, -9.641, 13.653, 1.5), v100, z0, tNozzle, \Wobj := wobj2Circle;
		WaitRob \InPos;
		SetDO DO5_Program_Feed, 1;
		MoveL Offs(pZeroCircle, -13.537, 9.757, 1.5), v30, z0, tNozzle, \Wobj := wobj2Circle;
		WaitRob \InPos;
		SetDO DO6_Between_Layer_Retract, 1;
		SetDO DO5_Program_Feed, 0;
		MoveL Offs(pZeroCircle, -13.537, 9.757, 6.5), v100, z0, tNozzle, \Wobj := wobj2Circle;

		! Layer: 6
		! LayerParams(infillAngleDegrees=-45.0, pathWidth=3.0, layerHeight=0.3, infillShiftX=0.0, infillShiftY=0.0, numShells=1, infillOverlap=0.0002)
		! T16
		! M6
		TPWRITE "Layer 6 of 20";
		MoveL Offs(pZeroCircle, 16.619, 4.57, 6.8), v100, z0, tNozzle, \Wobj := wobj2Circle;
		MoveL Offs(pZeroCircle, 16.619, 4.57, 1.8), v30, z0, tNozzle, \Wobj := wobj2Circle;
		WaitRob \InPos;
		SetDO DO6_Between_Layer_Retract, 0;
		WaitRob \InPos;
		SetDO DO5_Program_Feed, 1;
		MoveL Offs(pZeroCircle, 16.61, 4.613, 1.8), v30, z0, tNozzle, \Wobj := wobj2Circle;
		MoveL Offs(pZeroCircle, 15.836, 6.79, 1.8), v30, z0, tNozzle, \Wobj := wobj2Circle;
		MoveL Offs(pZeroCircle, 15.821, 6.831, 1.8), v30, z0, tNozzle, \Wobj := wobj2Circle;
		MoveL Offs(pZeroCircle, 14.759, 8.882, 1.8), v30, z0, tNozzle, \Wobj := wobj2Circle;
		MoveL Offs(pZeroCircle, 14.738, 8.922, 1.8), v30, z0, tNozzle, \Wobj := wobj2Circle;
		MoveL Offs(pZeroCircle, 13.406, 10.809, 1.8), v30, z0, tNozzle, \Wobj := wobj2Circle;
		MoveL Offs(pZeroCircle, 13.381, 10.845, 1.8), v30, z0, tNozzle, \Wobj := wobj2Circle;
		MoveL Offs(pZeroCircle, 11.804, 12.533, 1.8), v30, z0, tNozzle, \Wobj := wobj2Circle;
		MoveL Offs(pZeroCircle, 11.774, 12.566, 1.8), v30, z0, tNozzle, \Wobj := wobj2Circle;
		MoveL Offs(pZeroCircle, 9.982, 14.023, 1.8), v30, z0, tNozzle, \Wobj := wobj2Circle;
		MoveL Offs(pZeroCircle, 9.947, 14.051, 1.8), v30, z0, tNozzle, \Wobj := wobj2Circle;
		MoveL Offs(pZeroCircle, 7.974, 15.252, 1.8), v30, z0, tNozzle, \Wobj := wobj2Circle;
		MoveL Offs(pZeroCircle, 7.936, 15.275, 1.8), v30, z0, tNozzle, \Wobj := wobj2Circle;
		MoveL Offs(pZeroCircle, 5.817, 16.195, 1.8), v30, z0, tNozzle, \Wobj := wobj2Circle;
		MoveL Offs(pZeroCircle, 5.776, 16.213, 1.8), v30, z0, tNozzle, \Wobj := wobj2Circle;
		MoveL Offs(pZeroCircle, 3.552, 16.836, 1.8), v30, z0, tNozzle, \Wobj := wobj2Circle;
		MoveL Offs(pZeroCircle, 3.509, 16.848, 1.8), v30, z0, tNozzle, \Wobj := wobj2Circle;
		MoveL Offs(pZeroCircle, 1.221, 17.162, 1.8), v30, z0, tNozzle, \Wobj := wobj2Circle;
		MoveL Offs(pZeroCircle, 1.177, 17.168, 1.8), v30, z0, tNozzle, \Wobj := wobj2Circle;
		MoveL Offs(pZeroCircle, -1.177, 17.168, 1.8), v30, z0, tNozzle, \Wobj := wobj2Circle;
		MoveL Offs(pZeroCircle, -3.466, 16.854, 1.8), v30, z0, tNozzle, \Wobj := wobj2Circle;
		MoveL Offs(pZeroCircle, -3.509, 16.848, 1.8), v30, z0, tNozzle, \Wobj := wobj2Circle;
		MoveL Offs(pZeroCircle, -5.734, 16.225, 1.8), v30, z0, tNozzle, \Wobj := wobj2Circle;
		MoveL Offs(pZeroCircle, -5.776, 16.213, 1.8), v30, z0, tNozzle, \Wobj := wobj2Circle;
		MoveL Offs(pZeroCircle, -7.895, 15.292, 1.8), v30, z0, tNozzle, \Wobj := wobj2Circle;
		MoveL Offs(pZeroCircle, -7.936, 15.275, 1.8), v30, z0, tNozzle, \Wobj := wobj2Circle;
		MoveL Offs(pZeroCircle, -9.91, 14.074, 1.8), v30, z0, tNozzle, \Wobj := wobj2Circle;
		MoveL Offs(pZeroCircle, -9.947, 14.051, 1.8), v30, z0, tNozzle, \Wobj := wobj2Circle;
		MoveL Offs(pZeroCircle, -11.739, 12.594, 1.8), v30, z0, tNozzle, \Wobj := wobj2Circle;
		MoveL Offs(pZeroCircle, -11.774, 12.566, 1.8), v30, z0, tNozzle, \Wobj := wobj2Circle;
		MoveL Offs(pZeroCircle, -13.35, 10.877, 1.8), v30, z0, tNozzle, \Wobj := wobj2Circle;
		MoveL Offs(pZeroCircle, -13.381, 10.845, 1.8), v30, z0, tNozzle, \Wobj := wobj2Circle;
		MoveL Offs(pZeroCircle, -14.713, 8.958, 1.8), v30, z0, tNozzle, \Wobj := wobj2Circle;
		MoveL Offs(pZeroCircle, -14.738, 8.922, 1.8), v30, z0, tNozzle, \Wobj := wobj2Circle;
		MoveL Offs(pZeroCircle, -15.801, 6.871, 1.8), v30, z0, tNozzle, \Wobj := wobj2Circle;
		MoveL Offs(pZeroCircle, -15.821, 6.831, 1.8), v30, z0, tNozzle, \Wobj := wobj2Circle;
		MoveL Offs(pZeroCircle, -16.595, 4.655, 1.8), v30, z0, tNozzle, \Wobj := wobj2Circle;
		MoveL Offs(pZeroCircle, -16.61, 4.613, 1.8), v30, z0, tNozzle, \Wobj := wobj2Circle;
		MoveL Offs(pZeroCircle, -17.08, 2.351, 1.8), v30, z0, tNozzle, \Wobj := wobj2Circle;
		MoveL Offs(pZeroCircle, -17.089, 2.308, 1.8), v30, z0, tNozzle, \Wobj := wobj2Circle;
		MoveL Offs(pZeroCircle, -17.246, 0.003, 1.8), v30, z0, tNozzle, \Wobj := wobj2Circle;
		MoveL Offs(pZeroCircle, -17.249, -0.041, 1.8), v30, z0, tNozzle, \Wobj := wobj2Circle;
		MoveL Offs(pZeroCircle, -17.092, -2.345, 1.8), v30, z0, tNozzle, \Wobj := wobj2Circle;
		MoveL Offs(pZeroCircle, -17.089, -2.39, 1.8), v30, z0, tNozzle, \Wobj := wobj2Circle;
		MoveL Offs(pZeroCircle, -16.619, -4.651, 1.8), v30, z0, tNozzle, \Wobj := wobj2Circle;
		MoveL Offs(pZeroCircle, -16.61, -4.695, 1.8), v30, z0, tNozzle, \Wobj := wobj2Circle;
		MoveL Offs(pZeroCircle, -15.836, -6.871, 1.8), v30, z0, tNozzle, \Wobj := wobj2Circle;
		MoveL Offs(pZeroCircle, -15.821, -6.913, 1.8), v30, z0, tNozzle, \Wobj := wobj2Circle;
		MoveL Offs(pZeroCircle, -14.759, -8.964, 1.8), v30, z0, tNozzle, \Wobj := wobj2Circle;
		MoveL Offs(pZeroCircle, -14.738, -9.003, 1.8), v30, z0, tNozzle, \Wobj := wobj2Circle;
		MoveL Offs(pZeroCircle, -13.406, -10.89, 1.8), v30, z0, tNozzle, \Wobj := wobj2Circle;
		MoveL Offs(pZeroCircle, -13.381, -10.927, 1.8), v30, z0, tNozzle, \Wobj := wobj2Circle;
		MoveL Offs(pZeroCircle, -11.804, -12.615, 1.8), v30, z0, tNozzle, \Wobj := wobj2Circle;
		MoveL Offs(pZeroCircle, -11.774, -12.647, 1.8), v30, z0, tNozzle, \Wobj := wobj2Circle;
		MoveL Offs(pZeroCircle, -9.982, -14.105, 1.8), v30, z0, tNozzle, \Wobj := wobj2Circle;
		MoveL Offs(pZeroCircle, -9.947, -14.133, 1.8), v30, z0, tNozzle, \Wobj := wobj2Circle;
		MoveL Offs(pZeroCircle, -7.974, -15.333, 1.8), v30, z0, tNozzle, \Wobj := wobj2Circle;
		MoveL Offs(pZeroCircle, -7.936, -15.356, 1.8), v30, z0, tNozzle, \Wobj := wobj2Circle;
		MoveL Offs(pZeroCircle, -5.817, -16.277, 1.8), v30, z0, tNozzle, \Wobj := wobj2Circle;
		MoveL Offs(pZeroCircle, -5.776, -16.294, 1.8), v30, z0, tNozzle, \Wobj := wobj2Circle;
		MoveL Offs(pZeroCircle, -3.552, -16.917, 1.8), v30, z0, tNozzle, \Wobj := wobj2Circle;
		MoveL Offs(pZeroCircle, -3.509, -16.929, 1.8), v30, z0, tNozzle, \Wobj := wobj2Circle;
		MoveL Offs(pZeroCircle, -1.221, -17.244, 1.8), v30, z0, tNozzle, \Wobj := wobj2Circle;
		MoveL Offs(pZeroCircle, -1.177, -17.25, 1.8), v30, z0, tNozzle, \Wobj := wobj2Circle;
		MoveL Offs(pZeroCircle, 1.177, -17.25, 1.8), v30, z0, tNozzle, \Wobj := wobj2Circle;
		MoveL Offs(pZeroCircle, 3.466, -16.935, 1.8), v30, z0, tNozzle, \Wobj := wobj2Circle;
		MoveL Offs(pZeroCircle, 3.509, -16.929, 1.8), v30, z0, tNozzle, \Wobj := wobj2Circle;
		MoveL Offs(pZeroCircle, 5.734, -16.306, 1.8), v30, z0, tNozzle, \Wobj := wobj2Circle;
		MoveL Offs(pZeroCircle, 5.776, -16.294, 1.8), v30, z0, tNozzle, \Wobj := wobj2Circle;
		MoveL Offs(pZeroCircle, 7.895, -15.374, 1.8), v30, z0, tNozzle, \Wobj := wobj2Circle;
		MoveL Offs(pZeroCircle, 7.936, -15.356, 1.8), v30, z0, tNozzle, \Wobj := wobj2Circle;
		MoveL Offs(pZeroCircle, 9.91, -14.156, 1.8), v30, z0, tNozzle, \Wobj := wobj2Circle;
		MoveL Offs(pZeroCircle, 9.947, -14.133, 1.8), v30, z0, tNozzle, \Wobj := wobj2Circle;
		MoveL Offs(pZeroCircle, 11.739, -12.675, 1.8), v30, z0, tNozzle, \Wobj := wobj2Circle;
		MoveL Offs(pZeroCircle, 11.774, -12.647, 1.8), v30, z0, tNozzle, \Wobj := wobj2Circle;
		MoveL Offs(pZeroCircle, 13.35, -10.959, 1.8), v30, z0, tNozzle, \Wobj := wobj2Circle;
		MoveL Offs(pZeroCircle, 13.381, -10.927, 1.8), v30, z0, tNozzle, \Wobj := wobj2Circle;
		MoveL Offs(pZeroCircle, 14.713, -9.04, 1.8), v30, z0, tNozzle, \Wobj := wobj2Circle;
		MoveL Offs(pZeroCircle, 14.738, -9.003, 1.8), v30, z0, tNozzle, \Wobj := wobj2Circle;
		MoveL Offs(pZeroCircle, 15.801, -6.952, 1.8), v30, z0, tNozzle, \Wobj := wobj2Circle;
		MoveL Offs(pZeroCircle, 15.821, -6.913, 1.8), v30, z0, tNozzle, \Wobj := wobj2Circle;
		MoveL Offs(pZeroCircle, 16.595, -4.736, 1.8), v30, z0, tNozzle, \Wobj := wobj2Circle;
		MoveL Offs(pZeroCircle, 16.61, -4.695, 1.8), v30, z0, tNozzle, \Wobj := wobj2Circle;
		MoveL Offs(pZeroCircle, 17.08, -2.433, 1.8), v30, z0, tNozzle, \Wobj := wobj2Circle;
		MoveL Offs(pZeroCircle, 17.089, -2.39, 1.8), v30, z0, tNozzle, \Wobj := wobj2Circle;
		MoveL Offs(pZeroCircle, 17.246, -0.085, 1.8), v30, z0, tNozzle, \Wobj := wobj2Circle;
		MoveL Offs(pZeroCircle, 17.249, -0.041, 1.8), v30, z0, tNozzle, \Wobj := wobj2Circle;
		MoveL Offs(pZeroCircle, 17.092, 2.264, 1.8), v30, z0, tNozzle, \Wobj := wobj2Circle;
		MoveL Offs(pZeroCircle, 17.089, 2.308, 1.8), v30, z0, tNozzle, \Wobj := wobj2Circle;
		MoveL Offs(pZeroCircle, 16.619, 4.57, 1.8), v30, z0, tNozzle, \Wobj := wobj2Circle;
		WaitRob \InPos;
		SetDO DO5_Program_Feed, 0;
		MoveL Offs(pZeroCircle, 16.535, 2.516, 1.8), v100, z0, tNozzle, \Wobj := wobj2Circle;
		WaitRob \InPos;
		SetDO DO5_Program_Feed, 1;
		MoveL Offs(pZeroCircle, 2.58, 16.471, 1.8), v30, z0, tNozzle, \Wobj := wobj2Circle;
		WaitRob \InPos;
		SetDO DO5_Program_Feed, 0;
		MoveL Offs(pZeroCircle, -1.773, 16.582, 1.8), v100, z0, tNozzle, \Wobj := wobj2Circle;
		WaitRob \InPos;
		SetDO DO5_Program_Feed, 1;
		MoveL Offs(pZeroCircle, 16.627, -1.818, 1.8), v30, z0, tNozzle, \Wobj := wobj2Circle;
		WaitRob \InPos;
		SetDO DO5_Program_Feed, 0;
		MoveL Offs(pZeroCircle, 15.865, -5.299, 1.8), v100, z0, tNozzle, \Wobj := wobj2Circle;
		WaitRob \InPos;
		SetDO DO5_Program_Feed, 1;
		MoveL Offs(pZeroCircle, -5.27, 15.836, 1.8), v30, z0, tNozzle, \Wobj := wobj2Circle;
		WaitRob \InPos;
		SetDO DO5_Program_Feed, 0;
		MoveL Offs(pZeroCircle, -8.204, 14.527, 1.8), v100, z0, tNozzle, \Wobj := wobj2Circle;
		WaitRob \InPos;
		SetDO DO5_Program_Feed, 1;
		MoveL Offs(pZeroCircle, 14.568, -8.245, 1.8), v30, z0, tNozzle, \Wobj := wobj2Circle;
		WaitRob \InPos;
		SetDO DO5_Program_Feed, 0;
		MoveL Offs(pZeroCircle, 12.847, -10.766, 1.8), v100, z0, tNozzle, \Wobj := wobj2Circle;
		WaitRob \InPos;
		SetDO DO5_Program_Feed, 1;
		MoveL Offs(pZeroCircle, -10.708, 12.788, 1.8), v30, z0, tNozzle, \Wobj := wobj2Circle;
		WaitRob \InPos;
		SetDO DO5_Program_Feed, 0;
		MoveL Offs(pZeroCircle, -12.847, 10.685, 1.8), v100, z0, tNozzle, \Wobj := wobj2Circle;
		WaitRob \InPos;
		SetDO DO5_Program_Feed, 1;
		MoveL Offs(pZeroCircle, 10.708, -12.87, 1.8), v30, z0, tNozzle, \Wobj := wobj2Circle;
		WaitRob \InPos;
		SetDO DO5_Program_Feed, 0;
		MoveL Offs(pZeroCircle, 8.204, -14.608, 1.8), v100, z0, tNozzle, \Wobj := wobj2Circle;
		WaitRob \InPos;
		SetDO DO5_Program_Feed, 1;
		MoveL Offs(pZeroCircle, -14.568, 8.163, 1.8), v30, z0, tNozzle, \Wobj := wobj2Circle;
		WaitRob \InPos;
		SetDO DO5_Program_Feed, 0;
		MoveL Offs(pZeroCircle, -15.865, 5.217, 1.8), v100, z0, tNozzle, \Wobj := wobj2Circle;
		WaitRob \InPos;
		SetDO DO5_Program_Feed, 1;
		MoveL Offs(pZeroCircle, 5.27, -15.917, 1.8), v30, z0, tNozzle, \Wobj := wobj2Circle;
		WaitRob \InPos;
		SetDO DO5_Program_Feed, 0;
		MoveL Offs(pZeroCircle, 1.773, -16.664, 1.8), v100, z0, tNozzle, \Wobj := wobj2Circle;
		WaitRob \InPos;
		SetDO DO5_Program_Feed, 1;
		MoveL Offs(pZeroCircle, -16.627, 1.737, 1.8), v30, z0, tNozzle, \Wobj := wobj2Circle;
		WaitRob \InPos;
		SetDO DO5_Program_Feed, 0;
		MoveL Offs(pZeroCircle, -16.535, -2.598, 1.8), v100, z0, tNozzle, \Wobj := wobj2Circle;
		WaitRob \InPos;
		SetDO DO5_Program_Feed, 1;
		MoveL Offs(pZeroCircle, -2.58, -16.553, 1.8), v30, z0, tNozzle, \Wobj := wobj2Circle;
		WaitRob \InPos;
		SetDO DO5_Program_Feed, 0;
		MoveL Offs(pZeroCircle, -9.641, -13.735, 1.8), v100, z0, tNozzle, \Wobj := wobj2Circle;
		WaitRob \InPos;
		SetDO DO5_Program_Feed, 1;
		MoveL Offs(pZeroCircle, -13.537, -9.838, 1.8), v30, z0, tNozzle, \Wobj := wobj2Circle;
		WaitRob \InPos;
		SetDO DO6_Between_Layer_Retract, 1;
		SetDO DO5_Program_Feed, 0;
		MoveL Offs(pZeroCircle, -13.537, -9.838, 6.8), v100, z0, tNozzle, \Wobj := wobj2Circle;
		MoveL Offs(pZeroCircle, 9.641, 13.653, 6.8), v100, z0, tNozzle, \Wobj := wobj2Circle;
		WaitRob \InPos;
		SetDO DO6_Between_Layer_Retract, 0;
		MoveL Offs(pZeroCircle, 9.641, 13.653, 1.8), v30, z0, tNozzle, \Wobj := wobj2Circle;
		WaitRob \InPos;
		SetDO DO5_Program_Feed, 1;
		MoveL Offs(pZeroCircle, 13.537, 9.757, 1.8), v30, z0, tNozzle, \Wobj := wobj2Circle;
		WaitRob \InPos;
		SetDO DO6_Between_Layer_Retract, 1;
		SetDO DO5_Program_Feed, 0;
		MoveL Offs(pZeroCircle, 13.537, 9.757, 6.8), v100, z0, tNozzle, \Wobj := wobj2Circle;

		! Layer: 7
		! LayerParams(infillAngleDegrees=45.0, pathWidth=3.0, layerHeight=0.3, infillShiftX=0.0, infillShiftY=0.0, numShells=1, infillOverlap=0.0002)
		! T17
		! M6
		TPWRITE "Layer 7 of 20";
		MoveL Offs(pZeroCircle, -17.246, 0.014, 7.1), v100, z0, tNozzle, \Wobj := wobj2Circle;
		MoveL Offs(pZeroCircle, -17.246, 0.014, 2.1), v30, z0, tNozzle, \Wobj := wobj2Circle;
		WaitRob \InPos;
		SetDO DO6_Between_Layer_Retract, 0;
		WaitRob \InPos;
		SetDO DO5_Program_Feed, 1;
		MoveL Offs(pZeroCircle, -17.249, -0.041, 2.1), v30, z0, tNozzle, \Wobj := wobj2Circle;
		MoveL Offs(pZeroCircle, -17.092, -2.335, 2.1), v30, z0, tNozzle, \Wobj := wobj2Circle;
		MoveL Offs(pZeroCircle, -17.089, -2.39, 2.1), v30, z0, tNozzle, \Wobj := wobj2Circle;
		MoveL Offs(pZeroCircle, -16.621, -4.641, 2.1), v30, z0, tNozzle, \Wobj := wobj2Circle;
		MoveL Offs(pZeroCircle, -16.61, -4.695, 2.1), v30, z0, tNozzle, \Wobj := wobj2Circle;
		MoveL Offs(pZeroCircle, -15.84, -6.862, 2.1), v30, z0, tNozzle, \Wobj := wobj2Circle;
		MoveL Offs(pZeroCircle, -15.821, -6.913, 2.1), v30, z0, tNozzle, \Wobj := wobj2Circle;
		MoveL Offs(pZeroCircle, -14.763, -8.955, 2.1), v30, z0, tNozzle, \Wobj := wobj2Circle;
		MoveL Offs(pZeroCircle, -14.738, -9.003, 2.1), v30, z0, tNozzle, \Wobj := wobj2Circle;
		MoveL Offs(pZeroCircle, -13.412, -10.882, 2.1), v30, z0, tNozzle, \Wobj := wobj2Circle;
		MoveL Offs(pZeroCircle, -13.381, -10.927, 2.1), v30, z0, tNozzle, \Wobj := wobj2Circle;
		MoveL Offs(pZeroCircle, -11.811, -12.607, 2.1), v30, z0, tNozzle, \Wobj := wobj2Circle;
		MoveL Offs(pZeroCircle, -11.774, -12.647, 2.1), v30, z0, tNozzle, \Wobj := wobj2Circle;
		MoveL Offs(pZeroCircle, -9.99, -14.099, 2.1), v30, z0, tNozzle, \Wobj := wobj2Circle;
		MoveL Offs(pZeroCircle, -9.947, -14.133, 2.1), v30, z0, tNozzle, \Wobj := wobj2Circle;
		MoveL Offs(pZeroCircle, -7.982, -15.328, 2.1), v30, z0, tNozzle, \Wobj := wobj2Circle;
		MoveL Offs(pZeroCircle, -7.936, -15.356, 2.1), v30, z0, tNozzle, \Wobj := wobj2Circle;
		MoveL Offs(pZeroCircle, -5.827, -16.273, 2.1), v30, z0, tNozzle, \Wobj := wobj2Circle;
		MoveL Offs(pZeroCircle, -5.776, -16.294, 2.1), v30, z0, tNozzle, \Wobj := wobj2Circle;
		MoveL Offs(pZeroCircle, -3.562, -16.915, 2.1), v30, z0, tNozzle, \Wobj := wobj2Circle;
		MoveL Offs(pZeroCircle, -3.509, -16.929, 2.1), v30, z0, tNozzle, \Wobj := wobj2Circle;
		MoveL Offs(pZeroCircle, -1.231, -17.243, 2.1), v30, z0, tNozzle, \Wobj := wobj2Circle;
		MoveL Offs(pZeroCircle, -1.177, -17.25, 2.1), v30, z0, tNozzle, \Wobj := wobj2Circle;
		MoveL Offs(pZeroCircle, 1.177, -17.25, 2.1), v30, z0, tNozzle, \Wobj := wobj2Circle;
		MoveL Offs(pZeroCircle, 3.455, -16.937, 2.1), v30, z0, tNozzle, \Wobj := wobj2Circle;
		MoveL Offs(pZeroCircle, 3.509, -16.929, 2.1), v30, z0, tNozzle, \Wobj := wobj2Circle;
		MoveL Offs(pZeroCircle, 5.724, -16.309, 2.1), v30, z0, tNozzle, \Wobj := wobj2Circle;
		MoveL Offs(pZeroCircle, 5.776, -16.294, 2.1), v30, z0, tNozzle, \Wobj := wobj2Circle;
		MoveL Offs(pZeroCircle, 7.886, -15.378, 2.1), v30, z0, tNozzle, \Wobj := wobj2Circle;
		MoveL Offs(pZeroCircle, 7.936, -15.356, 2.1), v30, z0, tNozzle, \Wobj := wobj2Circle;
		MoveL Offs(pZeroCircle, 9.901, -14.161, 2.1), v30, z0, tNozzle, \Wobj := wobj2Circle;
		MoveL Offs(pZeroCircle, 9.947, -14.133, 2.1), v30, z0, tNozzle, \Wobj := wobj2Circle;
		MoveL Offs(pZeroCircle, 11.731, -12.682, 2.1), v30, z0, tNozzle, \Wobj := wobj2Circle;
		MoveL Offs(pZeroCircle, 11.774, -12.647, 2.1), v30, z0, tNozzle, \Wobj := wobj2Circle;
		MoveL Offs(pZeroCircle, 13.343, -10.967, 2.1), v30, z0, tNozzle, \Wobj := wobj2Circle;
		MoveL Offs(pZeroCircle, 13.381, -10.927, 2.1), v30, z0, tNozzle, \Wobj := wobj2Circle;
		MoveL Offs(pZeroCircle, 14.707, -9.048, 2.1), v30, z0, tNozzle, \Wobj := wobj2Circle;
		MoveL Offs(pZeroCircle, 14.738, -9.003, 2.1), v30, z0, tNozzle, \Wobj := wobj2Circle;
		MoveL Offs(pZeroCircle, 15.796, -6.961, 2.1), v30, z0, tNozzle, \Wobj := wobj2Circle;
		MoveL Offs(pZeroCircle, 15.821, -6.913, 2.1), v30, z0, tNozzle, \Wobj := wobj2Circle;
		MoveL Offs(pZeroCircle, 16.591, -4.746, 2.1), v30, z0, tNozzle, \Wobj := wobj2Circle;
		MoveL Offs(pZeroCircle, 16.61, -4.695, 2.1), v30, z0, tNozzle, \Wobj := wobj2Circle;
		MoveL Offs(pZeroCircle, 17.078, -2.443, 2.1), v30, z0, tNozzle, \Wobj := wobj2Circle;
		MoveL Offs(pZeroCircle, 17.089, -2.39, 2.1), v30, z0, tNozzle, \Wobj := wobj2Circle;
		MoveL Offs(pZeroCircle, 17.246, -0.095, 2.1), v30, z0, tNozzle, \Wobj := wobj2Circle;
		MoveL Offs(pZeroCircle, 17.249, -0.041, 2.1), v30, z0, tNozzle, \Wobj := wobj2Circle;
		MoveL Offs(pZeroCircle, 17.092, 2.254, 2.1), v30, z0, tNozzle, \Wobj := wobj2Circle;
		MoveL Offs(pZeroCircle, 17.089, 2.308, 2.1), v30, z0, tNozzle, \Wobj := wobj2Circle;
		MoveL Offs(pZeroCircle, 16.621, 4.56, 2.1), v30, z0, tNozzle, \Wobj := wobj2Circle;
		MoveL Offs(pZeroCircle, 16.61, 4.613, 2.1), v30, z0, tNozzle, \Wobj := wobj2Circle;
		MoveL Offs(pZeroCircle, 15.84, 6.78, 2.1), v30, z0, tNozzle, \Wobj := wobj2Circle;
		MoveL Offs(pZeroCircle, 15.821, 6.831, 2.1), v30, z0, tNozzle, \Wobj := wobj2Circle;
		MoveL Offs(pZeroCircle, 14.763, 8.873, 2.1), v30, z0, tNozzle, \Wobj := wobj2Circle;
		MoveL Offs(pZeroCircle, 14.738, 8.922, 2.1), v30, z0, tNozzle, \Wobj := wobj2Circle;
		MoveL Offs(pZeroCircle, 13.412, 10.801, 2.1), v30, z0, tNozzle, \Wobj := wobj2Circle;
		MoveL Offs(pZeroCircle, 13.381, 10.845, 2.1), v30, z0, tNozzle, \Wobj := wobj2Circle;
		MoveL Offs(pZeroCircle, 11.811, 12.526, 2.1), v30, z0, tNozzle, \Wobj := wobj2Circle;
		MoveL Offs(pZeroCircle, 11.774, 12.566, 2.1), v30, z0, tNozzle, \Wobj := wobj2Circle;
		MoveL Offs(pZeroCircle, 9.99, 14.017, 2.1), v30, z0, tNozzle, \Wobj := wobj2Circle;
		MoveL Offs(pZeroCircle, 9.947, 14.051, 2.1), v30, z0, tNozzle, \Wobj := wobj2Circle;
		MoveL Offs(pZeroCircle, 7.982, 15.246, 2.1), v30, z0, tNozzle, \Wobj := wobj2Circle;
		MoveL Offs(pZeroCircle, 7.936, 15.275, 2.1), v30, z0, tNozzle, \Wobj := wobj2Circle;
		MoveL Offs(pZeroCircle, 5.827, 16.191, 2.1), v30, z0, tNozzle, \Wobj := wobj2Circle;
		MoveL Offs(pZeroCircle, 5.776, 16.213, 2.1), v30, z0, tNozzle, \Wobj := wobj2Circle;
		MoveL Offs(pZeroCircle, 3.562, 16.833, 2.1), v30, z0, tNozzle, \Wobj := wobj2Circle;
		MoveL Offs(pZeroCircle, 3.509, 16.848, 2.1), v30, z0, tNozzle, \Wobj := wobj2Circle;
		MoveL Offs(pZeroCircle, 1.231, 17.161, 2.1), v30, z0, tNozzle, \Wobj := wobj2Circle;
		MoveL Offs(pZeroCircle, 1.177, 17.168, 2.1), v30, z0, tNozzle, \Wobj := wobj2Circle;
		MoveL Offs(pZeroCircle, -1.177, 17.168, 2.1), v30, z0, tNozzle, \Wobj := wobj2Circle;
		MoveL Offs(pZeroCircle, -3.455, 16.855, 2.1), v30, z0, tNozzle, \Wobj := wobj2Circle;
		MoveL Offs(pZeroCircle, -3.509, 16.848, 2.1), v30, z0, tNozzle, \Wobj := wobj2Circle;
		MoveL Offs(pZeroCircle, -5.724, 16.227, 2.1), v30, z0, tNozzle, \Wobj := wobj2Circle;
		MoveL Offs(pZeroCircle, -5.776, 16.213, 2.1), v30, z0, tNozzle, \Wobj := wobj2Circle;
		MoveL Offs(pZeroCircle, -7.886, 15.296, 2.1), v30, z0, tNozzle, \Wobj := wobj2Circle;
		MoveL Offs(pZeroCircle, -7.936, 15.275, 2.1), v30, z0, tNozzle, \Wobj := wobj2Circle;
		MoveL Offs(pZeroCircle, -9.901, 14.08, 2.1), v30, z0, tNozzle, \Wobj := wobj2Circle;
		MoveL Offs(pZeroCircle, -9.947, 14.051, 2.1), v30, z0, tNozzle, \Wobj := wobj2Circle;
		MoveL Offs(pZeroCircle, -11.731, 12.6, 2.1), v30, z0, tNozzle, \Wobj := wobj2Circle;
		MoveL Offs(pZeroCircle, -11.774, 12.566, 2.1), v30, z0, tNozzle, \Wobj := wobj2Circle;
		MoveL Offs(pZeroCircle, -13.343, 10.885, 2.1), v30, z0, tNozzle, \Wobj := wobj2Circle;
		MoveL Offs(pZeroCircle, -13.381, 10.845, 2.1), v30, z0, tNozzle, \Wobj := wobj2Circle;
		MoveL Offs(pZeroCircle, -14.707, 8.966, 2.1), v30, z0, tNozzle, \Wobj := wobj2Circle;
		MoveL Offs(pZeroCircle, -14.738, 8.922, 2.1), v30, z0, tNozzle, \Wobj := wobj2Circle;
		MoveL Offs(pZeroCircle, -15.796, 6.88, 2.1), v30, z0, tNozzle, \Wobj := wobj2Circle;
		MoveL Offs(pZeroCircle, -15.821, 6.831, 2.1), v30, z0, tNozzle, \Wobj := wobj2Circle;
		MoveL Offs(pZeroCircle, -16.591, 4.664, 2.1), v30, z0, tNozzle, \Wobj := wobj2Circle;
		MoveL Offs(pZeroCircle, -16.61, 4.613, 2.1), v30, z0, tNozzle, \Wobj := wobj2Circle;
		MoveL Offs(pZeroCircle, -17.078, 2.361, 2.1), v30, z0, tNozzle, \Wobj := wobj2Circle;
		MoveL Offs(pZeroCircle, -17.089, 2.308, 2.1), v30, z0, tNozzle, \Wobj := wobj2Circle;
		MoveL Offs(pZeroCircle, -17.246, 0.014, 2.1), v30, z0, tNozzle, \Wobj := wobj2Circle;
		WaitRob \InPos;
		SetDO DO5_Program_Feed, 0;
		MoveL Offs(pZeroCircle, -16.627, -1.818, 2.1), v100, z0, tNozzle, \Wobj := wobj2Circle;
		WaitRob \InPos;
		SetDO DO5_Program_Feed, 1;
		MoveL Offs(pZeroCircle, 1.773, 16.582, 2.1), v30, z0, tNozzle, \Wobj := wobj2Circle;
		WaitRob \InPos;
		SetDO DO5_Program_Feed, 0;
		MoveL Offs(pZeroCircle, 5.27, 15.836, 2.1), v100, z0, tNozzle, \Wobj := wobj2Circle;
		WaitRob \InPos;
		SetDO DO5_Program_Feed, 1;
		MoveL Offs(pZeroCircle, -15.865, -5.299, 2.1), v30, z0, tNozzle, \Wobj := wobj2Circle;
		WaitRob \InPos;
		SetDO DO5_Program_Feed, 0;
		MoveL Offs(pZeroCircle, -14.568, -8.245, 2.1), v100, z0, tNozzle, \Wobj := wobj2Circle;
		WaitRob \InPos;
		SetDO DO5_Program_Feed, 1;
		MoveL Offs(pZeroCircle, 8.204, 14.527, 2.1), v30, z0, tNozzle, \Wobj := wobj2Circle;
		WaitRob \InPos;
		SetDO DO5_Program_Feed, 0;
		MoveL Offs(pZeroCircle, 10.708, 12.788, 2.1), v100, z0, tNozzle, \Wobj := wobj2Circle;
		WaitRob \InPos;
		SetDO DO5_Program_Feed, 1;
		MoveL Offs(pZeroCircle, -12.847, -10.766, 2.1), v30, z0, tNozzle, \Wobj := wobj2Circle;
		WaitRob \InPos;
		SetDO DO5_Program_Feed, 0;
		MoveL Offs(pZeroCircle, -10.708, -12.87, 2.1), v100, z0, tNozzle, \Wobj := wobj2Circle;
		WaitRob \InPos;
		SetDO DO5_Program_Feed, 1;
		MoveL Offs(pZeroCircle, 12.847, 10.685, 2.1), v30, z0, tNozzle, \Wobj := wobj2Circle;
		WaitRob \InPos;
		SetDO DO5_Program_Feed, 0;
		MoveL Offs(pZeroCircle, 14.568, 8.163, 2.1), v100, z0, tNozzle, \Wobj := wobj2Circle;
		WaitRob \InPos;
		SetDO DO5_Program_Feed, 1;
		MoveL Offs(pZeroCircle, -8.204, -14.608, 2.1), v30, z0, tNozzle, \Wobj := wobj2Circle;
		WaitRob \InPos;
		SetDO DO5_Program_Feed, 0;
		MoveL Offs(pZeroCircle, -5.27, -15.917, 2.1), v100, z0, tNozzle, \Wobj := wobj2Circle;
		WaitRob \InPos;
		SetDO DO5_Program_Feed, 1;
		MoveL Offs(pZeroCircle, 15.865, 5.217, 2.1), v30, z0, tNozzle, \Wobj := wobj2Circle;
		WaitRob \InPos;
		SetDO DO5_Program_Feed, 0;
		MoveL Offs(pZeroCircle, 16.627, 1.737, 2.1), v100, z0, tNozzle, \Wobj := wobj2Circle;
		WaitRob \InPos;
		SetDO DO5_Program_Feed, 1;
		MoveL Offs(pZeroCircle, -1.773, -16.664, 2.1), v30, z0, tNozzle, \Wobj := wobj2Circle;
		WaitRob \InPos;
		SetDO DO5_Program_Feed, 0;
		MoveL Offs(pZeroCircle, 2.58, -16.553, 2.1), v100, z0, tNozzle, \Wobj := wobj2Circle;
		WaitRob \InPos;
		SetDO DO5_Program_Feed, 1;
		MoveL Offs(pZeroCircle, 16.535, -2.598, 2.1), v30, z0, tNozzle, \Wobj := wobj2Circle;
		WaitRob \InPos;
		SetDO DO5_Program_Feed, 0;
		MoveL Offs(pZeroCircle, 13.537, -9.838, 2.1), v100, z0, tNozzle, \Wobj := wobj2Circle;
		WaitRob \InPos;
		SetDO DO5_Program_Feed, 1;
		MoveL Offs(pZeroCircle, 9.641, -13.735, 2.1), v30, z0, tNozzle, \Wobj := wobj2Circle;
		WaitRob \InPos;
		SetDO DO6_Between_Layer_Retract, 1;
		SetDO DO5_Program_Feed, 0;
		MoveL Offs(pZeroCircle, 9.641, -13.735, 7.1), v100, z0, tNozzle, \Wobj := wobj2Circle;
		MoveL Offs(pZeroCircle, -16.535, 2.516, 7.1), v100, z0, tNozzle, \Wobj := wobj2Circle;
		WaitRob \InPos;
		SetDO DO6_Between_Layer_Retract, 0;
		MoveL Offs(pZeroCircle, -16.535, 2.516, 2.1), v30, z0, tNozzle, \Wobj := wobj2Circle;
		WaitRob \InPos;
		SetDO DO5_Program_Feed, 1;
		MoveL Offs(pZeroCircle, -2.58, 16.471, 2.1), v30, z0, tNozzle, \Wobj := wobj2Circle;
		WaitRob \InPos;
		SetDO DO5_Program_Feed, 0;
		MoveL Offs(pZeroCircle, -9.641, 13.653, 2.1), v100, z0, tNozzle, \Wobj := wobj2Circle;
		WaitRob \InPos;
		SetDO DO5_Program_Feed, 1;
		MoveL Offs(pZeroCircle, -13.537, 9.757, 2.1), v30, z0, tNozzle, \Wobj := wobj2Circle;
		WaitRob \InPos;
		SetDO DO6_Between_Layer_Retract, 1;
		SetDO DO5_Program_Feed, 0;
		MoveL Offs(pZeroCircle, -13.537, 9.757, 7.1), v100, z0, tNozzle, \Wobj := wobj2Circle;

		! Layer: 8
		! LayerParams(infillAngleDegrees=-45.0, pathWidth=3.0, layerHeight=0.3, infillShiftX=0.0, infillShiftY=0.0, numShells=1, infillOverlap=0.0002)
		! T18
		! M6
		TPWRITE "Layer 8 of 20";
		MoveL Offs(pZeroCircle, 11.774, -12.647, 7.4), v100, z0, tNozzle, \Wobj := wobj2Circle;
		MoveL Offs(pZeroCircle, 11.774, -12.647, 2.4), v30, z0, tNozzle, \Wobj := wobj2Circle;
		WaitRob \InPos;
		SetDO DO6_Between_Layer_Retract, 0;
		WaitRob \InPos;
		SetDO DO5_Program_Feed, 1;
		MoveL Offs(pZeroCircle, 13.336, -10.974, 2.4), v30, z0, tNozzle, \Wobj := wobj2Circle;
		MoveL Offs(pZeroCircle, 13.381, -10.927, 2.4), v30, z0, tNozzle, \Wobj := wobj2Circle;
		MoveL Offs(pZeroCircle, 14.701, -9.056, 2.4), v30, z0, tNozzle, \Wobj := wobj2Circle;
		MoveL Offs(pZeroCircle, 14.738, -9.003, 2.4), v30, z0, tNozzle, \Wobj := wobj2Circle;
		MoveL Offs(pZeroCircle, 15.792, -6.971, 2.4), v30, z0, tNozzle, \Wobj := wobj2Circle;
		MoveL Offs(pZeroCircle, 15.821, -6.913, 2.4), v30, z0, tNozzle, \Wobj := wobj2Circle;
		MoveL Offs(pZeroCircle, 16.588, -4.756, 2.4), v30, z0, tNozzle, \Wobj := wobj2Circle;
		MoveL Offs(pZeroCircle, 16.61, -4.695, 2.4), v30, z0, tNozzle, \Wobj := wobj2Circle;
		MoveL Offs(pZeroCircle, 17.076, -2.453, 2.4), v30, z0, tNozzle, \Wobj := wobj2Circle;
		MoveL Offs(pZeroCircle, 17.089, -2.39, 2.4), v30, z0, tNozzle, \Wobj := wobj2Circle;
		MoveL Offs(pZeroCircle, 17.245, -0.105, 2.4), v30, z0, tNozzle, \Wobj := wobj2Circle;
		MoveL Offs(pZeroCircle, 17.249, -0.041, 2.4), v30, z0, tNozzle, \Wobj := wobj2Circle;
		MoveL Offs(pZeroCircle, 17.093, 2.243, 2.4), v30, z0, tNozzle, \Wobj := wobj2Circle;
		MoveL Offs(pZeroCircle, 17.089, 2.308, 2.4), v30, z0, tNozzle, \Wobj := wobj2Circle;
		MoveL Offs(pZeroCircle, 16.623, 4.55, 2.4), v30, z0, tNozzle, \Wobj := wobj2Circle;
		MoveL Offs(pZeroCircle, 16.61, 4.613, 2.4), v30, z0, tNozzle, \Wobj := wobj2Circle;
		MoveL Offs(pZeroCircle, 15.843, 6.77, 2.4), v30, z0, tNozzle, \Wobj := wobj2Circle;
		MoveL Offs(pZeroCircle, 15.821, 6.831, 2.4), v30, z0, tNozzle, \Wobj := wobj2Circle;
		MoveL Offs(pZeroCircle, 14.768, 8.864, 2.4), v30, z0, tNozzle, \Wobj := wobj2Circle;
		MoveL Offs(pZeroCircle, 14.738, 8.922, 2.4), v30, z0, tNozzle, \Wobj := wobj2Circle;
		MoveL Offs(pZeroCircle, 13.418, 10.792, 2.4), v30, z0, tNozzle, \Wobj := wobj2Circle;
		MoveL Offs(pZeroCircle, 13.381, 10.845, 2.4), v30, z0, tNozzle, \Wobj := wobj2Circle;
		MoveL Offs(pZeroCircle, 11.818, 12.518, 2.4), v30, z0, tNozzle, \Wobj := wobj2Circle;
		MoveL Offs(pZeroCircle, 11.774, 12.566, 2.4), v30, z0, tNozzle, \Wobj := wobj2Circle;
		MoveL Offs(pZeroCircle, 9.998, 14.011, 2.4), v30, z0, tNozzle, \Wobj := wobj2Circle;
		MoveL Offs(pZeroCircle, 9.947, 14.051, 2.4), v30, z0, tNozzle, \Wobj := wobj2Circle;
		MoveL Offs(pZeroCircle, 7.991, 15.241, 2.4), v30, z0, tNozzle, \Wobj := wobj2Circle;
		MoveL Offs(pZeroCircle, 7.936, 15.275, 2.4), v30, z0, tNozzle, \Wobj := wobj2Circle;
		MoveL Offs(pZeroCircle, 5.836, 16.187, 2.4), v30, z0, tNozzle, \Wobj := wobj2Circle;
		MoveL Offs(pZeroCircle, 5.776, 16.213, 2.4), v30, z0, tNozzle, \Wobj := wobj2Circle;
		MoveL Offs(pZeroCircle, 3.572, 16.83, 2.4), v30, z0, tNozzle, \Wobj := wobj2Circle;
		MoveL Offs(pZeroCircle, 3.509, 16.848, 2.4), v30, z0, tNozzle, \Wobj := wobj2Circle;
		MoveL Offs(pZeroCircle, 1.241, 17.16, 2.4), v30, z0, tNozzle, \Wobj := wobj2Circle;
		MoveL Offs(pZeroCircle, 1.177, 17.168, 2.4), v30, z0, tNozzle, \Wobj := wobj2Circle;
		MoveL Offs(pZeroCircle, -1.177, 17.168, 2.4), v30, z0, tNozzle, \Wobj := wobj2Circle;
		MoveL Offs(pZeroCircle, -3.445, 16.857, 2.4), v30, z0, tNozzle, \Wobj := wobj2Circle;
		MoveL Offs(pZeroCircle, -3.509, 16.848, 2.4), v30, z0, tNozzle, \Wobj := wobj2Circle;
		MoveL Offs(pZeroCircle, -5.714, 16.23, 2.4), v30, z0, tNozzle, \Wobj := wobj2Circle;
		MoveL Offs(pZeroCircle, -5.776, 16.213, 2.4), v30, z0, tNozzle, \Wobj := wobj2Circle;
		MoveL Offs(pZeroCircle, -7.876, 15.301, 2.4), v30, z0, tNozzle, \Wobj := wobj2Circle;
		MoveL Offs(pZeroCircle, -7.936, 15.275, 2.4), v30, z0, tNozzle, \Wobj := wobj2Circle;
		MoveL Offs(pZeroCircle, -9.892, 14.085, 2.4), v30, z0, tNozzle, \Wobj := wobj2Circle;
		MoveL Offs(pZeroCircle, -9.947, 14.051, 2.4), v30, z0, tNozzle, \Wobj := wobj2Circle;
		MoveL Offs(pZeroCircle, -11.723, 12.607, 2.4), v30, z0, tNozzle, \Wobj := wobj2Circle;
		MoveL Offs(pZeroCircle, -11.774, 12.566, 2.4), v30, z0, tNozzle, \Wobj := wobj2Circle;
		MoveL Offs(pZeroCircle, -13.336, 10.892, 2.4), v30, z0, tNozzle, \Wobj := wobj2Circle;
		MoveL Offs(pZeroCircle, -13.381, 10.845, 2.4), v30, z0, tNozzle, \Wobj := wobj2Circle;
		MoveL Offs(pZeroCircle, -14.701, 8.975, 2.4), v30, z0, tNozzle, \Wobj := wobj2Circle;
		MoveL Offs(pZeroCircle, -14.738, 8.922, 2.4), v30, z0, tNozzle, \Wobj := wobj2Circle;
		MoveL Offs(pZeroCircle, -15.792, 6.889, 2.4), v30, z0, tNozzle, \Wobj := wobj2Circle;
		MoveL Offs(pZeroCircle, -15.821, 6.831, 2.4), v30, z0, tNozzle, \Wobj := wobj2Circle;
		MoveL Offs(pZeroCircle, -16.588, 4.674, 2.4), v30, z0, tNozzle, \Wobj := wobj2Circle;
		MoveL Offs(pZeroCircle, -16.61, 4.613, 2.4), v30, z0, tNozzle, \Wobj := wobj2Circle;
		MoveL Offs(pZeroCircle, -17.076, 2.371, 2.4), v30, z0, tNozzle, \Wobj := wobj2Circle;
		MoveL Offs(pZeroCircle, -17.089, 2.308, 2.4), v30, z0, tNozzle, \Wobj := wobj2Circle;
		MoveL Offs(pZeroCircle, -17.245, 0.024, 2.4), v30, z0, tNozzle, \Wobj := wobj2Circle;
		MoveL Offs(pZeroCircle, -17.249, -0.041, 2.4), v30, z0, tNozzle, \Wobj := wobj2Circle;
		MoveL Offs(pZeroCircle, -17.093, -2.325, 2.4), v30, z0, tNozzle, \Wobj := wobj2Circle;
		MoveL Offs(pZeroCircle, -17.089, -2.39, 2.4), v30, z0, tNozzle, \Wobj := wobj2Circle;
		MoveL Offs(pZeroCircle, -16.623, -4.631, 2.4), v30, z0, tNozzle, \Wobj := wobj2Circle;
		MoveL Offs(pZeroCircle, -16.61, -4.695, 2.4), v30, z0, tNozzle, \Wobj := wobj2Circle;
		MoveL Offs(pZeroCircle, -15.843, -6.852, 2.4), v30, z0, tNozzle, \Wobj := wobj2Circle;
		MoveL Offs(pZeroCircle, -15.821, -6.913, 2.4), v30, z0, tNozzle, \Wobj := wobj2Circle;
		MoveL Offs(pZeroCircle, -14.768, -8.946, 2.4), v30, z0, tNozzle, \Wobj := wobj2Circle;
		MoveL Offs(pZeroCircle, -14.738, -9.003, 2.4), v30, z0, tNozzle, \Wobj := wobj2Circle;
		MoveL Offs(pZeroCircle, -13.418, -10.874, 2.4), v30, z0, tNozzle, \Wobj := wobj2Circle;
		MoveL Offs(pZeroCircle, -13.381, -10.927, 2.4), v30, z0, tNozzle, \Wobj := wobj2Circle;
		MoveL Offs(pZeroCircle, -11.818, -12.6, 2.4), v30, z0, tNozzle, \Wobj := wobj2Circle;
		MoveL Offs(pZeroCircle, -11.774, -12.647, 2.4), v30, z0, tNozzle, \Wobj := wobj2Circle;
		MoveL Offs(pZeroCircle, -9.998, -14.092, 2.4), v30, z0, tNozzle, \Wobj := wobj2Circle;
		MoveL Offs(pZeroCircle, -9.947, -14.133, 2.4), v30, z0, tNozzle, \Wobj := wobj2Circle;
		MoveL Offs(pZeroCircle, -7.991, -15.323, 2.4), v30, z0, tNozzle, \Wobj := wobj2Circle;
		MoveL Offs(pZeroCircle, -7.936, -15.356, 2.4), v30, z0, tNozzle, \Wobj := wobj2Circle;
		MoveL Offs(pZeroCircle, -5.836, -16.268, 2.4), v30, z0, tNozzle, \Wobj := wobj2Circle;
		MoveL Offs(pZeroCircle, -5.776, -16.294, 2.4), v30, z0, tNozzle, \Wobj := wobj2Circle;
		MoveL Offs(pZeroCircle, -3.572, -16.912, 2.4), v30, z0, tNozzle, \Wobj := wobj2Circle;
		MoveL Offs(pZeroCircle, -3.509, -16.929, 2.4), v30, z0, tNozzle, \Wobj := wobj2Circle;
		MoveL Offs(pZeroCircle, -1.241, -17.241, 2.4), v30, z0, tNozzle, \Wobj := wobj2Circle;
		MoveL Offs(pZeroCircle, -1.177, -17.25, 2.4), v30, z0, tNozzle, \Wobj := wobj2Circle;
		MoveL Offs(pZeroCircle, 1.177, -17.25, 2.4), v30, z0, tNozzle, \Wobj := wobj2Circle;
		MoveL Offs(pZeroCircle, 3.445, -16.938, 2.4), v30, z0, tNozzle, \Wobj := wobj2Circle;
		MoveL Offs(pZeroCircle, 3.509, -16.929, 2.4), v30, z0, tNozzle, \Wobj := wobj2Circle;
		MoveL Offs(pZeroCircle, 5.714, -16.312, 2.4), v30, z0, tNozzle, \Wobj := wobj2Circle;
		MoveL Offs(pZeroCircle, 5.776, -16.294, 2.4), v30, z0, tNozzle, \Wobj := wobj2Circle;
		MoveL Offs(pZeroCircle, 7.876, -15.382, 2.4), v30, z0, tNozzle, \Wobj := wobj2Circle;
		MoveL Offs(pZeroCircle, 7.936, -15.356, 2.4), v30, z0, tNozzle, \Wobj := wobj2Circle;
		MoveL Offs(pZeroCircle, 9.892, -14.167, 2.4), v30, z0, tNozzle, \Wobj := wobj2Circle;
		MoveL Offs(pZeroCircle, 9.947, -14.133, 2.4), v30, z0, tNozzle, \Wobj := wobj2Circle;
		MoveL Offs(pZeroCircle, 11.723, -12.688, 2.4), v30, z0, tNozzle, \Wobj := wobj2Circle;
		MoveL Offs(pZeroCircle, 11.774, -12.647, 2.4), v30, z0, tNozzle, \Wobj := wobj2Circle;
		WaitRob \InPos;
		SetDO DO5_Program_Feed, 0;
		MoveL Offs(pZeroCircle, 10.708, -12.87, 2.4), v100, z0, tNozzle, \Wobj := wobj2Circle;
		WaitRob \InPos;
		SetDO DO5_Program_Feed, 1;
		MoveL Offs(pZeroCircle, -12.847, 10.685, 2.4), v30, z0, tNozzle, \Wobj := wobj2Circle;
		WaitRob \InPos;
		SetDO DO5_Program_Feed, 0;
		MoveL Offs(pZeroCircle, -10.708, 12.788, 2.4), v100, z0, tNozzle, \Wobj := wobj2Circle;
		WaitRob \InPos;
		SetDO DO5_Program_Feed, 1;
		MoveL Offs(pZeroCircle, 12.847, -10.766, 2.4), v30, z0, tNozzle, \Wobj := wobj2Circle;
		WaitRob \InPos;
		SetDO DO5_Program_Feed, 0;
		MoveL Offs(pZeroCircle, 14.568, -8.245, 2.4), v100, z0, tNozzle, \Wobj := wobj2Circle;
		WaitRob \InPos;
		SetDO DO5_Program_Feed, 1;
		MoveL Offs(pZeroCircle, -8.204, 14.527, 2.4), v30, z0, tNozzle, \Wobj := wobj2Circle;
		WaitRob \InPos;
		SetDO DO5_Program_Feed, 0;
		MoveL Offs(pZeroCircle, -5.27, 15.836, 2.4), v100, z0, tNozzle, \Wobj := wobj2Circle;
		WaitRob \InPos;
		SetDO DO5_Program_Feed, 1;
		MoveL Offs(pZeroCircle, 15.865, -5.299, 2.4), v30, z0, tNozzle, \Wobj := wobj2Circle;
		WaitRob \InPos;
		SetDO DO5_Program_Feed, 0;
		MoveL Offs(pZeroCircle, 16.627, -1.818, 2.4), v100, z0, tNozzle, \Wobj := wobj2Circle;
		WaitRob \InPos;
		SetDO DO5_Program_Feed, 1;
		MoveL Offs(pZeroCircle, -1.773, 16.582, 2.4), v30, z0, tNozzle, \Wobj := wobj2Circle;
		WaitRob \InPos;
		SetDO DO5_Program_Feed, 0;
		MoveL Offs(pZeroCircle, 2.58, 16.471, 2.4), v100, z0, tNozzle, \Wobj := wobj2Circle;
		WaitRob \InPos;
		SetDO DO5_Program_Feed, 1;
		MoveL Offs(pZeroCircle, 16.535, 2.516, 2.4), v30, z0, tNozzle, \Wobj := wobj2Circle;
		WaitRob \InPos;
		SetDO DO5_Program_Feed, 0;
		MoveL Offs(pZeroCircle, 13.537, 9.757, 2.4), v100, z0, tNozzle, \Wobj := wobj2Circle;
		WaitRob \InPos;
		SetDO DO5_Program_Feed, 1;
		MoveL Offs(pZeroCircle, 9.641, 13.653, 2.4), v30, z0, tNozzle, \Wobj := wobj2Circle;
		WaitRob \InPos;
		SetDO DO5_Program_Feed, 0;
		MoveL Offs(pZeroCircle, -14.568, 8.163, 2.4), v100, z0, tNozzle, \Wobj := wobj2Circle;
		WaitRob \InPos;
		SetDO DO5_Program_Feed, 1;
		MoveL Offs(pZeroCircle, 8.204, -14.608, 2.4), v30, z0, tNozzle, \Wobj := wobj2Circle;
		WaitRob \InPos;
		SetDO DO5_Program_Feed, 0;
		MoveL Offs(pZeroCircle, 5.27, -15.917, 2.4), v100, z0, tNozzle, \Wobj := wobj2Circle;
		WaitRob \InPos;
		SetDO DO5_Program_Feed, 1;
		MoveL Offs(pZeroCircle, -15.865, 5.217, 2.4), v30, z0, tNozzle, \Wobj := wobj2Circle;
		WaitRob \InPos;
		SetDO DO5_Program_Feed, 0;
		MoveL Offs(pZeroCircle, -16.627, 1.737, 2.4), v100, z0, tNozzle, \Wobj := wobj2Circle;
		WaitRob \InPos;
		SetDO DO5_Program_Feed, 1;
		MoveL Offs(pZeroCircle, 1.773, -16.664, 2.4), v30, z0, tNozzle, \Wobj := wobj2Circle;
		WaitRob \InPos;
		SetDO DO5_Program_Feed, 0;
		MoveL Offs(pZeroCircle, -2.58, -16.553, 2.4), v100, z0, tNozzle, \Wobj := wobj2Circle;
		WaitRob \InPos;
		SetDO DO5_Program_Feed, 1;
		MoveL Offs(pZeroCircle, -16.535, -2.598, 2.4), v30, z0, tNozzle, \Wobj := wobj2Circle;
		WaitRob \InPos;
		SetDO DO5_Program_Feed, 0;
		MoveL Offs(pZeroCircle, -13.537, -9.838, 2.4), v100, z0, tNozzle, \Wobj := wobj2Circle;
		WaitRob \InPos;
		SetDO DO5_Program_Feed, 1;
		MoveL Offs(pZeroCircle, -9.641, -13.735, 2.4), v30, z0, tNozzle, \Wobj := wobj2Circle;
		WaitRob \InPos;
		SetDO DO6_Between_Layer_Retract, 1;
		SetDO DO5_Program_Feed, 0;
		MoveL Offs(pZeroCircle, -9.641, -13.735, 7.4), v100, z0, tNozzle, \Wobj := wobj2Circle;

		! Layer: 9
		! LayerParams(infillAngleDegrees=45.0, pathWidth=3.0, layerHeight=0.3, infillShiftX=0.0, infillShiftY=0.0, numShells=1, infillOverlap=0.0002)
		! T19
		! M6
		TPWRITE "Layer 9 of 20";
		MoveL Offs(pZeroCircle, 7.867, -15.386, 7.7), v100, z0, tNozzle, \Wobj := wobj2Circle;
		MoveL Offs(pZeroCircle, 7.867, -15.386, 2.7), v30, z0, tNozzle, \Wobj := wobj2Circle;
		WaitRob \InPos;
		SetDO DO6_Between_Layer_Retract, 0;
		WaitRob \InPos;
		SetDO DO5_Program_Feed, 1;
		MoveL Offs(pZeroCircle, 7.936, -15.356, 2.7), v30, z0, tNozzle, \Wobj := wobj2Circle;
		MoveL Offs(pZeroCircle, 9.883, -14.172, 2.7), v30, z0, tNozzle, \Wobj := wobj2Circle;
		MoveL Offs(pZeroCircle, 9.947, -14.133, 2.7), v30, z0, tNozzle, \Wobj := wobj2Circle;
		MoveL Offs(pZeroCircle, 11.715, -12.695, 2.7), v30, z0, tNozzle, \Wobj := wobj2Circle;
		MoveL Offs(pZeroCircle, 11.774, -12.647, 2.7), v30, z0, tNozzle, \Wobj := wobj2Circle;
		MoveL Offs(pZeroCircle, 13.329, -10.982, 2.7), v30, z0, tNozzle, \Wobj := wobj2Circle;
		MoveL Offs(pZeroCircle, 13.381, -10.927, 2.7), v30, z0, tNozzle, \Wobj := wobj2Circle;
		MoveL Offs(pZeroCircle, 14.695, -9.065, 2.7), v30, z0, tNozzle, \Wobj := wobj2Circle;
		MoveL Offs(pZeroCircle, 14.738, -9.003, 2.7), v30, z0, tNozzle, \Wobj := wobj2Circle;
		MoveL Offs(pZeroCircle, 15.787, -6.98, 2.7), v30, z0, tNozzle, \Wobj := wobj2Circle;
		MoveL Offs(pZeroCircle, 15.821, -6.913, 2.7), v30, z0, tNozzle, \Wobj := wobj2Circle;
		MoveL Offs(pZeroCircle, 16.585, -4.765, 2.7), v30, z0, tNozzle, \Wobj := wobj2Circle;
		MoveL Offs(pZeroCircle, 16.61, -4.695, 2.7), v30, z0, tNozzle, \Wobj := wobj2Circle;
		MoveL Offs(pZeroCircle, 17.073, -2.463, 2.7), v30, z0, tNozzle, \Wobj := wobj2Circle;
		MoveL Offs(pZeroCircle, 17.089, -2.39, 2.7), v30, z0, tNozzle, \Wobj := wobj2Circle;
		MoveL Offs(pZeroCircle, 17.244, -0.116, 2.7), v30, z0, tNozzle, \Wobj := wobj2Circle;
		MoveL Offs(pZeroCircle, 17.249, -0.041, 2.7), v30, z0, tNozzle, \Wobj := wobj2Circle;
		MoveL Offs(pZeroCircle, 17.094, 2.233, 2.7), v30, z0, tNozzle, \Wobj := wobj2Circle;
		MoveL Offs(pZeroCircle, 17.089, 2.308, 2.7), v30, z0, tNozzle, \Wobj := wobj2Circle;
		MoveL Offs(pZeroCircle, 16.625, 4.54, 2.7), v30, z0, tNozzle, \Wobj := wobj2Circle;
		MoveL Offs(pZeroCircle, 16.61, 4.613, 2.7), v30, z0, tNozzle, \Wobj := wobj2Circle;
		MoveL Offs(pZeroCircle, 15.846, 6.761, 2.7), v30, z0, tNozzle, \Wobj := wobj2Circle;
		MoveL Offs(pZeroCircle, 15.821, 6.831, 2.7), v30, z0, tNozzle, \Wobj := wobj2Circle;
		MoveL Offs(pZeroCircle, 14.773, 8.855, 2.7), v30, z0, tNozzle, \Wobj := wobj2Circle;
		MoveL Offs(pZeroCircle, 14.738, 8.922, 2.7), v30, z0, tNozzle, \Wobj := wobj2Circle;
		MoveL Offs(pZeroCircle, 13.424, 10.784, 2.7), v30, z0, tNozzle, \Wobj := wobj2Circle;
		MoveL Offs(pZeroCircle, 13.381, 10.845, 2.7), v30, z0, tNozzle, \Wobj := wobj2Circle;
		MoveL Offs(pZeroCircle, 11.825, 12.511, 2.7), v30, z0, tNozzle, \Wobj := wobj2Circle;
		MoveL Offs(pZeroCircle, 11.774, 12.566, 2.7), v30, z0, tNozzle, \Wobj := wobj2Circle;
		MoveL Offs(pZeroCircle, 10.006, 14.004, 2.7), v30, z0, tNozzle, \Wobj := wobj2Circle;
		MoveL Offs(pZeroCircle, 9.947, 14.051, 2.7), v30, z0, tNozzle, \Wobj := wobj2Circle;
		MoveL Offs(pZeroCircle, 8.0, 15.236, 2.7), v30, z0, tNozzle, \Wobj := wobj2Circle;
		MoveL Offs(pZeroCircle, 7.936, 15.275, 2.7), v30, z0, tNozzle, \Wobj := wobj2Circle;
		MoveL Offs(pZeroCircle, 5.845, 16.183, 2.7), v30, z0, tNozzle, \Wobj := wobj2Circle;
		MoveL Offs(pZeroCircle, 5.776, 16.213, 2.7), v30, z0, tNozzle, \Wobj := wobj2Circle;
		MoveL Offs(pZeroCircle, 3.582, 16.828, 2.7), v30, z0, tNozzle, \Wobj := wobj2Circle;
		MoveL Offs(pZeroCircle, 3.509, 16.848, 2.7), v30, z0, tNozzle, \Wobj := wobj2Circle;
		MoveL Offs(pZeroCircle, 1.251, 17.158, 2.7), v30, z0, tNozzle, \Wobj := wobj2Circle;
		MoveL Offs(pZeroCircle, 1.177, 17.168, 2.7), v30, z0, tNozzle, \Wobj := wobj2Circle;
		MoveL Offs(pZeroCircle, -1.177, 17.168, 2.7), v30, z0, tNozzle, \Wobj := wobj2Circle;
		MoveL Offs(pZeroCircle, -3.435, 16.858, 2.7), v30, z0, tNozzle, \Wobj := wobj2Circle;
		MoveL Offs(pZeroCircle, -3.509, 16.848, 2.7), v30, z0, tNozzle, \Wobj := wobj2Circle;
		MoveL Offs(pZeroCircle, -5.704, 16.233, 2.7), v30, z0, tNozzle, \Wobj := wobj2Circle;
		MoveL Offs(pZeroCircle, -5.776, 16.213, 2.7), v30, z0, tNozzle, \Wobj := wobj2Circle;
		MoveL Offs(pZeroCircle, -7.867, 15.305, 2.7), v30, z0, tNozzle, \Wobj := wobj2Circle;
		MoveL Offs(pZeroCircle, -7.936, 15.275, 2.7), v30, z0, tNozzle, \Wobj := wobj2Circle;
		MoveL Offs(pZeroCircle, -9.883, 14.09, 2.7), v30, z0, tNozzle, \Wobj := wobj2Circle;
		MoveL Offs(pZeroCircle, -9.947, 14.051, 2.7), v30, z0, tNozzle, \Wobj := wobj2Circle;
		MoveL Offs(pZeroCircle, -11.715, 12.613, 2.7), v30, z0, tNozzle, \Wobj := wobj2Circle;
		MoveL Offs(pZeroCircle, -11.774, 12.566, 2.7), v30, z0, tNozzle, \Wobj := wobj2Circle;
		MoveL Offs(pZeroCircle, -13.329, 10.9, 2.7), v30, z0, tNozzle, \Wobj := wobj2Circle;
		MoveL Offs(pZeroCircle, -13.381, 10.845, 2.7), v30, z0, tNozzle, \Wobj := wobj2Circle;
		MoveL Offs(pZeroCircle, -14.695, 8.983, 2.7), v30, z0, tNozzle, \Wobj := wobj2Circle;
		MoveL Offs(pZeroCircle, -14.738, 8.922, 2.7), v30, z0, tNozzle, \Wobj := wobj2Circle;
		MoveL Offs(pZeroCircle, -15.787, 6.898, 2.7), v30, z0, tNozzle, \Wobj := wobj2Circle;
		MoveL Offs(pZeroCircle, -15.821, 6.831, 2.7), v30, z0, tNozzle, \Wobj := wobj2Circle;
		MoveL Offs(pZeroCircle, -16.585, 4.684, 2.7), v30, z0, tNozzle, \Wobj := wobj2Circle;
		MoveL Offs(pZeroCircle, -16.61, 4.613, 2.7), v30, z0, tNozzle, \Wobj := wobj2Circle;
		MoveL Offs(pZeroCircle, -17.073, 2.381, 2.7), v30, z0, tNozzle, \Wobj := wobj2Circle;
		MoveL Offs(pZeroCircle, -17.089, 2.308, 2.7), v30, z0, tNozzle, \Wobj := wobj2Circle;
		MoveL Offs(pZeroCircle, -17.244, 0.034, 2.7), v30, z0, tNozzle, \Wobj := wobj2Circle;
		MoveL Offs(pZeroCircle, -17.249, -0.041, 2.7), v30, z0, tNozzle, \Wobj := wobj2Circle;
		MoveL Offs(pZeroCircle, -17.094, -2.315, 2.7), v30, z0, tNozzle, \Wobj := wobj2Circle;
		MoveL Offs(pZeroCircle, -17.089, -2.39, 2.7), v30, z0, tNozzle, \Wobj := wobj2Circle;
		MoveL Offs(pZeroCircle, -16.625, -4.621, 2.7), v30, z0, tNozzle, \Wobj := wobj2Circle;
		MoveL Offs(pZeroCircle, -16.61, -4.695, 2.7), v30, z0, tNozzle, \Wobj := wobj2Circle;
		MoveL Offs(pZeroCircle, -15.846, -6.842, 2.7), v30, z0, tNozzle, \Wobj := wobj2Circle;
		MoveL Offs(pZeroCircle, -15.821, -6.913, 2.7), v30, z0, tNozzle, \Wobj := wobj2Circle;
		MoveL Offs(pZeroCircle, -14.773, -8.937, 2.7), v30, z0, tNozzle, \Wobj := wobj2Circle;
		MoveL Offs(pZeroCircle, -14.738, -9.003, 2.7), v30, z0, tNozzle, \Wobj := wobj2Circle;
		MoveL Offs(pZeroCircle, -13.424, -10.865, 2.7), v30, z0, tNozzle, \Wobj := wobj2Circle;
		MoveL Offs(pZeroCircle, -13.381, -10.927, 2.7), v30, z0, tNozzle, \Wobj := wobj2Circle;
		MoveL Offs(pZeroCircle, -11.825, -12.592, 2.7), v30, z0, tNozzle, \Wobj := wobj2Circle;
		MoveL Offs(pZeroCircle, -11.774, -12.647, 2.7), v30, z0, tNozzle, \Wobj := wobj2Circle;
		MoveL Offs(pZeroCircle, -10.006, -14.086, 2.7), v30, z0, tNozzle, \Wobj := wobj2Circle;
		MoveL Offs(pZeroCircle, -9.947, -14.133, 2.7), v30, z0, tNozzle, \Wobj := wobj2Circle;
		MoveL Offs(pZeroCircle, -8.0, -15.317, 2.7), v30, z0, tNozzle, \Wobj := wobj2Circle;
		MoveL Offs(pZeroCircle, -7.936, -15.356, 2.7), v30, z0, tNozzle, \Wobj := wobj2Circle;
		MoveL Offs(pZeroCircle, -5.845, -16.264, 2.7), v30, z0, tNozzle, \Wobj := wobj2Circle;
		MoveL Offs(pZeroCircle, -5.776, -16.294, 2.7), v30, z0, tNozzle, \Wobj := wobj2Circle;
		MoveL Offs(pZeroCircle, -3.582, -16.909, 2.7), v30, z0, tNozzle, \Wobj := wobj2Circle;
		MoveL Offs(pZeroCircle, -3.509, -16.929, 2.7), v30, z0, tNozzle, \Wobj := wobj2Circle;
