MODULE MainModule
	PROC main()
		Heat;
		SetDO DO1_Auto_Mode, 1;

		

		! Part number: 1
		! PartParams(extrusionFactor=0.98, printSpeed=30, shiftX=-17.5, shiftY=-17.5, shiftZ=0.0, numLayers=-1, designType=0, brims=0, horizontalExpansion=0.0, randomStartLocation=1)

		! Layer: 1
		! LayerParams(infillAngleDegrees=0.0, pathWidth=1.5, layerHeight=0.3, infillShiftX=0.0, infillShiftY=0.0, numShells=2, infillOverlap=0.0002)
		! T11
		! M6
		TPWRITE "Layer 1 of -1";
		MoveL Offs(pZero, -17.25, -17.25, 5.3), v100, z0, tNozzle, \Wobj := wobjPlatform;
		MoveL Offs(pZero, -17.25, -17.25, 0.3), v30, z0, tNozzle, \Wobj := wobjPlatform;
		WaitRob \InPos;
		SetDO DO5_Program_Feed, 1;
		MoveL Offs(pZero, 17.25, -17.25, 0.3), v30, z0, tNozzle, \Wobj := wobjPlatform;
		MoveL Offs(pZero, 17.25, 17.25, 0.3), v30, z0, tNozzle, \Wobj := wobjPlatform;
		MoveL Offs(pZero, -17.25, 17.25, 0.3), v30, z0, tNozzle, \Wobj := wobjPlatform;
		MoveL Offs(pZero, -17.25, -17.25, 0.3), v30, z0, tNozzle, \Wobj := wobjPlatform;
		WaitRob \InPos;
		SetDO DO5_Program_Feed, 0;
		MoveL Offs(pZero, -16.75, -16.75, 0.3), v100, z0, tNozzle, \Wobj := wobjPlatform;
		WaitRob \InPos;
		SetDO DO5_Program_Feed, 1;
		MoveL Offs(pZero, 16.75, -16.75, 0.3), v30, z0, tNozzle, \Wobj := wobjPlatform;
		MoveL Offs(pZero, 16.75, 16.75, 0.3), v30, z0, tNozzle, \Wobj := wobjPlatform;
		MoveL Offs(pZero, -16.75, 16.75, 0.3), v30, z0, tNozzle, \Wobj := wobjPlatform;
		MoveL Offs(pZero, -16.75, -16.75, 0.3), v30, z0, tNozzle, \Wobj := wobjPlatform;
		WaitRob \InPos;
		SetDO DO5_Program_Feed, 0;
		MoveL Offs(pZero, -16.25, -15.75, 0.3), v100, z0, tNozzle, \Wobj := wobjPlatform;
		WaitRob \InPos;
		SetDO DO5_Program_Feed, 1;
		MoveL Offs(pZero, 16.25, -15.75, 0.3), v30, z0, tNozzle, \Wobj := wobjPlatform;
		WaitRob \InPos;
		SetDO DO5_Program_Feed, 0;
		MoveL Offs(pZero, 16.25, -14.25, 0.3), v100, z0, tNozzle, \Wobj := wobjPlatform;
		WaitRob \InPos;
		SetDO DO5_Program_Feed, 1;
		MoveL Offs(pZero, -16.25, -14.25, 0.3), v30, z0, tNozzle, \Wobj := wobjPlatform;
		WaitRob \InPos;
		SetDO DO5_Program_Feed, 0;
		MoveL Offs(pZero, -16.25, -12.75, 0.3), v100, z0, tNozzle, \Wobj := wobjPlatform;
		WaitRob \InPos;
		SetDO DO5_Program_Feed, 1;
		MoveL Offs(pZero, 16.25, -12.75, 0.3), v30, z0, tNozzle, \Wobj := wobjPlatform;
		WaitRob \InPos;
		SetDO DO5_Program_Feed, 0;
		MoveL Offs(pZero, 16.25, -11.25, 0.3), v100, z0, tNozzle, \Wobj := wobjPlatform;
		WaitRob \InPos;
		SetDO DO5_Program_Feed, 1;
		MoveL Offs(pZero, -16.25, -11.25, 0.3), v30, z0, tNozzle, \Wobj := wobjPlatform;
		WaitRob \InPos;
		SetDO DO5_Program_Feed, 0;
		MoveL Offs(pZero, -16.25, -9.75, 0.3), v100, z0, tNozzle, \Wobj := wobjPlatform;
		WaitRob \InPos;
		SetDO DO5_Program_Feed, 1;
		MoveL Offs(pZero, 16.25, -9.75, 0.3), v30, z0, tNozzle, \Wobj := wobjPlatform;
		WaitRob \InPos;
		SetDO DO5_Program_Feed, 0;
		MoveL Offs(pZero, 16.25, -8.25, 0.3), v100, z0, tNozzle, \Wobj := wobjPlatform;
		WaitRob \InPos;
		SetDO DO5_Program_Feed, 1;
		MoveL Offs(pZero, -16.25, -8.25, 0.3), v30, z0, tNozzle, \Wobj := wobjPlatform;
		WaitRob \InPos;
		SetDO DO5_Program_Feed, 0;
		MoveL Offs(pZero, -16.25, -6.75, 0.3), v100, z0, tNozzle, \Wobj := wobjPlatform;
		WaitRob \InPos;
		SetDO DO5_Program_Feed, 1;
		MoveL Offs(pZero, 16.25, -6.75, 0.3), v30, z0, tNozzle, \Wobj := wobjPlatform;
		WaitRob \InPos;
		SetDO DO5_Program_Feed, 0;
		MoveL Offs(pZero, 16.25, -5.25, 0.3), v100, z0, tNozzle, \Wobj := wobjPlatform;
		WaitRob \InPos;
		SetDO DO5_Program_Feed, 1;
		MoveL Offs(pZero, -16.25, -5.25, 0.3), v30, z0, tNozzle, \Wobj := wobjPlatform;
		WaitRob \InPos;
		SetDO DO5_Program_Feed, 0;
		MoveL Offs(pZero, -16.25, -3.75, 0.3), v100, z0, tNozzle, \Wobj := wobjPlatform;
		WaitRob \InPos;
		SetDO DO5_Program_Feed, 1;
		MoveL Offs(pZero, 16.25, -3.75, 0.3), v30, z0, tNozzle, \Wobj := wobjPlatform;
		WaitRob \InPos;
		SetDO DO5_Program_Feed, 0;
		MoveL Offs(pZero, 16.25, -2.25, 0.3), v100, z0, tNozzle, \Wobj := wobjPlatform;
		WaitRob \InPos;
		SetDO DO5_Program_Feed, 1;
		MoveL Offs(pZero, -16.25, -2.25, 0.3), v30, z0, tNozzle, \Wobj := wobjPlatform;
		WaitRob \InPos;
		SetDO DO5_Program_Feed, 0;
		MoveL Offs(pZero, -16.25, -0.75, 0.3), v100, z0, tNozzle, \Wobj := wobjPlatform;
		WaitRob \InPos;
		SetDO DO5_Program_Feed, 1;
		MoveL Offs(pZero, 16.25, -0.75, 0.3), v30, z0, tNozzle, \Wobj := wobjPlatform;
		WaitRob \InPos;
		SetDO DO5_Program_Feed, 0;
		MoveL Offs(pZero, 16.25, 0.75, 0.3), v100, z0, tNozzle, \Wobj := wobjPlatform;
		WaitRob \InPos;
		SetDO DO5_Program_Feed, 1;
		MoveL Offs(pZero, -16.25, 0.75, 0.3), v30, z0, tNozzle, \Wobj := wobjPlatform;
		WaitRob \InPos;
		SetDO DO5_Program_Feed, 0;
		MoveL Offs(pZero, -16.25, 2.25, 0.3), v100, z0, tNozzle, \Wobj := wobjPlatform;
		WaitRob \InPos;
		SetDO DO5_Program_Feed, 1;
		MoveL Offs(pZero, 16.25, 2.25, 0.3), v30, z0, tNozzle, \Wobj := wobjPlatform;
		WaitRob \InPos;
		SetDO DO5_Program_Feed, 0;
		MoveL Offs(pZero, 16.25, 3.75, 0.3), v100, z0, tNozzle, \Wobj := wobjPlatform;
		WaitRob \InPos;
		SetDO DO5_Program_Feed, 1;
		MoveL Offs(pZero, -16.25, 3.75, 0.3), v30, z0, tNozzle, \Wobj := wobjPlatform;
		WaitRob \InPos;
		SetDO DO5_Program_Feed, 0;
		MoveL Offs(pZero, -16.25, 5.25, 0.3), v100, z0, tNozzle, \Wobj := wobjPlatform;
		WaitRob \InPos;
		SetDO DO5_Program_Feed, 1;
		MoveL Offs(pZero, 16.25, 5.25, 0.3), v30, z0, tNozzle, \Wobj := wobjPlatform;
		WaitRob \InPos;
		SetDO DO5_Program_Feed, 0;
		MoveL Offs(pZero, 16.25, 6.75, 0.3), v100, z0, tNozzle, \Wobj := wobjPlatform;
		WaitRob \InPos;
		SetDO DO5_Program_Feed, 1;
		MoveL Offs(pZero, -16.25, 6.75, 0.3), v30, z0, tNozzle, \Wobj := wobjPlatform;
		WaitRob \InPos;
		SetDO DO5_Program_Feed, 0;
		MoveL Offs(pZero, -16.25, 8.25, 0.3), v100, z0, tNozzle, \Wobj := wobjPlatform;
		WaitRob \InPos;
		SetDO DO5_Program_Feed, 1;
		MoveL Offs(pZero, 16.25, 8.25, 0.3), v30, z0, tNozzle, \Wobj := wobjPlatform;
		WaitRob \InPos;
		SetDO DO5_Program_Feed, 0;
		MoveL Offs(pZero, 16.25, 9.75, 0.3), v100, z0, tNozzle, \Wobj := wobjPlatform;
		WaitRob \InPos;
		SetDO DO5_Program_Feed, 1;
		MoveL Offs(pZero, -16.25, 9.75, 0.3), v30, z0, tNozzle, \Wobj := wobjPlatform;
		WaitRob \InPos;
		SetDO DO5_Program_Feed, 0;
		MoveL Offs(pZero, -16.25, 11.25, 0.3), v100, z0, tNozzle, \Wobj := wobjPlatform;
		WaitRob \InPos;
		SetDO DO5_Program_Feed, 1;
		MoveL Offs(pZero, 16.25, 11.25, 0.3), v30, z0, tNozzle, \Wobj := wobjPlatform;
		WaitRob \InPos;
		SetDO DO5_Program_Feed, 0;
		MoveL Offs(pZero, 16.25, 12.75, 0.3), v100, z0, tNozzle, \Wobj := wobjPlatform;
		WaitRob \InPos;
		SetDO DO5_Program_Feed, 1;
		MoveL Offs(pZero, -16.25, 12.75, 0.3), v30, z0, tNozzle, \Wobj := wobjPlatform;
		WaitRob \InPos;
		SetDO DO5_Program_Feed, 0;
		MoveL Offs(pZero, -16.25, 14.25, 0.3), v100, z0, tNozzle, \Wobj := wobjPlatform;
		WaitRob \InPos;
		SetDO DO5_Program_Feed, 1;
		MoveL Offs(pZero, 16.25, 14.25, 0.3), v30, z0, tNozzle, \Wobj := wobjPlatform;
		WaitRob \InPos;
		SetDO DO5_Program_Feed, 0;
		MoveL Offs(pZero, 16.25, 15.75, 0.3), v100, z0, tNozzle, \Wobj := wobjPlatform;
		WaitRob \InPos;
		SetDO DO5_Program_Feed, 1;
		MoveL Offs(pZero, -16.25, 15.75, 0.3), v30, z0, tNozzle, \Wobj := wobjPlatform;
		WaitRob \InPos;
		SetDO DO6_Between_Layer_Retract, 1;
		SetDO DO5_Program_Feed, 0;
		MoveL Offs(pZero, -16.25, 15.75, 5.3), v100, z0, tNozzle, \Wobj := wobjPlatform;

		! Layer: 2
		! LayerParams(infillAngleDegrees=90.0, pathWidth=1.5, layerHeight=0.3, infillShiftX=0.0, infillShiftY=0.0, numShells=2, infillOverlap=0.0002)
		! T12
		! M6
		TPWRITE "Layer 2 of -1";
		MoveL Offs(pZero, 17.25, 17.25, 5.6), v100, z0, tNozzle, \Wobj := wobjPlatform;
		MoveL Offs(pZero, 17.25, 17.25, 0.6), v30, z0, tNozzle, \Wobj := wobjPlatform;
		WaitRob \InPos;
		SetDO DO6_Between_Layer_Retract, 0;
		WaitRob \InPos;
		SetDO DO5_Program_Feed, 1;
		MoveL Offs(pZero, -17.25, 17.25, 0.6), v30, z0, tNozzle, \Wobj := wobjPlatform;
		MoveL Offs(pZero, -17.25, -17.2, 0.6), v30, z0, tNozzle, \Wobj := wobjPlatform;
		MoveL Offs(pZero, -17.25, -17.25, 0.6), v30, z0, tNozzle, \Wobj := wobjPlatform;
		MoveL Offs(pZero, 17.25, -17.25, 0.6), v30, z0, tNozzle, \Wobj := wobjPlatform;
		MoveL Offs(pZero, 17.25, 17.25, 0.6), v30, z0, tNozzle, \Wobj := wobjPlatform;
		WaitRob \InPos;
		SetDO DO5_Program_Feed, 0;
		MoveL Offs(pZero, 16.75, 16.75, 0.6), v100, z0, tNozzle, \Wobj := wobjPlatform;
		WaitRob \InPos;
		SetDO DO5_Program_Feed, 1;
		MoveL Offs(pZero, -16.75, 16.75, 0.6), v30, z0, tNozzle, \Wobj := wobjPlatform;
		MoveL Offs(pZero, -16.75, -16.75, 0.6), v30, z0, tNozzle, \Wobj := wobjPlatform;
		MoveL Offs(pZero, 16.75, -16.75, 0.6), v30, z0, tNozzle, \Wobj := wobjPlatform;
		MoveL Offs(pZero, 16.75, 16.75, 0.6), v30, z0, tNozzle, \Wobj := wobjPlatform;
		WaitRob \InPos;
		SetDO DO5_Program_Feed, 0;
		MoveL Offs(pZero, 15.75, 16.25, 0.6), v100, z0, tNozzle, \Wobj := wobjPlatform;
		WaitRob \InPos;
		SetDO DO5_Program_Feed, 1;
		MoveL Offs(pZero, 15.75, -16.25, 0.6), v30, z0, tNozzle, \Wobj := wobjPlatform;
		WaitRob \InPos;
		SetDO DO5_Program_Feed, 0;
		MoveL Offs(pZero, 14.25, -16.25, 0.6), v100, z0, tNozzle, \Wobj := wobjPlatform;
		WaitRob \InPos;
		SetDO DO5_Program_Feed, 1;
		MoveL Offs(pZero, 14.25, 16.25, 0.6), v30, z0, tNozzle, \Wobj := wobjPlatform;
		WaitRob \InPos;
		SetDO DO5_Program_Feed, 0;
		MoveL Offs(pZero, 12.75, 16.25, 0.6), v100, z0, tNozzle, \Wobj := wobjPlatform;
		WaitRob \InPos;
		SetDO DO5_Program_Feed, 1;
		MoveL Offs(pZero, 12.75, -16.25, 0.6), v30, z0, tNozzle, \Wobj := wobjPlatform;
		WaitRob \InPos;
		SetDO DO5_Program_Feed, 0;
		MoveL Offs(pZero, 11.25, -16.25, 0.6), v100, z0, tNozzle, \Wobj := wobjPlatform;
		WaitRob \InPos;
		SetDO DO5_Program_Feed, 1;
		MoveL Offs(pZero, 11.25, 16.25, 0.6), v30, z0, tNozzle, \Wobj := wobjPlatform;
		WaitRob \InPos;
		SetDO DO5_Program_Feed, 0;
		MoveL Offs(pZero, 9.75, 16.25, 0.6), v100, z0, tNozzle, \Wobj := wobjPlatform;
		WaitRob \InPos;
		SetDO DO5_Program_Feed, 1;
		MoveL Offs(pZero, 9.75, -16.25, 0.6), v30, z0, tNozzle, \Wobj := wobjPlatform;
		WaitRob \InPos;
		SetDO DO5_Program_Feed, 0;
		MoveL Offs(pZero, 8.25, -16.25, 0.6), v100, z0, tNozzle, \Wobj := wobjPlatform;
		WaitRob \InPos;
		SetDO DO5_Program_Feed, 1;
		MoveL Offs(pZero, 8.25, 16.25, 0.6), v30, z0, tNozzle, \Wobj := wobjPlatform;
		WaitRob \InPos;
		SetDO DO5_Program_Feed, 0;
		MoveL Offs(pZero, 6.75, 16.25, 0.6), v100, z0, tNozzle, \Wobj := wobjPlatform;
		WaitRob \InPos;
		SetDO DO5_Program_Feed, 1;
		MoveL Offs(pZero, 6.75, -16.25, 0.6), v30, z0, tNozzle, \Wobj := wobjPlatform;
		WaitRob \InPos;
		SetDO DO5_Program_Feed, 0;
		MoveL Offs(pZero, 5.25, -16.25, 0.6), v100, z0, tNozzle, \Wobj := wobjPlatform;
		WaitRob \InPos;
		SetDO DO5_Program_Feed, 1;
		MoveL Offs(pZero, 5.25, 16.25, 0.6), v30, z0, tNozzle, \Wobj := wobjPlatform;
		WaitRob \InPos;
		SetDO DO5_Program_Feed, 0;
		MoveL Offs(pZero, 3.75, 16.25, 0.6), v100, z0, tNozzle, \Wobj := wobjPlatform;
		WaitRob \InPos;
		SetDO DO5_Program_Feed, 1;
		MoveL Offs(pZero, 3.75, -16.25, 0.6), v30, z0, tNozzle, \Wobj := wobjPlatform;
		WaitRob \InPos;
		SetDO DO5_Program_Feed, 0;
		MoveL Offs(pZero, 2.25, -16.25, 0.6), v100, z0, tNozzle, \Wobj := wobjPlatform;
		WaitRob \InPos;
		SetDO DO5_Program_Feed, 1;
		MoveL Offs(pZero, 2.25, 16.25, 0.6), v30, z0, tNozzle, \Wobj := wobjPlatform;
		WaitRob \InPos;
		SetDO DO5_Program_Feed, 0;
		MoveL Offs(pZero, 0.75, 16.25, 0.6), v100, z0, tNozzle, \Wobj := wobjPlatform;
		WaitRob \InPos;
		SetDO DO5_Program_Feed, 1;
		MoveL Offs(pZero, 0.75, -16.25, 0.6), v30, z0, tNozzle, \Wobj := wobjPlatform;
		WaitRob \InPos;
		SetDO DO5_Program_Feed, 0;
		MoveL Offs(pZero, -0.75, -16.25, 0.6), v100, z0, tNozzle, \Wobj := wobjPlatform;
		WaitRob \InPos;
		SetDO DO5_Program_Feed, 1;
		MoveL Offs(pZero, -0.75, 16.25, 0.6), v30, z0, tNozzle, \Wobj := wobjPlatform;
		WaitRob \InPos;
		SetDO DO5_Program_Feed, 0;
		MoveL Offs(pZero, -2.25, 16.25, 0.6), v100, z0, tNozzle, \Wobj := wobjPlatform;
		WaitRob \InPos;
		SetDO DO5_Program_Feed, 1;
		MoveL Offs(pZero, -2.25, -16.25, 0.6), v30, z0, tNozzle, \Wobj := wobjPlatform;
		WaitRob \InPos;
		SetDO DO5_Program_Feed, 0;
		MoveL Offs(pZero, -3.75, -16.25, 0.6), v100, z0, tNozzle, \Wobj := wobjPlatform;
		WaitRob \InPos;
		SetDO DO5_Program_Feed, 1;
		MoveL Offs(pZero, -3.75, 16.25, 0.6), v30, z0, tNozzle, \Wobj := wobjPlatform;
		WaitRob \InPos;
		SetDO DO5_Program_Feed, 0;
		MoveL Offs(pZero, -5.25, 16.25, 0.6), v100, z0, tNozzle, \Wobj := wobjPlatform;
		WaitRob \InPos;
		SetDO DO5_Program_Feed, 1;
		MoveL Offs(pZero, -5.25, -16.25, 0.6), v30, z0, tNozzle, \Wobj := wobjPlatform;
		WaitRob \InPos;
		SetDO DO5_Program_Feed, 0;
		MoveL Offs(pZero, -6.75, -16.25, 0.6), v100, z0, tNozzle, \Wobj := wobjPlatform;
		WaitRob \InPos;
		SetDO DO5_Program_Feed, 1;
		MoveL Offs(pZero, -6.75, 16.25, 0.6), v30, z0, tNozzle, \Wobj := wobjPlatform;
		WaitRob \InPos;
		SetDO DO5_Program_Feed, 0;
		MoveL Offs(pZero, -8.25, 16.25, 0.6), v100, z0, tNozzle, \Wobj := wobjPlatform;
		WaitRob \InPos;
		SetDO DO5_Program_Feed, 1;
		MoveL Offs(pZero, -8.25, -16.25, 0.6), v30, z0, tNozzle, \Wobj := wobjPlatform;
		WaitRob \InPos;
		SetDO DO5_Program_Feed, 0;
		MoveL Offs(pZero, -9.75, -16.25, 0.6), v100, z0, tNozzle, \Wobj := wobjPlatform;
		WaitRob \InPos;
		SetDO DO5_Program_Feed, 1;
		MoveL Offs(pZero, -9.75, 16.25, 0.6), v30, z0, tNozzle, \Wobj := wobjPlatform;
		WaitRob \InPos;
		SetDO DO5_Program_Feed, 0;
		MoveL Offs(pZero, -11.25, 16.25, 0.6), v100, z0, tNozzle, \Wobj := wobjPlatform;
		WaitRob \InPos;
		SetDO DO5_Program_Feed, 1;
		MoveL Offs(pZero, -11.25, -16.25, 0.6), v30, z0, tNozzle, \Wobj := wobjPlatform;
		WaitRob \InPos;
		SetDO DO5_Program_Feed, 0;
		MoveL Offs(pZero, -12.75, -16.25, 0.6), v100, z0, tNozzle, \Wobj := wobjPlatform;
		WaitRob \InPos;
		SetDO DO5_Program_Feed, 1;
		MoveL Offs(pZero, -12.75, 16.25, 0.6), v30, z0, tNozzle, \Wobj := wobjPlatform;
		WaitRob \InPos;
		SetDO DO5_Program_Feed, 0;
		MoveL Offs(pZero, -14.25, 16.25, 0.6), v100, z0, tNozzle, \Wobj := wobjPlatform;
		WaitRob \InPos;
		SetDO DO5_Program_Feed, 1;
		MoveL Offs(pZero, -14.25, -16.25, 0.6), v30, z0, tNozzle, \Wobj := wobjPlatform;
		WaitRob \InPos;
		SetDO DO5_Program_Feed, 0;
		MoveL Offs(pZero, -15.75, -16.25, 0.6), v100, z0, tNozzle, \Wobj := wobjPlatform;
		WaitRob \InPos;
		SetDO DO5_Program_Feed, 1;
		MoveL Offs(pZero, -15.75, 16.25, 0.6), v30, z0, tNozzle, \Wobj := wobjPlatform;
		WaitRob \InPos;
		SetDO DO6_Between_Layer_Retract, 1;
		SetDO DO5_Program_Feed, 0;
		MoveL Offs(pZero, -15.75, 16.25, 5.6), v100, z0, tNozzle, \Wobj := wobjPlatform;

		! Layer: 3
		! LayerParams(infillAngleDegrees=0.0, pathWidth=1.5, layerHeight=0.3, infillShiftX=0.0, infillShiftY=0.0, numShells=2, infillOverlap=0.0002)
		! T13
		! M6
		TPWRITE "Layer 3 of -1";
		MoveL Offs(pZero, 17.25, 17.25, 5.9), v100, z0, tNozzle, \Wobj := wobjPlatform;
		MoveL Offs(pZero, 17.25, 17.25, 0.9), v30, z0, tNozzle, \Wobj := wobjPlatform;
		WaitRob \InPos;
		SetDO DO6_Between_Layer_Retract, 0;
		WaitRob \InPos;
		SetDO DO5_Program_Feed, 1;
		MoveL Offs(pZero, -17.25, 17.25, 0.9), v30, z0, tNozzle, \Wobj := wobjPlatform;
		MoveL Offs(pZero, -17.25, -17.05, 0.9), v30, z0, tNozzle, \Wobj := wobjPlatform;
		MoveL Offs(pZero, -17.25, -17.05, 0.9), v30, z0, tNozzle, \Wobj := wobjPlatform;
		MoveL Offs(pZero, -17.25, -17.25, 0.9), v30, z0, tNozzle, \Wobj := wobjPlatform;
		MoveL Offs(pZero, 17.25, -17.25, 0.9), v30, z0, tNozzle, \Wobj := wobjPlatform;
		MoveL Offs(pZero, 17.25, 17.25, 0.9), v30, z0, tNozzle, \Wobj := wobjPlatform;
		WaitRob \InPos;
		SetDO DO5_Program_Feed, 0;
		MoveL Offs(pZero, 16.75, 16.75, 0.9), v100, z0, tNozzle, \Wobj := wobjPlatform;
		WaitRob \InPos;
		SetDO DO5_Program_Feed, 1;
		MoveL Offs(pZero, -16.75, 16.75, 0.9), v30, z0, tNozzle, \Wobj := wobjPlatform;
		MoveL Offs(pZero, -16.75, -16.75, 0.9), v30, z0, tNozzle, \Wobj := wobjPlatform;
		MoveL Offs(pZero, 16.75, -16.75, 0.9), v30, z0, tNozzle, \Wobj := wobjPlatform;
		MoveL Offs(pZero, 16.75, 16.75, 0.9), v30, z0, tNozzle, \Wobj := wobjPlatform;
		WaitRob \InPos;
		SetDO DO5_Program_Feed, 0;
		MoveL Offs(pZero, 16.25, 15.75, 0.9), v100, z0, tNozzle, \Wobj := wobjPlatform;
		WaitRob \InPos;
		SetDO DO5_Program_Feed, 1;
		MoveL Offs(pZero, -16.25, 15.75, 0.9), v30, z0, tNozzle, \Wobj := wobjPlatform;
		WaitRob \InPos;
		SetDO DO5_Program_Feed, 0;
		MoveL Offs(pZero, -16.25, 14.25, 0.9), v100, z0, tNozzle, \Wobj := wobjPlatform;
		WaitRob \InPos;
		SetDO DO5_Program_Feed, 1;
		MoveL Offs(pZero, 16.25, 14.25, 0.9), v30, z0, tNozzle, \Wobj := wobjPlatform;
		WaitRob \InPos;
		SetDO DO5_Program_Feed, 0;
		MoveL Offs(pZero, 16.25, 12.75, 0.9), v100, z0, tNozzle, \Wobj := wobjPlatform;
		WaitRob \InPos;
		SetDO DO5_Program_Feed, 1;
		MoveL Offs(pZero, -16.25, 12.75, 0.9), v30, z0, tNozzle, \Wobj := wobjPlatform;
		WaitRob \InPos;
		SetDO DO5_Program_Feed, 0;
		MoveL Offs(pZero, -16.25, 11.25, 0.9), v100, z0, tNozzle, \Wobj := wobjPlatform;
		WaitRob \InPos;
		SetDO DO5_Program_Feed, 1;
		MoveL Offs(pZero, 16.25, 11.25, 0.9), v30, z0, tNozzle, \Wobj := wobjPlatform;
		WaitRob \InPos;
		SetDO DO5_Program_Feed, 0;
		MoveL Offs(pZero, 16.25, 9.75, 0.9), v100, z0, tNozzle, \Wobj := wobjPlatform;
		WaitRob \InPos;
		SetDO DO5_Program_Feed, 1;
		MoveL Offs(pZero, -16.25, 9.75, 0.9), v30, z0, tNozzle, \Wobj := wobjPlatform;
		WaitRob \InPos;
		SetDO DO5_Program_Feed, 0;
		MoveL Offs(pZero, -16.25, 8.25, 0.9), v100, z0, tNozzle, \Wobj := wobjPlatform;
		WaitRob \InPos;
		SetDO DO5_Program_Feed, 1;
		MoveL Offs(pZero, 16.25, 8.25, 0.9), v30, z0, tNozzle, \Wobj := wobjPlatform;
		WaitRob \InPos;
		SetDO DO5_Program_Feed, 0;
		MoveL Offs(pZero, 16.25, 6.75, 0.9), v100, z0, tNozzle, \Wobj := wobjPlatform;
		WaitRob \InPos;
		SetDO DO5_Program_Feed, 1;
		MoveL Offs(pZero, -16.25, 6.75, 0.9), v30, z0, tNozzle, \Wobj := wobjPlatform;
		WaitRob \InPos;
		SetDO DO5_Program_Feed, 0;
		MoveL Offs(pZero, -16.25, 5.25, 0.9), v100, z0, tNozzle, \Wobj := wobjPlatform;
		WaitRob \InPos;
		SetDO DO5_Program_Feed, 1;
		MoveL Offs(pZero, 16.25, 5.25, 0.9), v30, z0, tNozzle, \Wobj := wobjPlatform;
		WaitRob \InPos;
		SetDO DO5_Program_Feed, 0;
		MoveL Offs(pZero, 16.25, 3.75, 0.9), v100, z0, tNozzle, \Wobj := wobjPlatform;
		WaitRob \InPos;
		SetDO DO5_Program_Feed, 1;
		MoveL Offs(pZero, -16.25, 3.75, 0.9), v30, z0, tNozzle, \Wobj := wobjPlatform;
		WaitRob \InPos;
		SetDO DO5_Program_Feed, 0;
		MoveL Offs(pZero, -16.25, 2.25, 0.9), v100, z0, tNozzle, \Wobj := wobjPlatform;
		WaitRob \InPos;
		SetDO DO5_Program_Feed, 1;
		MoveL Offs(pZero, 16.25, 2.25, 0.9), v30, z0, tNozzle, \Wobj := wobjPlatform;
		WaitRob \InPos;
		SetDO DO5_Program_Feed, 0;
		MoveL Offs(pZero, 16.25, 0.75, 0.9), v100, z0, tNozzle, \Wobj := wobjPlatform;
		WaitRob \InPos;
		SetDO DO5_Program_Feed, 1;
		MoveL Offs(pZero, -16.25, 0.75, 0.9), v30, z0, tNozzle, \Wobj := wobjPlatform;
		WaitRob \InPos;
		SetDO DO5_Program_Feed, 0;
		MoveL Offs(pZero, -16.25, -0.75, 0.9), v100, z0, tNozzle, \Wobj := wobjPlatform;
		WaitRob \InPos;
		SetDO DO5_Program_Feed, 1;
		MoveL Offs(pZero, 16.25, -0.75, 0.9), v30, z0, tNozzle, \Wobj := wobjPlatform;
		WaitRob \InPos;
		SetDO DO5_Program_Feed, 0;
		MoveL Offs(pZero, 16.25, -2.25, 0.9), v100, z0, tNozzle, \Wobj := wobjPlatform;
		WaitRob \InPos;
		SetDO DO5_Program_Feed, 1;
		MoveL Offs(pZero, -16.25, -2.25, 0.9), v30, z0, tNozzle, \Wobj := wobjPlatform;
		WaitRob \InPos;
		SetDO DO5_Program_Feed, 0;
		MoveL Offs(pZero, -16.25, -3.75, 0.9), v100, z0, tNozzle, \Wobj := wobjPlatform;
		WaitRob \InPos;
		SetDO DO5_Program_Feed, 1;
		MoveL Offs(pZero, 16.25, -3.75, 0.9), v30, z0, tNozzle, \Wobj := wobjPlatform;
		WaitRob \InPos;
		SetDO DO5_Program_Feed, 0;
		MoveL Offs(pZero, 16.25, -5.25, 0.9), v100, z0, tNozzle, \Wobj := wobjPlatform;
		WaitRob \InPos;
		SetDO DO5_Program_Feed, 1;
		MoveL Offs(pZero, -16.25, -5.25, 0.9), v30, z0, tNozzle, \Wobj := wobjPlatform;
		WaitRob \InPos;
		SetDO DO5_Program_Feed, 0;
		MoveL Offs(pZero, -16.25, -6.75, 0.9), v100, z0, tNozzle, \Wobj := wobjPlatform;
		WaitRob \InPos;
		SetDO DO5_Program_Feed, 1;
		MoveL Offs(pZero, 16.25, -6.75, 0.9), v30, z0, tNozzle, \Wobj := wobjPlatform;
		WaitRob \InPos;
		SetDO DO5_Program_Feed, 0;
		MoveL Offs(pZero, 16.25, -8.25, 0.9), v100, z0, tNozzle, \Wobj := wobjPlatform;
		WaitRob \InPos;
		SetDO DO5_Program_Feed, 1;
		MoveL Offs(pZero, -16.25, -8.25, 0.9), v30, z0, tNozzle, \Wobj := wobjPlatform;
		WaitRob \InPos;
		SetDO DO5_Program_Feed, 0;
		MoveL Offs(pZero, -16.25, -9.75, 0.9), v100, z0, tNozzle, \Wobj := wobjPlatform;
		WaitRob \InPos;
		SetDO DO5_Program_Feed, 1;
		MoveL Offs(pZero, 16.25, -9.75, 0.9), v30, z0, tNozzle, \Wobj := wobjPlatform;
		WaitRob \InPos;
		SetDO DO5_Program_Feed, 0;
		MoveL Offs(pZero, 16.25, -11.25, 0.9), v100, z0, tNozzle, \Wobj := wobjPlatform;
		WaitRob \InPos;
		SetDO DO5_Program_Feed, 1;
		MoveL Offs(pZero, -16.25, -11.25, 0.9), v30, z0, tNozzle, \Wobj := wobjPlatform;
		WaitRob \InPos;
		SetDO DO5_Program_Feed, 0;
		MoveL Offs(pZero, -16.25, -12.75, 0.9), v100, z0, tNozzle, \Wobj := wobjPlatform;
		WaitRob \InPos;
		SetDO DO5_Program_Feed, 1;
		MoveL Offs(pZero, 16.25, -12.75, 0.9), v30, z0, tNozzle, \Wobj := wobjPlatform;
		WaitRob \InPos;
		SetDO DO5_Program_Feed, 0;
		MoveL Offs(pZero, 16.25, -14.25, 0.9), v100, z0, tNozzle, \Wobj := wobjPlatform;
		WaitRob \InPos;
		SetDO DO5_Program_Feed, 1;
		MoveL Offs(pZero, -16.25, -14.25, 0.9), v30, z0, tNozzle, \Wobj := wobjPlatform;
		WaitRob \InPos;
		SetDO DO5_Program_Feed, 0;
		MoveL Offs(pZero, -16.25, -15.75, 0.9), v100, z0, tNozzle, \Wobj := wobjPlatform;
		WaitRob \InPos;
		SetDO DO5_Program_Feed, 1;
		MoveL Offs(pZero, 16.25, -15.75, 0.9), v30, z0, tNozzle, \Wobj := wobjPlatform;
		WaitRob \InPos;
		SetDO DO6_Between_Layer_Retract, 1;
		SetDO DO5_Program_Feed, 0;
		MoveL Offs(pZero, 16.25, -15.75, 5.9), v100, z0, tNozzle, \Wobj := wobjPlatform;

		! Layer: 4
		! LayerParams(infillAngleDegrees=90.0, pathWidth=1.5, layerHeight=0.3, infillShiftX=0.0, infillShiftY=0.0, numShells=2, infillOverlap=0.0002)
		! T14
		! M6
		TPWRITE "Layer 4 of -1";
		MoveL Offs(pZero, -17.25, -17.25, 6.2), v100, z0, tNozzle, \Wobj := wobjPlatform;
		MoveL Offs(pZero, -17.25, -17.25, 1.2), v30, z0, tNozzle, \Wobj := wobjPlatform;
		WaitRob \InPos;
		SetDO DO6_Between_Layer_Retract, 0;
		WaitRob \InPos;
		SetDO DO5_Program_Feed, 1;
		MoveL Offs(pZero, 17.25, -17.25, 1.2), v30, z0, tNozzle, \Wobj := wobjPlatform;
		MoveL Offs(pZero, 17.25, 17.25, 1.2), v30, z0, tNozzle, \Wobj := wobjPlatform;
		MoveL Offs(pZero, -17.25, 17.25, 1.2), v30, z0, tNozzle, \Wobj := wobjPlatform;
		MoveL Offs(pZero, -17.25, -16.9, 1.2), v30, z0, tNozzle, \Wobj := wobjPlatform;
		MoveL Offs(pZero, -17.25, -17.25, 1.2), v30, z0, tNozzle, \Wobj := wobjPlatform;
		WaitRob \InPos;
		SetDO DO5_Program_Feed, 0;
		MoveL Offs(pZero, -16.75, -16.75, 1.2), v100, z0, tNozzle, \Wobj := wobjPlatform;
		WaitRob \InPos;
		SetDO DO5_Program_Feed, 1;
		MoveL Offs(pZero, 16.75, -16.75, 1.2), v30, z0, tNozzle, \Wobj := wobjPlatform;
		MoveL Offs(pZero, 16.75, 16.75, 1.2), v30, z0, tNozzle, \Wobj := wobjPlatform;
		MoveL Offs(pZero, -16.75, 16.75, 1.2), v30, z0, tNozzle, \Wobj := wobjPlatform;
		MoveL Offs(pZero, -16.75, -16.75, 1.2), v30, z0, tNozzle, \Wobj := wobjPlatform;
		WaitRob \InPos;
		SetDO DO5_Program_Feed, 0;
		MoveL Offs(pZero, -15.75, -16.25, 1.2), v100, z0, tNozzle, \Wobj := wobjPlatform;
		WaitRob \InPos;
		SetDO DO5_Program_Feed, 1;
		MoveL Offs(pZero, -15.75, 16.25, 1.2), v30, z0, tNozzle, \Wobj := wobjPlatform;
		WaitRob \InPos;
		SetDO DO5_Program_Feed, 0;
		MoveL Offs(pZero, -14.25, 16.25, 1.2), v100, z0, tNozzle, \Wobj := wobjPlatform;
		WaitRob \InPos;
		SetDO DO5_Program_Feed, 1;
		MoveL Offs(pZero, -14.25, -16.25, 1.2), v30, z0, tNozzle, \Wobj := wobjPlatform;
		WaitRob \InPos;
		SetDO DO5_Program_Feed, 0;
		MoveL Offs(pZero, -12.75, -16.25, 1.2), v100, z0, tNozzle, \Wobj := wobjPlatform;
		WaitRob \InPos;
		SetDO DO5_Program_Feed, 1;
		MoveL Offs(pZero, -12.75, 16.25, 1.2), v30, z0, tNozzle, \Wobj := wobjPlatform;
		WaitRob \InPos;
		SetDO DO5_Program_Feed, 0;
		MoveL Offs(pZero, -11.25, 16.25, 1.2), v100, z0, tNozzle, \Wobj := wobjPlatform;
		WaitRob \InPos;
		SetDO DO5_Program_Feed, 1;
		MoveL Offs(pZero, -11.25, -16.25, 1.2), v30, z0, tNozzle, \Wobj := wobjPlatform;
		WaitRob \InPos;
		SetDO DO5_Program_Feed, 0;
		MoveL Offs(pZero, -9.75, -16.25, 1.2), v100, z0, tNozzle, \Wobj := wobjPlatform;
		WaitRob \InPos;
		SetDO DO5_Program_Feed, 1;
		MoveL Offs(pZero, -9.75, 16.25, 1.2), v30, z0, tNozzle, \Wobj := wobjPlatform;
		WaitRob \InPos;
		SetDO DO5_Program_Feed, 0;
		MoveL Offs(pZero, -8.25, 16.25, 1.2), v100, z0, tNozzle, \Wobj := wobjPlatform;
		WaitRob \InPos;
		SetDO DO5_Program_Feed, 1;
		MoveL Offs(pZero, -8.25, -16.25, 1.2), v30, z0, tNozzle, \Wobj := wobjPlatform;
		WaitRob \InPos;
		SetDO DO5_Program_Feed, 0;
		MoveL Offs(pZero, -6.75, -16.25, 1.2), v100, z0, tNozzle, \Wobj := wobjPlatform;
		WaitRob \InPos;
		SetDO DO5_Program_Feed, 1;
		MoveL Offs(pZero, -6.75, 16.25, 1.2), v30, z0, tNozzle, \Wobj := wobjPlatform;
		WaitRob \InPos;
		SetDO DO5_Program_Feed, 0;
		MoveL Offs(pZero, -5.25, 16.25, 1.2), v100, z0, tNozzle, \Wobj := wobjPlatform;
		WaitRob \InPos;
		SetDO DO5_Program_Feed, 1;
		MoveL Offs(pZero, -5.25, -16.25, 1.2), v30, z0, tNozzle, \Wobj := wobjPlatform;
		WaitRob \InPos;
		SetDO DO5_Program_Feed, 0;
		MoveL Offs(pZero, -3.75, -16.25, 1.2), v100, z0, tNozzle, \Wobj := wobjPlatform;
		WaitRob \InPos;
		SetDO DO5_Program_Feed, 1;
		MoveL Offs(pZero, -3.75, 16.25, 1.2), v30, z0, tNozzle, \Wobj := wobjPlatform;
		WaitRob \InPos;
		SetDO DO5_Program_Feed, 0;
		MoveL Offs(pZero, -2.25, 16.25, 1.2), v100, z0, tNozzle, \Wobj := wobjPlatform;
		WaitRob \InPos;
		SetDO DO5_Program_Feed, 1;
		MoveL Offs(pZero, -2.25, -16.25, 1.2), v30, z0, tNozzle, \Wobj := wobjPlatform;
		WaitRob \InPos;
		SetDO DO5_Program_Feed, 0;
		MoveL Offs(pZero, -0.75, -16.25, 1.2), v100, z0, tNozzle, \Wobj := wobjPlatform;
		WaitRob \InPos;
		SetDO DO5_Program_Feed, 1;
		MoveL Offs(pZero, -0.75, 16.25, 1.2), v30, z0, tNozzle, \Wobj := wobjPlatform;
		WaitRob \InPos;
		SetDO DO5_Program_Feed, 0;
		MoveL Offs(pZero, 0.75, 16.25, 1.2), v100, z0, tNozzle, \Wobj := wobjPlatform;
		WaitRob \InPos;
		SetDO DO5_Program_Feed, 1;
		MoveL Offs(pZero, 0.75, -16.25, 1.2), v30, z0, tNozzle, \Wobj := wobjPlatform;
		WaitRob \InPos;
		SetDO DO5_Program_Feed, 0;
		MoveL Offs(pZero, 2.25, -16.25, 1.2), v100, z0, tNozzle, \Wobj := wobjPlatform;
		WaitRob \InPos;
		SetDO DO5_Program_Feed, 1;
		MoveL Offs(pZero, 2.25, 16.25, 1.2), v30, z0, tNozzle, \Wobj := wobjPlatform;
		WaitRob \InPos;
		SetDO DO5_Program_Feed, 0;
		MoveL Offs(pZero, 3.75, 16.25, 1.2), v100, z0, tNozzle, \Wobj := wobjPlatform;
		WaitRob \InPos;
		SetDO DO5_Program_Feed, 1;
		MoveL Offs(pZero, 3.75, -16.25, 1.2), v30, z0, tNozzle, \Wobj := wobjPlatform;
		WaitRob \InPos;
		SetDO DO5_Program_Feed, 0;
		MoveL Offs(pZero, 5.25, -16.25, 1.2), v100, z0, tNozzle, \Wobj := wobjPlatform;
		WaitRob \InPos;
		SetDO DO5_Program_Feed, 1;
		MoveL Offs(pZero, 5.25, 16.25, 1.2), v30, z0, tNozzle, \Wobj := wobjPlatform;
		WaitRob \InPos;
		SetDO DO5_Program_Feed, 0;
		MoveL Offs(pZero, 6.75, 16.25, 1.2), v100, z0, tNozzle, \Wobj := wobjPlatform;
		WaitRob \InPos;
		SetDO DO5_Program_Feed, 1;
		MoveL Offs(pZero, 6.75, -16.25, 1.2), v30, z0, tNozzle, \Wobj := wobjPlatform;
		WaitRob \InPos;
		SetDO DO5_Program_Feed, 0;
		MoveL Offs(pZero, 8.25, -16.25, 1.2), v100, z0, tNozzle, \Wobj := wobjPlatform;
		WaitRob \InPos;
		SetDO DO5_Program_Feed, 1;
		MoveL Offs(pZero, 8.25, 16.25, 1.2), v30, z0, tNozzle, \Wobj := wobjPlatform;
		WaitRob \InPos;
		SetDO DO5_Program_Feed, 0;
		MoveL Offs(pZero, 9.75, 16.25, 1.2), v100, z0, tNozzle, \Wobj := wobjPlatform;
		WaitRob \InPos;
		SetDO DO5_Program_Feed, 1;
		MoveL Offs(pZero, 9.75, -16.25, 1.2), v30, z0, tNozzle, \Wobj := wobjPlatform;
		WaitRob \InPos;
		SetDO DO5_Program_Feed, 0;
		MoveL Offs(pZero, 11.25, -16.25, 1.2), v100, z0, tNozzle, \Wobj := wobjPlatform;
		WaitRob \InPos;
		SetDO DO5_Program_Feed, 1;
		MoveL Offs(pZero, 11.25, 16.25, 1.2), v30, z0, tNozzle, \Wobj := wobjPlatform;
		WaitRob \InPos;
		SetDO DO5_Program_Feed, 0;
		MoveL Offs(pZero, 12.75, 16.25, 1.2), v100, z0, tNozzle, \Wobj := wobjPlatform;
		WaitRob \InPos;
		SetDO DO5_Program_Feed, 1;
		MoveL Offs(pZero, 12.75, -16.25, 1.2), v30, z0, tNozzle, \Wobj := wobjPlatform;
		WaitRob \InPos;
		SetDO DO5_Program_Feed, 0;
		MoveL Offs(pZero, 14.25, -16.25, 1.2), v100, z0, tNozzle, \Wobj := wobjPlatform;
		WaitRob \InPos;
		SetDO DO5_Program_Feed, 1;
		MoveL Offs(pZero, 14.25, 16.25, 1.2), v30, z0, tNozzle, \Wobj := wobjPlatform;
		WaitRob \InPos;
		SetDO DO5_Program_Feed, 0;
		MoveL Offs(pZero, 15.75, 16.25, 1.2), v100, z0, tNozzle, \Wobj := wobjPlatform;
		WaitRob \InPos;
		SetDO DO5_Program_Feed, 1;
		MoveL Offs(pZero, 15.75, -16.25, 1.2), v30, z0, tNozzle, \Wobj := wobjPlatform;
		WaitRob \InPos;
		SetDO DO6_Between_Layer_Retract, 1;
		SetDO DO5_Program_Feed, 0;
		MoveL Offs(pZero, 15.75, -16.25, 6.2), v100, z0, tNozzle, \Wobj := wobjPlatform;

		! Layer: 5
		! LayerParams(infillAngleDegrees=0.0, pathWidth=1.5, layerHeight=0.3, infillShiftX=0.0, infillShiftY=0.0, numShells=2, infillOverlap=0.0002)
		! T15
		! M6
		TPWRITE "Layer 5 of -1";
		MoveL Offs(pZero, -17.25, -16.75, 6.5), v100, z0, tNozzle, \Wobj := wobjPlatform;
		MoveL Offs(pZero, -17.25, -16.75, 1.5), v30, z0, tNozzle, \Wobj := wobjPlatform;
		WaitRob \InPos;
		SetDO DO6_Between_Layer_Retract, 0;
		WaitRob \InPos;
		SetDO DO5_Program_Feed, 1;
		MoveL Offs(pZero, -17.25, -17.25, 1.5), v30, z0, tNozzle, \Wobj := wobjPlatform;
		MoveL Offs(pZero, 17.25, -17.25, 1.5), v30, z0, tNozzle, \Wobj := wobjPlatform;
		MoveL Offs(pZero, 17.25, 17.25, 1.5), v30, z0, tNozzle, \Wobj := wobjPlatform;
		MoveL Offs(pZero, -17.25, 17.25, 1.5), v30, z0, tNozzle, \Wobj := wobjPlatform;
		MoveL Offs(pZero, -17.25, -16.75, 1.5), v30, z0, tNozzle, \Wobj := wobjPlatform;
		WaitRob \InPos;
		SetDO DO5_Program_Feed, 0;
		MoveL Offs(pZero, -16.75, -16.75, 1.5), v100, z0, tNozzle, \Wobj := wobjPlatform;
		WaitRob \InPos;
		SetDO DO5_Program_Feed, 1;
		MoveL Offs(pZero, 16.75, -16.75, 1.5), v30, z0, tNozzle, \Wobj := wobjPlatform;
		MoveL Offs(pZero, 16.75, 16.75, 1.5), v30, z0, tNozzle, \Wobj := wobjPlatform;
		MoveL Offs(pZero, -16.75, 16.75, 1.5), v30, z0, tNozzle, \Wobj := wobjPlatform;
		MoveL Offs(pZero, -16.75, -16.75, 1.5), v30, z0, tNozzle, \Wobj := wobjPlatform;
		WaitRob \InPos;
		SetDO DO5_Program_Feed, 0;
		MoveL Offs(pZero, -16.25, -15.75, 1.5), v100, z0, tNozzle, \Wobj := wobjPlatform;
		WaitRob \InPos;
		SetDO DO5_Program_Feed, 1;
		MoveL Offs(pZero, 16.25, -15.75, 1.5), v30, z0, tNozzle, \Wobj := wobjPlatform;
		WaitRob \InPos;
		SetDO DO5_Program_Feed, 0;
		MoveL Offs(pZero, 16.25, -14.25, 1.5), v100, z0, tNozzle, \Wobj := wobjPlatform;
		WaitRob \InPos;
		SetDO DO5_Program_Feed, 1;
		MoveL Offs(pZero, -16.25, -14.25, 1.5), v30, z0, tNozzle, \Wobj := wobjPlatform;
		WaitRob \InPos;
		SetDO DO5_Program_Feed, 0;
		MoveL Offs(pZero, -16.25, -12.75, 1.5), v100, z0, tNozzle, \Wobj := wobjPlatform;
		WaitRob \InPos;
		SetDO DO5_Program_Feed, 1;
		MoveL Offs(pZero, 16.25, -12.75, 1.5), v30, z0, tNozzle, \Wobj := wobjPlatform;
		WaitRob \InPos;
		SetDO DO5_Program_Feed, 0;
		MoveL Offs(pZero, 16.25, -11.25, 1.5), v100, z0, tNozzle, \Wobj := wobjPlatform;
		WaitRob \InPos;
		SetDO DO5_Program_Feed, 1;
		MoveL Offs(pZero, -16.25, -11.25, 1.5), v30, z0, tNozzle, \Wobj := wobjPlatform;
		WaitRob \InPos;
		SetDO DO5_Program_Feed, 0;
		MoveL Offs(pZero, -16.25, -9.75, 1.5), v100, z0, tNozzle, \Wobj := wobjPlatform;
		WaitRob \InPos;
		SetDO DO5_Program_Feed, 1;
		MoveL Offs(pZero, 16.25, -9.75, 1.5), v30, z0, tNozzle, \Wobj := wobjPlatform;
		WaitRob \InPos;
		SetDO DO5_Program_Feed, 0;
		MoveL Offs(pZero, 16.25, -8.25, 1.5), v100, z0, tNozzle, \Wobj := wobjPlatform;
		WaitRob \InPos;
		SetDO DO5_Program_Feed, 1;
		MoveL Offs(pZero, -16.25, -8.25, 1.5), v30, z0, tNozzle, \Wobj := wobjPlatform;
		WaitRob \InPos;
		SetDO DO5_Program_Feed, 0;
		MoveL Offs(pZero, -16.25, -6.75, 1.5), v100, z0, tNozzle, \Wobj := wobjPlatform;
		WaitRob \InPos;
		SetDO DO5_Program_Feed, 1;
		MoveL Offs(pZero, 16.25, -6.75, 1.5), v30, z0, tNozzle, \Wobj := wobjPlatform;
		WaitRob \InPos;
		SetDO DO5_Program_Feed, 0;
		MoveL Offs(pZero, 16.25, -5.25, 1.5), v100, z0, tNozzle, \Wobj := wobjPlatform;
		WaitRob \InPos;
		SetDO DO5_Program_Feed, 1;
		MoveL Offs(pZero, -16.25, -5.25, 1.5), v30, z0, tNozzle, \Wobj := wobjPlatform;
		WaitRob \InPos;
		SetDO DO5_Program_Feed, 0;
		MoveL Offs(pZero, -16.25, -3.75, 1.5), v100, z0, tNozzle, \Wobj := wobjPlatform;
		WaitRob \InPos;
		SetDO DO5_Program_Feed, 1;
		MoveL Offs(pZero, 16.25, -3.75, 1.5), v30, z0, tNozzle, \Wobj := wobjPlatform;
		WaitRob \InPos;
		SetDO DO5_Program_Feed, 0;
		MoveL Offs(pZero, 16.25, -2.25, 1.5), v100, z0, tNozzle, \Wobj := wobjPlatform;
		WaitRob \InPos;
		SetDO DO5_Program_Feed, 1;
		MoveL Offs(pZero, -16.25, -2.25, 1.5), v30, z0, tNozzle, \Wobj := wobjPlatform;
		WaitRob \InPos;
		SetDO DO5_Program_Feed, 0;
		MoveL Offs(pZero, -16.25, -0.75, 1.5), v100, z0, tNozzle, \Wobj := wobjPlatform;
		WaitRob \InPos;
		SetDO DO5_Program_Feed, 1;
		MoveL Offs(pZero, 16.25, -0.75, 1.5), v30, z0, tNozzle, \Wobj := wobjPlatform;
		WaitRob \InPos;
		SetDO DO5_Program_Feed, 0;
		MoveL Offs(pZero, 16.25, 0.75, 1.5), v100, z0, tNozzle, \Wobj := wobjPlatform;
		WaitRob \InPos;
		SetDO DO5_Program_Feed, 1;
		MoveL Offs(pZero, -16.25, 0.75, 1.5), v30, z0, tNozzle, \Wobj := wobjPlatform;
		WaitRob \InPos;
		SetDO DO5_Program_Feed, 0;
		MoveL Offs(pZero, -16.25, 2.25, 1.5), v100, z0, tNozzle, \Wobj := wobjPlatform;
		WaitRob \InPos;
		SetDO DO5_Program_Feed, 1;
		MoveL Offs(pZero, 16.25, 2.25, 1.5), v30, z0, tNozzle, \Wobj := wobjPlatform;
		WaitRob \InPos;
		SetDO DO5_Program_Feed, 0;
		MoveL Offs(pZero, 16.25, 3.75, 1.5), v100, z0, tNozzle, \Wobj := wobjPlatform;
		WaitRob \InPos;
		SetDO DO5_Program_Feed, 1;
		MoveL Offs(pZero, -16.25, 3.75, 1.5), v30, z0, tNozzle, \Wobj := wobjPlatform;
		WaitRob \InPos;
		SetDO DO5_Program_Feed, 0;
		MoveL Offs(pZero, -16.25, 5.25, 1.5), v100, z0, tNozzle, \Wobj := wobjPlatform;
		WaitRob \InPos;
		SetDO DO5_Program_Feed, 1;
		MoveL Offs(pZero, 16.25, 5.25, 1.5), v30, z0, tNozzle, \Wobj := wobjPlatform;
		WaitRob \InPos;
		SetDO DO5_Program_Feed, 0;
		MoveL Offs(pZero, 16.25, 6.75, 1.5), v100, z0, tNozzle, \Wobj := wobjPlatform;
		WaitRob \InPos;
		SetDO DO5_Program_Feed, 1;
		MoveL Offs(pZero, -16.25, 6.75, 1.5), v30, z0, tNozzle, \Wobj := wobjPlatform;
		WaitRob \InPos;
		SetDO DO5_Program_Feed, 0;
		MoveL Offs(pZero, -16.25, 8.25, 1.5), v100, z0, tNozzle, \Wobj := wobjPlatform;
		WaitRob \InPos;
		SetDO DO5_Program_Feed, 1;
		MoveL Offs(pZero, 16.25, 8.25, 1.5), v30, z0, tNozzle, \Wobj := wobjPlatform;
		WaitRob \InPos;
		SetDO DO5_Program_Feed, 0;
		MoveL Offs(pZero, 16.25, 9.75, 1.5), v100, z0, tNozzle, \Wobj := wobjPlatform;
		WaitRob \InPos;
		SetDO DO5_Program_Feed, 1;
		MoveL Offs(pZero, -16.25, 9.75, 1.5), v30, z0, tNozzle, \Wobj := wobjPlatform;
		WaitRob \InPos;
		SetDO DO5_Program_Feed, 0;
		MoveL Offs(pZero, -16.25, 11.25, 1.5), v100, z0, tNozzle, \Wobj := wobjPlatform;
		WaitRob \InPos;
		SetDO DO5_Program_Feed, 1;
		MoveL Offs(pZero, 16.25, 11.25, 1.5), v30, z0, tNozzle, \Wobj := wobjPlatform;
		WaitRob \InPos;
		SetDO DO5_Program_Feed, 0;
		MoveL Offs(pZero, 16.25, 12.75, 1.5), v100, z0, tNozzle, \Wobj := wobjPlatform;
		WaitRob \InPos;
		SetDO DO5_Program_Feed, 1;
		MoveL Offs(pZero, -16.25, 12.75, 1.5), v30, z0, tNozzle, \Wobj := wobjPlatform;
		WaitRob \InPos;
		SetDO DO5_Program_Feed, 0;
		MoveL Offs(pZero, -16.25, 14.25, 1.5), v100, z0, tNozzle, \Wobj := wobjPlatform;
		WaitRob \InPos;
		SetDO DO5_Program_Feed, 1;
		MoveL Offs(pZero, 16.25, 14.25, 1.5), v30, z0, tNozzle, \Wobj := wobjPlatform;
		WaitRob \InPos;
		SetDO DO5_Program_Feed, 0;
		MoveL Offs(pZero, 16.25, 15.75, 1.5), v100, z0, tNozzle, \Wobj := wobjPlatform;
		WaitRob \InPos;
		SetDO DO5_Program_Feed, 1;
		MoveL Offs(pZero, -16.25, 15.75, 1.5), v30, z0, tNozzle, \Wobj := wobjPlatform;
		WaitRob \InPos;
		SetDO DO6_Between_Layer_Retract, 1;
		SetDO DO5_Program_Feed, 0;
		MoveL Offs(pZero, -16.25, 15.75, 6.5), v100, z0, tNozzle, \Wobj := wobjPlatform;

		! Layer: 6
		! LayerParams(infillAngleDegrees=90.0, pathWidth=1.5, layerHeight=0.3, infillShiftX=0.0, infillShiftY=0.0, numShells=2, infillOverlap=0.0002)
		! T16
		! M6
		TPWRITE "Layer 6 of -1";
		MoveL Offs(pZero, 17.25, 17.25, 6.8), v100, z0, tNozzle, \Wobj := wobjPlatform;
		MoveL Offs(pZero, 17.25, 17.25, 1.8), v30, z0, tNozzle, \Wobj := wobjPlatform;
		WaitRob \InPos;
		SetDO DO6_Between_Layer_Retract, 0;
		WaitRob \InPos;
		SetDO DO5_Program_Feed, 1;
		MoveL Offs(pZero, -17.25, 17.25, 1.8), v30, z0, tNozzle, \Wobj := wobjPlatform;
		MoveL Offs(pZero, -17.25, -16.6, 1.8), v30, z0, tNozzle, \Wobj := wobjPlatform;
		WaitRob \InPos;
		SetDO DO5_Program_Feed, 0;
		MoveL Offs(pZero, -17.25, -16.6, 1.8), v100, z0, tNozzle, \Wobj := wobjPlatform;
		WaitRob \InPos;
		SetDO DO5_Program_Feed, 1;
		MoveL Offs(pZero, -17.25, -17.25, 1.8), v30, z0, tNozzle, \Wobj := wobjPlatform;
		MoveL Offs(pZero, 17.25, -17.25, 1.8), v30, z0, tNozzle, \Wobj := wobjPlatform;
		MoveL Offs(pZero, 17.25, 17.25, 1.8), v30, z0, tNozzle, \Wobj := wobjPlatform;
		WaitRob \InPos;
		SetDO DO5_Program_Feed, 0;
		MoveL Offs(pZero, 16.75, 16.75, 1.8), v100, z0, tNozzle, \Wobj := wobjPlatform;
		WaitRob \InPos;
		SetDO DO5_Program_Feed, 1;
		MoveL Offs(pZero, -16.75, 16.75, 1.8), v30, z0, tNozzle, \Wobj := wobjPlatform;
		MoveL Offs(pZero, -16.75, -16.6, 1.8), v30, z0, tNozzle, \Wobj := wobjPlatform;
		WaitRob \InPos;
		SetDO DO5_Program_Feed, 0;
		MoveL Offs(pZero, -16.75, -16.6, 1.8), v100, z0, tNozzle, \Wobj := wobjPlatform;
		WaitRob \InPos;
		SetDO DO5_Program_Feed, 1;
		MoveL Offs(pZero, -16.75, -16.75, 1.8), v30, z0, tNozzle, \Wobj := wobjPlatform;
		MoveL Offs(pZero, 16.75, -16.75, 1.8), v30, z0, tNozzle, \Wobj := wobjPlatform;
		MoveL Offs(pZero, 16.75, 16.75, 1.8), v30, z0, tNozzle, \Wobj := wobjPlatform;
		WaitRob \InPos;
		SetDO DO5_Program_Feed, 0;
		MoveL Offs(pZero, 15.75, 16.25, 1.8), v100, z0, tNozzle, \Wobj := wobjPlatform;
		WaitRob \InPos;
		SetDO DO5_Program_Feed, 1;
		MoveL Offs(pZero, 15.75, -16.25, 1.8), v30, z0, tNozzle, \Wobj := wobjPlatform;
		WaitRob \InPos;
		SetDO DO5_Program_Feed, 0;
		MoveL Offs(pZero, 14.25, -16.25, 1.8), v100, z0, tNozzle, \Wobj := wobjPlatform;
		WaitRob \InPos;
		SetDO DO5_Program_Feed, 1;
		MoveL Offs(pZero, 14.25, 16.25, 1.8), v30, z0, tNozzle, \Wobj := wobjPlatform;
		WaitRob \InPos;
		SetDO DO5_Program_Feed, 0;
		MoveL Offs(pZero, 12.75, 16.25, 1.8), v100, z0, tNozzle, \Wobj := wobjPlatform;
		WaitRob \InPos;
		SetDO DO5_Program_Feed, 1;
		MoveL Offs(pZero, 12.75, -16.25, 1.8), v30, z0, tNozzle, \Wobj := wobjPlatform;
		WaitRob \InPos;
		SetDO DO5_Program_Feed, 0;
		MoveL Offs(pZero, 11.25, -16.25, 1.8), v100, z0, tNozzle, \Wobj := wobjPlatform;
		WaitRob \InPos;
		SetDO DO5_Program_Feed, 1;
		MoveL Offs(pZero, 11.25, 16.25, 1.8), v30, z0, tNozzle, \Wobj := wobjPlatform;
		WaitRob \InPos;
		SetDO DO5_Program_Feed, 0;
		MoveL Offs(pZero, 9.75, 16.25, 1.8), v100, z0, tNozzle, \Wobj := wobjPlatform;
		WaitRob \InPos;
		SetDO DO5_Program_Feed, 1;
		MoveL Offs(pZero, 9.75, -16.25, 1.8), v30, z0, tNozzle, \Wobj := wobjPlatform;
		WaitRob \InPos;
		SetDO DO5_Program_Feed, 0;
		MoveL Offs(pZero, 8.25, -16.25, 1.8), v100, z0, tNozzle, \Wobj := wobjPlatform;
		WaitRob \InPos;
		SetDO DO5_Program_Feed, 1;
		MoveL Offs(pZero, 8.25, 16.25, 1.8), v30, z0, tNozzle, \Wobj := wobjPlatform;
		WaitRob \InPos;
		SetDO DO5_Program_Feed, 0;
		MoveL Offs(pZero, 6.75, 16.25, 1.8), v100, z0, tNozzle, \Wobj := wobjPlatform;
		WaitRob \InPos;
		SetDO DO5_Program_Feed, 1;
		MoveL Offs(pZero, 6.75, -16.25, 1.8), v30, z0, tNozzle, \Wobj := wobjPlatform;
		WaitRob \InPos;
		SetDO DO5_Program_Feed, 0;
		MoveL Offs(pZero, 5.25, -16.25, 1.8), v100, z0, tNozzle, \Wobj := wobjPlatform;
		WaitRob \InPos;
		SetDO DO5_Program_Feed, 1;
		MoveL Offs(pZero, 5.25, 16.25, 1.8), v30, z0, tNozzle, \Wobj := wobjPlatform;
		WaitRob \InPos;
		SetDO DO5_Program_Feed, 0;
		MoveL Offs(pZero, 3.75, 16.25, 1.8), v100, z0, tNozzle, \Wobj := wobjPlatform;
		WaitRob \InPos;
		SetDO DO5_Program_Feed, 1;
		MoveL Offs(pZero, 3.75, -16.25, 1.8), v30, z0, tNozzle, \Wobj := wobjPlatform;
		WaitRob \InPos;
		SetDO DO5_Program_Feed, 0;
		MoveL Offs(pZero, 2.25, -16.25, 1.8), v100, z0, tNozzle, \Wobj := wobjPlatform;
		WaitRob \InPos;
		SetDO DO5_Program_Feed, 1;
		MoveL Offs(pZero, 2.25, 16.25, 1.8), v30, z0, tNozzle, \Wobj := wobjPlatform;
		WaitRob \InPos;
		SetDO DO5_Program_Feed, 0;
		MoveL Offs(pZero, 0.75, 16.25, 1.8), v100, z0, tNozzle, \Wobj := wobjPlatform;
		WaitRob \InPos;
		SetDO DO5_Program_Feed, 1;
		MoveL Offs(pZero, 0.75, -16.25, 1.8), v30, z0, tNozzle, \Wobj := wobjPlatform;
		WaitRob \InPos;
		SetDO DO5_Program_Feed, 0;
		MoveL Offs(pZero, -0.75, -16.25, 1.8), v100, z0, tNozzle, \Wobj := wobjPlatform;
		WaitRob \InPos;
		SetDO DO5_Program_Feed, 1;
		MoveL Offs(pZero, -0.75, 16.25, 1.8), v30, z0, tNozzle, \Wobj := wobjPlatform;
		WaitRob \InPos;
		SetDO DO5_Program_Feed, 0;
		MoveL Offs(pZero, -2.25, 16.25, 1.8), v100, z0, tNozzle, \Wobj := wobjPlatform;
		WaitRob \InPos;
		SetDO DO5_Program_Feed, 1;
		MoveL Offs(pZero, -2.25, -16.25, 1.8), v30, z0, tNozzle, \Wobj := wobjPlatform;
		WaitRob \InPos;
		SetDO DO5_Program_Feed, 0;
		MoveL Offs(pZero, -3.75, -16.25, 1.8), v100, z0, tNozzle, \Wobj := wobjPlatform;
		WaitRob \InPos;
		SetDO DO5_Program_Feed, 1;
		MoveL Offs(pZero, -3.75, 16.25, 1.8), v30, z0, tNozzle, \Wobj := wobjPlatform;
		WaitRob \InPos;
		SetDO DO5_Program_Feed, 0;
		MoveL Offs(pZero, -5.25, 16.25, 1.8), v100, z0, tNozzle, \Wobj := wobjPlatform;
		WaitRob \InPos;
		SetDO DO5_Program_Feed, 1;
		MoveL Offs(pZero, -5.25, -16.25, 1.8), v30, z0, tNozzle, \Wobj := wobjPlatform;
		WaitRob \InPos;
		SetDO DO5_Program_Feed, 0;
		MoveL Offs(pZero, -6.75, -16.25, 1.8), v100, z0, tNozzle, \Wobj := wobjPlatform;
		WaitRob \InPos;
		SetDO DO5_Program_Feed, 1;
		MoveL Offs(pZero, -6.75, 16.25, 1.8), v30, z0, tNozzle, \Wobj := wobjPlatform;
		WaitRob \InPos;
		SetDO DO5_Program_Feed, 0;
		MoveL Offs(pZero, -8.25, 16.25, 1.8), v100, z0, tNozzle, \Wobj := wobjPlatform;
		WaitRob \InPos;
		SetDO DO5_Program_Feed, 1;
		MoveL Offs(pZero, -8.25, -16.25, 1.8), v30, z0, tNozzle, \Wobj := wobjPlatform;
		WaitRob \InPos;
		SetDO DO5_Program_Feed, 0;
		MoveL Offs(pZero, -9.75, -16.25, 1.8), v100, z0, tNozzle, \Wobj := wobjPlatform;
		WaitRob \InPos;
		SetDO DO5_Program_Feed, 1;
		MoveL Offs(pZero, -9.75, 16.25, 1.8), v30, z0, tNozzle, \Wobj := wobjPlatform;
		WaitRob \InPos;
		SetDO DO5_Program_Feed, 0;
		MoveL Offs(pZero, -11.25, 16.25, 1.8), v100, z0, tNozzle, \Wobj := wobjPlatform;
		WaitRob \InPos;
		SetDO DO5_Program_Feed, 1;
		MoveL Offs(pZero, -11.25, -16.25, 1.8), v30, z0, tNozzle, \Wobj := wobjPlatform;
		WaitRob \InPos;
		SetDO DO5_Program_Feed, 0;
		MoveL Offs(pZero, -12.75, -16.25, 1.8), v100, z0, tNozzle, \Wobj := wobjPlatform;
		WaitRob \InPos;
		SetDO DO5_Program_Feed, 1;
		MoveL Offs(pZero, -12.75, 16.25, 1.8), v30, z0, tNozzle, \Wobj := wobjPlatform;
		WaitRob \InPos;
		SetDO DO5_Program_Feed, 0;
		MoveL Offs(pZero, -14.25, 16.25, 1.8), v100, z0, tNozzle, \Wobj := wobjPlatform;
		WaitRob \InPos;
		SetDO DO5_Program_Feed, 1;
		MoveL Offs(pZero, -14.25, -16.25, 1.8), v30, z0, tNozzle, \Wobj := wobjPlatform;
		WaitRob \InPos;
		SetDO DO5_Program_Feed, 0;
		MoveL Offs(pZero, -15.75, -16.25, 1.8), v100, z0, tNozzle, \Wobj := wobjPlatform;
		WaitRob \InPos;
		SetDO DO5_Program_Feed, 1;
		MoveL Offs(pZero, -15.75, 16.25, 1.8), v30, z0, tNozzle, \Wobj := wobjPlatform;
		WaitRob \InPos;
		SetDO DO6_Between_Layer_Retract, 1;
		SetDO DO5_Program_Feed, 0;
		MoveL Offs(pZero, -15.75, 16.25, 6.8), v100, z0, tNozzle, \Wobj := wobjPlatform;

		! Layer: 7
		! LayerParams(infillAngleDegrees=0.0, pathWidth=1.5, layerHeight=0.3, infillShiftX=0.0, infillShiftY=0.0, numShells=2, infillOverlap=0.0002)
		! T17
		! M6
		TPWRITE "Layer 7 of -1";
		MoveL Offs(pZero, -17.25, -16.45, 7.1), v100, z0, tNozzle, \Wobj := wobjPlatform;
		MoveL Offs(pZero, -17.25, -16.45, 2.1), v30, z0, tNozzle, \Wobj := wobjPlatform;
		WaitRob \InPos;
		SetDO DO6_Between_Layer_Retract, 0;
		WaitRob \InPos;
		SetDO DO5_Program_Feed, 1;
		MoveL Offs(pZero, -17.25, -17.25, 2.1), v30, z0, tNozzle, \Wobj := wobjPlatform;
		MoveL Offs(pZero, 17.25, -17.25, 2.1), v30, z0, tNozzle, \Wobj := wobjPlatform;
		MoveL Offs(pZero, 17.25, 17.25, 2.1), v30, z0, tNozzle, \Wobj := wobjPlatform;
		MoveL Offs(pZero, -17.25, 17.25, 2.1), v30, z0, tNozzle, \Wobj := wobjPlatform;
		MoveL Offs(pZero, -17.25, -16.45, 2.1), v30, z0, tNozzle, \Wobj := wobjPlatform;
		WaitRob \InPos;
		SetDO DO5_Program_Feed, 0;
		MoveL Offs(pZero, -16.75, -16.45, 2.1), v100, z0, tNozzle, \Wobj := wobjPlatform;
		WaitRob \InPos;
		SetDO DO5_Program_Feed, 1;
		MoveL Offs(pZero, -16.75, -16.75, 2.1), v30, z0, tNozzle, \Wobj := wobjPlatform;
		MoveL Offs(pZero, 16.75, -16.75, 2.1), v30, z0, tNozzle, \Wobj := wobjPlatform;
		MoveL Offs(pZero, 16.75, 16.75, 2.1), v30, z0, tNozzle, \Wobj := wobjPlatform;
		MoveL Offs(pZero, -16.75, 16.75, 2.1), v30, z0, tNozzle, \Wobj := wobjPlatform;
		MoveL Offs(pZero, -16.75, -16.45, 2.1), v30, z0, tNozzle, \Wobj := wobjPlatform;
		WaitRob \InPos;
		SetDO DO5_Program_Feed, 0;
		MoveL Offs(pZero, -16.25, -15.75, 2.1), v100, z0, tNozzle, \Wobj := wobjPlatform;
		WaitRob \InPos;
		SetDO DO5_Program_Feed, 1;
		MoveL Offs(pZero, 16.25, -15.75, 2.1), v30, z0, tNozzle, \Wobj := wobjPlatform;
		WaitRob \InPos;
		SetDO DO5_Program_Feed, 0;
		MoveL Offs(pZero, 16.25, -14.25, 2.1), v100, z0, tNozzle, \Wobj := wobjPlatform;
		WaitRob \InPos;
		SetDO DO5_Program_Feed, 1;
		MoveL Offs(pZero, -16.25, -14.25, 2.1), v30, z0, tNozzle, \Wobj := wobjPlatform;
		WaitRob \InPos;
		SetDO DO5_Program_Feed, 0;
		MoveL Offs(pZero, -16.25, -12.75, 2.1), v100, z0, tNozzle, \Wobj := wobjPlatform;
		WaitRob \InPos;
		SetDO DO5_Program_Feed, 1;
		MoveL Offs(pZero, 16.25, -12.75, 2.1), v30, z0, tNozzle, \Wobj := wobjPlatform;
		WaitRob \InPos;
		SetDO DO5_Program_Feed, 0;
		MoveL Offs(pZero, 16.25, -11.25, 2.1), v100, z0, tNozzle, \Wobj := wobjPlatform;
		WaitRob \InPos;
		SetDO DO5_Program_Feed, 1;
		MoveL Offs(pZero, -16.25, -11.25, 2.1), v30, z0, tNozzle, \Wobj := wobjPlatform;
		WaitRob \InPos;
		SetDO DO5_Program_Feed, 0;
		MoveL Offs(pZero, -16.25, -9.75, 2.1), v100, z0, tNozzle, \Wobj := wobjPlatform;
		WaitRob \InPos;
		SetDO DO5_Program_Feed, 1;
		MoveL Offs(pZero, 16.25, -9.75, 2.1), v30, z0, tNozzle, \Wobj := wobjPlatform;
		WaitRob \InPos;
		SetDO DO5_Program_Feed, 0;
		MoveL Offs(pZero, 16.25, -8.25, 2.1), v100, z0, tNozzle, \Wobj := wobjPlatform;
		WaitRob \InPos;
		SetDO DO5_Program_Feed, 1;
		MoveL Offs(pZero, -16.25, -8.25, 2.1), v30, z0, tNozzle, \Wobj := wobjPlatform;
		WaitRob \InPos;
		SetDO DO5_Program_Feed, 0;
		MoveL Offs(pZero, -16.25, -6.75, 2.1), v100, z0, tNozzle, \Wobj := wobjPlatform;
		WaitRob \InPos;
		SetDO DO5_Program_Feed, 1;
		MoveL Offs(pZero, 16.25, -6.75, 2.1), v30, z0, tNozzle, \Wobj := wobjPlatform;
		WaitRob \InPos;
		SetDO DO5_Program_Feed, 0;
		MoveL Offs(pZero, 16.25, -5.25, 2.1), v100, z0, tNozzle, \Wobj := wobjPlatform;
		WaitRob \InPos;
		SetDO DO5_Program_Feed, 1;
		MoveL Offs(pZero, -16.25, -5.25, 2.1), v30, z0, tNozzle, \Wobj := wobjPlatform;
		WaitRob \InPos;
		SetDO DO5_Program_Feed, 0;
		MoveL Offs(pZero, -16.25, -3.75, 2.1), v100, z0, tNozzle, \Wobj := wobjPlatform;
		WaitRob \InPos;
		SetDO DO5_Program_Feed, 1;
		MoveL Offs(pZero, 16.25, -3.75, 2.1), v30, z0, tNozzle, \Wobj := wobjPlatform;
		WaitRob \InPos;
		SetDO DO5_Program_Feed, 0;
		MoveL Offs(pZero, 16.25, -2.25, 2.1), v100, z0, tNozzle, \Wobj := wobjPlatform;
		WaitRob \InPos;
		SetDO DO5_Program_Feed, 1;
		MoveL Offs(pZero, -16.25, -2.25, 2.1), v30, z0, tNozzle, \Wobj := wobjPlatform;
		WaitRob \InPos;
		SetDO DO5_Program_Feed, 0;
		MoveL Offs(pZero, -16.25, -0.75, 2.1), v100, z0, tNozzle, \Wobj := wobjPlatform;
		WaitRob \InPos;
		SetDO DO5_Program_Feed, 1;
		MoveL Offs(pZero, 16.25, -0.75, 2.1), v30, z0, tNozzle, \Wobj := wobjPlatform;
		WaitRob \InPos;
		SetDO DO5_Program_Feed, 0;
		MoveL Offs(pZero, 16.25, 0.75, 2.1), v100, z0, tNozzle, \Wobj := wobjPlatform;
		WaitRob \InPos;
		SetDO DO5_Program_Feed, 1;
		MoveL Offs(pZero, -16.25, 0.75, 2.1), v30, z0, tNozzle, \Wobj := wobjPlatform;
		WaitRob \InPos;
		SetDO DO5_Program_Feed, 0;
		MoveL Offs(pZero, -16.25, 2.25, 2.1), v100, z0, tNozzle, \Wobj := wobjPlatform;
		WaitRob \InPos;
		SetDO DO5_Program_Feed, 1;
		MoveL Offs(pZero, 16.25, 2.25, 2.1), v30, z0, tNozzle, \Wobj := wobjPlatform;
		WaitRob \InPos;
		SetDO DO5_Program_Feed, 0;
		MoveL Offs(pZero, 16.25, 3.75, 2.1), v100, z0, tNozzle, \Wobj := wobjPlatform;
		WaitRob \InPos;
		SetDO DO5_Program_Feed, 1;
		MoveL Offs(pZero, -16.25, 3.75, 2.1), v30, z0, tNozzle, \Wobj := wobjPlatform;
		WaitRob \InPos;
		SetDO DO5_Program_Feed, 0;
		MoveL Offs(pZero, -16.25, 5.25, 2.1), v100, z0, tNozzle, \Wobj := wobjPlatform;
		WaitRob \InPos;
		SetDO DO5_Program_Feed, 1;
		MoveL Offs(pZero, 16.25, 5.25, 2.1), v30, z0, tNozzle, \Wobj := wobjPlatform;
		WaitRob \InPos;
		SetDO DO5_Program_Feed, 0;
		MoveL Offs(pZero, 16.25, 6.75, 2.1), v100, z0, tNozzle, \Wobj := wobjPlatform;
		WaitRob \InPos;
		SetDO DO5_Program_Feed, 1;
		MoveL Offs(pZero, -16.25, 6.75, 2.1), v30, z0, tNozzle, \Wobj := wobjPlatform;
		WaitRob \InPos;
		SetDO DO5_Program_Feed, 0;
		MoveL Offs(pZero, -16.25, 8.25, 2.1), v100, z0, tNozzle, \Wobj := wobjPlatform;
		WaitRob \InPos;
		SetDO DO5_Program_Feed, 1;
		MoveL Offs(pZero, 16.25, 8.25, 2.1), v30, z0, tNozzle, \Wobj := wobjPlatform;
		WaitRob \InPos;
		SetDO DO5_Program_Feed, 0;
		MoveL Offs(pZero, 16.25, 9.75, 2.1), v100, z0, tNozzle, \Wobj := wobjPlatform;
		WaitRob \InPos;
		SetDO DO5_Program_Feed, 1;
		MoveL Offs(pZero, -16.25, 9.75, 2.1), v30, z0, tNozzle, \Wobj := wobjPlatform;
		WaitRob \InPos;
		SetDO DO5_Program_Feed, 0;
		MoveL Offs(pZero, -16.25, 11.25, 2.1), v100, z0, tNozzle, \Wobj := wobjPlatform;
		WaitRob \InPos;
		SetDO DO5_Program_Feed, 1;
		MoveL Offs(pZero, 16.25, 11.25, 2.1), v30, z0, tNozzle, \Wobj := wobjPlatform;
		WaitRob \InPos;
		SetDO DO5_Program_Feed, 0;
		MoveL Offs(pZero, 16.25, 12.75, 2.1), v100, z0, tNozzle, \Wobj := wobjPlatform;
		WaitRob \InPos;
		SetDO DO5_Program_Feed, 1;
		MoveL Offs(pZero, -16.25, 12.75, 2.1), v30, z0, tNozzle, \Wobj := wobjPlatform;
		WaitRob \InPos;
		SetDO DO5_Program_Feed, 0;
		MoveL Offs(pZero, -16.25, 14.25, 2.1), v100, z0, tNozzle, \Wobj := wobjPlatform;
		WaitRob \InPos;
		SetDO DO5_Program_Feed, 1;
		MoveL Offs(pZero, 16.25, 14.25, 2.1), v30, z0, tNozzle, \Wobj := wobjPlatform;
		WaitRob \InPos;
		SetDO DO5_Program_Feed, 0;
		MoveL Offs(pZero, 16.25, 15.75, 2.1), v100, z0, tNozzle, \Wobj := wobjPlatform;
		WaitRob \InPos;
		SetDO DO5_Program_Feed, 1;
		MoveL Offs(pZero, -16.25, 15.75, 2.1), v30, z0, tNozzle, \Wobj := wobjPlatform;
		WaitRob \InPos;
		SetDO DO6_Between_Layer_Retract, 1;
		SetDO DO5_Program_Feed, 0;
		MoveL Offs(pZero, -16.25, 15.75, 7.1), v100, z0, tNozzle, \Wobj := wobjPlatform;

		! Layer: 8
		! LayerParams(infillAngleDegrees=90.0, pathWidth=1.5, layerHeight=0.3, infillShiftX=0.0, infillShiftY=0.0, numShells=2, infillOverlap=0.0002)
		! T18
		! M6
		TPWRITE "Layer 8 of -1";
		MoveL Offs(pZero, 17.25, -17.25, 7.4), v100, z0, tNozzle, \Wobj := wobjPlatform;
		MoveL Offs(pZero, 17.25, -17.25, 2.4), v30, z0, tNozzle, \Wobj := wobjPlatform;
		WaitRob \InPos;
		SetDO DO6_Between_Layer_Retract, 0;
		WaitRob \InPos;
		SetDO DO5_Program_Feed, 1;
		MoveL Offs(pZero, 17.25, 17.25, 2.4), v30, z0, tNozzle, \Wobj := wobjPlatform;
		MoveL Offs(pZero, -17.25, 17.25, 2.4), v30, z0, tNozzle, \Wobj := wobjPlatform;
		MoveL Offs(pZero, -17.25, -16.3, 2.4), v30, z0, tNozzle, \Wobj := wobjPlatform;
		WaitRob \InPos;
		SetDO DO5_Program_Feed, 0;
		MoveL Offs(pZero, -17.25, -16.3, 2.4), v100, z0, tNozzle, \Wobj := wobjPlatform;
		WaitRob \InPos;
		SetDO DO5_Program_Feed, 1;
		MoveL Offs(pZero, -17.25, -17.25, 2.4), v30, z0, tNozzle, \Wobj := wobjPlatform;
		MoveL Offs(pZero, 17.25, -17.25, 2.4), v30, z0, tNozzle, \Wobj := wobjPlatform;
		WaitRob \InPos;
		SetDO DO5_Program_Feed, 0;
		MoveL Offs(pZero, 16.75, -16.75, 2.4), v100, z0, tNozzle, \Wobj := wobjPlatform;
		WaitRob \InPos;
		SetDO DO5_Program_Feed, 1;
		MoveL Offs(pZero, 16.75, 16.75, 2.4), v30, z0, tNozzle, \Wobj := wobjPlatform;
		MoveL Offs(pZero, -16.75, 16.75, 2.4), v30, z0, tNozzle, \Wobj := wobjPlatform;
		MoveL Offs(pZero, -16.75, -16.3, 2.4), v30, z0, tNozzle, \Wobj := wobjPlatform;
		WaitRob \InPos;
		SetDO DO5_Program_Feed, 0;
		MoveL Offs(pZero, -16.75, -16.3, 2.4), v100, z0, tNozzle, \Wobj := wobjPlatform;
		WaitRob \InPos;
		SetDO DO5_Program_Feed, 1;
		MoveL Offs(pZero, -16.75, -16.75, 2.4), v30, z0, tNozzle, \Wobj := wobjPlatform;
		MoveL Offs(pZero, 16.75, -16.75, 2.4), v30, z0, tNozzle, \Wobj := wobjPlatform;
		WaitRob \InPos;
		SetDO DO5_Program_Feed, 0;
		MoveL Offs(pZero, 15.75, -16.25, 2.4), v100, z0, tNozzle, \Wobj := wobjPlatform;
		WaitRob \InPos;
		SetDO DO5_Program_Feed, 1;
		MoveL Offs(pZero, 15.75, 16.25, 2.4), v30, z0, tNozzle, \Wobj := wobjPlatform;
		WaitRob \InPos;
		SetDO DO5_Program_Feed, 0;
		MoveL Offs(pZero, 14.25, 16.25, 2.4), v100, z0, tNozzle, \Wobj := wobjPlatform;
		WaitRob \InPos;
		SetDO DO5_Program_Feed, 1;
		MoveL Offs(pZero, 14.25, -16.25, 2.4), v30, z0, tNozzle, \Wobj := wobjPlatform;
		WaitRob \InPos;
		SetDO DO5_Program_Feed, 0;
		MoveL Offs(pZero, 12.75, -16.25, 2.4), v100, z0, tNozzle, \Wobj := wobjPlatform;
		WaitRob \InPos;
		SetDO DO5_Program_Feed, 1;
		MoveL Offs(pZero, 12.75, 16.25, 2.4), v30, z0, tNozzle, \Wobj := wobjPlatform;
		WaitRob \InPos;
		SetDO DO5_Program_Feed, 0;
		MoveL Offs(pZero, 11.25, 16.25, 2.4), v100, z0, tNozzle, \Wobj := wobjPlatform;
		WaitRob \InPos;
		SetDO DO5_Program_Feed, 1;
		MoveL Offs(pZero, 11.25, -16.25, 2.4), v30, z0, tNozzle, \Wobj := wobjPlatform;
		WaitRob \InPos;
		SetDO DO5_Program_Feed, 0;
		MoveL Offs(pZero, 9.75, -16.25, 2.4), v100, z0, tNozzle, \Wobj := wobjPlatform;
		WaitRob \InPos;
		SetDO DO5_Program_Feed, 1;
		MoveL Offs(pZero, 9.75, 16.25, 2.4), v30, z0, tNozzle, \Wobj := wobjPlatform;
		WaitRob \InPos;
		SetDO DO5_Program_Feed, 0;
		MoveL Offs(pZero, 8.25, 16.25, 2.4), v100, z0, tNozzle, \Wobj := wobjPlatform;
		WaitRob \InPos;
		SetDO DO5_Program_Feed, 1;
		MoveL Offs(pZero, 8.25, -16.25, 2.4), v30, z0, tNozzle, \Wobj := wobjPlatform;
		WaitRob \InPos;
		SetDO DO5_Program_Feed, 0;
		MoveL Offs(pZero, 6.75, -16.25, 2.4), v100, z0, tNozzle, \Wobj := wobjPlatform;
		WaitRob \InPos;
		SetDO DO5_Program_Feed, 1;
		MoveL Offs(pZero, 6.75, 16.25, 2.4), v30, z0, tNozzle, \Wobj := wobjPlatform;
		WaitRob \InPos;
		SetDO DO5_Program_Feed, 0;
		MoveL Offs(pZero, 5.25, 16.25, 2.4), v100, z0, tNozzle, \Wobj := wobjPlatform;
		WaitRob \InPos;
		SetDO DO5_Program_Feed, 1;
		MoveL Offs(pZero, 5.25, -16.25, 2.4), v30, z0, tNozzle, \Wobj := wobjPlatform;
		WaitRob \InPos;
		SetDO DO5_Program_Feed, 0;
		MoveL Offs(pZero, 3.75, -16.25, 2.4), v100, z0, tNozzle, \Wobj := wobjPlatform;
		WaitRob \InPos;
		SetDO DO5_Program_Feed, 1;
		MoveL Offs(pZero, 3.75, 16.25, 2.4), v30, z0, tNozzle, \Wobj := wobjPlatform;
		WaitRob \InPos;
		SetDO DO5_Program_Feed, 0;
		MoveL Offs(pZero, 2.25, 16.25, 2.4), v100, z0, tNozzle, \Wobj := wobjPlatform;
		WaitRob \InPos;
		SetDO DO5_Program_Feed, 1;
		MoveL Offs(pZero, 2.25, -16.25, 2.4), v30, z0, tNozzle, \Wobj := wobjPlatform;
		WaitRob \InPos;
		SetDO DO5_Program_Feed, 0;
		MoveL Offs(pZero, 0.75, -16.25, 2.4), v100, z0, tNozzle, \Wobj := wobjPlatform;
		WaitRob \InPos;
		SetDO DO5_Program_Feed, 1;
		MoveL Offs(pZero, 0.75, 16.25, 2.4), v30, z0, tNozzle, \Wobj := wobjPlatform;
		WaitRob \InPos;
		SetDO DO5_Program_Feed, 0;
		MoveL Offs(pZero, -0.75, 16.25, 2.4), v100, z0, tNozzle, \Wobj := wobjPlatform;
		WaitRob \InPos;
		SetDO DO5_Program_Feed, 1;
		MoveL Offs(pZero, -0.75, -16.25, 2.4), v30, z0, tNozzle, \Wobj := wobjPlatform;
		WaitRob \InPos;
		SetDO DO5_Program_Feed, 0;
		MoveL Offs(pZero, -2.25, -16.25, 2.4), v100, z0, tNozzle, \Wobj := wobjPlatform;
		WaitRob \InPos;
		SetDO DO5_Program_Feed, 1;
		MoveL Offs(pZero, -2.25, 16.25, 2.4), v30, z0, tNozzle, \Wobj := wobjPlatform;
		WaitRob \InPos;
		SetDO DO5_Program_Feed, 0;
		MoveL Offs(pZero, -3.75, 16.25, 2.4), v100, z0, tNozzle, \Wobj := wobjPlatform;
		WaitRob \InPos;
		SetDO DO5_Program_Feed, 1;
		MoveL Offs(pZero, -3.75, -16.25, 2.4), v30, z0, tNozzle, \Wobj := wobjPlatform;
		WaitRob \InPos;
		SetDO DO5_Program_Feed, 0;
		MoveL Offs(pZero, -5.25, -16.25, 2.4), v100, z0, tNozzle, \Wobj := wobjPlatform;
		WaitRob \InPos;
		SetDO DO5_Program_Feed, 1;
		MoveL Offs(pZero, -5.25, 16.25, 2.4), v30, z0, tNozzle, \Wobj := wobjPlatform;
		WaitRob \InPos;
		SetDO DO5_Program_Feed, 0;
		MoveL Offs(pZero, -6.75, 16.25, 2.4), v100, z0, tNozzle, \Wobj := wobjPlatform;
		WaitRob \InPos;
		SetDO DO5_Program_Feed, 1;
		MoveL Offs(pZero, -6.75, -16.25, 2.4), v30, z0, tNozzle, \Wobj := wobjPlatform;
		WaitRob \InPos;
		SetDO DO5_Program_Feed, 0;
		MoveL Offs(pZero, -8.25, -16.25, 2.4), v100, z0, tNozzle, \Wobj := wobjPlatform;
		WaitRob \InPos;
		SetDO DO5_Program_Feed, 1;
		MoveL Offs(pZero, -8.25, 16.25, 2.4), v30, z0, tNozzle, \Wobj := wobjPlatform;
		WaitRob \InPos;
		SetDO DO5_Program_Feed, 0;
		MoveL Offs(pZero, -9.75, 16.25, 2.4), v100, z0, tNozzle, \Wobj := wobjPlatform;
		WaitRob \InPos;
		SetDO DO5_Program_Feed, 1;
		MoveL Offs(pZero, -9.75, -16.25, 2.4), v30, z0, tNozzle, \Wobj := wobjPlatform;
		WaitRob \InPos;
		SetDO DO5_Program_Feed, 0;
		MoveL Offs(pZero, -11.25, -16.25, 2.4), v100, z0, tNozzle, \Wobj := wobjPlatform;
		WaitRob \InPos;
		SetDO DO5_Program_Feed, 1;
		MoveL Offs(pZero, -11.25, 16.25, 2.4), v30, z0, tNozzle, \Wobj := wobjPlatform;
		WaitRob \InPos;
		SetDO DO5_Program_Feed, 0;
		MoveL Offs(pZero, -12.75, 16.25, 2.4), v100, z0, tNozzle, \Wobj := wobjPlatform;
		WaitRob \InPos;
		SetDO DO5_Program_Feed, 1;
		MoveL Offs(pZero, -12.75, -16.25, 2.4), v30, z0, tNozzle, \Wobj := wobjPlatform;
		WaitRob \InPos;
		SetDO DO5_Program_Feed, 0;
		MoveL Offs(pZero, -14.25, -16.25, 2.4), v100, z0, tNozzle, \Wobj := wobjPlatform;
		WaitRob \InPos;
		SetDO DO5_Program_Feed, 1;
		MoveL Offs(pZero, -14.25, 16.25, 2.4), v30, z0, tNozzle, \Wobj := wobjPlatform;
		WaitRob \InPos;
		SetDO DO5_Program_Feed, 0;
		MoveL Offs(pZero, -15.75, 16.25, 2.4), v100, z0, tNozzle, \Wobj := wobjPlatform;
		WaitRob \InPos;
		SetDO DO5_Program_Feed, 1;
		MoveL Offs(pZero, -15.75, -16.25, 2.4), v30, z0, tNozzle, \Wobj := wobjPlatform;
		WaitRob \InPos;
		SetDO DO6_Between_Layer_Retract, 1;
		SetDO DO5_Program_Feed, 0;
		MoveL Offs(pZero, -15.75, -16.25, 7.4), v100, z0, tNozzle, \Wobj := wobjPlatform;

		! Layer: 9
		! LayerParams(infillAngleDegrees=0.0, pathWidth=1.5, layerHeight=0.3, infillShiftX=0.0, infillShiftY=0.0, numShells=2, infillOverlap=0.0002)
		! T19
		! M6
		TPWRITE "Layer 9 of -1";
		MoveL Offs(pZero, -17.25, -17.25, 7.7), v100, z0, tNozzle, \Wobj := wobjPlatform;
		MoveL Offs(pZero, -17.25, -17.25, 2.7), v30, z0, tNozzle, \Wobj := wobjPlatform;
		WaitRob \InPos;
		SetDO DO6_Between_Layer_Retract, 0;
		WaitRob \InPos;
		SetDO DO5_Program_Feed, 1;
		MoveL Offs(pZero, 17.25, -17.25, 2.7), v30, z0, tNozzle, \Wobj := wobjPlatform;
		MoveL Offs(pZero, 17.25, 17.25, 2.7), v30, z0, tNozzle, \Wobj := wobjPlatform;
		MoveL Offs(pZero, -17.25, 17.25, 2.7), v30, z0, tNozzle, \Wobj := wobjPlatform;
		MoveL Offs(pZero, -17.25, -16.15, 2.7), v30, z0, tNozzle, \Wobj := wobjPlatform;
		MoveL Offs(pZero, -17.25, -16.15, 2.7), v30, z0, tNozzle, \Wobj := wobjPlatform;
		MoveL Offs(pZero, -17.25, -17.25, 2.7), v30, z0, tNozzle, \Wobj := wobjPlatform;
		WaitRob \InPos;
		SetDO DO5_Program_Feed, 0;
		MoveL Offs(pZero, -16.75, -16.75, 2.7), v100, z0, tNozzle, \Wobj := wobjPlatform;
		WaitRob \InPos;
		SetDO DO5_Program_Feed, 1;
		MoveL Offs(pZero, 16.75, -16.75, 2.7), v30, z0, tNozzle, \Wobj := wobjPlatform;
		MoveL Offs(pZero, 16.75, 16.75, 2.7), v30, z0, tNozzle, \Wobj := wobjPlatform;
		MoveL Offs(pZero, -16.75, 16.75, 2.7), v30, z0, tNozzle, \Wobj := wobjPlatform;
		MoveL Offs(pZero, -16.75, -16.15, 2.7), v30, z0, tNozzle, \Wobj := wobjPlatform;
		MoveL Offs(pZero, -16.75, -16.15, 2.7), v30, z0, tNozzle, \Wobj := wobjPlatform;
		MoveL Offs(pZero, -16.75, -16.75, 2.7), v30, z0, tNozzle, \Wobj := wobjPlatform;
		WaitRob \InPos;
		SetDO DO5_Program_Feed, 0;
		MoveL Offs(pZero, -16.25, -15.75, 2.7), v100, z0, tNozzle, \Wobj := wobjPlatform;
		WaitRob \InPos;
		SetDO DO5_Program_Feed, 1;
		MoveL Offs(pZero, 16.25, -15.75, 2.7), v30, z0, tNozzle, \Wobj := wobjPlatform;
		WaitRob \InPos;
		SetDO DO5_Program_Feed, 0;
		MoveL Offs(pZero, 16.25, -14.25, 2.7), v100, z0, tNozzle, \Wobj := wobjPlatform;
		WaitRob \InPos;
		SetDO DO5_Program_Feed, 1;
		MoveL Offs(pZero, -16.25, -14.25, 2.7), v30, z0, tNozzle, \Wobj := wobjPlatform;
		WaitRob \InPos;
		SetDO DO5_Program_Feed, 0;
		MoveL Offs(pZero, -16.25, -12.75, 2.7), v100, z0, tNozzle, \Wobj := wobjPlatform;
		WaitRob \InPos;
		SetDO DO5_Program_Feed, 1;
		MoveL Offs(pZero, 16.25, -12.75, 2.7), v30, z0, tNozzle, \Wobj := wobjPlatform;
		WaitRob \InPos;
		SetDO DO5_Program_Feed, 0;
		MoveL Offs(pZero, 16.25, -11.25, 2.7), v100, z0, tNozzle, \Wobj := wobjPlatform;
		WaitRob \InPos;
		SetDO DO5_Program_Feed, 1;
		MoveL Offs(pZero, -16.25, -11.25, 2.7), v30, z0, tNozzle, \Wobj := wobjPlatform;
		WaitRob \InPos;
		SetDO DO5_Program_Feed, 0;
		MoveL Offs(pZero, -16.25, -9.75, 2.7), v100, z0, tNozzle, \Wobj := wobjPlatform;
		WaitRob \InPos;
		SetDO DO5_Program_Feed, 1;
		MoveL Offs(pZero, 16.25, -9.75, 2.7), v30, z0, tNozzle, \Wobj := wobjPlatform;
		WaitRob \InPos;
		SetDO DO5_Program_Feed, 0;
		MoveL Offs(pZero, 16.25, -8.25, 2.7), v100, z0, tNozzle, \Wobj := wobjPlatform;
		WaitRob \InPos;
		SetDO DO5_Program_Feed, 1;
		MoveL Offs(pZero, -16.25, -8.25, 2.7), v30, z0, tNozzle, \Wobj := wobjPlatform;
		WaitRob \InPos;
		SetDO DO5_Program_Feed, 0;
		MoveL Offs(pZero, -16.25, -6.75, 2.7), v100, z0, tNozzle, \Wobj := wobjPlatform;
		WaitRob \InPos;
		SetDO DO5_Program_Feed, 1;
		MoveL Offs(pZero, 16.25, -6.75, 2.7), v30, z0, tNozzle, \Wobj := wobjPlatform;
		WaitRob \InPos;
		SetDO DO5_Program_Feed, 0;
		MoveL Offs(pZero, 16.25, -5.25, 2.7), v100, z0, tNozzle, \Wobj := wobjPlatform;
		WaitRob \InPos;
		SetDO DO5_Program_Feed, 1;
		MoveL Offs(pZero, -16.25, -5.25, 2.7), v30, z0, tNozzle, \Wobj := wobjPlatform;
		WaitRob \InPos;
		SetDO DO5_Program_Feed, 0;
		MoveL Offs(pZero, -16.25, -3.75, 2.7), v100, z0, tNozzle, \Wobj := wobjPlatform;
		WaitRob \InPos;
		SetDO DO5_Program_Feed, 1;
		MoveL Offs(pZero, 16.25, -3.75, 2.7), v30, z0, tNozzle, \Wobj := wobjPlatform;
		WaitRob \InPos;
		SetDO DO5_Program_Feed, 0;
		MoveL Offs(pZero, 16.25, -2.25, 2.7), v100, z0, tNozzle, \Wobj := wobjPlatform;
		WaitRob \InPos;
		SetDO DO5_Program_Feed, 1;
		MoveL Offs(pZero, -16.25, -2.25, 2.7), v30, z0, tNozzle, \Wobj := wobjPlatform;
		WaitRob \InPos;
		SetDO DO5_Program_Feed, 0;
		MoveL Offs(pZero, -16.25, -0.75, 2.7), v100, z0, tNozzle, \Wobj := wobjPlatform;
		WaitRob \InPos;
		SetDO DO5_Program_Feed, 1;
		MoveL Offs(pZero, 16.25, -0.75, 2.7), v30, z0, tNozzle, \Wobj := wobjPlatform;
		WaitRob \InPos;
		SetDO DO5_Program_Feed, 0;
		MoveL Offs(pZero, 16.25, 0.75, 2.7), v100, z0, tNozzle, \Wobj := wobjPlatform;
		WaitRob \InPos;
		SetDO DO5_Program_Feed, 1;
		MoveL Offs(pZero, -16.25, 0.75, 2.7), v30, z0, tNozzle, \Wobj := wobjPlatform;
		WaitRob \InPos;
		SetDO DO5_Program_Feed, 0;
		MoveL Offs(pZero, -16.25, 2.25, 2.7), v100, z0, tNozzle, \Wobj := wobjPlatform;
		WaitRob \InPos;
		SetDO DO5_Program_Feed, 1;
		MoveL Offs(pZero, 16.25, 2.25, 2.7), v30, z0, tNozzle, \Wobj := wobjPlatform;
		WaitRob \InPos;
		SetDO DO5_Program_Feed, 0;
		MoveL Offs(pZero, 16.25, 3.75, 2.7), v100, z0, tNozzle, \Wobj := wobjPlatform;
		WaitRob \InPos;
		SetDO DO5_Program_Feed, 1;
		MoveL Offs(pZero, -16.25, 3.75, 2.7), v30, z0, tNozzle, \Wobj := wobjPlatform;
		WaitRob \InPos;
		SetDO DO5_Program_Feed, 0;
		MoveL Offs(pZero, -16.25, 5.25, 2.7), v100, z0, tNozzle, \Wobj := wobjPlatform;
		WaitRob \InPos;
		SetDO DO5_Program_Feed, 1;
		MoveL Offs(pZero, 16.25, 5.25, 2.7), v30, z0, tNozzle, \Wobj := wobjPlatform;
		WaitRob \InPos;
		SetDO DO5_Program_Feed, 0;
		MoveL Offs(pZero, 16.25, 6.75, 2.7), v100, z0, tNozzle, \Wobj := wobjPlatform;
		WaitRob \InPos;
		SetDO DO5_Program_Feed, 1;
		MoveL Offs(pZero, -16.25, 6.75, 2.7), v30, z0, tNozzle, \Wobj := wobjPlatform;
		WaitRob \InPos;
		SetDO DO5_Program_Feed, 0;
		MoveL Offs(pZero, -16.25, 8.25, 2.7), v100, z0, tNozzle, \Wobj := wobjPlatform;
		WaitRob \InPos;
		SetDO DO5_Program_Feed, 1;
		MoveL Offs(pZero, 16.25, 8.25, 2.7), v30, z0, tNozzle, \Wobj := wobjPlatform;
		WaitRob \InPos;
		SetDO DO5_Program_Feed, 0;
		MoveL Offs(pZero, 16.25, 9.75, 2.7), v100, z0, tNozzle, \Wobj := wobjPlatform;
		WaitRob \InPos;
		SetDO DO5_Program_Feed, 1;
		MoveL Offs(pZero, -16.25, 9.75, 2.7), v30, z0, tNozzle, \Wobj := wobjPlatform;
		WaitRob \InPos;
		SetDO DO5_Program_Feed, 0;
		MoveL Offs(pZero, -16.25, 11.25, 2.7), v100, z0, tNozzle, \Wobj := wobjPlatform;
		WaitRob \InPos;
		SetDO DO5_Program_Feed, 1;
		MoveL Offs(pZero, 16.25, 11.25, 2.7), v30, z0, tNozzle, \Wobj := wobjPlatform;
		WaitRob \InPos;
		SetDO DO5_Program_Feed, 0;
		MoveL Offs(pZero, 16.25, 12.75, 2.7), v100, z0, tNozzle, \Wobj := wobjPlatform;
		WaitRob \InPos;
		SetDO DO5_Program_Feed, 1;
		MoveL Offs(pZero, -16.25, 12.75, 2.7), v30, z0, tNozzle, \Wobj := wobjPlatform;
		WaitRob \InPos;
		SetDO DO5_Program_Feed, 0;
		MoveL Offs(pZero, -16.25, 14.25, 2.7), v100, z0, tNozzle, \Wobj := wobjPlatform;
		WaitRob \InPos;
		SetDO DO5_Program_Feed, 1;
		MoveL Offs(pZero, 16.25, 14.25, 2.7), v30, z0, tNozzle, \Wobj := wobjPlatform;
		WaitRob \InPos;
		SetDO DO5_Program_Feed, 0;
		MoveL Offs(pZero, 16.25, 15.75, 2.7), v100, z0, tNozzle, \Wobj := wobjPlatform;
		WaitRob \InPos;
		SetDO DO5_Program_Feed, 1;
		MoveL Offs(pZero, -16.25, 15.75, 2.7), v30, z0, tNozzle, \Wobj := wobjPlatform;
		WaitRob \InPos;
		SetDO DO6_Between_Layer_Retract, 1;
		SetDO DO5_Program_Feed, 0;
		MoveL Offs(pZero, -16.25, 15.75, 7.7), v100, z0, tNozzle, \Wobj := wobjPlatform;

		! Layer: 10
		! LayerParams(infillAngleDegrees=90.0, pathWidth=1.5, layerHeight=0.3, infillShiftX=0.0, infillShiftY=0.0, numShells=2, infillOverlap=0.0002)
		! T110
		! M6
		TPWRITE "Layer 10 of -1";
		MoveL Offs(pZero, -17.25, -16.0, 8.0), v100, z0, tNozzle, \Wobj := wobjPlatform;
		MoveL Offs(pZero, -17.25, -16.0, 3.0), v30, z0, tNozzle, \Wobj := wobjPlatform;
		WaitRob \InPos;
		SetDO DO6_Between_Layer_Retract, 0;
		WaitRob \InPos;
		SetDO DO5_Program_Feed, 1;
		MoveL Offs(pZero, -17.25, -17.25, 3.0), v30, z0, tNozzle, \Wobj := wobjPlatform;
		MoveL Offs(pZero, 17.25, -17.25, 3.0), v30, z0, tNozzle, \Wobj := wobjPlatform;
		MoveL Offs(pZero, 17.25, 17.25, 3.0), v30, z0, tNozzle, \Wobj := wobjPlatform;
		MoveL Offs(pZero, -17.25, 17.25, 3.0), v30, z0, tNozzle, \Wobj := wobjPlatform;
		MoveL Offs(pZero, -17.25, -16.0, 3.0), v30, z0, tNozzle, \Wobj := wobjPlatform;
		MoveL Offs(pZero, -17.25, -16.0, 3.0), v30, z0, tNozzle, \Wobj := wobjPlatform;
		WaitRob \InPos;
		SetDO DO5_Program_Feed, 0;
		MoveL Offs(pZero, -16.75, -16.0, 3.0), v100, z0, tNozzle, \Wobj := wobjPlatform;
		WaitRob \InPos;
		SetDO DO5_Program_Feed, 1;
		MoveL Offs(pZero, -16.75, -16.75, 3.0), v30, z0, tNozzle, \Wobj := wobjPlatform;
		MoveL Offs(pZero, 16.75, -16.75, 3.0), v30, z0, tNozzle, \Wobj := wobjPlatform;
		MoveL Offs(pZero, 16.75, 16.75, 3.0), v30, z0, tNozzle, \Wobj := wobjPlatform;
		MoveL Offs(pZero, -16.75, 16.75, 3.0), v30, z0, tNozzle, \Wobj := wobjPlatform;
		MoveL Offs(pZero, -16.75, -16.0, 3.0), v30, z0, tNozzle, \Wobj := wobjPlatform;
		MoveL Offs(pZero, -16.75, -16.0, 3.0), v30, z0, tNozzle, \Wobj := wobjPlatform;
		WaitRob \InPos;
		SetDO DO5_Program_Feed, 0;
		MoveL Offs(pZero, -15.75, -16.25, 3.0), v100, z0, tNozzle, \Wobj := wobjPlatform;
		WaitRob \InPos;
		SetDO DO5_Program_Feed, 1;
		MoveL Offs(pZero, -15.75, 16.25, 3.0), v30, z0, tNozzle, \Wobj := wobjPlatform;
		WaitRob \InPos;
		SetDO DO5_Program_Feed, 0;
		MoveL Offs(pZero, -14.25, 16.25, 3.0), v100, z0, tNozzle, \Wobj := wobjPlatform;
		WaitRob \InPos;
		SetDO DO5_Program_Feed, 1;
		MoveL Offs(pZero, -14.25, -16.25, 3.0), v30, z0, tNozzle, \Wobj := wobjPlatform;
		WaitRob \InPos;
		SetDO DO5_Program_Feed, 0;
		MoveL Offs(pZero, -12.75, -16.25, 3.0), v100, z0, tNozzle, \Wobj := wobjPlatform;
		WaitRob \InPos;
		SetDO DO5_Program_Feed, 1;
		MoveL Offs(pZero, -12.75, 16.25, 3.0), v30, z0, tNozzle, \Wobj := wobjPlatform;
		WaitRob \InPos;
		SetDO DO5_Program_Feed, 0;
		MoveL Offs(pZero, -11.25, 16.25, 3.0), v100, z0, tNozzle, \Wobj := wobjPlatform;
		WaitRob \InPos;
		SetDO DO5_Program_Feed, 1;
		MoveL Offs(pZero, -11.25, -16.25, 3.0), v30, z0, tNozzle, \Wobj := wobjPlatform;
		WaitRob \InPos;
		SetDO DO5_Program_Feed, 0;
		MoveL Offs(pZero, -9.75, -16.25, 3.0), v100, z0, tNozzle, \Wobj := wobjPlatform;
		WaitRob \InPos;
		SetDO DO5_Program_Feed, 1;
		MoveL Offs(pZero, -9.75, 16.25, 3.0), v30, z0, tNozzle, \Wobj := wobjPlatform;
		WaitRob \InPos;
		SetDO DO5_Program_Feed, 0;
		MoveL Offs(pZero, -8.25, 16.25, 3.0), v100, z0, tNozzle, \Wobj := wobjPlatform;
		WaitRob \InPos;
		SetDO DO5_Program_Feed, 1;
		MoveL Offs(pZero, -8.25, -16.25, 3.0), v30, z0, tNozzle, \Wobj := wobjPlatform;
		WaitRob \InPos;
		SetDO DO5_Program_Feed, 0;
		MoveL Offs(pZero, -6.75, -16.25, 3.0), v100, z0, tNozzle, \Wobj := wobjPlatform;
		WaitRob \InPos;
		SetDO DO5_Program_Feed, 1;
		MoveL Offs(pZero, -6.75, 16.25, 3.0), v30, z0, tNozzle, \Wobj := wobjPlatform;
		WaitRob \InPos;
		SetDO DO5_Program_Feed, 0;
		MoveL Offs(pZero, -5.25, 16.25, 3.0), v100, z0, tNozzle, \Wobj := wobjPlatform;
		WaitRob \InPos;
		SetDO DO5_Program_Feed, 1;
		MoveL Offs(pZero, -5.25, -16.25, 3.0), v30, z0, tNozzle, \Wobj := wobjPlatform;
		WaitRob \InPos;
		SetDO DO5_Program_Feed, 0;
		MoveL Offs(pZero, -3.75, -16.25, 3.0), v100, z0, tNozzle, \Wobj := wobjPlatform;
		WaitRob \InPos;
		SetDO DO5_Program_Feed, 1;
		MoveL Offs(pZero, -3.75, 16.25, 3.0), v30, z0, tNozzle, \Wobj := wobjPlatform;
		WaitRob \InPos;
		SetDO DO5_Program_Feed, 0;
		MoveL Offs(pZero, -2.25, 16.25, 3.0), v100, z0, tNozzle, \Wobj := wobjPlatform;
		WaitRob \InPos;
		SetDO DO5_Program_Feed, 1;
		MoveL Offs(pZero, -2.25, -16.25, 3.0), v30, z0, tNozzle, \Wobj := wobjPlatform;
		WaitRob \InPos;
		SetDO DO5_Program_Feed, 0;
		MoveL Offs(pZero, -0.75, -16.25, 3.0), v100, z0, tNozzle, \Wobj := wobjPlatform;
		WaitRob \InPos;
		SetDO DO5_Program_Feed, 1;
		MoveL Offs(pZero, -0.75, 16.25, 3.0), v30, z0, tNozzle, \Wobj := wobjPlatform;
		WaitRob \InPos;
		SetDO DO5_Program_Feed, 0;
		MoveL Offs(pZero, 0.75, 16.25, 3.0), v100, z0, tNozzle, \Wobj := wobjPlatform;
		WaitRob \InPos;
		SetDO DO5_Program_Feed, 1;
		MoveL Offs(pZero, 0.75, -16.25, 3.0), v30, z0, tNozzle, \Wobj := wobjPlatform;
		WaitRob \InPos;
		SetDO DO5_Program_Feed, 0;
		MoveL Offs(pZero, 2.25, -16.25, 3.0), v100, z0, tNozzle, \Wobj := wobjPlatform;
		WaitRob \InPos;
		SetDO DO5_Program_Feed, 1;
		MoveL Offs(pZero, 2.25, 16.25, 3.0), v30, z0, tNozzle, \Wobj := wobjPlatform;
		WaitRob \InPos;
		SetDO DO5_Program_Feed, 0;
		MoveL Offs(pZero, 3.75, 16.25, 3.0), v100, z0, tNozzle, \Wobj := wobjPlatform;
		WaitRob \InPos;
		SetDO DO5_Program_Feed, 1;
		MoveL Offs(pZero, 3.75, -16.25, 3.0), v30, z0, tNozzle, \Wobj := wobjPlatform;
		WaitRob \InPos;
		SetDO DO5_Program_Feed, 0;
		MoveL Offs(pZero, 5.25, -16.25, 3.0), v100, z0, tNozzle, \Wobj := wobjPlatform;
		WaitRob \InPos;
		SetDO DO5_Program_Feed, 1;
		MoveL Offs(pZero, 5.25, 16.25, 3.0), v30, z0, tNozzle, \Wobj := wobjPlatform;
		WaitRob \InPos;
		SetDO DO5_Program_Feed, 0;
		MoveL Offs(pZero, 6.75, 16.25, 3.0), v100, z0, tNozzle, \Wobj := wobjPlatform;
		WaitRob \InPos;
		SetDO DO5_Program_Feed, 1;
		MoveL Offs(pZero, 6.75, -16.25, 3.0), v30, z0, tNozzle, \Wobj := wobjPlatform;
		WaitRob \InPos;
		SetDO DO5_Program_Feed, 0;
		MoveL Offs(pZero, 8.25, -16.25, 3.0), v100, z0, tNozzle, \Wobj := wobjPlatform;
		WaitRob \InPos;
		SetDO DO5_Program_Feed, 1;
		MoveL Offs(pZero, 8.25, 16.25, 3.0), v30, z0, tNozzle, \Wobj := wobjPlatform;
		WaitRob \InPos;
		SetDO DO5_Program_Feed, 0;
		MoveL Offs(pZero, 9.75, 16.25, 3.0), v100, z0, tNozzle, \Wobj := wobjPlatform;
		WaitRob \InPos;
		SetDO DO5_Program_Feed, 1;
		MoveL Offs(pZero, 9.75, -16.25, 3.0), v30, z0, tNozzle, \Wobj := wobjPlatform;
		WaitRob \InPos;
		SetDO DO5_Program_Feed, 0;
		MoveL Offs(pZero, 11.25, -16.25, 3.0), v100, z0, tNozzle, \Wobj := wobjPlatform;
		WaitRob \InPos;
		SetDO DO5_Program_Feed, 1;
		MoveL Offs(pZero, 11.25, 16.25, 3.0), v30, z0, tNozzle, \Wobj := wobjPlatform;
		WaitRob \InPos;
		SetDO DO5_Program_Feed, 0;
		MoveL Offs(pZero, 12.75, 16.25, 3.0), v100, z0, tNozzle, \Wobj := wobjPlatform;
		WaitRob \InPos;
		SetDO DO5_Program_Feed, 1;
		MoveL Offs(pZero, 12.75, -16.25, 3.0), v30, z0, tNozzle, \Wobj := wobjPlatform;
		WaitRob \InPos;
		SetDO DO5_Program_Feed, 0;
		MoveL Offs(pZero, 14.25, -16.25, 3.0), v100, z0, tNozzle, \Wobj := wobjPlatform;
		WaitRob \InPos;
		SetDO DO5_Program_Feed, 1;
		MoveL Offs(pZero, 14.25, 16.25, 3.0), v30, z0, tNozzle, \Wobj := wobjPlatform;
		WaitRob \InPos;
		SetDO DO5_Program_Feed, 0;
		MoveL Offs(pZero, 15.75, 16.25, 3.0), v100, z0, tNozzle, \Wobj := wobjPlatform;
		WaitRob \InPos;
		SetDO DO5_Program_Feed, 1;
		MoveL Offs(pZero, 15.75, -16.25, 3.0), v30, z0, tNozzle, \Wobj := wobjPlatform;
		WaitRob \InPos;
		SetDO DO6_Between_Layer_Retract, 1;
		SetDO DO5_Program_Feed, 0;
		MoveL Offs(pZero, 15.75, -16.25, 8.0), v100, z0, tNozzle, \Wobj := wobjPlatform;

		! Layer: 11
		! LayerParams(infillAngleDegrees=0.0, pathWidth=1.5, layerHeight=0.3, infillShiftX=0.0, infillShiftY=0.0, numShells=2, infillOverlap=0.0002)
		! T111
		! M6
		TPWRITE "Layer 11 of -1";
		MoveL Offs(pZero, -17.25, -15.85, 8.3), v100, z0, tNozzle, \Wobj := wobjPlatform;
		MoveL Offs(pZero, -17.25, -15.85, 3.3), v30, z0, tNozzle, \Wobj := wobjPlatform;
		WaitRob \InPos;
		SetDO DO6_Between_Layer_Retract, 0;
		WaitRob \InPos;
		SetDO DO5_Program_Feed, 1;
		MoveL Offs(pZero, -17.25, -17.25, 3.3), v30, z0, tNozzle, \Wobj := wobjPlatform;
		MoveL Offs(pZero, 17.25, -17.25, 3.3), v30, z0, tNozzle, \Wobj := wobjPlatform;
		MoveL Offs(pZero, 17.25, 17.25, 3.3), v30, z0, tNozzle, \Wobj := wobjPlatform;
		MoveL Offs(pZero, -17.25, 17.25, 3.3), v30, z0, tNozzle, \Wobj := wobjPlatform;
		MoveL Offs(pZero, -17.25, -15.85, 3.3), v30, z0, tNozzle, \Wobj := wobjPlatform;
		MoveL Offs(pZero, -17.25, -15.85, 3.3), v30, z0, tNozzle, \Wobj := wobjPlatform;
		WaitRob \InPos;
		SetDO DO5_Program_Feed, 0;
		MoveL Offs(pZero, -16.75, -15.85, 3.3), v100, z0, tNozzle, \Wobj := wobjPlatform;
		WaitRob \InPos;
		SetDO DO5_Program_Feed, 1;
		MoveL Offs(pZero, -16.75, -16.75, 3.3), v30, z0, tNozzle, \Wobj := wobjPlatform;
		MoveL Offs(pZero, 16.75, -16.75, 3.3), v30, z0, tNozzle, \Wobj := wobjPlatform;
		MoveL Offs(pZero, 16.75, 16.75, 3.3), v30, z0, tNozzle, \Wobj := wobjPlatform;
		MoveL Offs(pZero, -16.75, 16.75, 3.3), v30, z0, tNozzle, \Wobj := wobjPlatform;
		MoveL Offs(pZero, -16.75, -15.85, 3.3), v30, z0, tNozzle, \Wobj := wobjPlatform;
		MoveL Offs(pZero, -16.75, -15.85, 3.3), v30, z0, tNozzle, \Wobj := wobjPlatform;
		WaitRob \InPos;
		SetDO DO5_Program_Feed, 0;
		MoveL Offs(pZero, -16.25, -15.75, 3.3), v100, z0, tNozzle, \Wobj := wobjPlatform;
		WaitRob \InPos;
		SetDO DO5_Program_Feed, 1;
		MoveL Offs(pZero, 16.25, -15.75, 3.3), v30, z0, tNozzle, \Wobj := wobjPlatform;
		WaitRob \InPos;
		SetDO DO5_Program_Feed, 0;
		MoveL Offs(pZero, 16.25, -14.25, 3.3), v100, z0, tNozzle, \Wobj := wobjPlatform;
		WaitRob \InPos;
		SetDO DO5_Program_Feed, 1;
		MoveL Offs(pZero, -16.25, -14.25, 3.3), v30, z0, tNozzle, \Wobj := wobjPlatform;
		WaitRob \InPos;
		SetDO DO5_Program_Feed, 0;
		MoveL Offs(pZero, -16.25, -12.75, 3.3), v100, z0, tNozzle, \Wobj := wobjPlatform;
		WaitRob \InPos;
		SetDO DO5_Program_Feed, 1;
		MoveL Offs(pZero, 16.25, -12.75, 3.3), v30, z0, tNozzle, \Wobj := wobjPlatform;
		WaitRob \InPos;
		SetDO DO5_Program_Feed, 0;
		MoveL Offs(pZero, 16.25, -11.25, 3.3), v100, z0, tNozzle, \Wobj := wobjPlatform;
		WaitRob \InPos;
		SetDO DO5_Program_Feed, 1;
		MoveL Offs(pZero, -16.25, -11.25, 3.3), v30, z0, tNozzle, \Wobj := wobjPlatform;
		WaitRob \InPos;
		SetDO DO5_Program_Feed, 0;
		MoveL Offs(pZero, -16.25, -9.75, 3.3), v100, z0, tNozzle, \Wobj := wobjPlatform;
		WaitRob \InPos;
		SetDO DO5_Program_Feed, 1;
		MoveL Offs(pZero, 16.25, -9.75, 3.3), v30, z0, tNozzle, \Wobj := wobjPlatform;
		WaitRob \InPos;
		SetDO DO5_Program_Feed, 0;
		MoveL Offs(pZero, 16.25, -8.25, 3.3), v100, z0, tNozzle, \Wobj := wobjPlatform;
		WaitRob \InPos;
		SetDO DO5_Program_Feed, 1;
		MoveL Offs(pZero, -16.25, -8.25, 3.3), v30, z0, tNozzle, \Wobj := wobjPlatform;
		WaitRob \InPos;
		SetDO DO5_Program_Feed, 0;
		MoveL Offs(pZero, -16.25, -6.75, 3.3), v100, z0, tNozzle, \Wobj := wobjPlatform;
		WaitRob \InPos;
		SetDO DO5_Program_Feed, 1;
		MoveL Offs(pZero, 16.25, -6.75, 3.3), v30, z0, tNozzle, \Wobj := wobjPlatform;
		WaitRob \InPos;
		SetDO DO5_Program_Feed, 0;
		MoveL Offs(pZero, 16.25, -5.25, 3.3), v100, z0, tNozzle, \Wobj := wobjPlatform;
		WaitRob \InPos;
		SetDO DO5_Program_Feed, 1;
		MoveL Offs(pZero, -16.25, -5.25, 3.3), v30, z0, tNozzle, \Wobj := wobjPlatform;
		WaitRob \InPos;
		SetDO DO5_Program_Feed, 0;
		MoveL Offs(pZero, -16.25, -3.75, 3.3), v100, z0, tNozzle, \Wobj := wobjPlatform;
		WaitRob \InPos;
		SetDO DO5_Program_Feed, 1;
		MoveL Offs(pZero, 16.25, -3.75, 3.3), v30, z0, tNozzle, \Wobj := wobjPlatform;
		WaitRob \InPos;
		SetDO DO5_Program_Feed, 0;
		MoveL Offs(pZero, 16.25, -2.25, 3.3), v100, z0, tNozzle, \Wobj := wobjPlatform;
		WaitRob \InPos;
		SetDO DO5_Program_Feed, 1;
		MoveL Offs(pZero, -16.25, -2.25, 3.3), v30, z0, tNozzle, \Wobj := wobjPlatform;
		WaitRob \InPos;
		SetDO DO5_Program_Feed, 0;
		MoveL Offs(pZero, -16.25, -0.75, 3.3), v100, z0, tNozzle, \Wobj := wobjPlatform;
		WaitRob \InPos;
		SetDO DO5_Program_Feed, 1;
		MoveL Offs(pZero, 16.25, -0.75, 3.3), v30, z0, tNozzle, \Wobj := wobjPlatform;
		WaitRob \InPos;
		SetDO DO5_Program_Feed, 0;
		MoveL Offs(pZero, 16.25, 0.75, 3.3), v100, z0, tNozzle, \Wobj := wobjPlatform;
		WaitRob \InPos;
		SetDO DO5_Program_Feed, 1;
		MoveL Offs(pZero, -16.25, 0.75, 3.3), v30, z0, tNozzle, \Wobj := wobjPlatform;
		WaitRob \InPos;
		SetDO DO5_Program_Feed, 0;
		MoveL Offs(pZero, -16.25, 2.25, 3.3), v100, z0, tNozzle, \Wobj := wobjPlatform;
		WaitRob \InPos;
		SetDO DO5_Program_Feed, 1;
		MoveL Offs(pZero, 16.25, 2.25, 3.3), v30, z0, tNozzle, \Wobj := wobjPlatform;
		WaitRob \InPos;
		SetDO DO5_Program_Feed, 0;
		MoveL Offs(pZero, 16.25, 3.75, 3.3), v100, z0, tNozzle, \Wobj := wobjPlatform;
		WaitRob \InPos;
		SetDO DO5_Program_Feed, 1;
		MoveL Offs(pZero, -16.25, 3.75, 3.3), v30, z0, tNozzle, \Wobj := wobjPlatform;
		WaitRob \InPos;
		SetDO DO5_Program_Feed, 0;
		MoveL Offs(pZero, -16.25, 5.25, 3.3), v100, z0, tNozzle, \Wobj := wobjPlatform;
		WaitRob \InPos;
		SetDO DO5_Program_Feed, 1;
		MoveL Offs(pZero, 16.25, 5.25, 3.3), v30, z0, tNozzle, \Wobj := wobjPlatform;
		WaitRob \InPos;
		SetDO DO5_Program_Feed, 0;
		MoveL Offs(pZero, 16.25, 6.75, 3.3), v100, z0, tNozzle, \Wobj := wobjPlatform;
		WaitRob \InPos;
		SetDO DO5_Program_Feed, 1;
		MoveL Offs(pZero, -16.25, 6.75, 3.3), v30, z0, tNozzle, \Wobj := wobjPlatform;
		WaitRob \InPos;
		SetDO DO5_Program_Feed, 0;
		MoveL Offs(pZero, -16.25, 8.25, 3.3), v100, z0, tNozzle, \Wobj := wobjPlatform;
		WaitRob \InPos;
		SetDO DO5_Program_Feed, 1;
		MoveL Offs(pZero, 16.25, 8.25, 3.3), v30, z0, tNozzle, \Wobj := wobjPlatform;
		WaitRob \InPos;
		SetDO DO5_Program_Feed, 0;
		MoveL Offs(pZero, 16.25, 9.75, 3.3), v100, z0, tNozzle, \Wobj := wobjPlatform;
		WaitRob \InPos;
		SetDO DO5_Program_Feed, 1;
		MoveL Offs(pZero, -16.25, 9.75, 3.3), v30, z0, tNozzle, \Wobj := wobjPlatform;
		WaitRob \InPos;
		SetDO DO5_Program_Feed, 0;
		MoveL Offs(pZero, -16.25, 11.25, 3.3), v100, z0, tNozzle, \Wobj := wobjPlatform;
		WaitRob \InPos;
		SetDO DO5_Program_Feed, 1;
		MoveL Offs(pZero, 16.25, 11.25, 3.3), v30, z0, tNozzle, \Wobj := wobjPlatform;
		WaitRob \InPos;
		SetDO DO5_Program_Feed, 0;
		MoveL Offs(pZero, 16.25, 12.75, 3.3), v100, z0, tNozzle, \Wobj := wobjPlatform;
		WaitRob \InPos;
		SetDO DO5_Program_Feed, 1;
		MoveL Offs(pZero, -16.25, 12.75, 3.3), v30, z0, tNozzle, \Wobj := wobjPlatform;
		WaitRob \InPos;
		SetDO DO5_Program_Feed, 0;
		MoveL Offs(pZero, -16.25, 14.25, 3.3), v100, z0, tNozzle, \Wobj := wobjPlatform;
		WaitRob \InPos;
		SetDO DO5_Program_Feed, 1;
		MoveL Offs(pZero, 16.25, 14.25, 3.3), v30, z0, tNozzle, \Wobj := wobjPlatform;
		WaitRob \InPos;
		SetDO DO5_Program_Feed, 0;
		MoveL Offs(pZero, 16.25, 15.75, 3.3), v100, z0, tNozzle, \Wobj := wobjPlatform;
		WaitRob \InPos;
		SetDO DO5_Program_Feed, 1;
		MoveL Offs(pZero, -16.25, 15.75, 3.3), v30, z0, tNozzle, \Wobj := wobjPlatform;
		WaitRob \InPos;
		SetDO DO6_Between_Layer_Retract, 1;
		SetDO DO5_Program_Feed, 0;
		MoveL Offs(pZero, -16.25, 15.75, 8.3), v100, z0, tNozzle, \Wobj := wobjPlatform;

		! Layer: 12
		! LayerParams(infillAngleDegrees=90.0, pathWidth=1.5, layerHeight=0.3, infillShiftX=0.0, infillShiftY=0.0, numShells=2, infillOverlap=0.0002)
		! T112
		! M6
		TPWRITE "Layer 12 of -1";
		MoveL Offs(pZero, -17.25, -15.7, 8.6), v100, z0, tNozzle, \Wobj := wobjPlatform;
		MoveL Offs(pZero, -17.25, -15.7, 3.6), v30, z0, tNozzle, \Wobj := wobjPlatform;
		WaitRob \InPos;
		SetDO DO6_Between_Layer_Retract, 0;
		WaitRob \InPos;
		SetDO DO5_Program_Feed, 1;
		MoveL Offs(pZero, -17.25, -15.7, 3.6), v30, z0, tNozzle, \Wobj := wobjPlatform;
		MoveL Offs(pZero, -17.25, -17.25, 3.6), v30, z0, tNozzle, \Wobj := wobjPlatform;
		MoveL Offs(pZero, 17.25, -17.25, 3.6), v30, z0, tNozzle, \Wobj := wobjPlatform;
		MoveL Offs(pZero, 17.25, 17.25, 3.6), v30, z0, tNozzle, \Wobj := wobjPlatform;
		MoveL Offs(pZero, -17.25, 17.25, 3.6), v30, z0, tNozzle, \Wobj := wobjPlatform;
		MoveL Offs(pZero, -17.25, -15.7, 3.6), v30, z0, tNozzle, \Wobj := wobjPlatform;
		WaitRob \InPos;
		SetDO DO5_Program_Feed, 0;
		MoveL Offs(pZero, -16.75, -15.7, 3.6), v100, z0, tNozzle, \Wobj := wobjPlatform;
		WaitRob \InPos;
		SetDO DO5_Program_Feed, 1;
		MoveL Offs(pZero, -16.75, -16.75, 3.6), v30, z0, tNozzle, \Wobj := wobjPlatform;
		MoveL Offs(pZero, 16.75, -16.75, 3.6), v30, z0, tNozzle, \Wobj := wobjPlatform;
		MoveL Offs(pZero, 16.75, 16.75, 3.6), v30, z0, tNozzle, \Wobj := wobjPlatform;
		MoveL Offs(pZero, -16.75, 16.75, 3.6), v30, z0, tNozzle, \Wobj := wobjPlatform;
		MoveL Offs(pZero, -16.75, -15.7, 3.6), v30, z0, tNozzle, \Wobj := wobjPlatform;
		MoveL Offs(pZero, -16.75, -15.7, 3.6), v30, z0, tNozzle, \Wobj := wobjPlatform;
		WaitRob \InPos;
		SetDO DO5_Program_Feed, 0;
		MoveL Offs(pZero, -15.75, -16.25, 3.6), v100, z0, tNozzle, \Wobj := wobjPlatform;
		WaitRob \InPos;
		SetDO DO5_Program_Feed, 1;
		MoveL Offs(pZero, -15.75, 16.25, 3.6), v30, z0, tNozzle, \Wobj := wobjPlatform;
		WaitRob \InPos;
		SetDO DO5_Program_Feed, 0;
		MoveL Offs(pZero, -14.25, 16.25, 3.6), v100, z0, tNozzle, \Wobj := wobjPlatform;
		WaitRob \InPos;
		SetDO DO5_Program_Feed, 1;
		MoveL Offs(pZero, -14.25, -16.25, 3.6), v30, z0, tNozzle, \Wobj := wobjPlatform;
		WaitRob \InPos;
		SetDO DO5_Program_Feed, 0;
		MoveL Offs(pZero, -12.75, -16.25, 3.6), v100, z0, tNozzle, \Wobj := wobjPlatform;
		WaitRob \InPos;
		SetDO DO5_Program_Feed, 1;
		MoveL Offs(pZero, -12.75, 16.25, 3.6), v30, z0, tNozzle, \Wobj := wobjPlatform;
		WaitRob \InPos;
		SetDO DO5_Program_Feed, 0;
		MoveL Offs(pZero, -11.25, 16.25, 3.6), v100, z0, tNozzle, \Wobj := wobjPlatform;
		WaitRob \InPos;
		SetDO DO5_Program_Feed, 1;
		MoveL Offs(pZero, -11.25, -16.25, 3.6), v30, z0, tNozzle, \Wobj := wobjPlatform;
		WaitRob \InPos;
		SetDO DO5_Program_Feed, 0;
		MoveL Offs(pZero, -9.75, -16.25, 3.6), v100, z0, tNozzle, \Wobj := wobjPlatform;
		WaitRob \InPos;
		SetDO DO5_Program_Feed, 1;
		MoveL Offs(pZero, -9.75, 16.25, 3.6), v30, z0, tNozzle, \Wobj := wobjPlatform;
		WaitRob \InPos;
		SetDO DO5_Program_Feed, 0;
		MoveL Offs(pZero, -8.25, 16.25, 3.6), v100, z0, tNozzle, \Wobj := wobjPlatform;
		WaitRob \InPos;
		SetDO DO5_Program_Feed, 1;
		MoveL Offs(pZero, -8.25, -16.25, 3.6), v30, z0, tNozzle, \Wobj := wobjPlatform;
		WaitRob \InPos;
		SetDO DO5_Program_Feed, 0;
		MoveL Offs(pZero, -6.75, -16.25, 3.6), v100, z0, tNozzle, \Wobj := wobjPlatform;
		WaitRob \InPos;
		SetDO DO5_Program_Feed, 1;
		MoveL Offs(pZero, -6.75, 16.25, 3.6), v30, z0, tNozzle, \Wobj := wobjPlatform;
		WaitRob \InPos;
		SetDO DO5_Program_Feed, 0;
		MoveL Offs(pZero, -5.25, 16.25, 3.6), v100, z0, tNozzle, \Wobj := wobjPlatform;
		WaitRob \InPos;
		SetDO DO5_Program_Feed, 1;
		MoveL Offs(pZero, -5.25, -16.25, 3.6), v30, z0, tNozzle, \Wobj := wobjPlatform;
		WaitRob \InPos;
		SetDO DO5_Program_Feed, 0;
		MoveL Offs(pZero, -3.75, -16.25, 3.6), v100, z0, tNozzle, \Wobj := wobjPlatform;
		WaitRob \InPos;
		SetDO DO5_Program_Feed, 1;
		MoveL Offs(pZero, -3.75, 16.25, 3.6), v30, z0, tNozzle, \Wobj := wobjPlatform;
		WaitRob \InPos;
		SetDO DO5_Program_Feed, 0;
		MoveL Offs(pZero, -2.25, 16.25, 3.6), v100, z0, tNozzle, \Wobj := wobjPlatform;
		WaitRob \InPos;
		SetDO DO5_Program_Feed, 1;
		MoveL Offs(pZero, -2.25, -16.25, 3.6), v30, z0, tNozzle, \Wobj := wobjPlatform;
		WaitRob \InPos;
		SetDO DO5_Program_Feed, 0;
		MoveL Offs(pZero, -0.75, -16.25, 3.6), v100, z0, tNozzle, \Wobj := wobjPlatform;
		WaitRob \InPos;
		SetDO DO5_Program_Feed, 1;
		MoveL Offs(pZero, -0.75, 16.25, 3.6), v30, z0, tNozzle, \Wobj := wobjPlatform;
		WaitRob \InPos;
		SetDO DO5_Program_Feed, 0;
		MoveL Offs(pZero, 0.75, 16.25, 3.6), v100, z0, tNozzle, \Wobj := wobjPlatform;
		WaitRob \InPos;
		SetDO DO5_Program_Feed, 1;
		MoveL Offs(pZero, 0.75, -16.25, 3.6), v30, z0, tNozzle, \Wobj := wobjPlatform;
		WaitRob \InPos;
		SetDO DO5_Program_Feed, 0;
		MoveL Offs(pZero, 2.25, -16.25, 3.6), v100, z0, tNozzle, \Wobj := wobjPlatform;
		WaitRob \InPos;
		SetDO DO5_Program_Feed, 1;
		MoveL Offs(pZero, 2.25, 16.25, 3.6), v30, z0, tNozzle, \Wobj := wobjPlatform;
		WaitRob \InPos;
		SetDO DO5_Program_Feed, 0;
		MoveL Offs(pZero, 3.75, 16.25, 3.6), v100, z0, tNozzle, \Wobj := wobjPlatform;
		WaitRob \InPos;
		SetDO DO5_Program_Feed, 1;
		MoveL Offs(pZero, 3.75, -16.25, 3.6), v30, z0, tNozzle, \Wobj := wobjPlatform;
		WaitRob \InPos;
		SetDO DO5_Program_Feed, 0;
		MoveL Offs(pZero, 5.25, -16.25, 3.6), v100, z0, tNozzle, \Wobj := wobjPlatform;
		WaitRob \InPos;
		SetDO DO5_Program_Feed, 1;
		MoveL Offs(pZero, 5.25, 16.25, 3.6), v30, z0, tNozzle, \Wobj := wobjPlatform;
		WaitRob \InPos;
		SetDO DO5_Program_Feed, 0;
		MoveL Offs(pZero, 6.75, 16.25, 3.6), v100, z0, tNozzle, \Wobj := wobjPlatform;
		WaitRob \InPos;
		SetDO DO5_Program_Feed, 1;
		MoveL Offs(pZero, 6.75, -16.25, 3.6), v30, z0, tNozzle, \Wobj := wobjPlatform;
		WaitRob \InPos;
		SetDO DO5_Program_Feed, 0;
		MoveL Offs(pZero, 8.25, -16.25, 3.6), v100, z0, tNozzle, \Wobj := wobjPlatform;
		WaitRob \InPos;
		SetDO DO5_Program_Feed, 1;
		MoveL Offs(pZero, 8.25, 16.25, 3.6), v30, z0, tNozzle, \Wobj := wobjPlatform;
		WaitRob \InPos;
		SetDO DO5_Program_Feed, 0;
		MoveL Offs(pZero, 9.75, 16.25, 3.6), v100, z0, tNozzle, \Wobj := wobjPlatform;
		WaitRob \InPos;
		SetDO DO5_Program_Feed, 1;
		MoveL Offs(pZero, 9.75, -16.25, 3.6), v30, z0, tNozzle, \Wobj := wobjPlatform;
		WaitRob \InPos;
		SetDO DO5_Program_Feed, 0;
		MoveL Offs(pZero, 11.25, -16.25, 3.6), v100, z0, tNozzle, \Wobj := wobjPlatform;
		WaitRob \InPos;
		SetDO DO5_Program_Feed, 1;
		MoveL Offs(pZero, 11.25, 16.25, 3.6), v30, z0, tNozzle, \Wobj := wobjPlatform;
		WaitRob \InPos;
		SetDO DO5_Program_Feed, 0;
		MoveL Offs(pZero, 12.75, 16.25, 3.6), v100, z0, tNozzle, \Wobj := wobjPlatform;
		WaitRob \InPos;
		SetDO DO5_Program_Feed, 1;
		MoveL Offs(pZero, 12.75, -16.25, 3.6), v30, z0, tNozzle, \Wobj := wobjPlatform;
		WaitRob \InPos;
		SetDO DO5_Program_Feed, 0;
		MoveL Offs(pZero, 14.25, -16.25, 3.6), v100, z0, tNozzle, \Wobj := wobjPlatform;
		WaitRob \InPos;
		SetDO DO5_Program_Feed, 1;
		MoveL Offs(pZero, 14.25, 16.25, 3.6), v30, z0, tNozzle, \Wobj := wobjPlatform;
		WaitRob \InPos;
		SetDO DO5_Program_Feed, 0;
		MoveL Offs(pZero, 15.75, 16.25, 3.6), v100, z0, tNozzle, \Wobj := wobjPlatform;
		WaitRob \InPos;
		SetDO DO5_Program_Feed, 1;
		MoveL Offs(pZero, 15.75, -16.25, 3.6), v30, z0, tNozzle, \Wobj := wobjPlatform;
		WaitRob \InPos;
		SetDO DO6_Between_Layer_Retract, 1;
		SetDO DO5_Program_Feed, 0;
		MoveL Offs(pZero, 15.75, -16.25, 8.6), v100, z0, tNozzle, \Wobj := wobjPlatform;

		! Layer: 13
		! LayerParams(infillAngleDegrees=0.0, pathWidth=1.5, layerHeight=0.3, infillShiftX=0.0, infillShiftY=0.0, numShells=2, infillOverlap=0.0002)
		! T113
		! M6
		TPWRITE "Layer 13 of -1";
		MoveL Offs(pZero, 17.25, 17.25, 8.9), v100, z0, tNozzle, \Wobj := wobjPlatform;
		MoveL Offs(pZero, 17.25, 17.25, 3.9), v30, z0, tNozzle, \Wobj := wobjPlatform;
		WaitRob \InPos;
		SetDO DO6_Between_Layer_Retract, 0;
		WaitRob \InPos;
		SetDO DO5_Program_Feed, 1;
		MoveL Offs(pZero, -17.25, 17.25, 3.9), v30, z0, tNozzle, \Wobj := wobjPlatform;
		MoveL Offs(pZero, -17.25, -15.55, 3.9), v30, z0, tNozzle, \Wobj := wobjPlatform;
		MoveL Offs(pZero, -17.25, -15.55, 3.9), v30, z0, tNozzle, \Wobj := wobjPlatform;
		MoveL Offs(pZero, -17.25, -17.25, 3.9), v30, z0, tNozzle, \Wobj := wobjPlatform;
		MoveL Offs(pZero, 17.25, -17.25, 3.9), v30, z0, tNozzle, \Wobj := wobjPlatform;
		MoveL Offs(pZero, 17.25, 17.25, 3.9), v30, z0, tNozzle, \Wobj := wobjPlatform;
		WaitRob \InPos;
		SetDO DO5_Program_Feed, 0;
		MoveL Offs(pZero, 16.75, 16.75, 3.9), v100, z0, tNozzle, \Wobj := wobjPlatform;
		WaitRob \InPos;
		SetDO DO5_Program_Feed, 1;
		MoveL Offs(pZero, -16.75, 16.75, 3.9), v30, z0, tNozzle, \Wobj := wobjPlatform;
		MoveL Offs(pZero, -16.75, -15.55, 3.9), v30, z0, tNozzle, \Wobj := wobjPlatform;
		MoveL Offs(pZero, -16.75, -15.55, 3.9), v30, z0, tNozzle, \Wobj := wobjPlatform;
		MoveL Offs(pZero, -16.75, -16.75, 3.9), v30, z0, tNozzle, \Wobj := wobjPlatform;
		MoveL Offs(pZero, 16.75, -16.75, 3.9), v30, z0, tNozzle, \Wobj := wobjPlatform;
		MoveL Offs(pZero, 16.75, 16.75, 3.9), v30, z0, tNozzle, \Wobj := wobjPlatform;
		WaitRob \InPos;
		SetDO DO5_Program_Feed, 0;
		MoveL Offs(pZero, 16.25, 15.75, 3.9), v100, z0, tNozzle, \Wobj := wobjPlatform;
		WaitRob \InPos;
		SetDO DO5_Program_Feed, 1;
		MoveL Offs(pZero, -16.25, 15.75, 3.9), v30, z0, tNozzle, \Wobj := wobjPlatform;
		WaitRob \InPos;
		SetDO DO5_Program_Feed, 0;
		MoveL Offs(pZero, -16.25, 14.25, 3.9), v100, z0, tNozzle, \Wobj := wobjPlatform;
		WaitRob \InPos;
		SetDO DO5_Program_Feed, 1;
		MoveL Offs(pZero, 16.25, 14.25, 3.9), v30, z0, tNozzle, \Wobj := wobjPlatform;
		WaitRob \InPos;
		SetDO DO5_Program_Feed, 0;
		MoveL Offs(pZero, 16.25, 12.75, 3.9), v100, z0, tNozzle, \Wobj := wobjPlatform;
		WaitRob \InPos;
		SetDO DO5_Program_Feed, 1;
		MoveL Offs(pZero, -16.25, 12.75, 3.9), v30, z0, tNozzle, \Wobj := wobjPlatform;
		WaitRob \InPos;
		SetDO DO5_Program_Feed, 0;
		MoveL Offs(pZero, -16.25, 11.25, 3.9), v100, z0, tNozzle, \Wobj := wobjPlatform;
		WaitRob \InPos;
		SetDO DO5_Program_Feed, 1;
		MoveL Offs(pZero, 16.25, 11.25, 3.9), v30, z0, tNozzle, \Wobj := wobjPlatform;
		WaitRob \InPos;
		SetDO DO5_Program_Feed, 0;
		MoveL Offs(pZero, 16.25, 9.75, 3.9), v100, z0, tNozzle, \Wobj := wobjPlatform;
		WaitRob \InPos;
		SetDO DO5_Program_Feed, 1;
		MoveL Offs(pZero, -16.25, 9.75, 3.9), v30, z0, tNozzle, \Wobj := wobjPlatform;
		WaitRob \InPos;
		SetDO DO5_Program_Feed, 0;
		MoveL Offs(pZero, -16.25, 8.25, 3.9), v100, z0, tNozzle, \Wobj := wobjPlatform;
		WaitRob \InPos;
		SetDO DO5_Program_Feed, 1;
		MoveL Offs(pZero, 16.25, 8.25, 3.9), v30, z0, tNozzle, \Wobj := wobjPlatform;
		WaitRob \InPos;
		SetDO DO5_Program_Feed, 0;
		MoveL Offs(pZero, 16.25, 6.75, 3.9), v100, z0, tNozzle, \Wobj := wobjPlatform;
		WaitRob \InPos;
		SetDO DO5_Program_Feed, 1;
		MoveL Offs(pZero, -16.25, 6.75, 3.9), v30, z0, tNozzle, \Wobj := wobjPlatform;
		WaitRob \InPos;
		SetDO DO5_Program_Feed, 0;
		MoveL Offs(pZero, -16.25, 5.25, 3.9), v100, z0, tNozzle, \Wobj := wobjPlatform;
		WaitRob \InPos;
		SetDO DO5_Program_Feed, 1;
		MoveL Offs(pZero, 16.25, 5.25, 3.9), v30, z0, tNozzle, \Wobj := wobjPlatform;
		WaitRob \InPos;
		SetDO DO5_Program_Feed, 0;
		MoveL Offs(pZero, 16.25, 3.75, 3.9), v100, z0, tNozzle, \Wobj := wobjPlatform;
		WaitRob \InPos;
		SetDO DO5_Program_Feed, 1;
		MoveL Offs(pZero, -16.25, 3.75, 3.9), v30, z0, tNozzle, \Wobj := wobjPlatform;
		WaitRob \InPos;
		SetDO DO5_Program_Feed, 0;
		MoveL Offs(pZero, -16.25, 2.25, 3.9), v100, z0, tNozzle, \Wobj := wobjPlatform;
		WaitRob \InPos;
		SetDO DO5_Program_Feed, 1;
		MoveL Offs(pZero, 16.25, 2.25, 3.9), v30, z0, tNozzle, \Wobj := wobjPlatform;
		WaitRob \InPos;
		SetDO DO5_Program_Feed, 0;
		MoveL Offs(pZero, 16.25, 0.75, 3.9), v100, z0, tNozzle, \Wobj := wobjPlatform;
		WaitRob \InPos;
		SetDO DO5_Program_Feed, 1;
		MoveL Offs(pZero, -16.25, 0.75, 3.9), v30, z0, tNozzle, \Wobj := wobjPlatform;
		WaitRob \InPos;
		SetDO DO5_Program_Feed, 0;
		MoveL Offs(pZero, -16.25, -0.75, 3.9), v100, z0, tNozzle, \Wobj := wobjPlatform;
		WaitRob \InPos;
		SetDO DO5_Program_Feed, 1;
		MoveL Offs(pZero, 16.25, -0.75, 3.9), v30, z0, tNozzle, \Wobj := wobjPlatform;
		WaitRob \InPos;
		SetDO DO5_Program_Feed, 0;
		MoveL Offs(pZero, 16.25, -2.25, 3.9), v100, z0, tNozzle, \Wobj := wobjPlatform;
		WaitRob \InPos;
		SetDO DO5_Program_Feed, 1;
		MoveL Offs(pZero, -16.25, -2.25, 3.9), v30, z0, tNozzle, \Wobj := wobjPlatform;
		WaitRob \InPos;
		SetDO DO5_Program_Feed, 0;
		MoveL Offs(pZero, -16.25, -3.75, 3.9), v100, z0, tNozzle, \Wobj := wobjPlatform;
		WaitRob \InPos;
		SetDO DO5_Program_Feed, 1;
		MoveL Offs(pZero, 16.25, -3.75, 3.9), v30, z0, tNozzle, \Wobj := wobjPlatform;
		WaitRob \InPos;
		SetDO DO5_Program_Feed, 0;
		MoveL Offs(pZero, 16.25, -5.25, 3.9), v100, z0, tNozzle, \Wobj := wobjPlatform;
		WaitRob \InPos;
		SetDO DO5_Program_Feed, 1;
		MoveL Offs(pZero, -16.25, -5.25, 3.9), v30, z0, tNozzle, \Wobj := wobjPlatform;
		WaitRob \InPos;
		SetDO DO5_Program_Feed, 0;
		MoveL Offs(pZero, -16.25, -6.75, 3.9), v100, z0, tNozzle, \Wobj := wobjPlatform;
		WaitRob \InPos;
		SetDO DO5_Program_Feed, 1;
		MoveL Offs(pZero, 16.25, -6.75, 3.9), v30, z0, tNozzle, \Wobj := wobjPlatform;
		WaitRob \InPos;
		SetDO DO5_Program_Feed, 0;
		MoveL Offs(pZero, 16.25, -8.25, 3.9), v100, z0, tNozzle, \Wobj := wobjPlatform;
		WaitRob \InPos;
		SetDO DO5_Program_Feed, 1;
		MoveL Offs(pZero, -16.25, -8.25, 3.9), v30, z0, tNozzle, \Wobj := wobjPlatform;
		WaitRob \InPos;
		SetDO DO5_Program_Feed, 0;
		MoveL Offs(pZero, -16.25, -9.75, 3.9), v100, z0, tNozzle, \Wobj := wobjPlatform;
		WaitRob \InPos;
		SetDO DO5_Program_Feed, 1;
		MoveL Offs(pZero, 16.25, -9.75, 3.9), v30, z0, tNozzle, \Wobj := wobjPlatform;
		WaitRob \InPos;
		SetDO DO5_Program_Feed, 0;
		MoveL Offs(pZero, 16.25, -11.25, 3.9), v100, z0, tNozzle, \Wobj := wobjPlatform;
		WaitRob \InPos;
		SetDO DO5_Program_Feed, 1;
		MoveL Offs(pZero, -16.25, -11.25, 3.9), v30, z0, tNozzle, \Wobj := wobjPlatform;
		WaitRob \InPos;
		SetDO DO5_Program_Feed, 0;
		MoveL Offs(pZero, -16.25, -12.75, 3.9), v100, z0, tNozzle, \Wobj := wobjPlatform;
		WaitRob \InPos;
		SetDO DO5_Program_Feed, 1;
		MoveL Offs(pZero, 16.25, -12.75, 3.9), v30, z0, tNozzle, \Wobj := wobjPlatform;
		WaitRob \InPos;
		SetDO DO5_Program_Feed, 0;
		MoveL Offs(pZero, 16.25, -14.25, 3.9), v100, z0, tNozzle, \Wobj := wobjPlatform;
		WaitRob \InPos;
		SetDO DO5_Program_Feed, 1;
		MoveL Offs(pZero, -16.25, -14.25, 3.9), v30, z0, tNozzle, \Wobj := wobjPlatform;
		WaitRob \InPos;
		SetDO DO5_Program_Feed, 0;
		MoveL Offs(pZero, -16.25, -15.75, 3.9), v100, z0, tNozzle, \Wobj := wobjPlatform;
		WaitRob \InPos;
		SetDO DO5_Program_Feed, 1;
		MoveL Offs(pZero, 16.25, -15.75, 3.9), v30, z0, tNozzle, \Wobj := wobjPlatform;
		WaitRob \InPos;
		SetDO DO6_Between_Layer_Retract, 1;
		SetDO DO5_Program_Feed, 0;
		MoveL Offs(pZero, 16.25, -15.75, 8.9), v100, z0, tNozzle, \Wobj := wobjPlatform;

		! Layer: 14
		! LayerParams(infillAngleDegrees=90.0, pathWidth=1.5, layerHeight=0.3, infillShiftX=0.0, infillShiftY=0.0, numShells=2, infillOverlap=0.0002)
		! T114
		! M6
		TPWRITE "Layer 14 of -1";
		MoveL Offs(pZero, 17.25, 17.25, 9.2), v100, z0, tNozzle, \Wobj := wobjPlatform;
		MoveL Offs(pZero, 17.25, 17.25, 4.2), v30, z0, tNozzle, \Wobj := wobjPlatform;
		WaitRob \InPos;
		SetDO DO6_Between_Layer_Retract, 0;
		WaitRob \InPos;
		SetDO DO5_Program_Feed, 1;
		MoveL Offs(pZero, -17.25, 17.25, 4.2), v30, z0, tNozzle, \Wobj := wobjPlatform;
		MoveL Offs(pZero, -17.25, -15.4, 4.2), v30, z0, tNozzle, \Wobj := wobjPlatform;
		MoveL Offs(pZero, -17.25, -15.4, 4.2), v30, z0, tNozzle, \Wobj := wobjPlatform;
		MoveL Offs(pZero, -17.25, -17.25, 4.2), v30, z0, tNozzle, \Wobj := wobjPlatform;
		MoveL Offs(pZero, 17.25, -17.25, 4.2), v30, z0, tNozzle, \Wobj := wobjPlatform;
		MoveL Offs(pZero, 17.25, 17.25, 4.2), v30, z0, tNozzle, \Wobj := wobjPlatform;
		WaitRob \InPos;
		SetDO DO5_Program_Feed, 0;
		MoveL Offs(pZero, 16.75, 16.75, 4.2), v100, z0, tNozzle, \Wobj := wobjPlatform;
		WaitRob \InPos;
		SetDO DO5_Program_Feed, 1;
		MoveL Offs(pZero, -16.75, 16.75, 4.2), v30, z0, tNozzle, \Wobj := wobjPlatform;
		MoveL Offs(pZero, -16.75, -15.4, 4.2), v30, z0, tNozzle, \Wobj := wobjPlatform;
		MoveL Offs(pZero, -16.75, -15.4, 4.2), v30, z0, tNozzle, \Wobj := wobjPlatform;
		MoveL Offs(pZero, -16.75, -16.75, 4.2), v30, z0, tNozzle, \Wobj := wobjPlatform;
		MoveL Offs(pZero, 16.75, -16.75, 4.2), v30, z0, tNozzle, \Wobj := wobjPlatform;
		MoveL Offs(pZero, 16.75, 16.75, 4.2), v30, z0, tNozzle, \Wobj := wobjPlatform;
		WaitRob \InPos;
		SetDO DO5_Program_Feed, 0;
		MoveL Offs(pZero, 15.75, 16.25, 4.2), v100, z0, tNozzle, \Wobj := wobjPlatform;
		WaitRob \InPos;
		SetDO DO5_Program_Feed, 1;
		MoveL Offs(pZero, 15.75, -16.25, 4.2), v30, z0, tNozzle, \Wobj := wobjPlatform;
		WaitRob \InPos;
		SetDO DO5_Program_Feed, 0;
		MoveL Offs(pZero, 14.25, -16.25, 4.2), v100, z0, tNozzle, \Wobj := wobjPlatform;
		WaitRob \InPos;
		SetDO DO5_Program_Feed, 1;
		MoveL Offs(pZero, 14.25, 16.25, 4.2), v30, z0, tNozzle, \Wobj := wobjPlatform;
		WaitRob \InPos;
		SetDO DO5_Program_Feed, 0;
		MoveL Offs(pZero, 12.75, 16.25, 4.2), v100, z0, tNozzle, \Wobj := wobjPlatform;
		WaitRob \InPos;
		SetDO DO5_Program_Feed, 1;
		MoveL Offs(pZero, 12.75, -16.25, 4.2), v30, z0, tNozzle, \Wobj := wobjPlatform;
		WaitRob \InPos;
		SetDO DO5_Program_Feed, 0;
		MoveL Offs(pZero, 11.25, -16.25, 4.2), v100, z0, tNozzle, \Wobj := wobjPlatform;
		WaitRob \InPos;
		SetDO DO5_Program_Feed, 1;
		MoveL Offs(pZero, 11.25, 16.25, 4.2), v30, z0, tNozzle, \Wobj := wobjPlatform;
		WaitRob \InPos;
		SetDO DO5_Program_Feed, 0;
		MoveL Offs(pZero, 9.75, 16.25, 4.2), v100, z0, tNozzle, \Wobj := wobjPlatform;
		WaitRob \InPos;
		SetDO DO5_Program_Feed, 1;
		MoveL Offs(pZero, 9.75, -16.25, 4.2), v30, z0, tNozzle, \Wobj := wobjPlatform;
		WaitRob \InPos;
		SetDO DO5_Program_Feed, 0;
		MoveL Offs(pZero, 8.25, -16.25, 4.2), v100, z0, tNozzle, \Wobj := wobjPlatform;
		WaitRob \InPos;
		SetDO DO5_Program_Feed, 1;
		MoveL Offs(pZero, 8.25, 16.25, 4.2), v30, z0, tNozzle, \Wobj := wobjPlatform;
		WaitRob \InPos;
		SetDO DO5_Program_Feed, 0;
		MoveL Offs(pZero, 6.75, 16.25, 4.2), v100, z0, tNozzle, \Wobj := wobjPlatform;
		WaitRob \InPos;
		SetDO DO5_Program_Feed, 1;
		MoveL Offs(pZero, 6.75, -16.25, 4.2), v30, z0, tNozzle, \Wobj := wobjPlatform;
		WaitRob \InPos;
		SetDO DO5_Program_Feed, 0;
		MoveL Offs(pZero, 5.25, -16.25, 4.2), v100, z0, tNozzle, \Wobj := wobjPlatform;
		WaitRob \InPos;
		SetDO DO5_Program_Feed, 1;
		MoveL Offs(pZero, 5.25, 16.25, 4.2), v30, z0, tNozzle, \Wobj := wobjPlatform;
		WaitRob \InPos;
