MODULE MainModule
	PROC main()
		Heat;
		SetDO DO1_Auto_Mode, 1;

		

		! Part number: 1
		! PartParams(extrusionFactor=0.98, printSpeed=30, shiftX=0.0, shiftY=0.0, shiftZ=0.0, numLayers=170, designType=0, brims=0, horizontalExpansion=0.0, randomStartLocation=1)

		! Layer: 1
		! LayerParams(infillAngleDegrees=-45.0, pathWidth=3.0, layerHeight=0.2, infillShiftX=0.0, infillShiftY=0.0, numShells=1, infillOverlap=0.0002)
		! T11
		! M6
		TPWRITE "Layer 1 of 170";
		MoveL Offs(pZero, 5.022, 5.228, 5.2), v100, z0, tNozzle, \Wobj := wobjPlatform;
		MoveL Offs(pZero, 5.022, 5.228, 0.2), v30, z0, tNozzle, \Wobj := wobjPlatform;
		WaitRob \InPos;
		SetDO DO5_Program_Feed, 1;
		MoveL Offs(pZero, 4.118, 5.966, 0.2), v30, z0, tNozzle, \Wobj := wobjPlatform;
		MoveL Offs(pZero, 3.108, 6.549, 0.2), v30, z0, tNozzle, \Wobj := wobjPlatform;
		MoveL Offs(pZero, 2.017, 6.963, 0.2), v30, z0, tNozzle, \Wobj := wobjPlatform;
		MoveL Offs(pZero, 0.874, 7.196, 0.2), v30, z0, tNozzle, \Wobj := wobjPlatform;
		MoveL Offs(pZero, -0.292, 7.243, 0.2), v30, z0, tNozzle, \Wobj := wobjPlatform;
		MoveL Offs(pZero, -1.45, 7.103, 0.2), v30, z0, tNozzle, \Wobj := wobjPlatform;
		MoveL Offs(pZero, -2.571, 6.778, 0.2), v30, z0, tNozzle, \Wobj := wobjPlatform;
		MoveL Offs(pZero, -3.625, 6.278, 0.2), v30, z0, tNozzle, \Wobj := wobjPlatform;
		MoveL Offs(pZero, -4.585, 5.615, 0.2), v30, z0, tNozzle, \Wobj := wobjPlatform;
		MoveL Offs(pZero, -5.426, 4.807, 0.2), v30, z0, tNozzle, \Wobj := wobjPlatform;
		MoveL Offs(pZero, -6.127, 3.874, 0.2), v30, z0, tNozzle, \Wobj := wobjPlatform;
		MoveL Offs(pZero, -6.669, 2.841, 0.2), v30, z0, tNozzle, \Wobj := wobjPlatform;
		MoveL Offs(pZero, -7.039, 1.735, 0.2), v30, z0, tNozzle, \Wobj := wobjPlatform;
		MoveL Offs(pZero, -7.226, 0.583, 0.2), v30, z0, tNozzle, \Wobj := wobjPlatform;
		MoveL Offs(pZero, -7.226, -0.583, 0.2), v30, z0, tNozzle, \Wobj := wobjPlatform;
		MoveL Offs(pZero, -7.039, -1.735, 0.2), v30, z0, tNozzle, \Wobj := wobjPlatform;
		MoveL Offs(pZero, -6.669, -2.841, 0.2), v30, z0, tNozzle, \Wobj := wobjPlatform;
		MoveL Offs(pZero, -6.127, -3.874, 0.2), v30, z0, tNozzle, \Wobj := wobjPlatform;
		MoveL Offs(pZero, -5.426, -4.807, 0.2), v30, z0, tNozzle, \Wobj := wobjPlatform;
		MoveL Offs(pZero, -4.585, -5.615, 0.2), v30, z0, tNozzle, \Wobj := wobjPlatform;
		MoveL Offs(pZero, -3.625, -6.278, 0.2), v30, z0, tNozzle, \Wobj := wobjPlatform;
		MoveL Offs(pZero, -2.571, -6.778, 0.2), v30, z0, tNozzle, \Wobj := wobjPlatform;
		MoveL Offs(pZero, -1.45, -7.103, 0.2), v30, z0, tNozzle, \Wobj := wobjPlatform;
		MoveL Offs(pZero, -0.292, -7.243, 0.2), v30, z0, tNozzle, \Wobj := wobjPlatform;
		MoveL Offs(pZero, 0.874, -7.196, 0.2), v30, z0, tNozzle, \Wobj := wobjPlatform;
		MoveL Offs(pZero, 2.017, -6.963, 0.2), v30, z0, tNozzle, \Wobj := wobjPlatform;
		MoveL Offs(pZero, 3.108, -6.549, 0.2), v30, z0, tNozzle, \Wobj := wobjPlatform;
		MoveL Offs(pZero, 4.118, -5.966, 0.2), v30, z0, tNozzle, \Wobj := wobjPlatform;
		MoveL Offs(pZero, 5.022, -5.228, 0.2), v30, z0, tNozzle, \Wobj := wobjPlatform;
		MoveL Offs(pZero, 5.795, -4.355, 0.2), v30, z0, tNozzle, \Wobj := wobjPlatform;
		MoveL Offs(pZero, 6.419, -3.369, 0.2), v30, z0, tNozzle, \Wobj := wobjPlatform;
		MoveL Offs(pZero, 6.876, -2.296, 0.2), v30, z0, tNozzle, \Wobj := wobjPlatform;
		MoveL Offs(pZero, 7.155, -1.163, 0.2), v30, z0, tNozzle, \Wobj := wobjPlatform;
		MoveL Offs(pZero, 7.249, -0.0, 0.2), v30, z0, tNozzle, \Wobj := wobjPlatform;
		MoveL Offs(pZero, 7.155, 1.163, 0.2), v30, z0, tNozzle, \Wobj := wobjPlatform;
		MoveL Offs(pZero, 6.876, 2.296, 0.2), v30, z0, tNozzle, \Wobj := wobjPlatform;
		MoveL Offs(pZero, 6.419, 3.369, 0.2), v30, z0, tNozzle, \Wobj := wobjPlatform;
		MoveL Offs(pZero, 5.795, 4.355, 0.2), v30, z0, tNozzle, \Wobj := wobjPlatform;
		MoveL Offs(pZero, 5.022, 5.228, 0.2), v30, z0, tNozzle, \Wobj := wobjPlatform;
		WaitRob \InPos;
		SetDO DO5_Program_Feed, 0;
		MoveL Offs(pZero, 2.099, 6.397, 0.2), v100, z0, tNozzle, \Wobj := wobjPlatform;
		WaitRob \InPos;
		SetDO DO5_Program_Feed, 1;
		MoveL Offs(pZero, 6.414, 2.082, 0.2), v30, z0, tNozzle, \Wobj := wobjPlatform;
		WaitRob \InPos;
		SetDO DO5_Program_Feed, 0;
		MoveL Offs(pZero, 6.397, -2.144, 0.2), v100, z0, tNozzle, \Wobj := wobjPlatform;
		WaitRob \InPos;
		SetDO DO5_Program_Feed, 1;
		MoveL Offs(pZero, -2.131, 6.385, 0.2), v30, z0, tNozzle, \Wobj := wobjPlatform;
		WaitRob \InPos;
		SetDO DO5_Program_Feed, 0;
		MoveL Offs(pZero, -4.751, 4.762, 0.2), v100, z0, tNozzle, \Wobj := wobjPlatform;
		WaitRob \InPos;
		SetDO DO5_Program_Feed, 1;
		MoveL Offs(pZero, 4.77, -4.759, 0.2), v30, z0, tNozzle, \Wobj := wobjPlatform;
		WaitRob \InPos;
		SetDO DO5_Program_Feed, 0;
		MoveL Offs(pZero, 2.147, -6.379, 0.2), v100, z0, tNozzle, \Wobj := wobjPlatform;
		WaitRob \InPos;
		SetDO DO5_Program_Feed, 1;
		MoveL Offs(pZero, -6.375, 2.143, 0.2), v30, z0, tNozzle, \Wobj := wobjPlatform;
		WaitRob \InPos;
		SetDO DO5_Program_Feed, 0;
		MoveL Offs(pZero, -6.397, -2.077, 0.2), v100, z0, tNozzle, \Wobj := wobjPlatform;
		WaitRob \InPos;
		SetDO DO5_Program_Feed, 1;
		MoveL Offs(pZero, -2.072, -6.402, 0.2), v30, z0, tNozzle, \Wobj := wobjPlatform;
		WaitRob \InPos;
		SetDO DO6_Between_Layer_Retract, 1;
		SetDO DO5_Program_Feed, 0;
		MoveL Offs(pZero, -2.072, -6.402, 5.2), v100, z0, tNozzle, \Wobj := wobjPlatform;

		! Layer: 2
		! LayerParams(infillAngleDegrees=45.0, pathWidth=3.0, layerHeight=0.2, infillShiftX=0.0, infillShiftY=0.0, numShells=1, infillOverlap=0.0002)
		! T12
		! M6
		TPWRITE "Layer 2 of 170";
		MoveL Offs(pZero, 3.108, -6.549, 5.4), v100, z0, tNozzle, \Wobj := wobjPlatform;
		MoveL Offs(pZero, 3.108, -6.549, 0.4), v30, z0, tNozzle, \Wobj := wobjPlatform;
		WaitRob \InPos;
		SetDO DO6_Between_Layer_Retract, 0;
		WaitRob \InPos;
		SetDO DO5_Program_Feed, 1;
		MoveL Offs(pZero, 4.118, -5.966, 0.4), v30, z0, tNozzle, \Wobj := wobjPlatform;
		MoveL Offs(pZero, 5.022, -5.228, 0.4), v30, z0, tNozzle, \Wobj := wobjPlatform;
		MoveL Offs(pZero, 5.795, -4.355, 0.4), v30, z0, tNozzle, \Wobj := wobjPlatform;
		MoveL Offs(pZero, 6.419, -3.369, 0.4), v30, z0, tNozzle, \Wobj := wobjPlatform;
		MoveL Offs(pZero, 6.876, -2.296, 0.4), v30, z0, tNozzle, \Wobj := wobjPlatform;
		MoveL Offs(pZero, 7.155, -1.163, 0.4), v30, z0, tNozzle, \Wobj := wobjPlatform;
		MoveL Offs(pZero, 7.249, -0.0, 0.4), v30, z0, tNozzle, \Wobj := wobjPlatform;
		MoveL Offs(pZero, 7.155, 1.163, 0.4), v30, z0, tNozzle, \Wobj := wobjPlatform;
		MoveL Offs(pZero, 6.876, 2.296, 0.4), v30, z0, tNozzle, \Wobj := wobjPlatform;
		MoveL Offs(pZero, 6.419, 3.369, 0.4), v30, z0, tNozzle, \Wobj := wobjPlatform;
		MoveL Offs(pZero, 5.795, 4.355, 0.4), v30, z0, tNozzle, \Wobj := wobjPlatform;
		MoveL Offs(pZero, 5.022, 5.228, 0.4), v30, z0, tNozzle, \Wobj := wobjPlatform;
		MoveL Offs(pZero, 4.118, 5.966, 0.4), v30, z0, tNozzle, \Wobj := wobjPlatform;
		MoveL Offs(pZero, 3.108, 6.549, 0.4), v30, z0, tNozzle, \Wobj := wobjPlatform;
		MoveL Offs(pZero, 2.017, 6.963, 0.4), v30, z0, tNozzle, \Wobj := wobjPlatform;
		MoveL Offs(pZero, 0.874, 7.196, 0.4), v30, z0, tNozzle, \Wobj := wobjPlatform;
		MoveL Offs(pZero, -0.292, 7.243, 0.4), v30, z0, tNozzle, \Wobj := wobjPlatform;
		MoveL Offs(pZero, -1.45, 7.103, 0.4), v30, z0, tNozzle, \Wobj := wobjPlatform;
		MoveL Offs(pZero, -2.571, 6.778, 0.4), v30, z0, tNozzle, \Wobj := wobjPlatform;
		MoveL Offs(pZero, -3.625, 6.278, 0.4), v30, z0, tNozzle, \Wobj := wobjPlatform;
		MoveL Offs(pZero, -4.585, 5.615, 0.4), v30, z0, tNozzle, \Wobj := wobjPlatform;
		MoveL Offs(pZero, -5.426, 4.807, 0.4), v30, z0, tNozzle, \Wobj := wobjPlatform;
		MoveL Offs(pZero, -6.127, 3.874, 0.4), v30, z0, tNozzle, \Wobj := wobjPlatform;
		MoveL Offs(pZero, -6.669, 2.841, 0.4), v30, z0, tNozzle, \Wobj := wobjPlatform;
		MoveL Offs(pZero, -7.039, 1.735, 0.4), v30, z0, tNozzle, \Wobj := wobjPlatform;
		MoveL Offs(pZero, -7.226, 0.583, 0.4), v30, z0, tNozzle, \Wobj := wobjPlatform;
		MoveL Offs(pZero, -7.226, -0.583, 0.4), v30, z0, tNozzle, \Wobj := wobjPlatform;
		MoveL Offs(pZero, -7.039, -1.735, 0.4), v30, z0, tNozzle, \Wobj := wobjPlatform;
		MoveL Offs(pZero, -6.669, -2.841, 0.4), v30, z0, tNozzle, \Wobj := wobjPlatform;
		MoveL Offs(pZero, -6.127, -3.874, 0.4), v30, z0, tNozzle, \Wobj := wobjPlatform;
		MoveL Offs(pZero, -5.426, -4.807, 0.4), v30, z0, tNozzle, \Wobj := wobjPlatform;
		MoveL Offs(pZero, -4.585, -5.615, 0.4), v30, z0, tNozzle, \Wobj := wobjPlatform;
		MoveL Offs(pZero, -3.625, -6.278, 0.4), v30, z0, tNozzle, \Wobj := wobjPlatform;
		MoveL Offs(pZero, -2.571, -6.778, 0.4), v30, z0, tNozzle, \Wobj := wobjPlatform;
		MoveL Offs(pZero, -1.45, -7.103, 0.4), v30, z0, tNozzle, \Wobj := wobjPlatform;
		MoveL Offs(pZero, -0.292, -7.243, 0.4), v30, z0, tNozzle, \Wobj := wobjPlatform;
		MoveL Offs(pZero, 0.874, -7.196, 0.4), v30, z0, tNozzle, \Wobj := wobjPlatform;
		MoveL Offs(pZero, 2.017, -6.963, 0.4), v30, z0, tNozzle, \Wobj := wobjPlatform;
		MoveL Offs(pZero, 3.108, -6.549, 0.4), v30, z0, tNozzle, \Wobj := wobjPlatform;
		WaitRob \InPos;
		SetDO DO5_Program_Feed, 0;
		MoveL Offs(pZero, 2.099, -6.397, 0.4), v100, z0, tNozzle, \Wobj := wobjPlatform;
		WaitRob \InPos;
		SetDO DO5_Program_Feed, 1;
		MoveL Offs(pZero, 6.414, -2.082, 0.4), v30, z0, tNozzle, \Wobj := wobjPlatform;
		WaitRob \InPos;
		SetDO DO5_Program_Feed, 0;
		MoveL Offs(pZero, 6.397, 2.144, 0.4), v100, z0, tNozzle, \Wobj := wobjPlatform;
		WaitRob \InPos;
		SetDO DO5_Program_Feed, 1;
		MoveL Offs(pZero, -2.131, -6.385, 0.4), v30, z0, tNozzle, \Wobj := wobjPlatform;
		WaitRob \InPos;
		SetDO DO5_Program_Feed, 0;
		MoveL Offs(pZero, -4.751, -4.762, 0.4), v100, z0, tNozzle, \Wobj := wobjPlatform;
		WaitRob \InPos;
		SetDO DO5_Program_Feed, 1;
		MoveL Offs(pZero, 4.77, 4.759, 0.4), v30, z0, tNozzle, \Wobj := wobjPlatform;
		WaitRob \InPos;
		SetDO DO5_Program_Feed, 0;
		MoveL Offs(pZero, 2.147, 6.379, 0.4), v100, z0, tNozzle, \Wobj := wobjPlatform;
		WaitRob \InPos;
		SetDO DO5_Program_Feed, 1;
		MoveL Offs(pZero, -6.375, -2.143, 0.4), v30, z0, tNozzle, \Wobj := wobjPlatform;
		WaitRob \InPos;
		SetDO DO5_Program_Feed, 0;
		MoveL Offs(pZero, -6.397, 2.077, 0.4), v100, z0, tNozzle, \Wobj := wobjPlatform;
		WaitRob \InPos;
		SetDO DO5_Program_Feed, 1;
		MoveL Offs(pZero, -2.072, 6.402, 0.4), v30, z0, tNozzle, \Wobj := wobjPlatform;
		WaitRob \InPos;
		SetDO DO6_Between_Layer_Retract, 1;
		SetDO DO5_Program_Feed, 0;
		MoveL Offs(pZero, -2.072, 6.402, 5.4), v100, z0, tNozzle, \Wobj := wobjPlatform;

		! Layer: 3
		! LayerParams(infillAngleDegrees=0.0, pathWidth=3.0, layerHeight=0.2, infillShiftX=0.0, infillShiftY=0.0, numShells=1, infillOverlap=0.0002)
		! T13
		! M6
		TPWRITE "Layer 3 of 170";
		MoveL Offs(pZero, 2.017, -6.963, 5.6), v100, z0, tNozzle, \Wobj := wobjPlatform;
		MoveL Offs(pZero, 2.017, -6.963, 0.6), v30, z0, tNozzle, \Wobj := wobjPlatform;
		WaitRob \InPos;
		SetDO DO6_Between_Layer_Retract, 0;
		WaitRob \InPos;
		SetDO DO5_Program_Feed, 1;
		MoveL Offs(pZero, 3.108, -6.549, 0.6), v30, z0, tNozzle, \Wobj := wobjPlatform;
		MoveL Offs(pZero, 4.118, -5.966, 0.6), v30, z0, tNozzle, \Wobj := wobjPlatform;
		MoveL Offs(pZero, 5.022, -5.228, 0.6), v30, z0, tNozzle, \Wobj := wobjPlatform;
		MoveL Offs(pZero, 5.795, -4.355, 0.6), v30, z0, tNozzle, \Wobj := wobjPlatform;
		MoveL Offs(pZero, 6.419, -3.369, 0.6), v30, z0, tNozzle, \Wobj := wobjPlatform;
		MoveL Offs(pZero, 6.876, -2.296, 0.6), v30, z0, tNozzle, \Wobj := wobjPlatform;
		MoveL Offs(pZero, 7.155, -1.163, 0.6), v30, z0, tNozzle, \Wobj := wobjPlatform;
		MoveL Offs(pZero, 7.249, -0.0, 0.6), v30, z0, tNozzle, \Wobj := wobjPlatform;
		MoveL Offs(pZero, 7.155, 1.163, 0.6), v30, z0, tNozzle, \Wobj := wobjPlatform;
		MoveL Offs(pZero, 6.876, 2.296, 0.6), v30, z0, tNozzle, \Wobj := wobjPlatform;
		MoveL Offs(pZero, 6.419, 3.369, 0.6), v30, z0, tNozzle, \Wobj := wobjPlatform;
		MoveL Offs(pZero, 5.795, 4.355, 0.6), v30, z0, tNozzle, \Wobj := wobjPlatform;
		MoveL Offs(pZero, 5.022, 5.228, 0.6), v30, z0, tNozzle, \Wobj := wobjPlatform;
		MoveL Offs(pZero, 4.118, 5.966, 0.6), v30, z0, tNozzle, \Wobj := wobjPlatform;
		MoveL Offs(pZero, 3.108, 6.549, 0.6), v30, z0, tNozzle, \Wobj := wobjPlatform;
		MoveL Offs(pZero, 2.017, 6.963, 0.6), v30, z0, tNozzle, \Wobj := wobjPlatform;
		MoveL Offs(pZero, 0.874, 7.196, 0.6), v30, z0, tNozzle, \Wobj := wobjPlatform;
		MoveL Offs(pZero, -0.292, 7.243, 0.6), v30, z0, tNozzle, \Wobj := wobjPlatform;
		MoveL Offs(pZero, -1.45, 7.103, 0.6), v30, z0, tNozzle, \Wobj := wobjPlatform;
		MoveL Offs(pZero, -2.571, 6.778, 0.6), v30, z0, tNozzle, \Wobj := wobjPlatform;
		MoveL Offs(pZero, -3.625, 6.278, 0.6), v30, z0, tNozzle, \Wobj := wobjPlatform;
		MoveL Offs(pZero, -4.585, 5.615, 0.6), v30, z0, tNozzle, \Wobj := wobjPlatform;
		MoveL Offs(pZero, -5.426, 4.807, 0.6), v30, z0, tNozzle, \Wobj := wobjPlatform;
		MoveL Offs(pZero, -6.127, 3.874, 0.6), v30, z0, tNozzle, \Wobj := wobjPlatform;
		MoveL Offs(pZero, -6.669, 2.841, 0.6), v30, z0, tNozzle, \Wobj := wobjPlatform;
		MoveL Offs(pZero, -7.039, 1.735, 0.6), v30, z0, tNozzle, \Wobj := wobjPlatform;
		MoveL Offs(pZero, -7.226, 0.583, 0.6), v30, z0, tNozzle, \Wobj := wobjPlatform;
		MoveL Offs(pZero, -7.226, -0.583, 0.6), v30, z0, tNozzle, \Wobj := wobjPlatform;
		MoveL Offs(pZero, -7.039, -1.735, 0.6), v30, z0, tNozzle, \Wobj := wobjPlatform;
		MoveL Offs(pZero, -6.669, -2.841, 0.6), v30, z0, tNozzle, \Wobj := wobjPlatform;
		MoveL Offs(pZero, -6.127, -3.874, 0.6), v30, z0, tNozzle, \Wobj := wobjPlatform;
		MoveL Offs(pZero, -5.426, -4.807, 0.6), v30, z0, tNozzle, \Wobj := wobjPlatform;
		MoveL Offs(pZero, -4.585, -5.615, 0.6), v30, z0, tNozzle, \Wobj := wobjPlatform;
		MoveL Offs(pZero, -3.625, -6.278, 0.6), v30, z0, tNozzle, \Wobj := wobjPlatform;
		MoveL Offs(pZero, -2.571, -6.778, 0.6), v30, z0, tNozzle, \Wobj := wobjPlatform;
		MoveL Offs(pZero, -1.45, -7.103, 0.6), v30, z0, tNozzle, \Wobj := wobjPlatform;
		MoveL Offs(pZero, -0.292, -7.243, 0.6), v30, z0, tNozzle, \Wobj := wobjPlatform;
		MoveL Offs(pZero, 0.874, -7.196, 0.6), v30, z0, tNozzle, \Wobj := wobjPlatform;
		MoveL Offs(pZero, 2.017, -6.963, 0.6), v30, z0, tNozzle, \Wobj := wobjPlatform;
		WaitRob \InPos;
		SetDO DO5_Program_Feed, 0;
		MoveL Offs(pZero, 3.059, -6.0, 0.6), v100, z0, tNozzle, \Wobj := wobjPlatform;
		WaitRob \InPos;
		SetDO DO5_Program_Feed, 1;
		MoveL Offs(pZero, -3.045, -6.0, 0.6), v30, z0, tNozzle, \Wobj := wobjPlatform;
		WaitRob \InPos;
		SetDO DO5_Program_Feed, 0;
		MoveL Offs(pZero, -6.021, -3.0, 0.6), v100, z0, tNozzle, \Wobj := wobjPlatform;
		WaitRob \InPos;
		SetDO DO5_Program_Feed, 1;
		MoveL Offs(pZero, 6.033, -3.0, 0.6), v30, z0, tNozzle, \Wobj := wobjPlatform;
		WaitRob \InPos;
		SetDO DO5_Program_Feed, 0;
		MoveL Offs(pZero, 6.748, 0.0, 0.6), v100, z0, tNozzle, \Wobj := wobjPlatform;
		WaitRob \InPos;
		SetDO DO5_Program_Feed, 1;
		MoveL Offs(pZero, -6.726, 0.0, 0.6), v30, z0, tNozzle, \Wobj := wobjPlatform;
		WaitRob \InPos;
		SetDO DO5_Program_Feed, 0;
		MoveL Offs(pZero, -6.021, 3.0, 0.6), v100, z0, tNozzle, \Wobj := wobjPlatform;
		WaitRob \InPos;
		SetDO DO5_Program_Feed, 1;
		MoveL Offs(pZero, 6.033, 3.0, 0.6), v30, z0, tNozzle, \Wobj := wobjPlatform;
		WaitRob \InPos;
		SetDO DO5_Program_Feed, 0;
		MoveL Offs(pZero, 3.059, 6.0, 0.6), v100, z0, tNozzle, \Wobj := wobjPlatform;
		WaitRob \InPos;
		SetDO DO5_Program_Feed, 1;
		MoveL Offs(pZero, -3.045, 6.0, 0.6), v30, z0, tNozzle, \Wobj := wobjPlatform;
		WaitRob \InPos;
		SetDO DO6_Between_Layer_Retract, 1;
		SetDO DO5_Program_Feed, 0;
		MoveL Offs(pZero, -3.045, 6.0, 5.6), v100, z0, tNozzle, \Wobj := wobjPlatform;

		! Layer: 4
		! LayerParams(infillAngleDegrees=90.0, pathWidth=3.0, layerHeight=0.2, infillShiftX=0.0, infillShiftY=0.0, numShells=1, infillOverlap=0.0002)
		! T14
		! M6
		TPWRITE "Layer 4 of 170";
		MoveL Offs(pZero, -4.585, 5.615, 5.8), v100, z0, tNozzle, \Wobj := wobjPlatform;
		MoveL Offs(pZero, -4.585, 5.615, 0.8), v30, z0, tNozzle, \Wobj := wobjPlatform;
		WaitRob \InPos;
		SetDO DO6_Between_Layer_Retract, 0;
		WaitRob \InPos;
		SetDO DO5_Program_Feed, 1;
		MoveL Offs(pZero, -5.426, 4.807, 0.8), v30, z0, tNozzle, \Wobj := wobjPlatform;
		MoveL Offs(pZero, -6.127, 3.874, 0.8), v30, z0, tNozzle, \Wobj := wobjPlatform;
		MoveL Offs(pZero, -6.669, 2.841, 0.8), v30, z0, tNozzle, \Wobj := wobjPlatform;
		MoveL Offs(pZero, -7.039, 1.735, 0.8), v30, z0, tNozzle, \Wobj := wobjPlatform;
		MoveL Offs(pZero, -7.226, 0.583, 0.8), v30, z0, tNozzle, \Wobj := wobjPlatform;
		MoveL Offs(pZero, -7.226, -0.583, 0.8), v30, z0, tNozzle, \Wobj := wobjPlatform;
		MoveL Offs(pZero, -7.039, -1.735, 0.8), v30, z0, tNozzle, \Wobj := wobjPlatform;
		MoveL Offs(pZero, -6.669, -2.841, 0.8), v30, z0, tNozzle, \Wobj := wobjPlatform;
		MoveL Offs(pZero, -6.127, -3.874, 0.8), v30, z0, tNozzle, \Wobj := wobjPlatform;
		MoveL Offs(pZero, -5.426, -4.807, 0.8), v30, z0, tNozzle, \Wobj := wobjPlatform;
		MoveL Offs(pZero, -4.585, -5.615, 0.8), v30, z0, tNozzle, \Wobj := wobjPlatform;
		MoveL Offs(pZero, -3.625, -6.278, 0.8), v30, z0, tNozzle, \Wobj := wobjPlatform;
		MoveL Offs(pZero, -2.571, -6.778, 0.8), v30, z0, tNozzle, \Wobj := wobjPlatform;
		MoveL Offs(pZero, -1.45, -7.103, 0.8), v30, z0, tNozzle, \Wobj := wobjPlatform;
		MoveL Offs(pZero, -0.292, -7.243, 0.8), v30, z0, tNozzle, \Wobj := wobjPlatform;
		MoveL Offs(pZero, 0.874, -7.196, 0.8), v30, z0, tNozzle, \Wobj := wobjPlatform;
		MoveL Offs(pZero, 2.017, -6.963, 0.8), v30, z0, tNozzle, \Wobj := wobjPlatform;
		MoveL Offs(pZero, 3.108, -6.549, 0.8), v30, z0, tNozzle, \Wobj := wobjPlatform;
		MoveL Offs(pZero, 4.118, -5.966, 0.8), v30, z0, tNozzle, \Wobj := wobjPlatform;
		MoveL Offs(pZero, 5.022, -5.228, 0.8), v30, z0, tNozzle, \Wobj := wobjPlatform;
		MoveL Offs(pZero, 5.795, -4.355, 0.8), v30, z0, tNozzle, \Wobj := wobjPlatform;
		MoveL Offs(pZero, 6.419, -3.369, 0.8), v30, z0, tNozzle, \Wobj := wobjPlatform;
		MoveL Offs(pZero, 6.876, -2.296, 0.8), v30, z0, tNozzle, \Wobj := wobjPlatform;
		MoveL Offs(pZero, 7.155, -1.163, 0.8), v30, z0, tNozzle, \Wobj := wobjPlatform;
		MoveL Offs(pZero, 7.249, -0.0, 0.8), v30, z0, tNozzle, \Wobj := wobjPlatform;
		MoveL Offs(pZero, 7.155, 1.163, 0.8), v30, z0, tNozzle, \Wobj := wobjPlatform;
		MoveL Offs(pZero, 6.876, 2.296, 0.8), v30, z0, tNozzle, \Wobj := wobjPlatform;
		MoveL Offs(pZero, 6.419, 3.369, 0.8), v30, z0, tNozzle, \Wobj := wobjPlatform;
		MoveL Offs(pZero, 5.795, 4.355, 0.8), v30, z0, tNozzle, \Wobj := wobjPlatform;
		MoveL Offs(pZero, 5.022, 5.228, 0.8), v30, z0, tNozzle, \Wobj := wobjPlatform;
		MoveL Offs(pZero, 4.118, 5.966, 0.8), v30, z0, tNozzle, \Wobj := wobjPlatform;
		MoveL Offs(pZero, 3.108, 6.549, 0.8), v30, z0, tNozzle, \Wobj := wobjPlatform;
		MoveL Offs(pZero, 2.017, 6.963, 0.8), v30, z0, tNozzle, \Wobj := wobjPlatform;
		MoveL Offs(pZero, 0.874, 7.196, 0.8), v30, z0, tNozzle, \Wobj := wobjPlatform;
		MoveL Offs(pZero, -0.292, 7.243, 0.8), v30, z0, tNozzle, \Wobj := wobjPlatform;
		MoveL Offs(pZero, -1.45, 7.103, 0.8), v30, z0, tNozzle, \Wobj := wobjPlatform;
		MoveL Offs(pZero, -2.571, 6.778, 0.8), v30, z0, tNozzle, \Wobj := wobjPlatform;
		MoveL Offs(pZero, -3.625, 6.278, 0.8), v30, z0, tNozzle, \Wobj := wobjPlatform;
		MoveL Offs(pZero, -4.585, 5.615, 0.8), v30, z0, tNozzle, \Wobj := wobjPlatform;
		WaitRob \InPos;
		SetDO DO5_Program_Feed, 0;
		MoveL Offs(pZero, -2.989, 6.026, 0.8), v100, z0, tNozzle, \Wobj := wobjPlatform;
		WaitRob \InPos;
		SetDO DO5_Program_Feed, 1;
		MoveL Offs(pZero, -2.989, -6.026, 0.8), v30, z0, tNozzle, \Wobj := wobjPlatform;
		WaitRob \InPos;
		SetDO DO5_Program_Feed, 0;
		MoveL Offs(pZero, 0.011, -6.731, 0.8), v100, z0, tNozzle, \Wobj := wobjPlatform;
		WaitRob \InPos;
		SetDO DO5_Program_Feed, 1;
		MoveL Offs(pZero, 0.011, 6.731, 0.8), v30, z0, tNozzle, \Wobj := wobjPlatform;
		WaitRob \InPos;
		SetDO DO5_Program_Feed, 0;
		MoveL Offs(pZero, 3.011, 6.028, 0.8), v100, z0, tNozzle, \Wobj := wobjPlatform;
		WaitRob \InPos;
		SetDO DO5_Program_Feed, 1;
		MoveL Offs(pZero, 3.011, -6.028, 0.8), v30, z0, tNozzle, \Wobj := wobjPlatform;
		WaitRob \InPos;
		SetDO DO5_Program_Feed, 0;
		MoveL Offs(pZero, 6.011, -3.051, 0.8), v100, z0, tNozzle, \Wobj := wobjPlatform;
		WaitRob \InPos;
		SetDO DO5_Program_Feed, 1;
		MoveL Offs(pZero, 6.011, 3.051, 0.8), v30, z0, tNozzle, \Wobj := wobjPlatform;
		WaitRob \InPos;
		SetDO DO5_Program_Feed, 0;
		MoveL Offs(pZero, -5.989, 3.062, 0.8), v100, z0, tNozzle, \Wobj := wobjPlatform;
		WaitRob \InPos;
		SetDO DO5_Program_Feed, 1;
		MoveL Offs(pZero, -5.989, -3.062, 0.8), v30, z0, tNozzle, \Wobj := wobjPlatform;
		WaitRob \InPos;
		SetDO DO6_Between_Layer_Retract, 1;
		SetDO DO5_Program_Feed, 0;
		MoveL Offs(pZero, -5.989, -3.062, 5.8), v100, z0, tNozzle, \Wobj := wobjPlatform;

		! Layer: 5
		! LayerParams(infillAngleDegrees=-45.0, pathWidth=3.0, layerHeight=0.2, infillShiftX=0.0, infillShiftY=0.0, numShells=1, infillOverlap=0.0002)
		! T15
		! M6
		TPWRITE "Layer 5 of 170";
		MoveL Offs(pZero, 6.876, 2.296, 6.0), v100, z0, tNozzle, \Wobj := wobjPlatform;
		MoveL Offs(pZero, 6.876, 2.296, 1.0), v30, z0, tNozzle, \Wobj := wobjPlatform;
		WaitRob \InPos;
		SetDO DO6_Between_Layer_Retract, 0;
		WaitRob \InPos;
		SetDO DO5_Program_Feed, 1;
		MoveL Offs(pZero, 6.419, 3.369, 1.0), v30, z0, tNozzle, \Wobj := wobjPlatform;
		MoveL Offs(pZero, 5.795, 4.355, 1.0), v30, z0, tNozzle, \Wobj := wobjPlatform;
		MoveL Offs(pZero, 5.022, 5.228, 1.0), v30, z0, tNozzle, \Wobj := wobjPlatform;
		MoveL Offs(pZero, 4.118, 5.966, 1.0), v30, z0, tNozzle, \Wobj := wobjPlatform;
		MoveL Offs(pZero, 3.108, 6.549, 1.0), v30, z0, tNozzle, \Wobj := wobjPlatform;
		MoveL Offs(pZero, 2.017, 6.963, 1.0), v30, z0, tNozzle, \Wobj := wobjPlatform;
		MoveL Offs(pZero, 0.874, 7.196, 1.0), v30, z0, tNozzle, \Wobj := wobjPlatform;
		MoveL Offs(pZero, -0.292, 7.243, 1.0), v30, z0, tNozzle, \Wobj := wobjPlatform;
		MoveL Offs(pZero, -1.45, 7.103, 1.0), v30, z0, tNozzle, \Wobj := wobjPlatform;
		MoveL Offs(pZero, -2.571, 6.778, 1.0), v30, z0, tNozzle, \Wobj := wobjPlatform;
		MoveL Offs(pZero, -3.625, 6.278, 1.0), v30, z0, tNozzle, \Wobj := wobjPlatform;
		MoveL Offs(pZero, -4.585, 5.615, 1.0), v30, z0, tNozzle, \Wobj := wobjPlatform;
		MoveL Offs(pZero, -5.426, 4.807, 1.0), v30, z0, tNozzle, \Wobj := wobjPlatform;
		MoveL Offs(pZero, -6.127, 3.874, 1.0), v30, z0, tNozzle, \Wobj := wobjPlatform;
		MoveL Offs(pZero, -6.669, 2.841, 1.0), v30, z0, tNozzle, \Wobj := wobjPlatform;
		MoveL Offs(pZero, -7.039, 1.735, 1.0), v30, z0, tNozzle, \Wobj := wobjPlatform;
		MoveL Offs(pZero, -7.226, 0.583, 1.0), v30, z0, tNozzle, \Wobj := wobjPlatform;
		MoveL Offs(pZero, -7.226, -0.583, 1.0), v30, z0, tNozzle, \Wobj := wobjPlatform;
		MoveL Offs(pZero, -7.039, -1.735, 1.0), v30, z0, tNozzle, \Wobj := wobjPlatform;
		MoveL Offs(pZero, -6.669, -2.841, 1.0), v30, z0, tNozzle, \Wobj := wobjPlatform;
		MoveL Offs(pZero, -6.127, -3.874, 1.0), v30, z0, tNozzle, \Wobj := wobjPlatform;
		MoveL Offs(pZero, -5.426, -4.807, 1.0), v30, z0, tNozzle, \Wobj := wobjPlatform;
		MoveL Offs(pZero, -4.585, -5.615, 1.0), v30, z0, tNozzle, \Wobj := wobjPlatform;
		MoveL Offs(pZero, -3.625, -6.278, 1.0), v30, z0, tNozzle, \Wobj := wobjPlatform;
		MoveL Offs(pZero, -2.571, -6.778, 1.0), v30, z0, tNozzle, \Wobj := wobjPlatform;
		MoveL Offs(pZero, -1.45, -7.103, 1.0), v30, z0, tNozzle, \Wobj := wobjPlatform;
		MoveL Offs(pZero, -0.292, -7.243, 1.0), v30, z0, tNozzle, \Wobj := wobjPlatform;
		MoveL Offs(pZero, 0.874, -7.196, 1.0), v30, z0, tNozzle, \Wobj := wobjPlatform;
		MoveL Offs(pZero, 2.017, -6.963, 1.0), v30, z0, tNozzle, \Wobj := wobjPlatform;
		MoveL Offs(pZero, 3.108, -6.549, 1.0), v30, z0, tNozzle, \Wobj := wobjPlatform;
		MoveL Offs(pZero, 4.118, -5.966, 1.0), v30, z0, tNozzle, \Wobj := wobjPlatform;
		MoveL Offs(pZero, 5.022, -5.228, 1.0), v30, z0, tNozzle, \Wobj := wobjPlatform;
		MoveL Offs(pZero, 5.795, -4.355, 1.0), v30, z0, tNozzle, \Wobj := wobjPlatform;
		MoveL Offs(pZero, 6.419, -3.369, 1.0), v30, z0, tNozzle, \Wobj := wobjPlatform;
		MoveL Offs(pZero, 6.876, -2.296, 1.0), v30, z0, tNozzle, \Wobj := wobjPlatform;
		MoveL Offs(pZero, 7.155, -1.163, 1.0), v30, z0, tNozzle, \Wobj := wobjPlatform;
		MoveL Offs(pZero, 7.249, -0.0, 1.0), v30, z0, tNozzle, \Wobj := wobjPlatform;
		MoveL Offs(pZero, 7.155, 1.163, 1.0), v30, z0, tNozzle, \Wobj := wobjPlatform;
		MoveL Offs(pZero, 6.876, 2.296, 1.0), v30, z0, tNozzle, \Wobj := wobjPlatform;
		WaitRob \InPos;
		SetDO DO5_Program_Feed, 0;
		MoveL Offs(pZero, 6.414, 2.082, 1.0), v100, z0, tNozzle, \Wobj := wobjPlatform;
		WaitRob \InPos;
		SetDO DO5_Program_Feed, 1;
		MoveL Offs(pZero, 2.099, 6.397, 1.0), v30, z0, tNozzle, \Wobj := wobjPlatform;
		WaitRob \InPos;
		SetDO DO5_Program_Feed, 0;
		MoveL Offs(pZero, -2.131, 6.385, 1.0), v100, z0, tNozzle, \Wobj := wobjPlatform;
		WaitRob \InPos;
		SetDO DO5_Program_Feed, 1;
		MoveL Offs(pZero, 6.397, -2.144, 1.0), v30, z0, tNozzle, \Wobj := wobjPlatform;
		WaitRob \InPos;
		SetDO DO5_Program_Feed, 0;
		MoveL Offs(pZero, 4.77, -4.759, 1.0), v100, z0, tNozzle, \Wobj := wobjPlatform;
		WaitRob \InPos;
		SetDO DO5_Program_Feed, 1;
		MoveL Offs(pZero, -4.751, 4.762, 1.0), v30, z0, tNozzle, \Wobj := wobjPlatform;
		WaitRob \InPos;
		SetDO DO5_Program_Feed, 0;
		MoveL Offs(pZero, -6.375, 2.143, 1.0), v100, z0, tNozzle, \Wobj := wobjPlatform;
		WaitRob \InPos;
		SetDO DO5_Program_Feed, 1;
		MoveL Offs(pZero, 2.147, -6.379, 1.0), v30, z0, tNozzle, \Wobj := wobjPlatform;
		WaitRob \InPos;
		SetDO DO5_Program_Feed, 0;
		MoveL Offs(pZero, -2.072, -6.402, 1.0), v100, z0, tNozzle, \Wobj := wobjPlatform;
		WaitRob \InPos;
		SetDO DO5_Program_Feed, 1;
		MoveL Offs(pZero, -6.397, -2.077, 1.0), v30, z0, tNozzle, \Wobj := wobjPlatform;
		WaitRob \InPos;
		SetDO DO6_Between_Layer_Retract, 1;
		SetDO DO5_Program_Feed, 0;
		MoveL Offs(pZero, -6.397, -2.077, 6.0), v100, z0, tNozzle, \Wobj := wobjPlatform;

		! Layer: 6
		! LayerParams(infillAngleDegrees=45.0, pathWidth=3.0, layerHeight=0.2, infillShiftX=0.0, infillShiftY=0.0, numShells=1, infillOverlap=0.0002)
		! T16
		! M6
		TPWRITE "Layer 6 of 170";
		MoveL Offs(pZero, -4.585, -5.615, 6.2), v100, z0, tNozzle, \Wobj := wobjPlatform;
		MoveL Offs(pZero, -4.585, -5.615, 1.2), v30, z0, tNozzle, \Wobj := wobjPlatform;
		WaitRob \InPos;
		SetDO DO6_Between_Layer_Retract, 0;
		WaitRob \InPos;
		SetDO DO5_Program_Feed, 1;
		MoveL Offs(pZero, -3.625, -6.278, 1.2), v30, z0, tNozzle, \Wobj := wobjPlatform;
		MoveL Offs(pZero, -2.571, -6.778, 1.2), v30, z0, tNozzle, \Wobj := wobjPlatform;
		MoveL Offs(pZero, -1.45, -7.103, 1.2), v30, z0, tNozzle, \Wobj := wobjPlatform;
		MoveL Offs(pZero, -0.292, -7.243, 1.2), v30, z0, tNozzle, \Wobj := wobjPlatform;
		MoveL Offs(pZero, 0.874, -7.196, 1.2), v30, z0, tNozzle, \Wobj := wobjPlatform;
		MoveL Offs(pZero, 2.017, -6.963, 1.2), v30, z0, tNozzle, \Wobj := wobjPlatform;
		MoveL Offs(pZero, 3.108, -6.549, 1.2), v30, z0, tNozzle, \Wobj := wobjPlatform;
		MoveL Offs(pZero, 4.118, -5.966, 1.2), v30, z0, tNozzle, \Wobj := wobjPlatform;
		MoveL Offs(pZero, 5.022, -5.228, 1.2), v30, z0, tNozzle, \Wobj := wobjPlatform;
		MoveL Offs(pZero, 5.795, -4.355, 1.2), v30, z0, tNozzle, \Wobj := wobjPlatform;
		MoveL Offs(pZero, 6.419, -3.369, 1.2), v30, z0, tNozzle, \Wobj := wobjPlatform;
		MoveL Offs(pZero, 6.876, -2.296, 1.2), v30, z0, tNozzle, \Wobj := wobjPlatform;
		MoveL Offs(pZero, 7.155, -1.163, 1.2), v30, z0, tNozzle, \Wobj := wobjPlatform;
		MoveL Offs(pZero, 7.249, -0.0, 1.2), v30, z0, tNozzle, \Wobj := wobjPlatform;
		MoveL Offs(pZero, 7.155, 1.163, 1.2), v30, z0, tNozzle, \Wobj := wobjPlatform;
		MoveL Offs(pZero, 6.876, 2.296, 1.2), v30, z0, tNozzle, \Wobj := wobjPlatform;
		MoveL Offs(pZero, 6.419, 3.369, 1.2), v30, z0, tNozzle, \Wobj := wobjPlatform;
		MoveL Offs(pZero, 5.795, 4.355, 1.2), v30, z0, tNozzle, \Wobj := wobjPlatform;
		MoveL Offs(pZero, 5.022, 5.228, 1.2), v30, z0, tNozzle, \Wobj := wobjPlatform;
		MoveL Offs(pZero, 4.118, 5.966, 1.2), v30, z0, tNozzle, \Wobj := wobjPlatform;
		MoveL Offs(pZero, 3.108, 6.549, 1.2), v30, z0, tNozzle, \Wobj := wobjPlatform;
		MoveL Offs(pZero, 2.017, 6.963, 1.2), v30, z0, tNozzle, \Wobj := wobjPlatform;
		MoveL Offs(pZero, 0.874, 7.196, 1.2), v30, z0, tNozzle, \Wobj := wobjPlatform;
		MoveL Offs(pZero, -0.292, 7.243, 1.2), v30, z0, tNozzle, \Wobj := wobjPlatform;
		MoveL Offs(pZero, -1.45, 7.103, 1.2), v30, z0, tNozzle, \Wobj := wobjPlatform;
		MoveL Offs(pZero, -2.571, 6.778, 1.2), v30, z0, tNozzle, \Wobj := wobjPlatform;
		MoveL Offs(pZero, -3.625, 6.278, 1.2), v30, z0, tNozzle, \Wobj := wobjPlatform;
		MoveL Offs(pZero, -4.585, 5.615, 1.2), v30, z0, tNozzle, \Wobj := wobjPlatform;
		MoveL Offs(pZero, -5.426, 4.807, 1.2), v30, z0, tNozzle, \Wobj := wobjPlatform;
		MoveL Offs(pZero, -6.127, 3.874, 1.2), v30, z0, tNozzle, \Wobj := wobjPlatform;
		MoveL Offs(pZero, -6.669, 2.841, 1.2), v30, z0, tNozzle, \Wobj := wobjPlatform;
		MoveL Offs(pZero, -7.039, 1.735, 1.2), v30, z0, tNozzle, \Wobj := wobjPlatform;
		MoveL Offs(pZero, -7.226, 0.583, 1.2), v30, z0, tNozzle, \Wobj := wobjPlatform;
		MoveL Offs(pZero, -7.226, -0.583, 1.2), v30, z0, tNozzle, \Wobj := wobjPlatform;
		MoveL Offs(pZero, -7.039, -1.735, 1.2), v30, z0, tNozzle, \Wobj := wobjPlatform;
		MoveL Offs(pZero, -6.669, -2.841, 1.2), v30, z0, tNozzle, \Wobj := wobjPlatform;
		MoveL Offs(pZero, -6.127, -3.874, 1.2), v30, z0, tNozzle, \Wobj := wobjPlatform;
		MoveL Offs(pZero, -5.426, -4.807, 1.2), v30, z0, tNozzle, \Wobj := wobjPlatform;
		MoveL Offs(pZero, -4.585, -5.615, 1.2), v30, z0, tNozzle, \Wobj := wobjPlatform;
		WaitRob \InPos;
		SetDO DO5_Program_Feed, 0;
		MoveL Offs(pZero, -4.751, -4.762, 1.2), v100, z0, tNozzle, \Wobj := wobjPlatform;
		WaitRob \InPos;
		SetDO DO5_Program_Feed, 1;
		MoveL Offs(pZero, 4.77, 4.759, 1.2), v30, z0, tNozzle, \Wobj := wobjPlatform;
		WaitRob \InPos;
		SetDO DO5_Program_Feed, 0;
		MoveL Offs(pZero, 6.397, 2.144, 1.2), v100, z0, tNozzle, \Wobj := wobjPlatform;
		WaitRob \InPos;
		SetDO DO5_Program_Feed, 1;
		MoveL Offs(pZero, -2.131, -6.385, 1.2), v30, z0, tNozzle, \Wobj := wobjPlatform;
		WaitRob \InPos;
		SetDO DO5_Program_Feed, 0;
		MoveL Offs(pZero, 2.099, -6.397, 1.2), v100, z0, tNozzle, \Wobj := wobjPlatform;
		WaitRob \InPos;
		SetDO DO5_Program_Feed, 1;
		MoveL Offs(pZero, 6.414, -2.082, 1.2), v30, z0, tNozzle, \Wobj := wobjPlatform;
		WaitRob \InPos;
		SetDO DO5_Program_Feed, 0;
		MoveL Offs(pZero, 2.147, 6.379, 1.2), v100, z0, tNozzle, \Wobj := wobjPlatform;
		WaitRob \InPos;
		SetDO DO5_Program_Feed, 1;
		MoveL Offs(pZero, -6.375, -2.143, 1.2), v30, z0, tNozzle, \Wobj := wobjPlatform;
		WaitRob \InPos;
		SetDO DO5_Program_Feed, 0;
		MoveL Offs(pZero, -6.397, 2.077, 1.2), v100, z0, tNozzle, \Wobj := wobjPlatform;
		WaitRob \InPos;
		SetDO DO5_Program_Feed, 1;
		MoveL Offs(pZero, -2.072, 6.402, 1.2), v30, z0, tNozzle, \Wobj := wobjPlatform;
		WaitRob \InPos;
		SetDO DO6_Between_Layer_Retract, 1;
		SetDO DO5_Program_Feed, 0;
		MoveL Offs(pZero, -2.072, 6.402, 6.2), v100, z0, tNozzle, \Wobj := wobjPlatform;

		! Layer: 7
		! LayerParams(infillAngleDegrees=0.0, pathWidth=3.0, layerHeight=0.2, infillShiftX=0.0, infillShiftY=0.0, numShells=1, infillOverlap=0.0002)
		! T17
		! M6
		TPWRITE "Layer 7 of 170";
		MoveL Offs(pZero, 7.155, 1.163, 6.4), v100, z0, tNozzle, \Wobj := wobjPlatform;
		MoveL Offs(pZero, 7.155, 1.163, 1.4), v30, z0, tNozzle, \Wobj := wobjPlatform;
		WaitRob \InPos;
		SetDO DO6_Between_Layer_Retract, 0;
		WaitRob \InPos;
		SetDO DO5_Program_Feed, 1;
		MoveL Offs(pZero, 6.876, 2.296, 1.4), v30, z0, tNozzle, \Wobj := wobjPlatform;
		MoveL Offs(pZero, 6.419, 3.369, 1.4), v30, z0, tNozzle, \Wobj := wobjPlatform;
		MoveL Offs(pZero, 5.795, 4.355, 1.4), v30, z0, tNozzle, \Wobj := wobjPlatform;
		MoveL Offs(pZero, 5.022, 5.228, 1.4), v30, z0, tNozzle, \Wobj := wobjPlatform;
		MoveL Offs(pZero, 4.118, 5.966, 1.4), v30, z0, tNozzle, \Wobj := wobjPlatform;
		MoveL Offs(pZero, 3.108, 6.549, 1.4), v30, z0, tNozzle, \Wobj := wobjPlatform;
		MoveL Offs(pZero, 2.017, 6.963, 1.4), v30, z0, tNozzle, \Wobj := wobjPlatform;
		MoveL Offs(pZero, 0.874, 7.196, 1.4), v30, z0, tNozzle, \Wobj := wobjPlatform;
		MoveL Offs(pZero, -0.292, 7.243, 1.4), v30, z0, tNozzle, \Wobj := wobjPlatform;
		MoveL Offs(pZero, -1.45, 7.103, 1.4), v30, z0, tNozzle, \Wobj := wobjPlatform;
		MoveL Offs(pZero, -2.571, 6.778, 1.4), v30, z0, tNozzle, \Wobj := wobjPlatform;
		MoveL Offs(pZero, -3.625, 6.278, 1.4), v30, z0, tNozzle, \Wobj := wobjPlatform;
		MoveL Offs(pZero, -4.585, 5.615, 1.4), v30, z0, tNozzle, \Wobj := wobjPlatform;
		MoveL Offs(pZero, -5.426, 4.807, 1.4), v30, z0, tNozzle, \Wobj := wobjPlatform;
		MoveL Offs(pZero, -6.127, 3.874, 1.4), v30, z0, tNozzle, \Wobj := wobjPlatform;
		MoveL Offs(pZero, -6.669, 2.841, 1.4), v30, z0, tNozzle, \Wobj := wobjPlatform;
		MoveL Offs(pZero, -7.039, 1.735, 1.4), v30, z0, tNozzle, \Wobj := wobjPlatform;
		MoveL Offs(pZero, -7.226, 0.583, 1.4), v30, z0, tNozzle, \Wobj := wobjPlatform;
		MoveL Offs(pZero, -7.226, -0.583, 1.4), v30, z0, tNozzle, \Wobj := wobjPlatform;
		MoveL Offs(pZero, -7.039, -1.735, 1.4), v30, z0, tNozzle, \Wobj := wobjPlatform;
		MoveL Offs(pZero, -6.669, -2.841, 1.4), v30, z0, tNozzle, \Wobj := wobjPlatform;
		MoveL Offs(pZero, -6.127, -3.874, 1.4), v30, z0, tNozzle, \Wobj := wobjPlatform;
		MoveL Offs(pZero, -5.426, -4.807, 1.4), v30, z0, tNozzle, \Wobj := wobjPlatform;
		MoveL Offs(pZero, -4.585, -5.615, 1.4), v30, z0, tNozzle, \Wobj := wobjPlatform;
		MoveL Offs(pZero, -3.625, -6.278, 1.4), v30, z0, tNozzle, \Wobj := wobjPlatform;
		MoveL Offs(pZero, -2.571, -6.778, 1.4), v30, z0, tNozzle, \Wobj := wobjPlatform;
		MoveL Offs(pZero, -1.45, -7.103, 1.4), v30, z0, tNozzle, \Wobj := wobjPlatform;
		MoveL Offs(pZero, -0.292, -7.243, 1.4), v30, z0, tNozzle, \Wobj := wobjPlatform;
		MoveL Offs(pZero, 0.874, -7.196, 1.4), v30, z0, tNozzle, \Wobj := wobjPlatform;
		MoveL Offs(pZero, 2.017, -6.963, 1.4), v30, z0, tNozzle, \Wobj := wobjPlatform;
		MoveL Offs(pZero, 3.108, -6.549, 1.4), v30, z0, tNozzle, \Wobj := wobjPlatform;
		MoveL Offs(pZero, 4.118, -5.966, 1.4), v30, z0, tNozzle, \Wobj := wobjPlatform;
		MoveL Offs(pZero, 5.022, -5.228, 1.4), v30, z0, tNozzle, \Wobj := wobjPlatform;
		MoveL Offs(pZero, 5.795, -4.355, 1.4), v30, z0, tNozzle, \Wobj := wobjPlatform;
		MoveL Offs(pZero, 6.419, -3.369, 1.4), v30, z0, tNozzle, \Wobj := wobjPlatform;
		MoveL Offs(pZero, 6.876, -2.296, 1.4), v30, z0, tNozzle, \Wobj := wobjPlatform;
		MoveL Offs(pZero, 7.155, -1.163, 1.4), v30, z0, tNozzle, \Wobj := wobjPlatform;
		MoveL Offs(pZero, 7.249, -0.0, 1.4), v30, z0, tNozzle, \Wobj := wobjPlatform;
		MoveL Offs(pZero, 7.155, 1.163, 1.4), v30, z0, tNozzle, \Wobj := wobjPlatform;
		WaitRob \InPos;
		SetDO DO5_Program_Feed, 0;
		MoveL Offs(pZero, 6.748, 0.0, 1.4), v100, z0, tNozzle, \Wobj := wobjPlatform;
		WaitRob \InPos;
		SetDO DO5_Program_Feed, 1;
		MoveL Offs(pZero, -6.726, 0.0, 1.4), v30, z0, tNozzle, \Wobj := wobjPlatform;
		WaitRob \InPos;
		SetDO DO5_Program_Feed, 0;
		MoveL Offs(pZero, -6.021, 3.0, 1.4), v100, z0, tNozzle, \Wobj := wobjPlatform;
		WaitRob \InPos;
		SetDO DO5_Program_Feed, 1;
		MoveL Offs(pZero, 6.033, 3.0, 1.4), v30, z0, tNozzle, \Wobj := wobjPlatform;
		WaitRob \InPos;
		SetDO DO5_Program_Feed, 0;
		MoveL Offs(pZero, 3.059, 6.0, 1.4), v100, z0, tNozzle, \Wobj := wobjPlatform;
		WaitRob \InPos;
		SetDO DO5_Program_Feed, 1;
		MoveL Offs(pZero, -3.045, 6.0, 1.4), v30, z0, tNozzle, \Wobj := wobjPlatform;
		WaitRob \InPos;
		SetDO DO5_Program_Feed, 0;
		MoveL Offs(pZero, -6.021, -3.0, 1.4), v100, z0, tNozzle, \Wobj := wobjPlatform;
		WaitRob \InPos;
		SetDO DO5_Program_Feed, 1;
		MoveL Offs(pZero, 6.033, -3.0, 1.4), v30, z0, tNozzle, \Wobj := wobjPlatform;
		WaitRob \InPos;
		SetDO DO5_Program_Feed, 0;
		MoveL Offs(pZero, 3.059, -6.0, 1.4), v100, z0, tNozzle, \Wobj := wobjPlatform;
		WaitRob \InPos;
		SetDO DO5_Program_Feed, 1;
		MoveL Offs(pZero, -3.045, -6.0, 1.4), v30, z0, tNozzle, \Wobj := wobjPlatform;
		WaitRob \InPos;
		SetDO DO6_Between_Layer_Retract, 1;
		SetDO DO5_Program_Feed, 0;
		MoveL Offs(pZero, -3.045, -6.0, 6.4), v100, z0, tNozzle, \Wobj := wobjPlatform;

		! Layer: 8
		! LayerParams(infillAngleDegrees=90.0, pathWidth=3.0, layerHeight=0.2, infillShiftX=0.0, infillShiftY=0.0, numShells=1, infillOverlap=0.0002)
		! T18
		! M6
		TPWRITE "Layer 8 of 170";
		MoveL Offs(pZero, -7.039, 1.735, 6.6), v100, z0, tNozzle, \Wobj := wobjPlatform;
		MoveL Offs(pZero, -7.039, 1.735, 1.6), v30, z0, tNozzle, \Wobj := wobjPlatform;
		WaitRob \InPos;
		SetDO DO6_Between_Layer_Retract, 0;
		WaitRob \InPos;
		SetDO DO5_Program_Feed, 1;
		MoveL Offs(pZero, -7.226, 0.583, 1.6), v30, z0, tNozzle, \Wobj := wobjPlatform;
		MoveL Offs(pZero, -7.226, -0.583, 1.6), v30, z0, tNozzle, \Wobj := wobjPlatform;
		MoveL Offs(pZero, -7.039, -1.735, 1.6), v30, z0, tNozzle, \Wobj := wobjPlatform;
		MoveL Offs(pZero, -6.669, -2.841, 1.6), v30, z0, tNozzle, \Wobj := wobjPlatform;
		MoveL Offs(pZero, -6.127, -3.874, 1.6), v30, z0, tNozzle, \Wobj := wobjPlatform;
		MoveL Offs(pZero, -5.426, -4.807, 1.6), v30, z0, tNozzle, \Wobj := wobjPlatform;
		MoveL Offs(pZero, -4.585, -5.615, 1.6), v30, z0, tNozzle, \Wobj := wobjPlatform;
		MoveL Offs(pZero, -3.625, -6.278, 1.6), v30, z0, tNozzle, \Wobj := wobjPlatform;
		MoveL Offs(pZero, -2.571, -6.778, 1.6), v30, z0, tNozzle, \Wobj := wobjPlatform;
		MoveL Offs(pZero, -1.45, -7.103, 1.6), v30, z0, tNozzle, \Wobj := wobjPlatform;
		MoveL Offs(pZero, -0.292, -7.243, 1.6), v30, z0, tNozzle, \Wobj := wobjPlatform;
		MoveL Offs(pZero, 0.874, -7.196, 1.6), v30, z0, tNozzle, \Wobj := wobjPlatform;
		MoveL Offs(pZero, 2.017, -6.963, 1.6), v30, z0, tNozzle, \Wobj := wobjPlatform;
		MoveL Offs(pZero, 3.108, -6.549, 1.6), v30, z0, tNozzle, \Wobj := wobjPlatform;
		MoveL Offs(pZero, 4.118, -5.966, 1.6), v30, z0, tNozzle, \Wobj := wobjPlatform;
		MoveL Offs(pZero, 5.022, -5.228, 1.6), v30, z0, tNozzle, \Wobj := wobjPlatform;
		MoveL Offs(pZero, 5.795, -4.355, 1.6), v30, z0, tNozzle, \Wobj := wobjPlatform;
		MoveL Offs(pZero, 6.419, -3.369, 1.6), v30, z0, tNozzle, \Wobj := wobjPlatform;
		MoveL Offs(pZero, 6.876, -2.296, 1.6), v30, z0, tNozzle, \Wobj := wobjPlatform;
		MoveL Offs(pZero, 7.155, -1.163, 1.6), v30, z0, tNozzle, \Wobj := wobjPlatform;
		MoveL Offs(pZero, 7.249, -0.0, 1.6), v30, z0, tNozzle, \Wobj := wobjPlatform;
		MoveL Offs(pZero, 7.155, 1.163, 1.6), v30, z0, tNozzle, \Wobj := wobjPlatform;
		MoveL Offs(pZero, 6.876, 2.296, 1.6), v30, z0, tNozzle, \Wobj := wobjPlatform;
		MoveL Offs(pZero, 6.419, 3.369, 1.6), v30, z0, tNozzle, \Wobj := wobjPlatform;
		MoveL Offs(pZero, 5.795, 4.355, 1.6), v30, z0, tNozzle, \Wobj := wobjPlatform;
		MoveL Offs(pZero, 5.022, 5.228, 1.6), v30, z0, tNozzle, \Wobj := wobjPlatform;
		MoveL Offs(pZero, 4.118, 5.966, 1.6), v30, z0, tNozzle, \Wobj := wobjPlatform;
		MoveL Offs(pZero, 3.108, 6.549, 1.6), v30, z0, tNozzle, \Wobj := wobjPlatform;
		MoveL Offs(pZero, 2.017, 6.963, 1.6), v30, z0, tNozzle, \Wobj := wobjPlatform;
		MoveL Offs(pZero, 0.874, 7.196, 1.6), v30, z0, tNozzle, \Wobj := wobjPlatform;
		MoveL Offs(pZero, -0.292, 7.243, 1.6), v30, z0, tNozzle, \Wobj := wobjPlatform;
		MoveL Offs(pZero, -1.45, 7.103, 1.6), v30, z0, tNozzle, \Wobj := wobjPlatform;
		MoveL Offs(pZero, -2.571, 6.778, 1.6), v30, z0, tNozzle, \Wobj := wobjPlatform;
		MoveL Offs(pZero, -3.625, 6.278, 1.6), v30, z0, tNozzle, \Wobj := wobjPlatform;
		MoveL Offs(pZero, -4.585, 5.615, 1.6), v30, z0, tNozzle, \Wobj := wobjPlatform;
		MoveL Offs(pZero, -5.426, 4.807, 1.6), v30, z0, tNozzle, \Wobj := wobjPlatform;
		MoveL Offs(pZero, -6.127, 3.874, 1.6), v30, z0, tNozzle, \Wobj := wobjPlatform;
		MoveL Offs(pZero, -6.669, 2.841, 1.6), v30, z0, tNozzle, \Wobj := wobjPlatform;
		MoveL Offs(pZero, -7.039, 1.735, 1.6), v30, z0, tNozzle, \Wobj := wobjPlatform;
		WaitRob \InPos;
		SetDO DO5_Program_Feed, 0;
		MoveL Offs(pZero, -5.989, 3.062, 1.6), v100, z0, tNozzle, \Wobj := wobjPlatform;
		WaitRob \InPos;
		SetDO DO5_Program_Feed, 1;
		MoveL Offs(pZero, -5.989, -3.062, 1.6), v30, z0, tNozzle, \Wobj := wobjPlatform;
		WaitRob \InPos;
		SetDO DO5_Program_Feed, 0;
		MoveL Offs(pZero, -2.989, -6.026, 1.6), v100, z0, tNozzle, \Wobj := wobjPlatform;
		WaitRob \InPos;
		SetDO DO5_Program_Feed, 1;
		MoveL Offs(pZero, -2.989, 6.026, 1.6), v30, z0, tNozzle, \Wobj := wobjPlatform;
		WaitRob \InPos;
		SetDO DO5_Program_Feed, 0;
		MoveL Offs(pZero, 0.011, 6.731, 1.6), v100, z0, tNozzle, \Wobj := wobjPlatform;
		WaitRob \InPos;
		SetDO DO5_Program_Feed, 1;
		MoveL Offs(pZero, 0.011, -6.731, 1.6), v30, z0, tNozzle, \Wobj := wobjPlatform;
		WaitRob \InPos;
		SetDO DO5_Program_Feed, 0;
		MoveL Offs(pZero, 3.011, -6.028, 1.6), v100, z0, tNozzle, \Wobj := wobjPlatform;
		WaitRob \InPos;
		SetDO DO5_Program_Feed, 1;
		MoveL Offs(pZero, 3.011, 6.028, 1.6), v30, z0, tNozzle, \Wobj := wobjPlatform;
		WaitRob \InPos;
		SetDO DO5_Program_Feed, 0;
		MoveL Offs(pZero, 6.011, 3.051, 1.6), v100, z0, tNozzle, \Wobj := wobjPlatform;
		WaitRob \InPos;
		SetDO DO5_Program_Feed, 1;
		MoveL Offs(pZero, 6.011, -3.051, 1.6), v30, z0, tNozzle, \Wobj := wobjPlatform;
		WaitRob \InPos;
		SetDO DO6_Between_Layer_Retract, 1;
		SetDO DO5_Program_Feed, 0;
		MoveL Offs(pZero, 6.011, -3.051, 6.6), v100, z0, tNozzle, \Wobj := wobjPlatform;

		! Layer: 9
		! LayerParams(infillAngleDegrees=-45.0, pathWidth=3.0, layerHeight=0.2, infillShiftX=0.0, infillShiftY=0.0, numShells=1, infillOverlap=0.0002)
		! T19
		! M6
		TPWRITE "Layer 9 of 170";
		MoveL Offs(pZero, -5.426, 4.807, 6.8), v100, z0, tNozzle, \Wobj := wobjPlatform;
		MoveL Offs(pZero, -5.426, 4.807, 1.8), v30, z0, tNozzle, \Wobj := wobjPlatform;
		WaitRob \InPos;
		SetDO DO6_Between_Layer_Retract, 0;
		WaitRob \InPos;
		SetDO DO5_Program_Feed, 1;
		MoveL Offs(pZero, -6.127, 3.874, 1.8), v30, z0, tNozzle, \Wobj := wobjPlatform;
		MoveL Offs(pZero, -6.669, 2.841, 1.8), v30, z0, tNozzle, \Wobj := wobjPlatform;
		MoveL Offs(pZero, -7.039, 1.735, 1.8), v30, z0, tNozzle, \Wobj := wobjPlatform;
		MoveL Offs(pZero, -7.226, 0.583, 1.8), v30, z0, tNozzle, \Wobj := wobjPlatform;
		MoveL Offs(pZero, -7.226, -0.583, 1.8), v30, z0, tNozzle, \Wobj := wobjPlatform;
		MoveL Offs(pZero, -7.039, -1.735, 1.8), v30, z0, tNozzle, \Wobj := wobjPlatform;
		MoveL Offs(pZero, -6.669, -2.841, 1.8), v30, z0, tNozzle, \Wobj := wobjPlatform;
		MoveL Offs(pZero, -6.127, -3.874, 1.8), v30, z0, tNozzle, \Wobj := wobjPlatform;
		MoveL Offs(pZero, -5.426, -4.807, 1.8), v30, z0, tNozzle, \Wobj := wobjPlatform;
		MoveL Offs(pZero, -4.585, -5.615, 1.8), v30, z0, tNozzle, \Wobj := wobjPlatform;
		MoveL Offs(pZero, -3.625, -6.278, 1.8), v30, z0, tNozzle, \Wobj := wobjPlatform;
		MoveL Offs(pZero, -2.571, -6.778, 1.8), v30, z0, tNozzle, \Wobj := wobjPlatform;
		MoveL Offs(pZero, -1.45, -7.103, 1.8), v30, z0, tNozzle, \Wobj := wobjPlatform;
		MoveL Offs(pZero, -0.292, -7.243, 1.8), v30, z0, tNozzle, \Wobj := wobjPlatform;
		MoveL Offs(pZero, 0.874, -7.196, 1.8), v30, z0, tNozzle, \Wobj := wobjPlatform;
		MoveL Offs(pZero, 2.017, -6.963, 1.8), v30, z0, tNozzle, \Wobj := wobjPlatform;
		MoveL Offs(pZero, 3.108, -6.549, 1.8), v30, z0, tNozzle, \Wobj := wobjPlatform;
		MoveL Offs(pZero, 4.118, -5.966, 1.8), v30, z0, tNozzle, \Wobj := wobjPlatform;
		MoveL Offs(pZero, 5.022, -5.228, 1.8), v30, z0, tNozzle, \Wobj := wobjPlatform;
		MoveL Offs(pZero, 5.795, -4.355, 1.8), v30, z0, tNozzle, \Wobj := wobjPlatform;
		MoveL Offs(pZero, 6.419, -3.369, 1.8), v30, z0, tNozzle, \Wobj := wobjPlatform;
		MoveL Offs(pZero, 6.876, -2.296, 1.8), v30, z0, tNozzle, \Wobj := wobjPlatform;
		MoveL Offs(pZero, 7.155, -1.163, 1.8), v30, z0, tNozzle, \Wobj := wobjPlatform;
		MoveL Offs(pZero, 7.249, -0.0, 1.8), v30, z0, tNozzle, \Wobj := wobjPlatform;
		MoveL Offs(pZero, 7.155, 1.163, 1.8), v30, z0, tNozzle, \Wobj := wobjPlatform;
		MoveL Offs(pZero, 6.876, 2.296, 1.8), v30, z0, tNozzle, \Wobj := wobjPlatform;
		MoveL Offs(pZero, 6.419, 3.369, 1.8), v30, z0, tNozzle, \Wobj := wobjPlatform;
		MoveL Offs(pZero, 5.795, 4.355, 1.8), v30, z0, tNozzle, \Wobj := wobjPlatform;
		MoveL Offs(pZero, 5.022, 5.228, 1.8), v30, z0, tNozzle, \Wobj := wobjPlatform;
		MoveL Offs(pZero, 4.118, 5.966, 1.8), v30, z0, tNozzle, \Wobj := wobjPlatform;
		MoveL Offs(pZero, 3.108, 6.549, 1.8), v30, z0, tNozzle, \Wobj := wobjPlatform;
		MoveL Offs(pZero, 2.017, 6.963, 1.8), v30, z0, tNozzle, \Wobj := wobjPlatform;
		MoveL Offs(pZero, 0.874, 7.196, 1.8), v30, z0, tNozzle, \Wobj := wobjPlatform;
		MoveL Offs(pZero, -0.292, 7.243, 1.8), v30, z0, tNozzle, \Wobj := wobjPlatform;
		MoveL Offs(pZero, -1.45, 7.103, 1.8), v30, z0, tNozzle, \Wobj := wobjPlatform;
		MoveL Offs(pZero, -2.571, 6.778, 1.8), v30, z0, tNozzle, \Wobj := wobjPlatform;
		MoveL Offs(pZero, -3.625, 6.278, 1.8), v30, z0, tNozzle, \Wobj := wobjPlatform;
		MoveL Offs(pZero, -4.585, 5.615, 1.8), v30, z0, tNozzle, \Wobj := wobjPlatform;
		MoveL Offs(pZero, -5.426, 4.807, 1.8), v30, z0, tNozzle, \Wobj := wobjPlatform;
		WaitRob \InPos;
		SetDO DO5_Program_Feed, 0;
		MoveL Offs(pZero, -4.751, 4.762, 1.8), v100, z0, tNozzle, \Wobj := wobjPlatform;
		WaitRob \InPos;
		SetDO DO5_Program_Feed, 1;
		MoveL Offs(pZero, 4.77, -4.759, 1.8), v30, z0, tNozzle, \Wobj := wobjPlatform;
		WaitRob \InPos;
		SetDO DO5_Program_Feed, 0;
		MoveL Offs(pZero, 6.397, -2.144, 1.8), v100, z0, tNozzle, \Wobj := wobjPlatform;
		WaitRob \InPos;
		SetDO DO5_Program_Feed, 1;
		MoveL Offs(pZero, -2.131, 6.385, 1.8), v30, z0, tNozzle, \Wobj := wobjPlatform;
		WaitRob \InPos;
		SetDO DO5_Program_Feed, 0;
		MoveL Offs(pZero, 2.099, 6.397, 1.8), v100, z0, tNozzle, \Wobj := wobjPlatform;
		WaitRob \InPos;
		SetDO DO5_Program_Feed, 1;
		MoveL Offs(pZero, 6.414, 2.082, 1.8), v30, z0, tNozzle, \Wobj := wobjPlatform;
		WaitRob \InPos;
		SetDO DO5_Program_Feed, 0;
		MoveL Offs(pZero, 2.147, -6.379, 1.8), v100, z0, tNozzle, \Wobj := wobjPlatform;
		WaitRob \InPos;
		SetDO DO5_Program_Feed, 1;
		MoveL Offs(pZero, -6.375, 2.143, 1.8), v30, z0, tNozzle, \Wobj := wobjPlatform;
		WaitRob \InPos;
		SetDO DO5_Program_Feed, 0;
		MoveL Offs(pZero, -6.397, -2.077, 1.8), v100, z0, tNozzle, \Wobj := wobjPlatform;
		WaitRob \InPos;
		SetDO DO5_Program_Feed, 1;
		MoveL Offs(pZero, -2.072, -6.402, 1.8), v30, z0, tNozzle, \Wobj := wobjPlatform;
		WaitRob \InPos;
		SetDO DO6_Between_Layer_Retract, 1;
		SetDO DO5_Program_Feed, 0;
		MoveL Offs(pZero, -2.072, -6.402, 6.8), v100, z0, tNozzle, \Wobj := wobjPlatform;

		! Layer: 10
		! LayerParams(infillAngleDegrees=45.0, pathWidth=3.0, layerHeight=0.2, infillShiftX=0.0, infillShiftY=0.0, numShells=1, infillOverlap=0.0002)
		! T110
		! M6
		TPWRITE "Layer 10 of 170";
		MoveL Offs(pZero, 3.108, 6.549, 7.0), v100, z0, tNozzle, \Wobj := wobjPlatform;
		MoveL Offs(pZero, 3.108, 6.549, 2.0), v30, z0, tNozzle, \Wobj := wobjPlatform;
		WaitRob \InPos;
		SetDO DO6_Between_Layer_Retract, 0;
		WaitRob \InPos;
		SetDO DO5_Program_Feed, 1;
		MoveL Offs(pZero, 2.017, 6.963, 2.0), v30, z0, tNozzle, \Wobj := wobjPlatform;
		MoveL Offs(pZero, 0.874, 7.196, 2.0), v30, z0, tNozzle, \Wobj := wobjPlatform;
		MoveL Offs(pZero, -0.292, 7.243, 2.0), v30, z0, tNozzle, \Wobj := wobjPlatform;
		MoveL Offs(pZero, -1.45, 7.103, 2.0), v30, z0, tNozzle, \Wobj := wobjPlatform;
		MoveL Offs(pZero, -2.571, 6.778, 2.0), v30, z0, tNozzle, \Wobj := wobjPlatform;
		MoveL Offs(pZero, -3.625, 6.278, 2.0), v30, z0, tNozzle, \Wobj := wobjPlatform;
		MoveL Offs(pZero, -4.585, 5.615, 2.0), v30, z0, tNozzle, \Wobj := wobjPlatform;
		MoveL Offs(pZero, -5.426, 4.807, 2.0), v30, z0, tNozzle, \Wobj := wobjPlatform;
		MoveL Offs(pZero, -6.127, 3.874, 2.0), v30, z0, tNozzle, \Wobj := wobjPlatform;
		MoveL Offs(pZero, -6.669, 2.841, 2.0), v30, z0, tNozzle, \Wobj := wobjPlatform;
		MoveL Offs(pZero, -7.039, 1.735, 2.0), v30, z0, tNozzle, \Wobj := wobjPlatform;
		MoveL Offs(pZero, -7.226, 0.583, 2.0), v30, z0, tNozzle, \Wobj := wobjPlatform;
		MoveL Offs(pZero, -7.226, -0.583, 2.0), v30, z0, tNozzle, \Wobj := wobjPlatform;
		MoveL Offs(pZero, -7.039, -1.735, 2.0), v30, z0, tNozzle, \Wobj := wobjPlatform;
		MoveL Offs(pZero, -6.669, -2.841, 2.0), v30, z0, tNozzle, \Wobj := wobjPlatform;
		MoveL Offs(pZero, -6.127, -3.874, 2.0), v30, z0, tNozzle, \Wobj := wobjPlatform;
		MoveL Offs(pZero, -5.426, -4.807, 2.0), v30, z0, tNozzle, \Wobj := wobjPlatform;
		MoveL Offs(pZero, -4.585, -5.615, 2.0), v30, z0, tNozzle, \Wobj := wobjPlatform;
		MoveL Offs(pZero, -3.625, -6.278, 2.0), v30, z0, tNozzle, \Wobj := wobjPlatform;
		MoveL Offs(pZero, -2.571, -6.778, 2.0), v30, z0, tNozzle, \Wobj := wobjPlatform;
		MoveL Offs(pZero, -1.45, -7.103, 2.0), v30, z0, tNozzle, \Wobj := wobjPlatform;
		MoveL Offs(pZero, -0.292, -7.243, 2.0), v30, z0, tNozzle, \Wobj := wobjPlatform;
		MoveL Offs(pZero, 0.874, -7.196, 2.0), v30, z0, tNozzle, \Wobj := wobjPlatform;
		MoveL Offs(pZero, 2.017, -6.963, 2.0), v30, z0, tNozzle, \Wobj := wobjPlatform;
		MoveL Offs(pZero, 3.108, -6.549, 2.0), v30, z0, tNozzle, \Wobj := wobjPlatform;
		MoveL Offs(pZero, 4.118, -5.966, 2.0), v30, z0, tNozzle, \Wobj := wobjPlatform;
		MoveL Offs(pZero, 5.022, -5.228, 2.0), v30, z0, tNozzle, \Wobj := wobjPlatform;
		MoveL Offs(pZero, 5.795, -4.355, 2.0), v30, z0, tNozzle, \Wobj := wobjPlatform;
		MoveL Offs(pZero, 6.419, -3.369, 2.0), v30, z0, tNozzle, \Wobj := wobjPlatform;
		MoveL Offs(pZero, 6.876, -2.296, 2.0), v30, z0, tNozzle, \Wobj := wobjPlatform;
		MoveL Offs(pZero, 7.155, -1.163, 2.0), v30, z0, tNozzle, \Wobj := wobjPlatform;
		MoveL Offs(pZero, 7.249, -0.0, 2.0), v30, z0, tNozzle, \Wobj := wobjPlatform;
		MoveL Offs(pZero, 7.155, 1.163, 2.0), v30, z0, tNozzle, \Wobj := wobjPlatform;
		MoveL Offs(pZero, 6.876, 2.296, 2.0), v30, z0, tNozzle, \Wobj := wobjPlatform;
		MoveL Offs(pZero, 6.419, 3.369, 2.0), v30, z0, tNozzle, \Wobj := wobjPlatform;
		MoveL Offs(pZero, 5.795, 4.355, 2.0), v30, z0, tNozzle, \Wobj := wobjPlatform;
		MoveL Offs(pZero, 5.022, 5.228, 2.0), v30, z0, tNozzle, \Wobj := wobjPlatform;
		MoveL Offs(pZero, 4.118, 5.966, 2.0), v30, z0, tNozzle, \Wobj := wobjPlatform;
		MoveL Offs(pZero, 3.108, 6.549, 2.0), v30, z0, tNozzle, \Wobj := wobjPlatform;
		WaitRob \InPos;
		SetDO DO5_Program_Feed, 0;
		MoveL Offs(pZero, 2.147, 6.379, 2.0), v100, z0, tNozzle, \Wobj := wobjPlatform;
		WaitRob \InPos;
		SetDO DO5_Program_Feed, 1;
		MoveL Offs(pZero, -6.375, -2.143, 2.0), v30, z0, tNozzle, \Wobj := wobjPlatform;
		WaitRob \InPos;
		SetDO DO5_Program_Feed, 0;
		MoveL Offs(pZero, -4.751, -4.762, 2.0), v100, z0, tNozzle, \Wobj := wobjPlatform;
		WaitRob \InPos;
		SetDO DO5_Program_Feed, 1;
		MoveL Offs(pZero, 4.77, 4.759, 2.0), v30, z0, tNozzle, \Wobj := wobjPlatform;
		WaitRob \InPos;
		SetDO DO5_Program_Feed, 0;
		MoveL Offs(pZero, 6.397, 2.144, 2.0), v100, z0, tNozzle, \Wobj := wobjPlatform;
		WaitRob \InPos;
		SetDO DO5_Program_Feed, 1;
		MoveL Offs(pZero, -2.131, -6.385, 2.0), v30, z0, tNozzle, \Wobj := wobjPlatform;
		WaitRob \InPos;
		SetDO DO5_Program_Feed, 0;
		MoveL Offs(pZero, 2.099, -6.397, 2.0), v100, z0, tNozzle, \Wobj := wobjPlatform;
		WaitRob \InPos;
		SetDO DO5_Program_Feed, 1;
		MoveL Offs(pZero, 6.414, -2.082, 2.0), v30, z0, tNozzle, \Wobj := wobjPlatform;
		WaitRob \InPos;
		SetDO DO5_Program_Feed, 0;
		MoveL Offs(pZero, -2.072, 6.402, 2.0), v100, z0, tNozzle, \Wobj := wobjPlatform;
		WaitRob \InPos;
		SetDO DO5_Program_Feed, 1;
		MoveL Offs(pZero, -6.397, 2.077, 2.0), v30, z0, tNozzle, \Wobj := wobjPlatform;
		WaitRob \InPos;
		SetDO DO6_Between_Layer_Retract, 1;
		SetDO DO5_Program_Feed, 0;
		MoveL Offs(pZero, -6.397, 2.077, 7.0), v100, z0, tNozzle, \Wobj := wobjPlatform;

		! Layer: 11
		! LayerParams(infillAngleDegrees=0.0, pathWidth=3.0, layerHeight=0.2, infillShiftX=0.0, infillShiftY=0.0, numShells=1, infillOverlap=0.0002)
		! T111
		! M6
		TPWRITE "Layer 11 of 170";
		MoveL Offs(pZero, 6.876, 2.296, 7.2), v100, z0, tNozzle, \Wobj := wobjPlatform;
		MoveL Offs(pZero, 6.876, 2.296, 2.2), v30, z0, tNozzle, \Wobj := wobjPlatform;
		WaitRob \InPos;
		SetDO DO6_Between_Layer_Retract, 0;
		WaitRob \InPos;
		SetDO DO5_Program_Feed, 1;
		MoveL Offs(pZero, 6.419, 3.369, 2.2), v30, z0, tNozzle, \Wobj := wobjPlatform;
		MoveL Offs(pZero, 5.795, 4.355, 2.2), v30, z0, tNozzle, \Wobj := wobjPlatform;
		MoveL Offs(pZero, 5.022, 5.228, 2.2), v30, z0, tNozzle, \Wobj := wobjPlatform;
		MoveL Offs(pZero, 4.118, 5.966, 2.2), v30, z0, tNozzle, \Wobj := wobjPlatform;
		MoveL Offs(pZero, 3.108, 6.549, 2.2), v30, z0, tNozzle, \Wobj := wobjPlatform;
		MoveL Offs(pZero, 2.017, 6.963, 2.2), v30, z0, tNozzle, \Wobj := wobjPlatform;
		MoveL Offs(pZero, 0.874, 7.196, 2.2), v30, z0, tNozzle, \Wobj := wobjPlatform;
		MoveL Offs(pZero, -0.292, 7.243, 2.2), v30, z0, tNozzle, \Wobj := wobjPlatform;
		MoveL Offs(pZero, -1.45, 7.103, 2.2), v30, z0, tNozzle, \Wobj := wobjPlatform;
		MoveL Offs(pZero, -2.571, 6.778, 2.2), v30, z0, tNozzle, \Wobj := wobjPlatform;
		MoveL Offs(pZero, -3.625, 6.278, 2.2), v30, z0, tNozzle, \Wobj := wobjPlatform;
		MoveL Offs(pZero, -4.585, 5.615, 2.2), v30, z0, tNozzle, \Wobj := wobjPlatform;
		MoveL Offs(pZero, -5.426, 4.807, 2.2), v30, z0, tNozzle, \Wobj := wobjPlatform;
		MoveL Offs(pZero, -6.127, 3.874, 2.2), v30, z0, tNozzle, \Wobj := wobjPlatform;
		MoveL Offs(pZero, -6.669, 2.841, 2.2), v30, z0, tNozzle, \Wobj := wobjPlatform;
		MoveL Offs(pZero, -7.039, 1.735, 2.2), v30, z0, tNozzle, \Wobj := wobjPlatform;
		MoveL Offs(pZero, -7.226, 0.583, 2.2), v30, z0, tNozzle, \Wobj := wobjPlatform;
		MoveL Offs(pZero, -7.226, -0.583, 2.2), v30, z0, tNozzle, \Wobj := wobjPlatform;
		MoveL Offs(pZero, -7.039, -1.735, 2.2), v30, z0, tNozzle, \Wobj := wobjPlatform;
		MoveL Offs(pZero, -6.669, -2.841, 2.2), v30, z0, tNozzle, \Wobj := wobjPlatform;
		MoveL Offs(pZero, -6.127, -3.874, 2.2), v30, z0, tNozzle, \Wobj := wobjPlatform;
		MoveL Offs(pZero, -5.426, -4.807, 2.2), v30, z0, tNozzle, \Wobj := wobjPlatform;
		MoveL Offs(pZero, -4.585, -5.615, 2.2), v30, z0, tNozzle, \Wobj := wobjPlatform;
		MoveL Offs(pZero, -3.625, -6.278, 2.2), v30, z0, tNozzle, \Wobj := wobjPlatform;
		MoveL Offs(pZero, -2.571, -6.778, 2.2), v30, z0, tNozzle, \Wobj := wobjPlatform;
		MoveL Offs(pZero, -1.45, -7.103, 2.2), v30, z0, tNozzle, \Wobj := wobjPlatform;
		MoveL Offs(pZero, -0.292, -7.243, 2.2), v30, z0, tNozzle, \Wobj := wobjPlatform;
		MoveL Offs(pZero, 0.874, -7.196, 2.2), v30, z0, tNozzle, \Wobj := wobjPlatform;
		MoveL Offs(pZero, 2.017, -6.963, 2.2), v30, z0, tNozzle, \Wobj := wobjPlatform;
		MoveL Offs(pZero, 3.108, -6.549, 2.2), v30, z0, tNozzle, \Wobj := wobjPlatform;
		MoveL Offs(pZero, 4.118, -5.966, 2.2), v30, z0, tNozzle, \Wobj := wobjPlatform;
		MoveL Offs(pZero, 5.022, -5.228, 2.2), v30, z0, tNozzle, \Wobj := wobjPlatform;
		MoveL Offs(pZero, 5.795, -4.355, 2.2), v30, z0, tNozzle, \Wobj := wobjPlatform;
		MoveL Offs(pZero, 6.419, -3.369, 2.2), v30, z0, tNozzle, \Wobj := wobjPlatform;
		MoveL Offs(pZero, 6.876, -2.296, 2.2), v30, z0, tNozzle, \Wobj := wobjPlatform;
		MoveL Offs(pZero, 7.155, -1.163, 2.2), v30, z0, tNozzle, \Wobj := wobjPlatform;
		MoveL Offs(pZero, 7.249, -0.0, 2.2), v30, z0, tNozzle, \Wobj := wobjPlatform;
		MoveL Offs(pZero, 7.155, 1.163, 2.2), v30, z0, tNozzle, \Wobj := wobjPlatform;
		MoveL Offs(pZero, 6.876, 2.296, 2.2), v30, z0, tNozzle, \Wobj := wobjPlatform;
		WaitRob \InPos;
		SetDO DO5_Program_Feed, 0;
		MoveL Offs(pZero, 6.033, 3.0, 2.2), v100, z0, tNozzle, \Wobj := wobjPlatform;
		WaitRob \InPos;
		SetDO DO5_Program_Feed, 1;
		MoveL Offs(pZero, -6.021, 3.0, 2.2), v30, z0, tNozzle, \Wobj := wobjPlatform;
		WaitRob \InPos;
		SetDO DO5_Program_Feed, 0;
		MoveL Offs(pZero, -6.726, 0.0, 2.2), v100, z0, tNozzle, \Wobj := wobjPlatform;
		WaitRob \InPos;
		SetDO DO5_Program_Feed, 1;
		MoveL Offs(pZero, 6.748, 0.0, 2.2), v30, z0, tNozzle, \Wobj := wobjPlatform;
		WaitRob \InPos;
		SetDO DO5_Program_Feed, 0;
		MoveL Offs(pZero, 6.033, -3.0, 2.2), v100, z0, tNozzle, \Wobj := wobjPlatform;
		WaitRob \InPos;
		SetDO DO5_Program_Feed, 1;
		MoveL Offs(pZero, -6.021, -3.0, 2.2), v30, z0, tNozzle, \Wobj := wobjPlatform;
		WaitRob \InPos;
		SetDO DO5_Program_Feed, 0;
		MoveL Offs(pZero, -3.045, -6.0, 2.2), v100, z0, tNozzle, \Wobj := wobjPlatform;
		WaitRob \InPos;
		SetDO DO5_Program_Feed, 1;
		MoveL Offs(pZero, 3.059, -6.0, 2.2), v30, z0, tNozzle, \Wobj := wobjPlatform;
		WaitRob \InPos;
		SetDO DO5_Program_Feed, 0;
		MoveL Offs(pZero, 3.059, 6.0, 2.2), v100, z0, tNozzle, \Wobj := wobjPlatform;
		WaitRob \InPos;
		SetDO DO5_Program_Feed, 1;
		MoveL Offs(pZero, -3.045, 6.0, 2.2), v30, z0, tNozzle, \Wobj := wobjPlatform;
		WaitRob \InPos;
		SetDO DO6_Between_Layer_Retract, 1;
		SetDO DO5_Program_Feed, 0;
		MoveL Offs(pZero, -3.045, 6.0, 7.2), v100, z0, tNozzle, \Wobj := wobjPlatform;

		! Layer: 12
		! LayerParams(infillAngleDegrees=90.0, pathWidth=3.0, layerHeight=0.2, infillShiftX=0.0, infillShiftY=0.0, numShells=1, infillOverlap=0.0002)
		! T112
		! M6
		TPWRITE "Layer 12 of 170";
		MoveL Offs(pZero, 5.795, -4.355, 7.4), v100, z0, tNozzle, \Wobj := wobjPlatform;
		MoveL Offs(pZero, 5.795, -4.355, 2.4), v30, z0, tNozzle, \Wobj := wobjPlatform;
		WaitRob \InPos;
		SetDO DO6_Between_Layer_Retract, 0;
		WaitRob \InPos;
		SetDO DO5_Program_Feed, 1;
		MoveL Offs(pZero, 6.419, -3.369, 2.4), v30, z0, tNozzle, \Wobj := wobjPlatform;
		MoveL Offs(pZero, 6.876, -2.296, 2.4), v30, z0, tNozzle, \Wobj := wobjPlatform;
		MoveL Offs(pZero, 7.155, -1.163, 2.4), v30, z0, tNozzle, \Wobj := wobjPlatform;
		MoveL Offs(pZero, 7.249, -0.0, 2.4), v30, z0, tNozzle, \Wobj := wobjPlatform;
		MoveL Offs(pZero, 7.155, 1.163, 2.4), v30, z0, tNozzle, \Wobj := wobjPlatform;
		MoveL Offs(pZero, 6.876, 2.296, 2.4), v30, z0, tNozzle, \Wobj := wobjPlatform;
		MoveL Offs(pZero, 6.419, 3.369, 2.4), v30, z0, tNozzle, \Wobj := wobjPlatform;
		MoveL Offs(pZero, 5.795, 4.355, 2.4), v30, z0, tNozzle, \Wobj := wobjPlatform;
		MoveL Offs(pZero, 5.022, 5.228, 2.4), v30, z0, tNozzle, \Wobj := wobjPlatform;
		MoveL Offs(pZero, 4.118, 5.966, 2.4), v30, z0, tNozzle, \Wobj := wobjPlatform;
		MoveL Offs(pZero, 3.108, 6.549, 2.4), v30, z0, tNozzle, \Wobj := wobjPlatform;
		MoveL Offs(pZero, 2.017, 6.963, 2.4), v30, z0, tNozzle, \Wobj := wobjPlatform;
		MoveL Offs(pZero, 0.874, 7.196, 2.4), v30, z0, tNozzle, \Wobj := wobjPlatform;
		MoveL Offs(pZero, -0.292, 7.243, 2.4), v30, z0, tNozzle, \Wobj := wobjPlatform;
		MoveL Offs(pZero, -1.45, 7.103, 2.4), v30, z0, tNozzle, \Wobj := wobjPlatform;
		MoveL Offs(pZero, -2.571, 6.778, 2.4), v30, z0, tNozzle, \Wobj := wobjPlatform;
		MoveL Offs(pZero, -3.625, 6.278, 2.4), v30, z0, tNozzle, \Wobj := wobjPlatform;
		MoveL Offs(pZero, -4.585, 5.615, 2.4), v30, z0, tNozzle, \Wobj := wobjPlatform;
		MoveL Offs(pZero, -5.426, 4.807, 2.4), v30, z0, tNozzle, \Wobj := wobjPlatform;
		MoveL Offs(pZero, -6.127, 3.874, 2.4), v30, z0, tNozzle, \Wobj := wobjPlatform;
		MoveL Offs(pZero, -6.669, 2.841, 2.4), v30, z0, tNozzle, \Wobj := wobjPlatform;
		MoveL Offs(pZero, -7.039, 1.735, 2.4), v30, z0, tNozzle, \Wobj := wobjPlatform;
		MoveL Offs(pZero, -7.226, 0.583, 2.4), v30, z0, tNozzle, \Wobj := wobjPlatform;
		MoveL Offs(pZero, -7.226, -0.583, 2.4), v30, z0, tNozzle, \Wobj := wobjPlatform;
		MoveL Offs(pZero, -7.039, -1.735, 2.4), v30, z0, tNozzle, \Wobj := wobjPlatform;
		MoveL Offs(pZero, -6.669, -2.841, 2.4), v30, z0, tNozzle, \Wobj := wobjPlatform;
		MoveL Offs(pZero, -6.127, -3.874, 2.4), v30, z0, tNozzle, \Wobj := wobjPlatform;
		MoveL Offs(pZero, -5.426, -4.807, 2.4), v30, z0, tNozzle, \Wobj := wobjPlatform;
		MoveL Offs(pZero, -4.585, -5.615, 2.4), v30, z0, tNozzle, \Wobj := wobjPlatform;
		MoveL Offs(pZero, -3.625, -6.278, 2.4), v30, z0, tNozzle, \Wobj := wobjPlatform;
		MoveL Offs(pZero, -2.571, -6.778, 2.4), v30, z0, tNozzle, \Wobj := wobjPlatform;
		MoveL Offs(pZero, -1.45, -7.103, 2.4), v30, z0, tNozzle, \Wobj := wobjPlatform;
		MoveL Offs(pZero, -0.292, -7.243, 2.4), v30, z0, tNozzle, \Wobj := wobjPlatform;
		MoveL Offs(pZero, 0.874, -7.196, 2.4), v30, z0, tNozzle, \Wobj := wobjPlatform;
		MoveL Offs(pZero, 2.017, -6.963, 2.4), v30, z0, tNozzle, \Wobj := wobjPlatform;
		MoveL Offs(pZero, 3.108, -6.549, 2.4), v30, z0, tNozzle, \Wobj := wobjPlatform;
		MoveL Offs(pZero, 4.118, -5.966, 2.4), v30, z0, tNozzle, \Wobj := wobjPlatform;
		MoveL Offs(pZero, 5.022, -5.228, 2.4), v30, z0, tNozzle, \Wobj := wobjPlatform;
		MoveL Offs(pZero, 5.795, -4.355, 2.4), v30, z0, tNozzle, \Wobj := wobjPlatform;
		WaitRob \InPos;
		SetDO DO5_Program_Feed, 0;
		MoveL Offs(pZero, 6.011, -3.051, 2.4), v100, z0, tNozzle, \Wobj := wobjPlatform;
		WaitRob \InPos;
		SetDO DO5_Program_Feed, 1;
		MoveL Offs(pZero, 6.011, 3.051, 2.4), v30, z0, tNozzle, \Wobj := wobjPlatform;
		WaitRob \InPos;
		SetDO DO5_Program_Feed, 0;
		MoveL Offs(pZero, 3.011, 6.028, 2.4), v100, z0, tNozzle, \Wobj := wobjPlatform;
		WaitRob \InPos;
		SetDO DO5_Program_Feed, 1;
		MoveL Offs(pZero, 3.011, -6.028, 2.4), v30, z0, tNozzle, \Wobj := wobjPlatform;
		WaitRob \InPos;
		SetDO DO5_Program_Feed, 0;
		MoveL Offs(pZero, 0.011, -6.731, 2.4), v100, z0, tNozzle, \Wobj := wobjPlatform;
		WaitRob \InPos;
		SetDO DO5_Program_Feed, 1;
		MoveL Offs(pZero, 0.011, 6.731, 2.4), v30, z0, tNozzle, \Wobj := wobjPlatform;
		WaitRob \InPos;
		SetDO DO5_Program_Feed, 0;
		MoveL Offs(pZero, -2.989, 6.026, 2.4), v100, z0, tNozzle, \Wobj := wobjPlatform;
		WaitRob \InPos;
		SetDO DO5_Program_Feed, 1;
		MoveL Offs(pZero, -2.989, -6.026, 2.4), v30, z0, tNozzle, \Wobj := wobjPlatform;
		WaitRob \InPos;
		SetDO DO5_Program_Feed, 0;
		MoveL Offs(pZero, -5.989, -3.062, 2.4), v100, z0, tNozzle, \Wobj := wobjPlatform;
		WaitRob \InPos;
		SetDO DO5_Program_Feed, 1;
		MoveL Offs(pZero, -5.989, 3.062, 2.4), v30, z0, tNozzle, \Wobj := wobjPlatform;
		WaitRob \InPos;
		SetDO DO6_Between_Layer_Retract, 1;
		SetDO DO5_Program_Feed, 0;
		MoveL Offs(pZero, -5.989, 3.062, 7.4), v100, z0, tNozzle, \Wobj := wobjPlatform;

		! Layer: 13
		! LayerParams(infillAngleDegrees=-45.0, pathWidth=3.0, layerHeight=0.2, infillShiftX=0.0, infillShiftY=0.0, numShells=1, infillOverlap=0.0002)
		! T113
		! M6
		TPWRITE "Layer 13 of 170";
		MoveL Offs(pZero, -4.585, -5.615, 7.6), v100, z0, tNozzle, \Wobj := wobjPlatform;
		MoveL Offs(pZero, -4.585, -5.615, 2.6), v30, z0, tNozzle, \Wobj := wobjPlatform;
		WaitRob \InPos;
		SetDO DO6_Between_Layer_Retract, 0;
		WaitRob \InPos;
		SetDO DO5_Program_Feed, 1;
		MoveL Offs(pZero, -3.625, -6.278, 2.6), v30, z0, tNozzle, \Wobj := wobjPlatform;
		MoveL Offs(pZero, -2.571, -6.778, 2.6), v30, z0, tNozzle, \Wobj := wobjPlatform;
		MoveL Offs(pZero, -1.45, -7.103, 2.6), v30, z0, tNozzle, \Wobj := wobjPlatform;
		MoveL Offs(pZero, -0.292, -7.243, 2.6), v30, z0, tNozzle, \Wobj := wobjPlatform;
		MoveL Offs(pZero, 0.874, -7.196, 2.6), v30, z0, tNozzle, \Wobj := wobjPlatform;
		MoveL Offs(pZero, 2.017, -6.963, 2.6), v30, z0, tNozzle, \Wobj := wobjPlatform;
		MoveL Offs(pZero, 3.108, -6.549, 2.6), v30, z0, tNozzle, \Wobj := wobjPlatform;
		MoveL Offs(pZero, 4.118, -5.966, 2.6), v30, z0, tNozzle, \Wobj := wobjPlatform;
		MoveL Offs(pZero, 5.022, -5.228, 2.6), v30, z0, tNozzle, \Wobj := wobjPlatform;
		MoveL Offs(pZero, 5.795, -4.355, 2.6), v30, z0, tNozzle, \Wobj := wobjPlatform;
		MoveL Offs(pZero, 6.419, -3.369, 2.6), v30, z0, tNozzle, \Wobj := wobjPlatform;
		MoveL Offs(pZero, 6.876, -2.296, 2.6), v30, z0, tNozzle, \Wobj := wobjPlatform;
		MoveL Offs(pZero, 7.155, -1.163, 2.6), v30, z0, tNozzle, \Wobj := wobjPlatform;
		MoveL Offs(pZero, 7.249, -0.0, 2.6), v30, z0, tNozzle, \Wobj := wobjPlatform;
		MoveL Offs(pZero, 7.155, 1.163, 2.6), v30, z0, tNozzle, \Wobj := wobjPlatform;
		MoveL Offs(pZero, 6.876, 2.296, 2.6), v30, z0, tNozzle, \Wobj := wobjPlatform;
		MoveL Offs(pZero, 6.419, 3.369, 2.6), v30, z0, tNozzle, \Wobj := wobjPlatform;
		MoveL Offs(pZero, 5.795, 4.355, 2.6), v30, z0, tNozzle, \Wobj := wobjPlatform;
		MoveL Offs(pZero, 5.022, 5.228, 2.6), v30, z0, tNozzle, \Wobj := wobjPlatform;
		MoveL Offs(pZero, 4.118, 5.966, 2.6), v30, z0, tNozzle, \Wobj := wobjPlatform;
		MoveL Offs(pZero, 3.108, 6.549, 2.6), v30, z0, tNozzle, \Wobj := wobjPlatform;
		MoveL Offs(pZero, 2.017, 6.963, 2.6), v30, z0, tNozzle, \Wobj := wobjPlatform;
		MoveL Offs(pZero, 0.874, 7.196, 2.6), v30, z0, tNozzle, \Wobj := wobjPlatform;
		MoveL Offs(pZero, -0.292, 7.243, 2.6), v30, z0, tNozzle, \Wobj := wobjPlatform;
		MoveL Offs(pZero, -1.45, 7.103, 2.6), v30, z0, tNozzle, \Wobj := wobjPlatform;
		MoveL Offs(pZero, -2.571, 6.778, 2.6), v30, z0, tNozzle, \Wobj := wobjPlatform;
		MoveL Offs(pZero, -3.625, 6.278, 2.6), v30, z0, tNozzle, \Wobj := wobjPlatform;
		MoveL Offs(pZero, -4.585, 5.615, 2.6), v30, z0, tNozzle, \Wobj := wobjPlatform;
		MoveL Offs(pZero, -5.426, 4.807, 2.6), v30, z0, tNozzle, \Wobj := wobjPlatform;
		MoveL Offs(pZero, -6.127, 3.874, 2.6), v30, z0, tNozzle, \Wobj := wobjPlatform;
		MoveL Offs(pZero, -6.669, 2.841, 2.6), v30, z0, tNozzle, \Wobj := wobjPlatform;
		MoveL Offs(pZero, -7.039, 1.735, 2.6), v30, z0, tNozzle, \Wobj := wobjPlatform;
		MoveL Offs(pZero, -7.226, 0.583, 2.6), v30, z0, tNozzle, \Wobj := wobjPlatform;
		MoveL Offs(pZero, -7.226, -0.583, 2.6), v30, z0, tNozzle, \Wobj := wobjPlatform;
		MoveL Offs(pZero, -7.039, -1.735, 2.6), v30, z0, tNozzle, \Wobj := wobjPlatform;
		MoveL Offs(pZero, -6.669, -2.841, 2.6), v30, z0, tNozzle, \Wobj := wobjPlatform;
		MoveL Offs(pZero, -6.127, -3.874, 2.6), v30, z0, tNozzle, \Wobj := wobjPlatform;
		MoveL Offs(pZero, -5.426, -4.807, 2.6), v30, z0, tNozzle, \Wobj := wobjPlatform;
		MoveL Offs(pZero, -4.585, -5.615, 2.6), v30, z0, tNozzle, \Wobj := wobjPlatform;
		WaitRob \InPos;
		SetDO DO5_Program_Feed, 0;
		MoveL Offs(pZero, -2.072, -6.402, 2.6), v100, z0, tNozzle, \Wobj := wobjPlatform;
		WaitRob \InPos;
		SetDO DO5_Program_Feed, 1;
		MoveL Offs(pZero, -6.397, -2.077, 2.6), v30, z0, tNozzle, \Wobj := wobjPlatform;
		WaitRob \InPos;
		SetDO DO5_Program_Feed, 0;
		MoveL Offs(pZero, -6.375, 2.143, 2.6), v100, z0, tNozzle, \Wobj := wobjPlatform;
		WaitRob \InPos;
		SetDO DO5_Program_Feed, 1;
		MoveL Offs(pZero, 2.147, -6.379, 2.6), v30, z0, tNozzle, \Wobj := wobjPlatform;
		WaitRob \InPos;
		SetDO DO5_Program_Feed, 0;
		MoveL Offs(pZero, 4.77, -4.759, 2.6), v100, z0, tNozzle, \Wobj := wobjPlatform;
		WaitRob \InPos;
		SetDO DO5_Program_Feed, 1;
		MoveL Offs(pZero, -4.751, 4.762, 2.6), v30, z0, tNozzle, \Wobj := wobjPlatform;
		WaitRob \InPos;
		SetDO DO5_Program_Feed, 0;
		MoveL Offs(pZero, -2.131, 6.385, 2.6), v100, z0, tNozzle, \Wobj := wobjPlatform;
		WaitRob \InPos;
		SetDO DO5_Program_Feed, 1;
		MoveL Offs(pZero, 6.397, -2.144, 2.6), v30, z0, tNozzle, \Wobj := wobjPlatform;
		WaitRob \InPos;
		SetDO DO5_Program_Feed, 0;
		MoveL Offs(pZero, 6.414, 2.082, 2.6), v100, z0, tNozzle, \Wobj := wobjPlatform;
		WaitRob \InPos;
		SetDO DO5_Program_Feed, 1;
		MoveL Offs(pZero, 2.099, 6.397, 2.6), v30, z0, tNozzle, \Wobj := wobjPlatform;
		WaitRob \InPos;
		SetDO DO6_Between_Layer_Retract, 1;
		SetDO DO5_Program_Feed, 0;
		MoveL Offs(pZero, 2.099, 6.397, 7.6), v100, z0, tNozzle, \Wobj := wobjPlatform;

		! Layer: 14
		! LayerParams(infillAngleDegrees=45.0, pathWidth=3.0, layerHeight=0.2, infillShiftX=0.0, infillShiftY=0.0, numShells=1, infillOverlap=0.0002)
		! T114
		! M6
		TPWRITE "Layer 14 of 170";
		MoveL Offs(pZero, -1.45, -7.103, 7.8), v100, z0, tNozzle, \Wobj := wobjPlatform;
		MoveL Offs(pZero, -1.45, -7.103, 2.8), v30, z0, tNozzle, \Wobj := wobjPlatform;
		WaitRob \InPos;
		SetDO DO6_Between_Layer_Retract, 0;
		WaitRob \InPos;
		SetDO DO5_Program_Feed, 1;
		MoveL Offs(pZero, -0.292, -7.243, 2.8), v30, z0, tNozzle, \Wobj := wobjPlatform;
		MoveL Offs(pZero, 0.874, -7.196, 2.8), v30, z0, tNozzle, \Wobj := wobjPlatform;
		MoveL Offs(pZero, 2.017, -6.963, 2.8), v30, z0, tNozzle, \Wobj := wobjPlatform;
		MoveL Offs(pZero, 3.108, -6.549, 2.8), v30, z0, tNozzle, \Wobj := wobjPlatform;
		MoveL Offs(pZero, 4.118, -5.966, 2.8), v30, z0, tNozzle, \Wobj := wobjPlatform;
		MoveL Offs(pZero, 5.022, -5.228, 2.8), v30, z0, tNozzle, \Wobj := wobjPlatform;
		MoveL Offs(pZero, 5.795, -4.355, 2.8), v30, z0, tNozzle, \Wobj := wobjPlatform;
		MoveL Offs(pZero, 6.419, -3.369, 2.8), v30, z0, tNozzle, \Wobj := wobjPlatform;
		MoveL Offs(pZero, 6.876, -2.296, 2.8), v30, z0, tNozzle, \Wobj := wobjPlatform;
		MoveL Offs(pZero, 7.155, -1.163, 2.8), v30, z0, tNozzle, \Wobj := wobjPlatform;
		MoveL Offs(pZero, 7.249, -0.0, 2.8), v30, z0, tNozzle, \Wobj := wobjPlatform;
		MoveL Offs(pZero, 7.155, 1.163, 2.8), v30, z0, tNozzle, \Wobj := wobjPlatform;
		MoveL Offs(pZero, 6.876, 2.296, 2.8), v30, z0, tNozzle, \Wobj := wobjPlatform;
		MoveL Offs(pZero, 6.419, 3.369, 2.8), v30, z0, tNozzle, \Wobj := wobjPlatform;
		MoveL Offs(pZero, 5.795, 4.355, 2.8), v30, z0, tNozzle, \Wobj := wobjPlatform;
		MoveL Offs(pZero, 5.022, 5.228, 2.8), v30, z0, tNozzle, \Wobj := wobjPlatform;
		MoveL Offs(pZero, 4.118, 5.966, 2.8), v30, z0, tNozzle, \Wobj := wobjPlatform;
		MoveL Offs(pZero, 3.108, 6.549, 2.8), v30, z0, tNozzle, \Wobj := wobjPlatform;
		MoveL Offs(pZero, 2.017, 6.963, 2.8), v30, z0, tNozzle, \Wobj := wobjPlatform;
		MoveL Offs(pZero, 0.874, 7.196, 2.8), v30, z0, tNozzle, \Wobj := wobjPlatform;
		MoveL Offs(pZero, -0.292, 7.243, 2.8), v30, z0, tNozzle, \Wobj := wobjPlatform;
		MoveL Offs(pZero, -1.45, 7.103, 2.8), v30, z0, tNozzle, \Wobj := wobjPlatform;
		MoveL Offs(pZero, -2.571, 6.778, 2.8), v30, z0, tNozzle, \Wobj := wobjPlatform;
		MoveL Offs(pZero, -3.625, 6.278, 2.8), v30, z0, tNozzle, \Wobj := wobjPlatform;
		MoveL Offs(pZero, -4.585, 5.615, 2.8), v30, z0, tNozzle, \Wobj := wobjPlatform;
		MoveL Offs(pZero, -5.426, 4.807, 2.8), v30, z0, tNozzle, \Wobj := wobjPlatform;
		MoveL Offs(pZero, -6.127, 3.874, 2.8), v30, z0, tNozzle, \Wobj := wobjPlatform;
		MoveL Offs(pZero, -6.669, 2.841, 2.8), v30, z0, tNozzle, \Wobj := wobjPlatform;
		MoveL Offs(pZero, -7.039, 1.735, 2.8), v30, z0, tNozzle, \Wobj := wobjPlatform;
		MoveL Offs(pZero, -7.226, 0.583, 2.8), v30, z0, tNozzle, \Wobj := wobjPlatform;
		MoveL Offs(pZero, -7.226, -0.583, 2.8), v30, z0, tNozzle, \Wobj := wobjPlatform;
		MoveL Offs(pZero, -7.039, -1.735, 2.8), v30, z0, tNozzle, \Wobj := wobjPlatform;
		MoveL Offs(pZero, -6.669, -2.841, 2.8), v30, z0, tNozzle, \Wobj := wobjPlatform;
		MoveL Offs(pZero, -6.127, -3.874, 2.8), v30, z0, tNozzle, \Wobj := wobjPlatform;
		MoveL Offs(pZero, -5.426, -4.807, 2.8), v30, z0, tNozzle, \Wobj := wobjPlatform;
		MoveL Offs(pZero, -4.585, -5.615, 2.8), v30, z0, tNozzle, \Wobj := wobjPlatform;
		MoveL Offs(pZero, -3.625, -6.278, 2.8), v30, z0, tNozzle, \Wobj := wobjPlatform;
		MoveL Offs(pZero, -2.571, -6.778, 2.8), v30, z0, tNozzle, \Wobj := wobjPlatform;
		MoveL Offs(pZero, -1.45, -7.103, 2.8), v30, z0, tNozzle, \Wobj := wobjPlatform;
		WaitRob \InPos;
		SetDO DO5_Program_Feed, 0;
		MoveL Offs(pZero, -2.131, -6.385, 2.8), v100, z0, tNozzle, \Wobj := wobjPlatform;
		WaitRob \InPos;
		SetDO DO5_Program_Feed, 1;
		MoveL Offs(pZero, 6.397, 2.144, 2.8), v30, z0, tNozzle, \Wobj := wobjPlatform;
		WaitRob \InPos;
		SetDO DO5_Program_Feed, 0;
		MoveL Offs(pZero, 4.77, 4.759, 2.8), v100, z0, tNozzle, \Wobj := wobjPlatform;
		WaitRob \InPos;
		SetDO DO5_Program_Feed, 1;
		MoveL Offs(pZero, -4.751, -4.762, 2.8), v30, z0, tNozzle, \Wobj := wobjPlatform;
		WaitRob \InPos;
		SetDO DO5_Program_Feed, 0;
		MoveL Offs(pZero, -6.375, -2.143, 2.8), v100, z0, tNozzle, \Wobj := wobjPlatform;
		WaitRob \InPos;
		SetDO DO5_Program_Feed, 1;
		MoveL Offs(pZero, 2.147, 6.379, 2.8), v30, z0, tNozzle, \Wobj := wobjPlatform;
		WaitRob \InPos;
		SetDO DO5_Program_Feed, 0;
		MoveL Offs(pZero, -2.072, 6.402, 2.8), v100, z0, tNozzle, \Wobj := wobjPlatform;
		WaitRob \InPos;
		SetDO DO5_Program_Feed, 1;
		MoveL Offs(pZero, -6.397, 2.077, 2.8), v30, z0, tNozzle, \Wobj := wobjPlatform;
		WaitRob \InPos;
		SetDO DO5_Program_Feed, 0;
		MoveL Offs(pZero, 2.099, -6.397, 2.8), v100, z0, tNozzle, \Wobj := wobjPlatform;
		WaitRob \InPos;
		SetDO DO5_Program_Feed, 1;
		MoveL Offs(pZero, 6.414, -2.082, 2.8), v30, z0, tNozzle, \Wobj := wobjPlatform;
		WaitRob \InPos;
		SetDO DO6_Between_Layer_Retract, 1;
		SetDO DO5_Program_Feed, 0;
		MoveL Offs(pZero, 6.414, -2.082, 7.8), v100, z0, tNozzle, \Wobj := wobjPlatform;

		! Layer: 15
		! LayerParams(infillAngleDegrees=0.0, pathWidth=3.0, layerHeight=0.2, infillShiftX=0.0, infillShiftY=0.0, numShells=1, infillOverlap=0.0002)
		! T115
		! M6
		TPWRITE "Layer 15 of 170";
		MoveL Offs(pZero, 5.022, -5.228, 8.0), v100, z0, tNozzle, \Wobj := wobjPlatform;
		MoveL Offs(pZero, 5.022, -5.228, 3.0), v30, z0, tNozzle, \Wobj := wobjPlatform;
		WaitRob \InPos;
		SetDO DO6_Between_Layer_Retract, 0;
		WaitRob \InPos;
		SetDO DO5_Program_Feed, 1;
		MoveL Offs(pZero, 5.795, -4.355, 3.0), v30, z0, tNozzle, \Wobj := wobjPlatform;
		MoveL Offs(pZero, 6.419, -3.369, 3.0), v30, z0, tNozzle, \Wobj := wobjPlatform;
		MoveL Offs(pZero, 6.876, -2.296, 3.0), v30, z0, tNozzle, \Wobj := wobjPlatform;
		MoveL Offs(pZero, 7.155, -1.163, 3.0), v30, z0, tNozzle, \Wobj := wobjPlatform;
		MoveL Offs(pZero, 7.249, -0.0, 3.0), v30, z0, tNozzle, \Wobj := wobjPlatform;
		MoveL Offs(pZero, 7.155, 1.163, 3.0), v30, z0, tNozzle, \Wobj := wobjPlatform;
		MoveL Offs(pZero, 6.876, 2.296, 3.0), v30, z0, tNozzle, \Wobj := wobjPlatform;
		MoveL Offs(pZero, 6.419, 3.369, 3.0), v30, z0, tNozzle, \Wobj := wobjPlatform;
		MoveL Offs(pZero, 5.795, 4.355, 3.0), v30, z0, tNozzle, \Wobj := wobjPlatform;
		MoveL Offs(pZero, 5.022, 5.228, 3.0), v30, z0, tNozzle, \Wobj := wobjPlatform;
		MoveL Offs(pZero, 4.118, 5.966, 3.0), v30, z0, tNozzle, \Wobj := wobjPlatform;
		MoveL Offs(pZero, 3.108, 6.549, 3.0), v30, z0, tNozzle, \Wobj := wobjPlatform;
		MoveL Offs(pZero, 2.017, 6.963, 3.0), v30, z0, tNozzle, \Wobj := wobjPlatform;
		MoveL Offs(pZero, 0.874, 7.196, 3.0), v30, z0, tNozzle, \Wobj := wobjPlatform;
		MoveL Offs(pZero, -0.292, 7.243, 3.0), v30, z0, tNozzle, \Wobj := wobjPlatform;
		MoveL Offs(pZero, -1.45, 7.103, 3.0), v30, z0, tNozzle, \Wobj := wobjPlatform;
		MoveL Offs(pZero, -2.571, 6.778, 3.0), v30, z0, tNozzle, \Wobj := wobjPlatform;
		MoveL Offs(pZero, -3.625, 6.278, 3.0), v30, z0, tNozzle, \Wobj := wobjPlatform;
		MoveL Offs(pZero, -4.585, 5.615, 3.0), v30, z0, tNozzle, \Wobj := wobjPlatform;
		MoveL Offs(pZero, -5.426, 4.807, 3.0), v30, z0, tNozzle, \Wobj := wobjPlatform;
		MoveL Offs(pZero, -6.127, 3.874, 3.0), v30, z0, tNozzle, \Wobj := wobjPlatform;
		MoveL Offs(pZero, -6.669, 2.841, 3.0), v30, z0, tNozzle, \Wobj := wobjPlatform;
		MoveL Offs(pZero, -7.039, 1.735, 3.0), v30, z0, tNozzle, \Wobj := wobjPlatform;
		MoveL Offs(pZero, -7.226, 0.583, 3.0), v30, z0, tNozzle, \Wobj := wobjPlatform;
		MoveL Offs(pZero, -7.226, -0.583, 3.0), v30, z0, tNozzle, \Wobj := wobjPlatform;
		MoveL Offs(pZero, -7.039, -1.735, 3.0), v30, z0, tNozzle, \Wobj := wobjPlatform;
		MoveL Offs(pZero, -6.669, -2.841, 3.0), v30, z0, tNozzle, \Wobj := wobjPlatform;
		MoveL Offs(pZero, -6.127, -3.874, 3.0), v30, z0, tNozzle, \Wobj := wobjPlatform;
		MoveL Offs(pZero, -5.426, -4.807, 3.0), v30, z0, tNozzle, \Wobj := wobjPlatform;
		MoveL Offs(pZero, -4.585, -5.615, 3.0), v30, z0, tNozzle, \Wobj := wobjPlatform;
		MoveL Offs(pZero, -3.625, -6.278, 3.0), v30, z0, tNozzle, \Wobj := wobjPlatform;
		MoveL Offs(pZero, -2.571, -6.778, 3.0), v30, z0, tNozzle, \Wobj := wobjPlatform;
		MoveL Offs(pZero, -1.45, -7.103, 3.0), v30, z0, tNozzle, \Wobj := wobjPlatform;
		MoveL Offs(pZero, -0.292, -7.243, 3.0), v30, z0, tNozzle, \Wobj := wobjPlatform;
		MoveL Offs(pZero, 0.874, -7.196, 3.0), v30, z0, tNozzle, \Wobj := wobjPlatform;
		MoveL Offs(pZero, 2.017, -6.963, 3.0), v30, z0, tNozzle, \Wobj := wobjPlatform;
		MoveL Offs(pZero, 3.108, -6.549, 3.0), v30, z0, tNozzle, \Wobj := wobjPlatform;
		MoveL Offs(pZero, 4.118, -5.966, 3.0), v30, z0, tNozzle, \Wobj := wobjPlatform;
		MoveL Offs(pZero, 5.022, -5.228, 3.0), v30, z0, tNozzle, \Wobj := wobjPlatform;
		WaitRob \InPos;
		SetDO DO5_Program_Feed, 0;
		MoveL Offs(pZero, 3.059, -6.0, 3.0), v100, z0, tNozzle, \Wobj := wobjPlatform;
		WaitRob \InPos;
		SetDO DO5_Program_Feed, 1;
		MoveL Offs(pZero, -3.045, -6.0, 3.0), v30, z0, tNozzle, \Wobj := wobjPlatform;
		WaitRob \InPos;
		SetDO DO5_Program_Feed, 0;
		MoveL Offs(pZero, -6.021, -3.0, 3.0), v100, z0, tNozzle, \Wobj := wobjPlatform;
		WaitRob \InPos;
		SetDO DO5_Program_Feed, 1;
		MoveL Offs(pZero, 6.033, -3.0, 3.0), v30, z0, tNozzle, \Wobj := wobjPlatform;
		WaitRob \InPos;
		SetDO DO5_Program_Feed, 0;
		MoveL Offs(pZero, 6.748, 0.0, 3.0), v100, z0, tNozzle, \Wobj := wobjPlatform;
		WaitRob \InPos;
		SetDO DO5_Program_Feed, 1;
		MoveL Offs(pZero, -6.726, 0.0, 3.0), v30, z0, tNozzle, \Wobj := wobjPlatform;
		WaitRob \InPos;
		SetDO DO5_Program_Feed, 0;
		MoveL Offs(pZero, -6.021, 3.0, 3.0), v100, z0, tNozzle, \Wobj := wobjPlatform;
		WaitRob \InPos;
		SetDO DO5_Program_Feed, 1;
		MoveL Offs(pZero, 6.033, 3.0, 3.0), v30, z0, tNozzle, \Wobj := wobjPlatform;
		WaitRob \InPos;
		SetDO DO5_Program_Feed, 0;
		MoveL Offs(pZero, 3.059, 6.0, 3.0), v100, z0, tNozzle, \Wobj := wobjPlatform;
		WaitRob \InPos;
		SetDO DO5_Program_Feed, 1;
		MoveL Offs(pZero, -3.045, 6.0, 3.0), v30, z0, tNozzle, \Wobj := wobjPlatform;
		WaitRob \InPos;
		SetDO DO6_Between_Layer_Retract, 1;
		SetDO DO5_Program_Feed, 0;
		MoveL Offs(pZero, -3.045, 6.0, 8.0), v100, z0, tNozzle, \Wobj := wobjPlatform;

		! Layer: 16
		! LayerParams(infillAngleDegrees=90.0, pathWidth=3.0, layerHeight=0.2, infillShiftX=0.0, infillShiftY=0.0, numShells=1, infillOverlap=0.0002)
		! T116
		! M6
		TPWRITE "Layer 16 of 170";
		MoveL Offs(pZero, -0.292, -7.243, 8.2), v100, z0, tNozzle, \Wobj := wobjPlatform;
		MoveL Offs(pZero, -0.292, -7.243, 3.2), v30, z0, tNozzle, \Wobj := wobjPlatform;
		WaitRob \InPos;
		SetDO DO6_Between_Layer_Retract, 0;
		WaitRob \InPos;
		SetDO DO5_Program_Feed, 1;
		MoveL Offs(pZero, 0.874, -7.196, 3.2), v30, z0, tNozzle, \Wobj := wobjPlatform;
		MoveL Offs(pZero, 2.017, -6.963, 3.2), v30, z0, tNozzle, \Wobj := wobjPlatform;
		MoveL Offs(pZero, 3.108, -6.549, 3.2), v30, z0, tNozzle, \Wobj := wobjPlatform;
		MoveL Offs(pZero, 4.118, -5.966, 3.2), v30, z0, tNozzle, \Wobj := wobjPlatform;
		MoveL Offs(pZero, 5.022, -5.228, 3.2), v30, z0, tNozzle, \Wobj := wobjPlatform;
		MoveL Offs(pZero, 5.795, -4.355, 3.2), v30, z0, tNozzle, \Wobj := wobjPlatform;
		MoveL Offs(pZero, 6.419, -3.369, 3.2), v30, z0, tNozzle, \Wobj := wobjPlatform;
		MoveL Offs(pZero, 6.876, -2.296, 3.2), v30, z0, tNozzle, \Wobj := wobjPlatform;
		MoveL Offs(pZero, 7.155, -1.163, 3.2), v30, z0, tNozzle, \Wobj := wobjPlatform;
		MoveL Offs(pZero, 7.249, -0.0, 3.2), v30, z0, tNozzle, \Wobj := wobjPlatform;
		MoveL Offs(pZero, 7.155, 1.163, 3.2), v30, z0, tNozzle, \Wobj := wobjPlatform;
		MoveL Offs(pZero, 6.876, 2.296, 3.2), v30, z0, tNozzle, \Wobj := wobjPlatform;
		MoveL Offs(pZero, 6.419, 3.369, 3.2), v30, z0, tNozzle, \Wobj := wobjPlatform;
		MoveL Offs(pZero, 5.795, 4.355, 3.2), v30, z0, tNozzle, \Wobj := wobjPlatform;
		MoveL Offs(pZero, 5.022, 5.228, 3.2), v30, z0, tNozzle, \Wobj := wobjPlatform;
		MoveL Offs(pZero, 4.118, 5.966, 3.2), v30, z0, tNozzle, \Wobj := wobjPlatform;
		MoveL Offs(pZero, 3.108, 6.549, 3.2), v30, z0, tNozzle, \Wobj := wobjPlatform;
		MoveL Offs(pZero, 2.017, 6.963, 3.2), v30, z0, tNozzle, \Wobj := wobjPlatform;
		MoveL Offs(pZero, 0.874, 7.196, 3.2), v30, z0, tNozzle, \Wobj := wobjPlatform;
		MoveL Offs(pZero, -0.292, 7.243, 3.2), v30, z0, tNozzle, \Wobj := wobjPlatform;
		MoveL Offs(pZero, -1.45, 7.103, 3.2), v30, z0, tNozzle, \Wobj := wobjPlatform;
		MoveL Offs(pZero, -2.571, 6.778, 3.2), v30, z0, tNozzle, \Wobj := wobjPlatform;
		MoveL Offs(pZero, -3.625, 6.278, 3.2), v30, z0, tNozzle, \Wobj := wobjPlatform;
		MoveL Offs(pZero, -4.585, 5.615, 3.2), v30, z0, tNozzle, \Wobj := wobjPlatform;
		MoveL Offs(pZero, -5.426, 4.807, 3.2), v30, z0, tNozzle, \Wobj := wobjPlatform;
		MoveL Offs(pZero, -6.127, 3.874, 3.2), v30, z0, tNozzle, \Wobj := wobjPlatform;
		MoveL Offs(pZero, -6.669, 2.841, 3.2), v30, z0, tNozzle, \Wobj := wobjPlatform;
		MoveL Offs(pZero, -7.039, 1.735, 3.2), v30, z0, tNozzle, \Wobj := wobjPlatform;
		MoveL Offs(pZero, -7.226, 0.583, 3.2), v30, z0, tNozzle, \Wobj := wobjPlatform;
		MoveL Offs(pZero, -7.226, -0.583, 3.2), v30, z0, tNozzle, \Wobj := wobjPlatform;
		MoveL Offs(pZero, -7.039, -1.735, 3.2), v30, z0, tNozzle, \Wobj := wobjPlatform;
		MoveL Offs(pZero, -6.669, -2.841, 3.2), v30, z0, tNozzle, \Wobj := wobjPlatform;
		MoveL Offs(pZero, -6.127, -3.874, 3.2), v30, z0, tNozzle, \Wobj := wobjPlatform;
		MoveL Offs(pZero, -5.426, -4.807, 3.2), v30, z0, tNozzle, \Wobj := wobjPlatform;
		MoveL Offs(pZero, -4.585, -5.615, 3.2), v30, z0, tNozzle, \Wobj := wobjPlatform;
		MoveL Offs(pZero, -3.625, -6.278, 3.2), v30, z0, tNozzle, \Wobj := wobjPlatform;
		MoveL Offs(pZero, -2.571, -6.778, 3.2), v30, z0, tNozzle, \Wobj := wobjPlatform;
		MoveL Offs(pZero, -1.45, -7.103, 3.2), v30, z0, tNozzle, \Wobj := wobjPlatform;
		MoveL Offs(pZero, -0.292, -7.243, 3.2), v30, z0, tNozzle, \Wobj := wobjPlatform;
		WaitRob \InPos;
		SetDO DO5_Program_Feed, 0;
		MoveL Offs(pZero, 0.011, -6.731, 3.2), v100, z0, tNozzle, \Wobj := wobjPlatform;
		WaitRob \InPos;
		SetDO DO5_Program_Feed, 1;
		MoveL Offs(pZero, 0.011, 6.731, 3.2), v30, z0, tNozzle, \Wobj := wobjPlatform;
		WaitRob \InPos;
		SetDO DO5_Program_Feed, 0;
		MoveL Offs(pZero, 3.011, 6.028, 3.2), v100, z0, tNozzle, \Wobj := wobjPlatform;
		WaitRob \InPos;
		SetDO DO5_Program_Feed, 1;
		MoveL Offs(pZero, 3.011, -6.028, 3.2), v30, z0, tNozzle, \Wobj := wobjPlatform;
		WaitRob \InPos;
		SetDO DO5_Program_Feed, 0;
		MoveL Offs(pZero, 6.011, -3.051, 3.2), v100, z0, tNozzle, \Wobj := wobjPlatform;
		WaitRob \InPos;
		SetDO DO5_Program_Feed, 1;
		MoveL Offs(pZero, 6.011, 3.051, 3.2), v30, z0, tNozzle, \Wobj := wobjPlatform;
		WaitRob \InPos;
		SetDO DO5_Program_Feed, 0;
		MoveL Offs(pZero, -2.989, 6.026, 3.2), v100, z0, tNozzle, \Wobj := wobjPlatform;
		WaitRob \InPos;
		SetDO DO5_Program_Feed, 1;
		MoveL Offs(pZero, -2.989, -6.026, 3.2), v30, z0, tNozzle, \Wobj := wobjPlatform;
		WaitRob \InPos;
		SetDO DO5_Program_Feed, 0;
		MoveL Offs(pZero, -5.989, -3.062, 3.2), v100, z0, tNozzle, \Wobj := wobjPlatform;
		WaitRob \InPos;
		SetDO DO5_Program_Feed, 1;
		MoveL Offs(pZero, -5.989, 3.062, 3.2), v30, z0, tNozzle, \Wobj := wobjPlatform;
		WaitRob \InPos;
		SetDO DO6_Between_Layer_Retract, 1;
		SetDO DO5_Program_Feed, 0;
		MoveL Offs(pZero, -5.989, 3.062, 8.2), v100, z0, tNozzle, \Wobj := wobjPlatform;

		! Layer: 17
		! LayerParams(infillAngleDegrees=-45.0, pathWidth=3.0, layerHeight=0.2, infillShiftX=0.0, infillShiftY=0.0, numShells=1, infillOverlap=0.0002)
		! T117
		! M6
		TPWRITE "Layer 17 of 170";
		MoveL Offs(pZero, 6.419, -3.369, 8.4), v100, z0, tNozzle, \Wobj := wobjPlatform;
		MoveL Offs(pZero, 6.419, -3.369, 3.4), v30, z0, tNozzle, \Wobj := wobjPlatform;
		WaitRob \InPos;
		SetDO DO6_Between_Layer_Retract, 0;
		WaitRob \InPos;
		SetDO DO5_Program_Feed, 1;
		MoveL Offs(pZero, 6.876, -2.296, 3.4), v30, z0, tNozzle, \Wobj := wobjPlatform;
		MoveL Offs(pZero, 7.155, -1.163, 3.4), v30, z0, tNozzle, \Wobj := wobjPlatform;
		MoveL Offs(pZero, 7.249, -0.0, 3.4), v30, z0, tNozzle, \Wobj := wobjPlatform;
		MoveL Offs(pZero, 7.155, 1.163, 3.4), v30, z0, tNozzle, \Wobj := wobjPlatform;
		MoveL Offs(pZero, 6.876, 2.296, 3.4), v30, z0, tNozzle, \Wobj := wobjPlatform;
		MoveL Offs(pZero, 6.419, 3.369, 3.4), v30, z0, tNozzle, \Wobj := wobjPlatform;
		MoveL Offs(pZero, 5.795, 4.355, 3.4), v30, z0, tNozzle, \Wobj := wobjPlatform;
		MoveL Offs(pZero, 5.022, 5.228, 3.4), v30, z0, tNozzle, \Wobj := wobjPlatform;
		MoveL Offs(pZero, 4.118, 5.966, 3.4), v30, z0, tNozzle, \Wobj := wobjPlatform;
		MoveL Offs(pZero, 3.108, 6.549, 3.4), v30, z0, tNozzle, \Wobj := wobjPlatform;
		MoveL Offs(pZero, 2.017, 6.963, 3.4), v30, z0, tNozzle, \Wobj := wobjPlatform;
		MoveL Offs(pZero, 0.874, 7.196, 3.4), v30, z0, tNozzle, \Wobj := wobjPlatform;
		MoveL Offs(pZero, -0.292, 7.243, 3.4), v30, z0, tNozzle, \Wobj := wobjPlatform;
		MoveL Offs(pZero, -1.45, 7.103, 3.4), v30, z0, tNozzle, \Wobj := wobjPlatform;
		MoveL Offs(pZero, -2.571, 6.778, 3.4), v30, z0, tNozzle, \Wobj := wobjPlatform;
		MoveL Offs(pZero, -3.625, 6.278, 3.4), v30, z0, tNozzle, \Wobj := wobjPlatform;
		MoveL Offs(pZero, -4.585, 5.615, 3.4), v30, z0, tNozzle, \Wobj := wobjPlatform;
		MoveL Offs(pZero, -5.426, 4.807, 3.4), v30, z0, tNozzle, \Wobj := wobjPlatform;
		MoveL Offs(pZero, -6.127, 3.874, 3.4), v30, z0, tNozzle, \Wobj := wobjPlatform;
		MoveL Offs(pZero, -6.669, 2.841, 3.4), v30, z0, tNozzle, \Wobj := wobjPlatform;
		MoveL Offs(pZero, -7.039, 1.735, 3.4), v30, z0, tNozzle, \Wobj := wobjPlatform;
		MoveL Offs(pZero, -7.226, 0.583, 3.4), v30, z0, tNozzle, \Wobj := wobjPlatform;
		MoveL Offs(pZero, -7.226, -0.583, 3.4), v30, z0, tNozzle, \Wobj := wobjPlatform;
		MoveL Offs(pZero, -7.039, -1.735, 3.4), v30, z0, tNozzle, \Wobj := wobjPlatform;
		MoveL Offs(pZero, -6.669, -2.841, 3.4), v30, z0, tNozzle, \Wobj := wobjPlatform;
		MoveL Offs(pZero, -6.127, -3.874, 3.4), v30, z0, tNozzle, \Wobj := wobjPlatform;
		MoveL Offs(pZero, -5.426, -4.807, 3.4), v30, z0, tNozzle, \Wobj := wobjPlatform;
		MoveL Offs(pZero, -4.585, -5.615, 3.4), v30, z0, tNozzle, \Wobj := wobjPlatform;
		MoveL Offs(pZero, -3.625, -6.278, 3.4), v30, z0, tNozzle, \Wobj := wobjPlatform;
		MoveL Offs(pZero, -2.571, -6.778, 3.4), v30, z0, tNozzle, \Wobj := wobjPlatform;
		MoveL Offs(pZero, -1.45, -7.103, 3.4), v30, z0, tNozzle, \Wobj := wobjPlatform;
		MoveL Offs(pZero, -0.292, -7.243, 3.4), v30, z0, tNozzle, \Wobj := wobjPlatform;
		MoveL Offs(pZero, 0.874, -7.196, 3.4), v30, z0, tNozzle, \Wobj := wobjPlatform;
		MoveL Offs(pZero, 2.017, -6.963, 3.4), v30, z0, tNozzle, \Wobj := wobjPlatform;
		MoveL Offs(pZero, 3.108, -6.549, 3.4), v30, z0, tNozzle, \Wobj := wobjPlatform;
		MoveL Offs(pZero, 4.118, -5.966, 3.4), v30, z0, tNozzle, \Wobj := wobjPlatform;
		MoveL Offs(pZero, 5.022, -5.228, 3.4), v30, z0, tNozzle, \Wobj := wobjPlatform;
		MoveL Offs(pZero, 5.795, -4.355, 3.4), v30, z0, tNozzle, \Wobj := wobjPlatform;
		MoveL Offs(pZero, 6.419, -3.369, 3.4), v30, z0, tNozzle, \Wobj := wobjPlatform;
		WaitRob \InPos;
		SetDO DO5_Program_Feed, 0;
		MoveL Offs(pZero, 6.397, -2.144, 3.4), v100, z0, tNozzle, \Wobj := wobjPlatform;
		WaitRob \InPos;
		SetDO DO5_Program_Feed, 1;
		MoveL Offs(pZero, -2.131, 6.385, 3.4), v30, z0, tNozzle, \Wobj := wobjPlatform;
		WaitRob \InPos;
		SetDO DO5_Program_Feed, 0;
		MoveL Offs(pZero, -4.751, 4.762, 3.4), v100, z0, tNozzle, \Wobj := wobjPlatform;
		WaitRob \InPos;
		SetDO DO5_Program_Feed, 1;
		MoveL Offs(pZero, 4.77, -4.759, 3.4), v30, z0, tNozzle, \Wobj := wobjPlatform;
		WaitRob \InPos;
		SetDO DO5_Program_Feed, 0;
		MoveL Offs(pZero, 2.147, -6.379, 3.4), v100, z0, tNozzle, \Wobj := wobjPlatform;
		WaitRob \InPos;
		SetDO DO5_Program_Feed, 1;
		MoveL Offs(pZero, -6.375, 2.143, 3.4), v30, z0, tNozzle, \Wobj := wobjPlatform;
		WaitRob \InPos;
		SetDO DO5_Program_Feed, 0;
		MoveL Offs(pZero, -6.397, -2.077, 3.4), v100, z0, tNozzle, \Wobj := wobjPlatform;
		WaitRob \InPos;
		SetDO DO5_Program_Feed, 1;
		MoveL Offs(pZero, -2.072, -6.402, 3.4), v30, z0, tNozzle, \Wobj := wobjPlatform;
		WaitRob \InPos;
		SetDO DO5_Program_Feed, 0;
		MoveL Offs(pZero, 6.414, 2.082, 3.4), v100, z0, tNozzle, \Wobj := wobjPlatform;
		WaitRob \InPos;
		SetDO DO5_Program_Feed, 1;
		MoveL Offs(pZero, 2.099, 6.397, 3.4), v30, z0, tNozzle, \Wobj := wobjPlatform;
		WaitRob \InPos;
		SetDO DO6_Between_Layer_Retract, 1;
		SetDO DO5_Program_Feed, 0;
		MoveL Offs(pZero, 2.099, 6.397, 8.4), v100, z0, tNozzle, \Wobj := wobjPlatform;

		! Layer: 18
		! LayerParams(infillAngleDegrees=45.0, pathWidth=3.0, layerHeight=0.2, infillShiftX=0.0, infillShiftY=0.0, numShells=1, infillOverlap=0.0002)
		! T118
		! M6
		TPWRITE "Layer 18 of 170";
		MoveL Offs(pZero, -5.426, 4.807, 8.6), v100, z0, tNozzle, \Wobj := wobjPlatform;
		MoveL Offs(pZero, -5.426, 4.807, 3.6), v30, z0, tNozzle, \Wobj := wobjPlatform;
		WaitRob \InPos;
		SetDO DO6_Between_Layer_Retract, 0;
		WaitRob \InPos;
		SetDO DO5_Program_Feed, 1;
		MoveL Offs(pZero, -6.127, 3.874, 3.6), v30, z0, tNozzle, \Wobj := wobjPlatform;
		MoveL Offs(pZero, -6.669, 2.841, 3.6), v30, z0, tNozzle, \Wobj := wobjPlatform;
		MoveL Offs(pZero, -7.039, 1.735, 3.6), v30, z0, tNozzle, \Wobj := wobjPlatform;
		MoveL Offs(pZero, -7.226, 0.583, 3.6), v30, z0, tNozzle, \Wobj := wobjPlatform;
		MoveL Offs(pZero, -7.226, -0.583, 3.6), v30, z0, tNozzle, \Wobj := wobjPlatform;
		MoveL Offs(pZero, -7.039, -1.735, 3.6), v30, z0, tNozzle, \Wobj := wobjPlatform;
		MoveL Offs(pZero, -6.669, -2.841, 3.6), v30, z0, tNozzle, \Wobj := wobjPlatform;
		MoveL Offs(pZero, -6.127, -3.874, 3.6), v30, z0, tNozzle, \Wobj := wobjPlatform;
		MoveL Offs(pZero, -5.426, -4.807, 3.6), v30, z0, tNozzle, \Wobj := wobjPlatform;
		MoveL Offs(pZero, -4.585, -5.615, 3.6), v30, z0, tNozzle, \Wobj := wobjPlatform;
		MoveL Offs(pZero, -3.625, -6.278, 3.6), v30, z0, tNozzle, \Wobj := wobjPlatform;
		MoveL Offs(pZero, -2.571, -6.778, 3.6), v30, z0, tNozzle, \Wobj := wobjPlatform;
		MoveL Offs(pZero, -1.45, -7.103, 3.6), v30, z0, tNozzle, \Wobj := wobjPlatform;
		MoveL Offs(pZero, -0.292, -7.243, 3.6), v30, z0, tNozzle, \Wobj := wobjPlatform;
		MoveL Offs(pZero, 0.874, -7.196, 3.6), v30, z0, tNozzle, \Wobj := wobjPlatform;
		MoveL Offs(pZero, 2.017, -6.963, 3.6), v30, z0, tNozzle, \Wobj := wobjPlatform;
		MoveL Offs(pZero, 3.108, -6.549, 3.6), v30, z0, tNozzle, \Wobj := wobjPlatform;
		MoveL Offs(pZero, 4.118, -5.966, 3.6), v30, z0, tNozzle, \Wobj := wobjPlatform;
		MoveL Offs(pZero, 5.022, -5.228, 3.6), v30, z0, tNozzle, \Wobj := wobjPlatform;
		MoveL Offs(pZero, 5.795, -4.355, 3.6), v30, z0, tNozzle, \Wobj := wobjPlatform;
		MoveL Offs(pZero, 6.419, -3.369, 3.6), v30, z0, tNozzle, \Wobj := wobjPlatform;
		MoveL Offs(pZero, 6.876, -2.296, 3.6), v30, z0, tNozzle, \Wobj := wobjPlatform;
		MoveL Offs(pZero, 7.155, -1.163, 3.6), v30, z0, tNozzle, \Wobj := wobjPlatform;
		MoveL Offs(pZero, 7.249, -0.0, 3.6), v30, z0, tNozzle, \Wobj := wobjPlatform;
		MoveL Offs(pZero, 7.155, 1.163, 3.6), v30, z0, tNozzle, \Wobj := wobjPlatform;
		MoveL Offs(pZero, 6.876, 2.296, 3.6), v30, z0, tNozzle, \Wobj := wobjPlatform;
		MoveL Offs(pZero, 6.419, 3.369, 3.6), v30, z0, tNozzle, \Wobj := wobjPlatform;
		MoveL Offs(pZero, 5.795, 4.355, 3.6), v30, z0, tNozzle, \Wobj := wobjPlatform;
		MoveL Offs(pZero, 5.022, 5.228, 3.6), v30, z0, tNozzle, \Wobj := wobjPlatform;
		MoveL Offs(pZero, 4.118, 5.966, 3.6), v30, z0, tNozzle, \Wobj := wobjPlatform;
		MoveL Offs(pZero, 3.108, 6.549, 3.6), v30, z0, tNozzle, \Wobj := wobjPlatform;
		MoveL Offs(pZero, 2.017, 6.963, 3.6), v30, z0, tNozzle, \Wobj := wobjPlatform;
		MoveL Offs(pZero, 0.874, 7.196, 3.6), v30, z0, tNozzle, \Wobj := wobjPlatform;
		MoveL Offs(pZero, -0.292, 7.243, 3.6), v30, z0, tNozzle, \Wobj := wobjPlatform;
		MoveL Offs(pZero, -1.45, 7.103, 3.6), v30, z0, tNozzle, \Wobj := wobjPlatform;
		MoveL Offs(pZero, -2.571, 6.778, 3.6), v30, z0, tNozzle, \Wobj := wobjPlatform;
		MoveL Offs(pZero, -3.625, 6.278, 3.6), v30, z0, tNozzle, \Wobj := wobjPlatform;
		MoveL Offs(pZero, -4.585, 5.615, 3.6), v30, z0, tNozzle, \Wobj := wobjPlatform;
		MoveL Offs(pZero, -5.426, 4.807, 3.6), v30, z0, tNozzle, \Wobj := wobjPlatform;
		WaitRob \InPos;
		SetDO DO5_Program_Feed, 0;
		MoveL Offs(pZero, -6.397, 2.077, 3.6), v100, z0, tNozzle, \Wobj := wobjPlatform;
		WaitRob \InPos;
		SetDO DO5_Program_Feed, 1;
		MoveL Offs(pZero, -2.072, 6.402, 3.6), v30, z0, tNozzle, \Wobj := wobjPlatform;
		WaitRob \InPos;
		SetDO DO5_Program_Feed, 0;
		MoveL Offs(pZero, 2.147, 6.379, 3.6), v100, z0, tNozzle, \Wobj := wobjPlatform;
		WaitRob \InPos;
		SetDO DO5_Program_Feed, 1;
		MoveL Offs(pZero, -6.375, -2.143, 3.6), v30, z0, tNozzle, \Wobj := wobjPlatform;
		WaitRob \InPos;
		SetDO DO5_Program_Feed, 0;
		MoveL Offs(pZero, -4.751, -4.762, 3.6), v100, z0, tNozzle, \Wobj := wobjPlatform;
		WaitRob \InPos;
		SetDO DO5_Program_Feed, 1;
		MoveL Offs(pZero, 4.77, 4.759, 3.6), v30, z0, tNozzle, \Wobj := wobjPlatform;
		WaitRob \InPos;
		SetDO DO5_Program_Feed, 0;
		MoveL Offs(pZero, 6.397, 2.144, 3.6), v100, z0, tNozzle, \Wobj := wobjPlatform;
		WaitRob \InPos;
		SetDO DO5_Program_Feed, 1;
		MoveL Offs(pZero, -2.131, -6.385, 3.6), v30, z0, tNozzle, \Wobj := wobjPlatform;
		WaitRob \InPos;
		SetDO DO5_Program_Feed, 0;
		MoveL Offs(pZero, 2.099, -6.397, 3.6), v100, z0, tNozzle, \Wobj := wobjPlatform;
		WaitRob \InPos;
		SetDO DO5_Program_Feed, 1;
		MoveL Offs(pZero, 6.414, -2.082, 3.6), v30, z0, tNozzle, \Wobj := wobjPlatform;
		WaitRob \InPos;
		SetDO DO6_Between_Layer_Retract, 1;
		SetDO DO5_Program_Feed, 0;
		MoveL Offs(pZero, 6.414, -2.082, 8.6), v100, z0, tNozzle, \Wobj := wobjPlatform;

		! Layer: 19
		! LayerParams(infillAngleDegrees=0.0, pathWidth=3.0, layerHeight=0.2, infillShiftX=0.0, infillShiftY=0.0, numShells=1, infillOverlap=0.0002)
		! T119
		! M6
		TPWRITE "Layer 19 of 170";
		MoveL Offs(pZero, 0.874, -7.196, 8.8), v100, z0, tNozzle, \Wobj := wobjPlatform;
		MoveL Offs(pZero, 0.874, -7.196, 3.8), v30, z0, tNozzle, \Wobj := wobjPlatform;
		WaitRob \InPos;
		SetDO DO6_Between_Layer_Retract, 0;
		WaitRob \InPos;
		SetDO DO5_Program_Feed, 1;
		MoveL Offs(pZero, 2.017, -6.963, 3.8), v30, z0, tNozzle, \Wobj := wobjPlatform;
		MoveL Offs(pZero, 3.108, -6.549, 3.8), v30, z0, tNozzle, \Wobj := wobjPlatform;
		MoveL Offs(pZero, 4.118, -5.966, 3.8), v30, z0, tNozzle, \Wobj := wobjPlatform;
		MoveL Offs(pZero, 5.022, -5.228, 3.8), v30, z0, tNozzle, \Wobj := wobjPlatform;
		MoveL Offs(pZero, 5.795, -4.355, 3.8), v30, z0, tNozzle, \Wobj := wobjPlatform;
		MoveL Offs(pZero, 6.419, -3.369, 3.8), v30, z0, tNozzle, \Wobj := wobjPlatform;
		MoveL Offs(pZero, 6.876, -2.296, 3.8), v30, z0, tNozzle, \Wobj := wobjPlatform;
		MoveL Offs(pZero, 7.155, -1.163, 3.8), v30, z0, tNozzle, \Wobj := wobjPlatform;
		MoveL Offs(pZero, 7.249, -0.0, 3.8), v30, z0, tNozzle, \Wobj := wobjPlatform;
		MoveL Offs(pZero, 7.155, 1.163, 3.8), v30, z0, tNozzle, \Wobj := wobjPlatform;
		MoveL Offs(pZero, 6.876, 2.296, 3.8), v30, z0, tNozzle, \Wobj := wobjPlatform;
		MoveL Offs(pZero, 6.419, 3.369, 3.8), v30, z0, tNozzle, \Wobj := wobjPlatform;
		MoveL Offs(pZero, 5.795, 4.355, 3.8), v30, z0, tNozzle, \Wobj := wobjPlatform;
		MoveL Offs(pZero, 5.022, 5.228, 3.8), v30, z0, tNozzle, \Wobj := wobjPlatform;
		MoveL Offs(pZero, 4.118, 5.966, 3.8), v30, z0, tNozzle, \Wobj := wobjPlatform;
		MoveL Offs(pZero, 3.108, 6.549, 3.8), v30, z0, tNozzle, \Wobj := wobjPlatform;
		MoveL Offs(pZero, 2.017, 6.963, 3.8), v30, z0, tNozzle, \Wobj := wobjPlatform;
		MoveL Offs(pZero, 0.874, 7.196, 3.8), v30, z0, tNozzle, \Wobj := wobjPlatform;
		MoveL Offs(pZero, -0.292, 7.243, 3.8), v30, z0, tNozzle, \Wobj := wobjPlatform;
		MoveL Offs(pZero, -1.45, 7.103, 3.8), v30, z0, tNozzle, \Wobj := wobjPlatform;
		MoveL Offs(pZero, -2.571, 6.778, 3.8), v30, z0, tNozzle, \Wobj := wobjPlatform;
		MoveL Offs(pZero, -3.625, 6.278, 3.8), v30, z0, tNozzle, \Wobj := wobjPlatform;
		MoveL Offs(pZero, -4.585, 5.615, 3.8), v30, z0, tNozzle, \Wobj := wobjPlatform;
		MoveL Offs(pZero, -5.426, 4.807, 3.8), v30, z0, tNozzle, \Wobj := wobjPlatform;
		MoveL Offs(pZero, -6.127, 3.874, 3.8), v30, z0, tNozzle, \Wobj := wobjPlatform;
		MoveL Offs(pZero, -6.669, 2.841, 3.8), v30, z0, tNozzle, \Wobj := wobjPlatform;
		MoveL Offs(pZero, -7.039, 1.735, 3.8), v30, z0, tNozzle, \Wobj := wobjPlatform;
		MoveL Offs(pZero, -7.226, 0.583, 3.8), v30, z0, tNozzle, \Wobj := wobjPlatform;
		MoveL Offs(pZero, -7.226, -0.583, 3.8), v30, z0, tNozzle, \Wobj := wobjPlatform;
		MoveL Offs(pZero, -7.039, -1.735, 3.8), v30, z0, tNozzle, \Wobj := wobjPlatform;
		MoveL Offs(pZero, -6.669, -2.841, 3.8), v30, z0, tNozzle, \Wobj := wobjPlatform;
		MoveL Offs(pZero, -6.127, -3.874, 3.8), v30, z0, tNozzle, \Wobj := wobjPlatform;
		MoveL Offs(pZero, -5.426, -4.807, 3.8), v30, z0, tNozzle, \Wobj := wobjPlatform;
		MoveL Offs(pZero, -4.585, -5.615, 3.8), v30, z0, tNozzle, \Wobj := wobjPlatform;
		MoveL Offs(pZero, -3.625, -6.278, 3.8), v30, z0, tNozzle, \Wobj := wobjPlatform;
		MoveL Offs(pZero, -2.571, -6.778, 3.8), v30, z0, tNozzle, \Wobj := wobjPlatform;
		MoveL Offs(pZero, -1.45, -7.103, 3.8), v30, z0, tNozzle, \Wobj := wobjPlatform;
		MoveL Offs(pZero, -0.292, -7.243, 3.8), v30, z0, tNozzle, \Wobj := wobjPlatform;
		MoveL Offs(pZero, 0.874, -7.196, 3.8), v30, z0, tNozzle, \Wobj := wobjPlatform;
		WaitRob \InPos;
		SetDO DO5_Program_Feed, 0;
		MoveL Offs(pZero, 3.059, -6.0, 3.8), v100, z0, tNozzle, \Wobj := wobjPlatform;
		WaitRob \InPos;
		SetDO DO5_Program_Feed, 1;
		MoveL Offs(pZero, -3.045, -6.0, 3.8), v30, z0, tNozzle, \Wobj := wobjPlatform;
		WaitRob \InPos;
		SetDO DO5_Program_Feed, 0;
		MoveL Offs(pZero, -6.021, -3.0, 3.8), v100, z0, tNozzle, \Wobj := wobjPlatform;
		WaitRob \InPos;
		SetDO DO5_Program_Feed, 1;
		MoveL Offs(pZero, 6.033, -3.0, 3.8), v30, z0, tNozzle, \Wobj := wobjPlatform;
		WaitRob \InPos;
		SetDO DO5_Program_Feed, 0;
		MoveL Offs(pZero, 6.748, 0.0, 3.8), v100, z0, tNozzle, \Wobj := wobjPlatform;
		WaitRob \InPos;
		SetDO DO5_Program_Feed, 1;
		MoveL Offs(pZero, -6.726, 0.0, 3.8), v30, z0, tNozzle, \Wobj := wobjPlatform;
		WaitRob \InPos;
		SetDO DO5_Program_Feed, 0;
		MoveL Offs(pZero, -6.021, 3.0, 3.8), v100, z0, tNozzle, \Wobj := wobjPlatform;
		WaitRob \InPos;
		SetDO DO5_Program_Feed, 1;
		MoveL Offs(pZero, 6.033, 3.0, 3.8), v30, z0, tNozzle, \Wobj := wobjPlatform;
		WaitRob \InPos;
		SetDO DO5_Program_Feed, 0;
		MoveL Offs(pZero, 3.059, 6.0, 3.8), v100, z0, tNozzle, \Wobj := wobjPlatform;
		WaitRob \InPos;
		SetDO DO5_Program_Feed, 1;
		MoveL Offs(pZero, -3.045, 6.0, 3.8), v30, z0, tNozzle, \Wobj := wobjPlatform;
		WaitRob \InPos;
		SetDO DO6_Between_Layer_Retract, 1;
		SetDO DO5_Program_Feed, 0;
		MoveL Offs(pZero, -3.045, 6.0, 8.8), v100, z0, tNozzle, \Wobj := wobjPlatform;

		! Layer: 20
		! LayerParams(infillAngleDegrees=90.0, pathWidth=3.0, layerHeight=0.2, infillShiftX=0.0, infillShiftY=0.0, numShells=1, infillOverlap=0.0002)
		! T120
		! M6
		TPWRITE "Layer 20 of 170";
		MoveL Offs(pZero, 6.876, 2.296, 9.0), v100, z0, tNozzle, \Wobj := wobjPlatform;
		MoveL Offs(pZero, 6.876, 2.296, 4.0), v30, z0, tNozzle, \Wobj := wobjPlatform;
		WaitRob \InPos;
		SetDO DO6_Between_Layer_Retract, 0;
		WaitRob \InPos;
		SetDO DO5_Program_Feed, 1;
		MoveL Offs(pZero, 6.419, 3.369, 4.0), v30, z0, tNozzle, \Wobj := wobjPlatform;
		MoveL Offs(pZero, 5.795, 4.355, 4.0), v30, z0, tNozzle, \Wobj := wobjPlatform;
		MoveL Offs(pZero, 5.022, 5.228, 4.0), v30, z0, tNozzle, \Wobj := wobjPlatform;
		MoveL Offs(pZero, 4.118, 5.966, 4.0), v30, z0, tNozzle, \Wobj := wobjPlatform;
		MoveL Offs(pZero, 3.108, 6.549, 4.0), v30, z0, tNozzle, \Wobj := wobjPlatform;
		MoveL Offs(pZero, 2.017, 6.963, 4.0), v30, z0, tNozzle, \Wobj := wobjPlatform;
		MoveL Offs(pZero, 0.874, 7.196, 4.0), v30, z0, tNozzle, \Wobj := wobjPlatform;
		MoveL Offs(pZero, -0.292, 7.243, 4.0), v30, z0, tNozzle, \Wobj := wobjPlatform;
		MoveL Offs(pZero, -1.45, 7.103, 4.0), v30, z0, tNozzle, \Wobj := wobjPlatform;
		MoveL Offs(pZero, -2.571, 6.778, 4.0), v30, z0, tNozzle, \Wobj := wobjPlatform;
		MoveL Offs(pZero, -3.625, 6.278, 4.0), v30, z0, tNozzle, \Wobj := wobjPlatform;
		MoveL Offs(pZero, -4.585, 5.615, 4.0), v30, z0, tNozzle, \Wobj := wobjPlatform;
		MoveL Offs(pZero, -5.426, 4.807, 4.0), v30, z0, tNozzle, \Wobj := wobjPlatform;
		MoveL Offs(pZero, -6.127, 3.874, 4.0), v30, z0, tNozzle, \Wobj := wobjPlatform;
		MoveL Offs(pZero, -6.669, 2.841, 4.0), v30, z0, tNozzle, \Wobj := wobjPlatform;
		MoveL Offs(pZero, -7.039, 1.735, 4.0), v30, z0, tNozzle, \Wobj := wobjPlatform;
		MoveL Offs(pZero, -7.226, 0.583, 4.0), v30, z0, tNozzle, \Wobj := wobjPlatform;
		MoveL Offs(pZero, -7.226, -0.583, 4.0), v30, z0, tNozzle, \Wobj := wobjPlatform;
		MoveL Offs(pZero, -7.039, -1.735, 4.0), v30, z0, tNozzle, \Wobj := wobjPlatform;
		MoveL Offs(pZero, -6.669, -2.841, 4.0), v30, z0, tNozzle, \Wobj := wobjPlatform;
		MoveL Offs(pZero, -6.127, -3.874, 4.0), v30, z0, tNozzle, \Wobj := wobjPlatform;
		MoveL Offs(pZero, -5.426, -4.807, 4.0), v30, z0, tNozzle, \Wobj := wobjPlatform;
		MoveL Offs(pZero, -4.585, -5.615, 4.0), v30, z0, tNozzle, \Wobj := wobjPlatform;
		MoveL Offs(pZero, -3.625, -6.278, 4.0), v30, z0, tNozzle, \Wobj := wobjPlatform;
