MODULE MainModule
	PROC main()
		Heat;
		SetDO DO1_Auto_Mode, 1;

		

		! Part number: 1
		! PartParams(extrusionFactor=0.98, printSpeed=30, shiftX=0.0, shiftY=0.0, shiftZ=0.0, numLayers=2, designType=0, pathWidth=0.5, brims=0, horizontalExpansion=0.0, randomStartLocation=1)

		! Layer: 1
		! LayerParams(infillAngleDegrees=-45.0, layerHeight=0.2, infillShiftX=0.0, infillShiftY=0.0, numShells=1, infillOverlap=0.0002)
		! T11
		! M6
		TPWRITE "Layer 1 of 2";
		MoveL Offs(pZero, 5.022, 5.228, 5.2), v100, z0, tNozzle, \Wobj := wobjFlatPlat;
		MoveL Offs(pZero, 5.022, 5.228, 0.2), v30, z0, tNozzle, \Wobj := wobjFlatPlat;
		WaitRob \InPos;
		SetDO DO5_Program_Feed, 1;
		MoveL Offs(pZero, 4.118, 5.966, 0.2), v30, z0, tNozzle, \Wobj := wobjFlatPlat;
		MoveL Offs(pZero, 3.108, 6.549, 0.2), v30, z0, tNozzle, \Wobj := wobjFlatPlat;
		MoveL Offs(pZero, 2.017, 6.963, 0.2), v30, z0, tNozzle, \Wobj := wobjFlatPlat;
		MoveL Offs(pZero, 0.874, 7.196, 0.2), v30, z0, tNozzle, \Wobj := wobjFlatPlat;
		MoveL Offs(pZero, -0.292, 7.243, 0.2), v30, z0, tNozzle, \Wobj := wobjFlatPlat;
		MoveL Offs(pZero, -1.45, 7.103, 0.2), v30, z0, tNozzle, \Wobj := wobjFlatPlat;
		MoveL Offs(pZero, -2.571, 6.778, 0.2), v30, z0, tNozzle, \Wobj := wobjFlatPlat;
		MoveL Offs(pZero, -3.625, 6.278, 0.2), v30, z0, tNozzle, \Wobj := wobjFlatPlat;
		MoveL Offs(pZero, -4.585, 5.615, 0.2), v30, z0, tNozzle, \Wobj := wobjFlatPlat;
		MoveL Offs(pZero, -5.426, 4.807, 0.2), v30, z0, tNozzle, \Wobj := wobjFlatPlat;
		MoveL Offs(pZero, -6.127, 3.874, 0.2), v30, z0, tNozzle, \Wobj := wobjFlatPlat;
		MoveL Offs(pZero, -6.669, 2.841, 0.2), v30, z0, tNozzle, \Wobj := wobjFlatPlat;
		MoveL Offs(pZero, -7.039, 1.735, 0.2), v30, z0, tNozzle, \Wobj := wobjFlatPlat;
		MoveL Offs(pZero, -7.226, 0.583, 0.2), v30, z0, tNozzle, \Wobj := wobjFlatPlat;
		MoveL Offs(pZero, -7.226, -0.583, 0.2), v30, z0, tNozzle, \Wobj := wobjFlatPlat;
		MoveL Offs(pZero, -7.039, -1.735, 0.2), v30, z0, tNozzle, \Wobj := wobjFlatPlat;
		MoveL Offs(pZero, -6.669, -2.841, 0.2), v30, z0, tNozzle, \Wobj := wobjFlatPlat;
		MoveL Offs(pZero, -6.127, -3.874, 0.2), v30, z0, tNozzle, \Wobj := wobjFlatPlat;
		MoveL Offs(pZero, -5.426, -4.807, 0.2), v30, z0, tNozzle, \Wobj := wobjFlatPlat;
		MoveL Offs(pZero, -4.585, -5.615, 0.2), v30, z0, tNozzle, \Wobj := wobjFlatPlat;
		MoveL Offs(pZero, -3.625, -6.278, 0.2), v30, z0, tNozzle, \Wobj := wobjFlatPlat;
		MoveL Offs(pZero, -2.571, -6.778, 0.2), v30, z0, tNozzle, \Wobj := wobjFlatPlat;
		MoveL Offs(pZero, -1.45, -7.103, 0.2), v30, z0, tNozzle, \Wobj := wobjFlatPlat;
		MoveL Offs(pZero, -0.292, -7.243, 0.2), v30, z0, tNozzle, \Wobj := wobjFlatPlat;
		MoveL Offs(pZero, 0.874, -7.196, 0.2), v30, z0, tNozzle, \Wobj := wobjFlatPlat;
		MoveL Offs(pZero, 2.017, -6.963, 0.2), v30, z0, tNozzle, \Wobj := wobjFlatPlat;
		MoveL Offs(pZero, 3.108, -6.549, 0.2), v30, z0, tNozzle, \Wobj := wobjFlatPlat;
		MoveL Offs(pZero, 4.118, -5.966, 0.2), v30, z0, tNozzle, \Wobj := wobjFlatPlat;
		MoveL Offs(pZero, 5.022, -5.228, 0.2), v30, z0, tNozzle, \Wobj := wobjFlatPlat;
		MoveL Offs(pZero, 5.795, -4.355, 0.2), v30, z0, tNozzle, \Wobj := wobjFlatPlat;
		MoveL Offs(pZero, 6.419, -3.369, 0.2), v30, z0, tNozzle, \Wobj := wobjFlatPlat;
		MoveL Offs(pZero, 6.876, -2.296, 0.2), v30, z0, tNozzle, \Wobj := wobjFlatPlat;
		MoveL Offs(pZero, 7.155, -1.163, 0.2), v30, z0, tNozzle, \Wobj := wobjFlatPlat;
		MoveL Offs(pZero, 7.249, -0.0, 0.2), v30, z0, tNozzle, \Wobj := wobjFlatPlat;
		MoveL Offs(pZero, 7.155, 1.163, 0.2), v30, z0, tNozzle, \Wobj := wobjFlatPlat;
		MoveL Offs(pZero, 6.876, 2.296, 0.2), v30, z0, tNozzle, \Wobj := wobjFlatPlat;
		MoveL Offs(pZero, 6.419, 3.369, 0.2), v30, z0, tNozzle, \Wobj := wobjFlatPlat;
		MoveL Offs(pZero, 5.795, 4.355, 0.2), v30, z0, tNozzle, \Wobj := wobjFlatPlat;
		MoveL Offs(pZero, 5.022, 5.228, 0.2), v30, z0, tNozzle, \Wobj := wobjFlatPlat;
		WaitRob \InPos;
		SetDO DO5_Program_Feed, 0;
		MoveL Offs(pZero, 2.668, 6.181, 0.2), v100, z0, tNozzle, \Wobj := wobjFlatPlat;
		WaitRob \InPos;
		SetDO DO5_Program_Feed, 1;
		MoveL Offs(pZero, 6.169, 2.681, 0.2), v30, z0, tNozzle, \Wobj := wobjFlatPlat;
		WaitRob \InPos;
		SetDO DO5_Program_Feed, 0;
		MoveL Offs(pZero, 6.53, 1.613, 0.2), v100, z0, tNozzle, \Wobj := wobjFlatPlat;
		WaitRob \InPos;
		SetDO DO5_Program_Feed, 1;
		MoveL Offs(pZero, 1.606, 6.537, 0.2), v30, z0, tNozzle, \Wobj := wobjFlatPlat;
		WaitRob \InPos;
		SetDO DO5_Program_Feed, 0;
		MoveL Offs(pZero, 0.734, 6.702, 0.2), v100, z0, tNozzle, \Wobj := wobjFlatPlat;
		WaitRob \InPos;
		SetDO DO5_Program_Feed, 1;
		MoveL Offs(pZero, 6.687, 0.748, 0.2), v30, z0, tNozzle, \Wobj := wobjFlatPlat;
		WaitRob \InPos;
		SetDO DO5_Program_Feed, 0;
		MoveL Offs(pZero, 6.746, -0.018, 0.2), v100, z0, tNozzle, \Wobj := wobjFlatPlat;
		WaitRob \InPos;
		SetDO DO5_Program_Feed, 1;
		MoveL Offs(pZero, -0.003, 6.731, 0.2), v30, z0, tNozzle, \Wobj := wobjFlatPlat;
		WaitRob \InPos;
		SetDO DO5_Program_Feed, 0;
		MoveL Offs(pZero, -0.672, 6.694, 0.2), v100, z0, tNozzle, \Wobj := wobjFlatPlat;
		WaitRob \InPos;
		SetDO DO5_Program_Feed, 1;
		MoveL Offs(pZero, 6.693, -0.672, 0.2), v30, z0, tNozzle, \Wobj := wobjFlatPlat;
		WaitRob \InPos;
		SetDO DO5_Program_Feed, 0;
		MoveL Offs(pZero, 6.608, -1.294, 0.2), v100, z0, tNozzle, \Wobj := wobjFlatPlat;
		WaitRob \InPos;
		SetDO DO5_Program_Feed, 1;
		MoveL Offs(pZero, -1.303, 6.617, 0.2), v30, z0, tNozzle, \Wobj := wobjFlatPlat;
		WaitRob \InPos;
		SetDO DO5_Program_Feed, 0;
		MoveL Offs(pZero, -1.857, 6.464, 0.2), v100, z0, tNozzle, \Wobj := wobjFlatPlat;
		WaitRob \InPos;
		SetDO DO5_Program_Feed, 1;
		MoveL Offs(pZero, 6.468, -1.861, 0.2), v30, z0, tNozzle, \Wobj := wobjFlatPlat;
		WaitRob \InPos;
		SetDO DO5_Program_Feed, 0;
		MoveL Offs(pZero, 6.292, -2.392, 0.2), v100, z0, tNozzle, \Wobj := wobjFlatPlat;
		WaitRob \InPos;
		SetDO DO5_Program_Feed, 1;
		MoveL Offs(pZero, -2.404, 6.304, 0.2), v30, z0, tNozzle, \Wobj := wobjFlatPlat;
		WaitRob \InPos;
		SetDO DO5_Program_Feed, 0;
		MoveL Offs(pZero, -2.883, 6.076, 0.2), v100, z0, tNozzle, \Wobj := wobjFlatPlat;
		WaitRob \InPos;
		SetDO DO5_Program_Feed, 1;
		MoveL Offs(pZero, 6.081, -2.888, 0.2), v30, z0, tNozzle, \Wobj := wobjFlatPlat;
		WaitRob \InPos;
		SetDO DO5_Program_Feed, 0;
		MoveL Offs(pZero, 5.838, -3.352, 0.2), v100, z0, tNozzle, \Wobj := wobjFlatPlat;
		WaitRob \InPos;
		SetDO DO5_Program_Feed, 1;
		MoveL Offs(pZero, -3.363, 5.849, 0.2), v30, z0, tNozzle, \Wobj := wobjFlatPlat;
		WaitRob \InPos;
		SetDO DO5_Program_Feed, 0;
		MoveL Offs(pZero, -3.783, 5.561, 0.2), v100, z0, tNozzle, \Wobj := wobjFlatPlat;
		WaitRob \InPos;
		SetDO DO5_Program_Feed, 1;
		MoveL Offs(pZero, 5.564, -3.785, 0.2), v30, z0, tNozzle, \Wobj := wobjFlatPlat;
		WaitRob \InPos;
		SetDO DO5_Program_Feed, 0;
		MoveL Offs(pZero, 5.268, -4.196, 0.2), v100, z0, tNozzle, \Wobj := wobjFlatPlat;
		WaitRob \InPos;
		SetDO DO5_Program_Feed, 1;
		MoveL Offs(pZero, -4.201, 5.273, 0.2), v30, z0, tNozzle, \Wobj := wobjFlatPlat;
		WaitRob \InPos;
		SetDO DO5_Program_Feed, 0;
		MoveL Offs(pZero, -4.571, 4.935, 0.2), v100, z0, tNozzle, \Wobj := wobjFlatPlat;
		WaitRob \InPos;
		SetDO DO5_Program_Feed, 1;
		MoveL Offs(pZero, 4.936, -4.571, 0.2), v30, z0, tNozzle, \Wobj := wobjFlatPlat;
		WaitRob \InPos;
		SetDO DO5_Program_Feed, 0;
		MoveL Offs(pZero, 4.592, -4.934, 0.2), v100, z0, tNozzle, \Wobj := wobjFlatPlat;
		WaitRob \InPos;
		SetDO DO5_Program_Feed, 1;
		MoveL Offs(pZero, -4.932, 4.589, 0.2), v30, z0, tNozzle, \Wobj := wobjFlatPlat;
		WaitRob \InPos;
		SetDO DO5_Program_Feed, 0;
		MoveL Offs(pZero, -5.254, 4.204, 0.2), v100, z0, tNozzle, \Wobj := wobjFlatPlat;
		WaitRob \InPos;
		SetDO DO5_Program_Feed, 1;
		MoveL Offs(pZero, 4.202, -5.252, 0.2), v30, z0, tNozzle, \Wobj := wobjFlatPlat;
		WaitRob \InPos;
		SetDO DO5_Program_Feed, 0;
		MoveL Offs(pZero, 3.81, -5.567, 0.2), v100, z0, tNozzle, \Wobj := wobjFlatPlat;
		WaitRob \InPos;
		SetDO DO5_Program_Feed, 1;
		MoveL Offs(pZero, -5.557, 3.8, 0.2), v30, z0, tNozzle, \Wobj := wobjFlatPlat;
		WaitRob \InPos;
		SetDO DO5_Program_Feed, 0;
		MoveL Offs(pZero, -5.83, 3.366, 0.2), v100, z0, tNozzle, \Wobj := wobjFlatPlat;
		WaitRob \InPos;
		SetDO DO5_Program_Feed, 1;
		MoveL Offs(pZero, 3.362, -5.826, 0.2), v30, z0, tNozzle, \Wobj := wobjFlatPlat;
		WaitRob \InPos;
		SetDO DO5_Program_Feed, 0;
		MoveL Offs(pZero, 2.913, -6.084, 0.2), v100, z0, tNozzle, \Wobj := wobjFlatPlat;
		WaitRob \InPos;
		SetDO DO5_Program_Feed, 1;
		MoveL Offs(pZero, -6.073, 2.902, 0.2), v30, z0, tNozzle, \Wobj := wobjFlatPlat;
		WaitRob \InPos;
		SetDO DO5_Program_Feed, 0;
		MoveL Offs(pZero, -6.287, 2.409, 0.2), v100, z0, tNozzle, \Wobj := wobjFlatPlat;
		WaitRob \InPos;
		SetDO DO5_Program_Feed, 1;
		MoveL Offs(pZero, 2.404, -6.282, 0.2), v30, z0, tNozzle, \Wobj := wobjFlatPlat;
		WaitRob \InPos;
		SetDO DO5_Program_Feed, 0;
		MoveL Offs(pZero, 1.891, -6.476, 0.2), v100, z0, tNozzle, \Wobj := wobjFlatPlat;
		WaitRob \InPos;
		SetDO DO5_Program_Feed, 1;
		MoveL Offs(pZero, -6.464, 1.878, 0.2), v30, z0, tNozzle, \Wobj := wobjFlatPlat;
		WaitRob \InPos;
		SetDO DO5_Program_Feed, 0;
		MoveL Offs(pZero, -6.601, 1.309, 0.2), v100, z0, tNozzle, \Wobj := wobjFlatPlat;
		WaitRob \InPos;
		SetDO DO5_Program_Feed, 1;
		MoveL Offs(pZero, 1.306, -6.598, 0.2), v30, z0, tNozzle, \Wobj := wobjFlatPlat;
		WaitRob \InPos;
		SetDO DO5_Program_Feed, 0;
		MoveL Offs(pZero, 0.704, -6.703, 0.2), v100, z0, tNozzle, \Wobj := wobjFlatPlat;
		WaitRob \InPos;
		SetDO DO5_Program_Feed, 1;
		MoveL Offs(pZero, -6.7, 0.701, 0.2), v30, z0, tNozzle, \Wobj := wobjFlatPlat;
		WaitRob \InPos;
		SetDO DO5_Program_Feed, 0;
		MoveL Offs(pZero, -6.726, 0.019, 0.2), v100, z0, tNozzle, \Wobj := wobjFlatPlat;
		WaitRob \InPos;
		SetDO DO5_Program_Feed, 1;
		MoveL Offs(pZero, 0.024, -6.73, 0.2), v30, z0, tNozzle, \Wobj := wobjFlatPlat;
		WaitRob \InPos;
		SetDO DO5_Program_Feed, 0;
		MoveL Offs(pZero, -0.727, -6.687, 0.2), v100, z0, tNozzle, \Wobj := wobjFlatPlat;
		WaitRob \InPos;
		SetDO DO5_Program_Feed, 1;
		MoveL Offs(pZero, -6.698, -0.716, 0.2), v30, z0, tNozzle, \Wobj := wobjFlatPlat;
		WaitRob \InPos;
		SetDO DO5_Program_Feed, 0;
		MoveL Offs(pZero, -6.561, -1.56, 0.2), v100, z0, tNozzle, \Wobj := wobjFlatPlat;
		WaitRob \InPos;
		SetDO DO5_Program_Feed, 1;
		MoveL Offs(pZero, -1.575, -6.546, 0.2), v30, z0, tNozzle, \Wobj := wobjFlatPlat;
		WaitRob \InPos;
		SetDO DO5_Program_Feed, 0;
		MoveL Offs(pZero, -2.632, -6.196, 0.2), v100, z0, tNozzle, \Wobj := wobjFlatPlat;
		WaitRob \InPos;
		SetDO DO5_Program_Feed, 1;
		MoveL Offs(pZero, -6.22, -2.608, 0.2), v30, z0, tNozzle, \Wobj := wobjFlatPlat;
		WaitRob \InPos;
		SetDO DO6_Between_Layer_Retract, 1;
		SetDO DO5_Program_Feed, 0;
		MoveL Offs(pZero, -6.22, -2.608, 5.2), v100, z0, tNozzle, \Wobj := wobjFlatPlat;

		! Layer: 2
		! LayerParams(infillAngleDegrees=45.0, layerHeight=0.2, infillShiftX=0.0, infillShiftY=0.0, numShells=1, infillOverlap=0.0002)
		! T12
		! M6
		TPWRITE "Layer 2 of 2";
		MoveL Offs(pZero, 3.108, -6.549, 5.4), v100, z0, tNozzle, \Wobj := wobjFlatPlat;
		MoveL Offs(pZero, 3.108, -6.549, 0.4), v30, z0, tNozzle, \Wobj := wobjFlatPlat;
		WaitRob \InPos;
		SetDO DO6_Between_Layer_Retract, 0;
		WaitRob \InPos;
		SetDO DO5_Program_Feed, 1;
		MoveL Offs(pZero, 4.118, -5.966, 0.4), v30, z0, tNozzle, \Wobj := wobjFlatPlat;
		MoveL Offs(pZero, 5.022, -5.228, 0.4), v30, z0, tNozzle, \Wobj := wobjFlatPlat;
		MoveL Offs(pZero, 5.795, -4.355, 0.4), v30, z0, tNozzle, \Wobj := wobjFlatPlat;
		MoveL Offs(pZero, 6.419, -3.369, 0.4), v30, z0, tNozzle, \Wobj := wobjFlatPlat;
		MoveL Offs(pZero, 6.876, -2.296, 0.4), v30, z0, tNozzle, \Wobj := wobjFlatPlat;
		MoveL Offs(pZero, 7.155, -1.163, 0.4), v30, z0, tNozzle, \Wobj := wobjFlatPlat;
		MoveL Offs(pZero, 7.249, -0.0, 0.4), v30, z0, tNozzle, \Wobj := wobjFlatPlat;
		MoveL Offs(pZero, 7.155, 1.163, 0.4), v30, z0, tNozzle, \Wobj := wobjFlatPlat;
		MoveL Offs(pZero, 6.876, 2.296, 0.4), v30, z0, tNozzle, \Wobj := wobjFlatPlat;
		MoveL Offs(pZero, 6.419, 3.369, 0.4), v30, z0, tNozzle, \Wobj := wobjFlatPlat;
		MoveL Offs(pZero, 5.795, 4.355, 0.4), v30, z0, tNozzle, \Wobj := wobjFlatPlat;
		MoveL Offs(pZero, 5.022, 5.228, 0.4), v30, z0, tNozzle, \Wobj := wobjFlatPlat;
		MoveL Offs(pZero, 4.118, 5.966, 0.4), v30, z0, tNozzle, \Wobj := wobjFlatPlat;
		MoveL Offs(pZero, 3.108, 6.549, 0.4), v30, z0, tNozzle, \Wobj := wobjFlatPlat;
		MoveL Offs(pZero, 2.017, 6.963, 0.4), v30, z0, tNozzle, \Wobj := wobjFlatPlat;
		MoveL Offs(pZero, 0.874, 7.196, 0.4), v30, z0, tNozzle, \Wobj := wobjFlatPlat;
		MoveL Offs(pZero, -0.292, 7.243, 0.4), v30, z0, tNozzle, \Wobj := wobjFlatPlat;
		MoveL Offs(pZero, -1.45, 7.103, 0.4), v30, z0, tNozzle, \Wobj := wobjFlatPlat;
		MoveL Offs(pZero, -2.571, 6.778, 0.4), v30, z0, tNozzle, \Wobj := wobjFlatPlat;
		MoveL Offs(pZero, -3.625, 6.278, 0.4), v30, z0, tNozzle, \Wobj := wobjFlatPlat;
		MoveL Offs(pZero, -4.585, 5.615, 0.4), v30, z0, tNozzle, \Wobj := wobjFlatPlat;
		MoveL Offs(pZero, -5.426, 4.807, 0.4), v30, z0, tNozzle, \Wobj := wobjFlatPlat;
		MoveL Offs(pZero, -6.127, 3.874, 0.4), v30, z0, tNozzle, \Wobj := wobjFlatPlat;
		MoveL Offs(pZero, -6.669, 2.841, 0.4), v30, z0, tNozzle, \Wobj := wobjFlatPlat;
		MoveL Offs(pZero, -7.039, 1.735, 0.4), v30, z0, tNozzle, \Wobj := wobjFlatPlat;
		MoveL Offs(pZero, -7.226, 0.583, 0.4), v30, z0, tNozzle, \Wobj := wobjFlatPlat;
		MoveL Offs(pZero, -7.226, -0.583, 0.4), v30, z0, tNozzle, \Wobj := wobjFlatPlat;
		MoveL Offs(pZero, -7.039, -1.735, 0.4), v30, z0, tNozzle, \Wobj := wobjFlatPlat;
		MoveL Offs(pZero, -6.669, -2.841, 0.4), v30, z0, tNozzle, \Wobj := wobjFlatPlat;
		MoveL Offs(pZero, -6.127, -3.874, 0.4), v30, z0, tNozzle, \Wobj := wobjFlatPlat;
		MoveL Offs(pZero, -5.426, -4.807, 0.4), v30, z0, tNozzle, \Wobj := wobjFlatPlat;
		MoveL Offs(pZero, -4.585, -5.615, 0.4), v30, z0, tNozzle, \Wobj := wobjFlatPlat;
		MoveL Offs(pZero, -3.625, -6.278, 0.4), v30, z0, tNozzle, \Wobj := wobjFlatPlat;
		MoveL Offs(pZero, -2.571, -6.778, 0.4), v30, z0, tNozzle, \Wobj := wobjFlatPlat;
		MoveL Offs(pZero, -1.45, -7.103, 0.4), v30, z0, tNozzle, \Wobj := wobjFlatPlat;
		MoveL Offs(pZero, -0.292, -7.243, 0.4), v30, z0, tNozzle, \Wobj := wobjFlatPlat;
		MoveL Offs(pZero, 0.874, -7.196, 0.4), v30, z0, tNozzle, \Wobj := wobjFlatPlat;
		MoveL Offs(pZero, 2.017, -6.963, 0.4), v30, z0, tNozzle, \Wobj := wobjFlatPlat;
		MoveL Offs(pZero, 3.108, -6.549, 0.4), v30, z0, tNozzle, \Wobj := wobjFlatPlat;
		WaitRob \InPos;
		SetDO DO5_Program_Feed, 0;
		MoveL Offs(pZero, 2.668, -6.181, 0.4), v100, z0, tNozzle, \Wobj := wobjFlatPlat;
		WaitRob \InPos;
		SetDO DO5_Program_Feed, 1;
		MoveL Offs(pZero, 6.169, -2.681, 0.4), v30, z0, tNozzle, \Wobj := wobjFlatPlat;
		WaitRob \InPos;
		SetDO DO5_Program_Feed, 0;
		MoveL Offs(pZero, 6.53, -1.613, 0.4), v100, z0, tNozzle, \Wobj := wobjFlatPlat;
		WaitRob \InPos;
		SetDO DO5_Program_Feed, 1;
		MoveL Offs(pZero, 1.606, -6.537, 0.4), v30, z0, tNozzle, \Wobj := wobjFlatPlat;
		WaitRob \InPos;
		SetDO DO5_Program_Feed, 0;
		MoveL Offs(pZero, 0.734, -6.702, 0.4), v100, z0, tNozzle, \Wobj := wobjFlatPlat;
		WaitRob \InPos;
		SetDO DO5_Program_Feed, 1;
		MoveL Offs(pZero, 6.687, -0.748, 0.4), v30, z0, tNozzle, \Wobj := wobjFlatPlat;
		WaitRob \InPos;
		SetDO DO5_Program_Feed, 0;
		MoveL Offs(pZero, 6.746, 0.018, 0.4), v100, z0, tNozzle, \Wobj := wobjFlatPlat;
		WaitRob \InPos;
		SetDO DO5_Program_Feed, 1;
		MoveL Offs(pZero, -0.003, -6.731, 0.4), v30, z0, tNozzle, \Wobj := wobjFlatPlat;
		WaitRob \InPos;
		SetDO DO5_Program_Feed, 0;
		MoveL Offs(pZero, -0.672, -6.694, 0.4), v100, z0, tNozzle, \Wobj := wobjFlatPlat;
		WaitRob \InPos;
		SetDO DO5_Program_Feed, 1;
		MoveL Offs(pZero, 6.693, 0.672, 0.4), v30, z0, tNozzle, \Wobj := wobjFlatPlat;
		WaitRob \InPos;
		SetDO DO5_Program_Feed, 0;
		MoveL Offs(pZero, 6.608, 1.294, 0.4), v100, z0, tNozzle, \Wobj := wobjFlatPlat;
		WaitRob \InPos;
		SetDO DO5_Program_Feed, 1;
		MoveL Offs(pZero, -1.303, -6.617, 0.4), v30, z0, tNozzle, \Wobj := wobjFlatPlat;
		WaitRob \InPos;
		SetDO DO5_Program_Feed, 0;
		MoveL Offs(pZero, -1.857, -6.464, 0.4), v100, z0, tNozzle, \Wobj := wobjFlatPlat;
		WaitRob \InPos;
		SetDO DO5_Program_Feed, 1;
		MoveL Offs(pZero, 6.468, 1.861, 0.4), v30, z0, tNozzle, \Wobj := wobjFlatPlat;
		WaitRob \InPos;
		SetDO DO5_Program_Feed, 0;
		MoveL Offs(pZero, 6.292, 2.392, 0.4), v100, z0, tNozzle, \Wobj := wobjFlatPlat;
		WaitRob \InPos;
		SetDO DO5_Program_Feed, 1;
		MoveL Offs(pZero, -2.404, -6.304, 0.4), v30, z0, tNozzle, \Wobj := wobjFlatPlat;
		WaitRob \InPos;
		SetDO DO5_Program_Feed, 0;
		MoveL Offs(pZero, -2.883, -6.076, 0.4), v100, z0, tNozzle, \Wobj := wobjFlatPlat;
		WaitRob \InPos;
		SetDO DO5_Program_Feed, 1;
		MoveL Offs(pZero, 6.081, 2.888, 0.4), v30, z0, tNozzle, \Wobj := wobjFlatPlat;
		WaitRob \InPos;
		SetDO DO5_Program_Feed, 0;
		MoveL Offs(pZero, 5.838, 3.352, 0.4), v100, z0, tNozzle, \Wobj := wobjFlatPlat;
		WaitRob \InPos;
		SetDO DO5_Program_Feed, 1;
		MoveL Offs(pZero, -3.363, -5.849, 0.4), v30, z0, tNozzle, \Wobj := wobjFlatPlat;
		WaitRob \InPos;
		SetDO DO5_Program_Feed, 0;
		MoveL Offs(pZero, -3.783, -5.561, 0.4), v100, z0, tNozzle, \Wobj := wobjFlatPlat;
		WaitRob \InPos;
		SetDO DO5_Program_Feed, 1;
		MoveL Offs(pZero, 5.564, 3.785, 0.4), v30, z0, tNozzle, \Wobj := wobjFlatPlat;
		WaitRob \InPos;
		SetDO DO5_Program_Feed, 0;
		MoveL Offs(pZero, 5.268, 4.196, 0.4), v100, z0, tNozzle, \Wobj := wobjFlatPlat;
		WaitRob \InPos;
		SetDO DO5_Program_Feed, 1;
		MoveL Offs(pZero, -4.201, -5.273, 0.4), v30, z0, tNozzle, \Wobj := wobjFlatPlat;
		WaitRob \InPos;
		SetDO DO5_Program_Feed, 0;
		MoveL Offs(pZero, -4.571, -4.935, 0.4), v100, z0, tNozzle, \Wobj := wobjFlatPlat;
		WaitRob \InPos;
		SetDO DO5_Program_Feed, 1;
		MoveL Offs(pZero, 4.936, 4.571, 0.4), v30, z0, tNozzle, \Wobj := wobjFlatPlat;
		WaitRob \InPos;
		SetDO DO5_Program_Feed, 0;
		MoveL Offs(pZero, 4.592, 4.934, 0.4), v100, z0, tNozzle, \Wobj := wobjFlatPlat;
		WaitRob \InPos;
		SetDO DO5_Program_Feed, 1;
		MoveL Offs(pZero, -4.932, -4.589, 0.4), v30, z0, tNozzle, \Wobj := wobjFlatPlat;
		WaitRob \InPos;
		SetDO DO5_Program_Feed, 0;
		MoveL Offs(pZero, -5.254, -4.204, 0.4), v100, z0, tNozzle, \Wobj := wobjFlatPlat;
		WaitRob \InPos;
		SetDO DO5_Program_Feed, 1;
		MoveL Offs(pZero, 4.202, 5.252, 0.4), v30, z0, tNozzle, \Wobj := wobjFlatPlat;
		WaitRob \InPos;
		SetDO DO5_Program_Feed, 0;
		MoveL Offs(pZero, 3.81, 5.567, 0.4), v100, z0, tNozzle, \Wobj := wobjFlatPlat;
		WaitRob \InPos;
		SetDO DO5_Program_Feed, 1;
		MoveL Offs(pZero, -5.557, -3.8, 0.4), v30, z0, tNozzle, \Wobj := wobjFlatPlat;
		WaitRob \InPos;
		SetDO DO5_Program_Feed, 0;
		MoveL Offs(pZero, -5.83, -3.366, 0.4), v100, z0, tNozzle, \Wobj := wobjFlatPlat;
		WaitRob \InPos;
		SetDO DO5_Program_Feed, 1;
		MoveL Offs(pZero, 3.362, 5.826, 0.4), v30, z0, tNozzle, \Wobj := wobjFlatPlat;
		WaitRob \InPos;
		SetDO DO5_Program_Feed, 0;
		MoveL Offs(pZero, 2.913, 6.084, 0.4), v100, z0, tNozzle, \Wobj := wobjFlatPlat;
		WaitRob \InPos;
		SetDO DO5_Program_Feed, 1;
		MoveL Offs(pZero, -6.073, -2.902, 0.4), v30, z0, tNozzle, \Wobj := wobjFlatPlat;
		WaitRob \InPos;
		SetDO DO5_Program_Feed, 0;
		MoveL Offs(pZero, -6.287, -2.409, 0.4), v100, z0, tNozzle, \Wobj := wobjFlatPlat;
		WaitRob \InPos;
		SetDO DO5_Program_Feed, 1;
		MoveL Offs(pZero, 2.404, 6.282, 0.4), v30, z0, tNozzle, \Wobj := wobjFlatPlat;
		WaitRob \InPos;
		SetDO DO5_Program_Feed, 0;
		MoveL Offs(pZero, 1.891, 6.476, 0.4), v100, z0, tNozzle, \Wobj := wobjFlatPlat;
		WaitRob \InPos;
		SetDO DO5_Program_Feed, 1;
		MoveL Offs(pZero, -6.464, -1.878, 0.4), v30, z0, tNozzle, \Wobj := wobjFlatPlat;
		WaitRob \InPos;
		SetDO DO5_Program_Feed, 0;
		MoveL Offs(pZero, -6.601, -1.309, 0.4), v100, z0, tNozzle, \Wobj := wobjFlatPlat;
		WaitRob \InPos;
		SetDO DO5_Program_Feed, 1;
		MoveL Offs(pZero, 1.306, 6.598, 0.4), v30, z0, tNozzle, \Wobj := wobjFlatPlat;
		WaitRob \InPos;
		SetDO DO5_Program_Feed, 0;
		MoveL Offs(pZero, 0.704, 6.703, 0.4), v100, z0, tNozzle, \Wobj := wobjFlatPlat;
		WaitRob \InPos;
		SetDO DO5_Program_Feed, 1;
		MoveL Offs(pZero, -6.7, -0.701, 0.4), v30, z0, tNozzle, \Wobj := wobjFlatPlat;
		WaitRob \InPos;
		SetDO DO5_Program_Feed, 0;
		MoveL Offs(pZero, -6.726, -0.019, 0.4), v100, z0, tNozzle, \Wobj := wobjFlatPlat;
		WaitRob \InPos;
		SetDO DO5_Program_Feed, 1;
		MoveL Offs(pZero, 0.024, 6.73, 0.4), v30, z0, tNozzle, \Wobj := wobjFlatPlat;
		WaitRob \InPos;
		SetDO DO5_Program_Feed, 0;
		MoveL Offs(pZero, -0.727, 6.687, 0.4), v100, z0, tNozzle, \Wobj := wobjFlatPlat;
		WaitRob \InPos;
		SetDO DO5_Program_Feed, 1;
		MoveL Offs(pZero, -6.698, 0.716, 0.4), v30, z0, tNozzle, \Wobj := wobjFlatPlat;
		WaitRob \InPos;
		SetDO DO5_Program_Feed, 0;
		MoveL Offs(pZero, -6.561, 1.56, 0.4), v100, z0, tNozzle, \Wobj := wobjFlatPlat;
		WaitRob \InPos;
		SetDO DO5_Program_Feed, 1;
		MoveL Offs(pZero, -1.575, 6.546, 0.4), v30, z0, tNozzle, \Wobj := wobjFlatPlat;
		WaitRob \InPos;
		SetDO DO5_Program_Feed, 0;
		MoveL Offs(pZero, -2.632, 6.196, 0.4), v100, z0, tNozzle, \Wobj := wobjFlatPlat;
		WaitRob \InPos;
		SetDO DO5_Program_Feed, 1;
		MoveL Offs(pZero, -6.22, 2.608, 0.4), v30, z0, tNozzle, \Wobj := wobjFlatPlat;
		WaitRob \InPos;
		SetDO DO6_Between_Layer_Retract, 1;
		SetDO DO5_Program_Feed, 0;
		MoveL Offs(pZero, -6.22, 2.608, 5.4), v100, z0, tNozzle, \Wobj := wobjFlatPlat;

		! Extrusion amount for part is (9.1 mm)



		! Part number: 2
		! PartParams(extrusionFactor=0.98, printSpeed=30, shiftX=0.0, shiftY=0.0, shiftZ=0.4, numLayers=350, designType=0, pathWidth=3.0, brims=0, horizontalExpansion=0.0, randomStartLocation=1)

		! Layer: 1
		! LayerParams(infillAngleDegrees=-45.0, layerHeight=0.2, infillShiftX=0.0, infillShiftY=0.0, numShells=1, infillOverlap=0.0002)
		! T21
		! M6
		TPWRITE "Layer 1 of 350";
		MoveL Offs(pZero, 5.022, 5.228, 5.6), v100, z0, tNozzle, \Wobj := wobjFlatPlat;
		MoveL Offs(pZero, 5.022, 5.228, 0.6), v30, z0, tNozzle, \Wobj := wobjFlatPlat;
		WaitRob \InPos;
		SetDO DO6_Between_Layer_Retract, 0;
		WaitRob \InPos;
		SetDO DO5_Program_Feed, 1;
		MoveL Offs(pZero, 4.118, 5.966, 0.6), v30, z0, tNozzle, \Wobj := wobjFlatPlat;
		MoveL Offs(pZero, 3.108, 6.549, 0.6), v30, z0, tNozzle, \Wobj := wobjFlatPlat;
		MoveL Offs(pZero, 2.017, 6.963, 0.6), v30, z0, tNozzle, \Wobj := wobjFlatPlat;
		MoveL Offs(pZero, 0.874, 7.196, 0.6), v30, z0, tNozzle, \Wobj := wobjFlatPlat;
		MoveL Offs(pZero, -0.292, 7.243, 0.6), v30, z0, tNozzle, \Wobj := wobjFlatPlat;
		MoveL Offs(pZero, -1.45, 7.103, 0.6), v30, z0, tNozzle, \Wobj := wobjFlatPlat;
		MoveL Offs(pZero, -2.571, 6.778, 0.6), v30, z0, tNozzle, \Wobj := wobjFlatPlat;
		MoveL Offs(pZero, -3.625, 6.278, 0.6), v30, z0, tNozzle, \Wobj := wobjFlatPlat;
		MoveL Offs(pZero, -4.585, 5.615, 0.6), v30, z0, tNozzle, \Wobj := wobjFlatPlat;
		MoveL Offs(pZero, -5.426, 4.807, 0.6), v30, z0, tNozzle, \Wobj := wobjFlatPlat;
		MoveL Offs(pZero, -6.127, 3.874, 0.6), v30, z0, tNozzle, \Wobj := wobjFlatPlat;
		MoveL Offs(pZero, -6.669, 2.841, 0.6), v30, z0, tNozzle, \Wobj := wobjFlatPlat;
		MoveL Offs(pZero, -7.039, 1.735, 0.6), v30, z0, tNozzle, \Wobj := wobjFlatPlat;
		MoveL Offs(pZero, -7.226, 0.583, 0.6), v30, z0, tNozzle, \Wobj := wobjFlatPlat;
		MoveL Offs(pZero, -7.226, -0.583, 0.6), v30, z0, tNozzle, \Wobj := wobjFlatPlat;
		MoveL Offs(pZero, -7.039, -1.735, 0.6), v30, z0, tNozzle, \Wobj := wobjFlatPlat;
		MoveL Offs(pZero, -6.669, -2.841, 0.6), v30, z0, tNozzle, \Wobj := wobjFlatPlat;
		MoveL Offs(pZero, -6.127, -3.874, 0.6), v30, z0, tNozzle, \Wobj := wobjFlatPlat;
		MoveL Offs(pZero, -5.426, -4.807, 0.6), v30, z0, tNozzle, \Wobj := wobjFlatPlat;
		MoveL Offs(pZero, -4.585, -5.615, 0.6), v30, z0, tNozzle, \Wobj := wobjFlatPlat;
		MoveL Offs(pZero, -3.625, -6.278, 0.6), v30, z0, tNozzle, \Wobj := wobjFlatPlat;
		MoveL Offs(pZero, -2.571, -6.778, 0.6), v30, z0, tNozzle, \Wobj := wobjFlatPlat;
		MoveL Offs(pZero, -1.45, -7.103, 0.6), v30, z0, tNozzle, \Wobj := wobjFlatPlat;
		MoveL Offs(pZero, -0.292, -7.243, 0.6), v30, z0, tNozzle, \Wobj := wobjFlatPlat;
		MoveL Offs(pZero, 0.874, -7.196, 0.6), v30, z0, tNozzle, \Wobj := wobjFlatPlat;
		MoveL Offs(pZero, 2.017, -6.963, 0.6), v30, z0, tNozzle, \Wobj := wobjFlatPlat;
		MoveL Offs(pZero, 3.108, -6.549, 0.6), v30, z0, tNozzle, \Wobj := wobjFlatPlat;
		MoveL Offs(pZero, 4.118, -5.966, 0.6), v30, z0, tNozzle, \Wobj := wobjFlatPlat;
		MoveL Offs(pZero, 5.022, -5.228, 0.6), v30, z0, tNozzle, \Wobj := wobjFlatPlat;
		MoveL Offs(pZero, 5.795, -4.355, 0.6), v30, z0, tNozzle, \Wobj := wobjFlatPlat;
		MoveL Offs(pZero, 6.419, -3.369, 0.6), v30, z0, tNozzle, \Wobj := wobjFlatPlat;
		MoveL Offs(pZero, 6.876, -2.296, 0.6), v30, z0, tNozzle, \Wobj := wobjFlatPlat;
		MoveL Offs(pZero, 7.155, -1.163, 0.6), v30, z0, tNozzle, \Wobj := wobjFlatPlat;
		MoveL Offs(pZero, 7.249, -0.0, 0.6), v30, z0, tNozzle, \Wobj := wobjFlatPlat;
		MoveL Offs(pZero, 7.155, 1.163, 0.6), v30, z0, tNozzle, \Wobj := wobjFlatPlat;
		MoveL Offs(pZero, 6.876, 2.296, 0.6), v30, z0, tNozzle, \Wobj := wobjFlatPlat;
		MoveL Offs(pZero, 6.419, 3.369, 0.6), v30, z0, tNozzle, \Wobj := wobjFlatPlat;
		MoveL Offs(pZero, 5.795, 4.355, 0.6), v30, z0, tNozzle, \Wobj := wobjFlatPlat;
		MoveL Offs(pZero, 5.022, 5.228, 0.6), v30, z0, tNozzle, \Wobj := wobjFlatPlat;
		WaitRob \InPos;
		SetDO DO5_Program_Feed, 0;
		MoveL Offs(pZero, 2.099, 6.397, 0.6), v100, z0, tNozzle, \Wobj := wobjFlatPlat;
		WaitRob \InPos;
		SetDO DO5_Program_Feed, 1;
		MoveL Offs(pZero, 6.414, 2.082, 0.6), v30, z0, tNozzle, \Wobj := wobjFlatPlat;
		WaitRob \InPos;
		SetDO DO5_Program_Feed, 0;
		MoveL Offs(pZero, 6.397, -2.144, 0.6), v100, z0, tNozzle, \Wobj := wobjFlatPlat;
		WaitRob \InPos;
		SetDO DO5_Program_Feed, 1;
		MoveL Offs(pZero, -2.131, 6.385, 0.6), v30, z0, tNozzle, \Wobj := wobjFlatPlat;
		WaitRob \InPos;
		SetDO DO5_Program_Feed, 0;
		MoveL Offs(pZero, -4.751, 4.762, 0.6), v100, z0, tNozzle, \Wobj := wobjFlatPlat;
		WaitRob \InPos;
		SetDO DO5_Program_Feed, 1;
		MoveL Offs(pZero, 4.77, -4.759, 0.6), v30, z0, tNozzle, \Wobj := wobjFlatPlat;
		WaitRob \InPos;
		SetDO DO5_Program_Feed, 0;
		MoveL Offs(pZero, 2.147, -6.379, 0.6), v100, z0, tNozzle, \Wobj := wobjFlatPlat;
		WaitRob \InPos;
		SetDO DO5_Program_Feed, 1;
		MoveL Offs(pZero, -6.375, 2.143, 0.6), v30, z0, tNozzle, \Wobj := wobjFlatPlat;
		WaitRob \InPos;
		SetDO DO5_Program_Feed, 0;
		MoveL Offs(pZero, -6.397, -2.077, 0.6), v100, z0, tNozzle, \Wobj := wobjFlatPlat;
		WaitRob \InPos;
		SetDO DO5_Program_Feed, 1;
		MoveL Offs(pZero, -2.072, -6.402, 0.6), v30, z0, tNozzle, \Wobj := wobjFlatPlat;
		WaitRob \InPos;
		SetDO DO6_Between_Layer_Retract, 1;
		SetDO DO5_Program_Feed, 0;
		MoveL Offs(pZero, -2.072, -6.402, 5.6), v100, z0, tNozzle, \Wobj := wobjFlatPlat;

		! Layer: 2
		! LayerParams(infillAngleDegrees=45.0, layerHeight=0.2, infillShiftX=0.0, infillShiftY=0.0, numShells=1, infillOverlap=0.0002)
		! T22
		! M6
		TPWRITE "Layer 2 of 350";
		MoveL Offs(pZero, 3.108, -6.549, 5.8), v100, z0, tNozzle, \Wobj := wobjFlatPlat;
		MoveL Offs(pZero, 3.108, -6.549, 0.8), v30, z0, tNozzle, \Wobj := wobjFlatPlat;
		WaitRob \InPos;
		SetDO DO6_Between_Layer_Retract, 0;
		WaitRob \InPos;
		SetDO DO5_Program_Feed, 1;
		MoveL Offs(pZero, 4.118, -5.966, 0.8), v30, z0, tNozzle, \Wobj := wobjFlatPlat;
		MoveL Offs(pZero, 5.022, -5.228, 0.8), v30, z0, tNozzle, \Wobj := wobjFlatPlat;
		MoveL Offs(pZero, 5.795, -4.355, 0.8), v30, z0, tNozzle, \Wobj := wobjFlatPlat;
		MoveL Offs(pZero, 6.419, -3.369, 0.8), v30, z0, tNozzle, \Wobj := wobjFlatPlat;
		MoveL Offs(pZero, 6.876, -2.296, 0.8), v30, z0, tNozzle, \Wobj := wobjFlatPlat;
		MoveL Offs(pZero, 7.155, -1.163, 0.8), v30, z0, tNozzle, \Wobj := wobjFlatPlat;
		MoveL Offs(pZero, 7.249, -0.0, 0.8), v30, z0, tNozzle, \Wobj := wobjFlatPlat;
		MoveL Offs(pZero, 7.155, 1.163, 0.8), v30, z0, tNozzle, \Wobj := wobjFlatPlat;
		MoveL Offs(pZero, 6.876, 2.296, 0.8), v30, z0, tNozzle, \Wobj := wobjFlatPlat;
		MoveL Offs(pZero, 6.419, 3.369, 0.8), v30, z0, tNozzle, \Wobj := wobjFlatPlat;
		MoveL Offs(pZero, 5.795, 4.355, 0.8), v30, z0, tNozzle, \Wobj := wobjFlatPlat;
		MoveL Offs(pZero, 5.022, 5.228, 0.8), v30, z0, tNozzle, \Wobj := wobjFlatPlat;
		MoveL Offs(pZero, 4.118, 5.966, 0.8), v30, z0, tNozzle, \Wobj := wobjFlatPlat;
		MoveL Offs(pZero, 3.108, 6.549, 0.8), v30, z0, tNozzle, \Wobj := wobjFlatPlat;
		MoveL Offs(pZero, 2.017, 6.963, 0.8), v30, z0, tNozzle, \Wobj := wobjFlatPlat;
		MoveL Offs(pZero, 0.874, 7.196, 0.8), v30, z0, tNozzle, \Wobj := wobjFlatPlat;
		MoveL Offs(pZero, -0.292, 7.243, 0.8), v30, z0, tNozzle, \Wobj := wobjFlatPlat;
		MoveL Offs(pZero, -1.45, 7.103, 0.8), v30, z0, tNozzle, \Wobj := wobjFlatPlat;
		MoveL Offs(pZero, -2.571, 6.778, 0.8), v30, z0, tNozzle, \Wobj := wobjFlatPlat;
		MoveL Offs(pZero, -3.625, 6.278, 0.8), v30, z0, tNozzle, \Wobj := wobjFlatPlat;
		MoveL Offs(pZero, -4.585, 5.615, 0.8), v30, z0, tNozzle, \Wobj := wobjFlatPlat;
		MoveL Offs(pZero, -5.426, 4.807, 0.8), v30, z0, tNozzle, \Wobj := wobjFlatPlat;
		MoveL Offs(pZero, -6.127, 3.874, 0.8), v30, z0, tNozzle, \Wobj := wobjFlatPlat;
		MoveL Offs(pZero, -6.669, 2.841, 0.8), v30, z0, tNozzle, \Wobj := wobjFlatPlat;
		MoveL Offs(pZero, -7.039, 1.735, 0.8), v30, z0, tNozzle, \Wobj := wobjFlatPlat;
		MoveL Offs(pZero, -7.226, 0.583, 0.8), v30, z0, tNozzle, \Wobj := wobjFlatPlat;
		MoveL Offs(pZero, -7.226, -0.583, 0.8), v30, z0, tNozzle, \Wobj := wobjFlatPlat;
		MoveL Offs(pZero, -7.039, -1.735, 0.8), v30, z0, tNozzle, \Wobj := wobjFlatPlat;
		MoveL Offs(pZero, -6.669, -2.841, 0.8), v30, z0, tNozzle, \Wobj := wobjFlatPlat;
		MoveL Offs(pZero, -6.127, -3.874, 0.8), v30, z0, tNozzle, \Wobj := wobjFlatPlat;
		MoveL Offs(pZero, -5.426, -4.807, 0.8), v30, z0, tNozzle, \Wobj := wobjFlatPlat;
		MoveL Offs(pZero, -4.585, -5.615, 0.8), v30, z0, tNozzle, \Wobj := wobjFlatPlat;
		MoveL Offs(pZero, -3.625, -6.278, 0.8), v30, z0, tNozzle, \Wobj := wobjFlatPlat;
		MoveL Offs(pZero, -2.571, -6.778, 0.8), v30, z0, tNozzle, \Wobj := wobjFlatPlat;
		MoveL Offs(pZero, -1.45, -7.103, 0.8), v30, z0, tNozzle, \Wobj := wobjFlatPlat;
		MoveL Offs(pZero, -0.292, -7.243, 0.8), v30, z0, tNozzle, \Wobj := wobjFlatPlat;
		MoveL Offs(pZero, 0.874, -7.196, 0.8), v30, z0, tNozzle, \Wobj := wobjFlatPlat;
		MoveL Offs(pZero, 2.017, -6.963, 0.8), v30, z0, tNozzle, \Wobj := wobjFlatPlat;
		MoveL Offs(pZero, 3.108, -6.549, 0.8), v30, z0, tNozzle, \Wobj := wobjFlatPlat;
		WaitRob \InPos;
		SetDO DO5_Program_Feed, 0;
		MoveL Offs(pZero, 2.099, -6.397, 0.8), v100, z0, tNozzle, \Wobj := wobjFlatPlat;
		WaitRob \InPos;
		SetDO DO5_Program_Feed, 1;
		MoveL Offs(pZero, 6.414, -2.082, 0.8), v30, z0, tNozzle, \Wobj := wobjFlatPlat;
		WaitRob \InPos;
		SetDO DO5_Program_Feed, 0;
		MoveL Offs(pZero, 6.397, 2.144, 0.8), v100, z0, tNozzle, \Wobj := wobjFlatPlat;
		WaitRob \InPos;
		SetDO DO5_Program_Feed, 1;
		MoveL Offs(pZero, -2.131, -6.385, 0.8), v30, z0, tNozzle, \Wobj := wobjFlatPlat;
		WaitRob \InPos;
		SetDO DO5_Program_Feed, 0;
		MoveL Offs(pZero, -4.751, -4.762, 0.8), v100, z0, tNozzle, \Wobj := wobjFlatPlat;
		WaitRob \InPos;
		SetDO DO5_Program_Feed, 1;
		MoveL Offs(pZero, 4.77, 4.759, 0.8), v30, z0, tNozzle, \Wobj := wobjFlatPlat;
		WaitRob \InPos;
		SetDO DO5_Program_Feed, 0;
		MoveL Offs(pZero, 2.147, 6.379, 0.8), v100, z0, tNozzle, \Wobj := wobjFlatPlat;
		WaitRob \InPos;
		SetDO DO5_Program_Feed, 1;
		MoveL Offs(pZero, -6.375, -2.143, 0.8), v30, z0, tNozzle, \Wobj := wobjFlatPlat;
		WaitRob \InPos;
		SetDO DO5_Program_Feed, 0;
		MoveL Offs(pZero, -6.397, 2.077, 0.8), v100, z0, tNozzle, \Wobj := wobjFlatPlat;
		WaitRob \InPos;
		SetDO DO5_Program_Feed, 1;
		MoveL Offs(pZero, -2.072, 6.402, 0.8), v30, z0, tNozzle, \Wobj := wobjFlatPlat;
		WaitRob \InPos;
		SetDO DO6_Between_Layer_Retract, 1;
		SetDO DO5_Program_Feed, 0;
		MoveL Offs(pZero, -2.072, 6.402, 5.8), v100, z0, tNozzle, \Wobj := wobjFlatPlat;

		! Layer: 3
		! LayerParams(infillAngleDegrees=0.0, layerHeight=0.2, infillShiftX=0.0, infillShiftY=0.0, numShells=1, infillOverlap=0.0002)
		! T23
		! M6
		TPWRITE "Layer 3 of 350";
		MoveL Offs(pZero, 2.017, -6.963, 6.0), v100, z0, tNozzle, \Wobj := wobjFlatPlat;
		MoveL Offs(pZero, 2.017, -6.963, 1.0), v30, z0, tNozzle, \Wobj := wobjFlatPlat;
		WaitRob \InPos;
		SetDO DO6_Between_Layer_Retract, 0;
		WaitRob \InPos;
		SetDO DO5_Program_Feed, 1;
		MoveL Offs(pZero, 3.108, -6.549, 1.0), v30, z0, tNozzle, \Wobj := wobjFlatPlat;
		MoveL Offs(pZero, 4.118, -5.966, 1.0), v30, z0, tNozzle, \Wobj := wobjFlatPlat;
		MoveL Offs(pZero, 5.022, -5.228, 1.0), v30, z0, tNozzle, \Wobj := wobjFlatPlat;
		MoveL Offs(pZero, 5.795, -4.355, 1.0), v30, z0, tNozzle, \Wobj := wobjFlatPlat;
		MoveL Offs(pZero, 6.419, -3.369, 1.0), v30, z0, tNozzle, \Wobj := wobjFlatPlat;
		MoveL Offs(pZero, 6.876, -2.296, 1.0), v30, z0, tNozzle, \Wobj := wobjFlatPlat;
		MoveL Offs(pZero, 7.155, -1.163, 1.0), v30, z0, tNozzle, \Wobj := wobjFlatPlat;
		MoveL Offs(pZero, 7.249, -0.0, 1.0), v30, z0, tNozzle, \Wobj := wobjFlatPlat;
		MoveL Offs(pZero, 7.155, 1.163, 1.0), v30, z0, tNozzle, \Wobj := wobjFlatPlat;
		MoveL Offs(pZero, 6.876, 2.296, 1.0), v30, z0, tNozzle, \Wobj := wobjFlatPlat;
		MoveL Offs(pZero, 6.419, 3.369, 1.0), v30, z0, tNozzle, \Wobj := wobjFlatPlat;
		MoveL Offs(pZero, 5.795, 4.355, 1.0), v30, z0, tNozzle, \Wobj := wobjFlatPlat;
		MoveL Offs(pZero, 5.022, 5.228, 1.0), v30, z0, tNozzle, \Wobj := wobjFlatPlat;
		MoveL Offs(pZero, 4.118, 5.966, 1.0), v30, z0, tNozzle, \Wobj := wobjFlatPlat;
		MoveL Offs(pZero, 3.108, 6.549, 1.0), v30, z0, tNozzle, \Wobj := wobjFlatPlat;
		MoveL Offs(pZero, 2.017, 6.963, 1.0), v30, z0, tNozzle, \Wobj := wobjFlatPlat;
		MoveL Offs(pZero, 0.874, 7.196, 1.0), v30, z0, tNozzle, \Wobj := wobjFlatPlat;
		MoveL Offs(pZero, -0.292, 7.243, 1.0), v30, z0, tNozzle, \Wobj := wobjFlatPlat;
		MoveL Offs(pZero, -1.45, 7.103, 1.0), v30, z0, tNozzle, \Wobj := wobjFlatPlat;
		MoveL Offs(pZero, -2.571, 6.778, 1.0), v30, z0, tNozzle, \Wobj := wobjFlatPlat;
		MoveL Offs(pZero, -3.625, 6.278, 1.0), v30, z0, tNozzle, \Wobj := wobjFlatPlat;
		MoveL Offs(pZero, -4.585, 5.615, 1.0), v30, z0, tNozzle, \Wobj := wobjFlatPlat;
		MoveL Offs(pZero, -5.426, 4.807, 1.0), v30, z0, tNozzle, \Wobj := wobjFlatPlat;
		MoveL Offs(pZero, -6.127, 3.874, 1.0), v30, z0, tNozzle, \Wobj := wobjFlatPlat;
		MoveL Offs(pZero, -6.669, 2.841, 1.0), v30, z0, tNozzle, \Wobj := wobjFlatPlat;
		MoveL Offs(pZero, -7.039, 1.735, 1.0), v30, z0, tNozzle, \Wobj := wobjFlatPlat;
		MoveL Offs(pZero, -7.226, 0.583, 1.0), v30, z0, tNozzle, \Wobj := wobjFlatPlat;
		MoveL Offs(pZero, -7.226, -0.583, 1.0), v30, z0, tNozzle, \Wobj := wobjFlatPlat;
		MoveL Offs(pZero, -7.039, -1.735, 1.0), v30, z0, tNozzle, \Wobj := wobjFlatPlat;
		MoveL Offs(pZero, -6.669, -2.841, 1.0), v30, z0, tNozzle, \Wobj := wobjFlatPlat;
		MoveL Offs(pZero, -6.127, -3.874, 1.0), v30, z0, tNozzle, \Wobj := wobjFlatPlat;
		MoveL Offs(pZero, -5.426, -4.807, 1.0), v30, z0, tNozzle, \Wobj := wobjFlatPlat;
		MoveL Offs(pZero, -4.585, -5.615, 1.0), v30, z0, tNozzle, \Wobj := wobjFlatPlat;
		MoveL Offs(pZero, -3.625, -6.278, 1.0), v30, z0, tNozzle, \Wobj := wobjFlatPlat;
		MoveL Offs(pZero, -2.571, -6.778, 1.0), v30, z0, tNozzle, \Wobj := wobjFlatPlat;
		MoveL Offs(pZero, -1.45, -7.103, 1.0), v30, z0, tNozzle, \Wobj := wobjFlatPlat;
		MoveL Offs(pZero, -0.292, -7.243, 1.0), v30, z0, tNozzle, \Wobj := wobjFlatPlat;
		MoveL Offs(pZero, 0.874, -7.196, 1.0), v30, z0, tNozzle, \Wobj := wobjFlatPlat;
		MoveL Offs(pZero, 2.017, -6.963, 1.0), v30, z0, tNozzle, \Wobj := wobjFlatPlat;
		WaitRob \InPos;
		SetDO DO5_Program_Feed, 0;
		MoveL Offs(pZero, 3.059, -6.0, 1.0), v100, z0, tNozzle, \Wobj := wobjFlatPlat;
		WaitRob \InPos;
		SetDO DO5_Program_Feed, 1;
		MoveL Offs(pZero, -3.045, -6.0, 1.0), v30, z0, tNozzle, \Wobj := wobjFlatPlat;
		WaitRob \InPos;
		SetDO DO5_Program_Feed, 0;
		MoveL Offs(pZero, -6.021, -3.0, 1.0), v100, z0, tNozzle, \Wobj := wobjFlatPlat;
		WaitRob \InPos;
		SetDO DO5_Program_Feed, 1;
		MoveL Offs(pZero, 6.033, -3.0, 1.0), v30, z0, tNozzle, \Wobj := wobjFlatPlat;
		WaitRob \InPos;
		SetDO DO5_Program_Feed, 0;
		MoveL Offs(pZero, 6.748, 0.0, 1.0), v100, z0, tNozzle, \Wobj := wobjFlatPlat;
		WaitRob \InPos;
		SetDO DO5_Program_Feed, 1;
		MoveL Offs(pZero, -6.726, 0.0, 1.0), v30, z0, tNozzle, \Wobj := wobjFlatPlat;
		WaitRob \InPos;
		SetDO DO5_Program_Feed, 0;
		MoveL Offs(pZero, -6.021, 3.0, 1.0), v100, z0, tNozzle, \Wobj := wobjFlatPlat;
		WaitRob \InPos;
		SetDO DO5_Program_Feed, 1;
		MoveL Offs(pZero, 6.033, 3.0, 1.0), v30, z0, tNozzle, \Wobj := wobjFlatPlat;
		WaitRob \InPos;
		SetDO DO5_Program_Feed, 0;
		MoveL Offs(pZero, 3.059, 6.0, 1.0), v100, z0, tNozzle, \Wobj := wobjFlatPlat;
		WaitRob \InPos;
		SetDO DO5_Program_Feed, 1;
		MoveL Offs(pZero, -3.045, 6.0, 1.0), v30, z0, tNozzle, \Wobj := wobjFlatPlat;
		WaitRob \InPos;
		SetDO DO6_Between_Layer_Retract, 1;
		SetDO DO5_Program_Feed, 0;
		MoveL Offs(pZero, -3.045, 6.0, 6.0), v100, z0, tNozzle, \Wobj := wobjFlatPlat;

		! Layer: 4
		! LayerParams(infillAngleDegrees=90.0, layerHeight=0.2, infillShiftX=0.0, infillShiftY=0.0, numShells=1, infillOverlap=0.0002)
		! T24
		! M6
		TPWRITE "Layer 4 of 350";
		MoveL Offs(pZero, -4.585, 5.615, 6.2), v100, z0, tNozzle, \Wobj := wobjFlatPlat;
		MoveL Offs(pZero, -4.585, 5.615, 1.2), v30, z0, tNozzle, \Wobj := wobjFlatPlat;
		WaitRob \InPos;
		SetDO DO6_Between_Layer_Retract, 0;
		WaitRob \InPos;
		SetDO DO5_Program_Feed, 1;
		MoveL Offs(pZero, -5.426, 4.807, 1.2), v30, z0, tNozzle, \Wobj := wobjFlatPlat;
		MoveL Offs(pZero, -6.127, 3.874, 1.2), v30, z0, tNozzle, \Wobj := wobjFlatPlat;
		MoveL Offs(pZero, -6.669, 2.841, 1.2), v30, z0, tNozzle, \Wobj := wobjFlatPlat;
		MoveL Offs(pZero, -7.039, 1.735, 1.2), v30, z0, tNozzle, \Wobj := wobjFlatPlat;
		MoveL Offs(pZero, -7.226, 0.583, 1.2), v30, z0, tNozzle, \Wobj := wobjFlatPlat;
		MoveL Offs(pZero, -7.226, -0.583, 1.2), v30, z0, tNozzle, \Wobj := wobjFlatPlat;
		MoveL Offs(pZero, -7.039, -1.735, 1.2), v30, z0, tNozzle, \Wobj := wobjFlatPlat;
		MoveL Offs(pZero, -6.669, -2.841, 1.2), v30, z0, tNozzle, \Wobj := wobjFlatPlat;
		MoveL Offs(pZero, -6.127, -3.874, 1.2), v30, z0, tNozzle, \Wobj := wobjFlatPlat;
		MoveL Offs(pZero, -5.426, -4.807, 1.2), v30, z0, tNozzle, \Wobj := wobjFlatPlat;
		MoveL Offs(pZero, -4.585, -5.615, 1.2), v30, z0, tNozzle, \Wobj := wobjFlatPlat;
		MoveL Offs(pZero, -3.625, -6.278, 1.2), v30, z0, tNozzle, \Wobj := wobjFlatPlat;
		MoveL Offs(pZero, -2.571, -6.778, 1.2), v30, z0, tNozzle, \Wobj := wobjFlatPlat;
		MoveL Offs(pZero, -1.45, -7.103, 1.2), v30, z0, tNozzle, \Wobj := wobjFlatPlat;
		MoveL Offs(pZero, -0.292, -7.243, 1.2), v30, z0, tNozzle, \Wobj := wobjFlatPlat;
		MoveL Offs(pZero, 0.874, -7.196, 1.2), v30, z0, tNozzle, \Wobj := wobjFlatPlat;
		MoveL Offs(pZero, 2.017, -6.963, 1.2), v30, z0, tNozzle, \Wobj := wobjFlatPlat;
		MoveL Offs(pZero, 3.108, -6.549, 1.2), v30, z0, tNozzle, \Wobj := wobjFlatPlat;
		MoveL Offs(pZero, 4.118, -5.966, 1.2), v30, z0, tNozzle, \Wobj := wobjFlatPlat;
		MoveL Offs(pZero, 5.022, -5.228, 1.2), v30, z0, tNozzle, \Wobj := wobjFlatPlat;
		MoveL Offs(pZero, 5.795, -4.355, 1.2), v30, z0, tNozzle, \Wobj := wobjFlatPlat;
		MoveL Offs(pZero, 6.419, -3.369, 1.2), v30, z0, tNozzle, \Wobj := wobjFlatPlat;
		MoveL Offs(pZero, 6.876, -2.296, 1.2), v30, z0, tNozzle, \Wobj := wobjFlatPlat;
		MoveL Offs(pZero, 7.155, -1.163, 1.2), v30, z0, tNozzle, \Wobj := wobjFlatPlat;
		MoveL Offs(pZero, 7.249, -0.0, 1.2), v30, z0, tNozzle, \Wobj := wobjFlatPlat;
		MoveL Offs(pZero, 7.155, 1.163, 1.2), v30, z0, tNozzle, \Wobj := wobjFlatPlat;
		MoveL Offs(pZero, 6.876, 2.296, 1.2), v30, z0, tNozzle, \Wobj := wobjFlatPlat;
		MoveL Offs(pZero, 6.419, 3.369, 1.2), v30, z0, tNozzle, \Wobj := wobjFlatPlat;
		MoveL Offs(pZero, 5.795, 4.355, 1.2), v30, z0, tNozzle, \Wobj := wobjFlatPlat;
		MoveL Offs(pZero, 5.022, 5.228, 1.2), v30, z0, tNozzle, \Wobj := wobjFlatPlat;
		MoveL Offs(pZero, 4.118, 5.966, 1.2), v30, z0, tNozzle, \Wobj := wobjFlatPlat;
		MoveL Offs(pZero, 3.108, 6.549, 1.2), v30, z0, tNozzle, \Wobj := wobjFlatPlat;
		MoveL Offs(pZero, 2.017, 6.963, 1.2), v30, z0, tNozzle, \Wobj := wobjFlatPlat;
		MoveL Offs(pZero, 0.874, 7.196, 1.2), v30, z0, tNozzle, \Wobj := wobjFlatPlat;
		MoveL Offs(pZero, -0.292, 7.243, 1.2), v30, z0, tNozzle, \Wobj := wobjFlatPlat;
		MoveL Offs(pZero, -1.45, 7.103, 1.2), v30, z0, tNozzle, \Wobj := wobjFlatPlat;
		MoveL Offs(pZero, -2.571, 6.778, 1.2), v30, z0, tNozzle, \Wobj := wobjFlatPlat;
		MoveL Offs(pZero, -3.625, 6.278, 1.2), v30, z0, tNozzle, \Wobj := wobjFlatPlat;
		MoveL Offs(pZero, -4.585, 5.615, 1.2), v30, z0, tNozzle, \Wobj := wobjFlatPlat;
		WaitRob \InPos;
		SetDO DO5_Program_Feed, 0;
		MoveL Offs(pZero, -2.989, 6.026, 1.2), v100, z0, tNozzle, \Wobj := wobjFlatPlat;
		WaitRob \InPos;
		SetDO DO5_Program_Feed, 1;
		MoveL Offs(pZero, -2.989, -6.026, 1.2), v30, z0, tNozzle, \Wobj := wobjFlatPlat;
		WaitRob \InPos;
		SetDO DO5_Program_Feed, 0;
		MoveL Offs(pZero, 0.011, -6.731, 1.2), v100, z0, tNozzle, \Wobj := wobjFlatPlat;
		WaitRob \InPos;
		SetDO DO5_Program_Feed, 1;
		MoveL Offs(pZero, 0.011, 6.731, 1.2), v30, z0, tNozzle, \Wobj := wobjFlatPlat;
		WaitRob \InPos;
		SetDO DO5_Program_Feed, 0;
		MoveL Offs(pZero, 3.011, 6.028, 1.2), v100, z0, tNozzle, \Wobj := wobjFlatPlat;
		WaitRob \InPos;
		SetDO DO5_Program_Feed, 1;
		MoveL Offs(pZero, 3.011, -6.028, 1.2), v30, z0, tNozzle, \Wobj := wobjFlatPlat;
		WaitRob \InPos;
		SetDO DO5_Program_Feed, 0;
		MoveL Offs(pZero, 6.011, -3.051, 1.2), v100, z0, tNozzle, \Wobj := wobjFlatPlat;
		WaitRob \InPos;
		SetDO DO5_Program_Feed, 1;
		MoveL Offs(pZero, 6.011, 3.051, 1.2), v30, z0, tNozzle, \Wobj := wobjFlatPlat;
		WaitRob \InPos;
		SetDO DO5_Program_Feed, 0;
		MoveL Offs(pZero, -5.989, 3.062, 1.2), v100, z0, tNozzle, \Wobj := wobjFlatPlat;
		WaitRob \InPos;
		SetDO DO5_Program_Feed, 1;
		MoveL Offs(pZero, -5.989, -3.062, 1.2), v30, z0, tNozzle, \Wobj := wobjFlatPlat;
		WaitRob \InPos;
		SetDO DO6_Between_Layer_Retract, 1;
		SetDO DO5_Program_Feed, 0;
		MoveL Offs(pZero, -5.989, -3.062, 6.2), v100, z0, tNozzle, \Wobj := wobjFlatPlat;

		! Layer: 5
		! LayerParams(infillAngleDegrees=-45.0, layerHeight=0.2, infillShiftX=0.0, infillShiftY=0.0, numShells=1, infillOverlap=0.0002)
		! T25
		! M6
		TPWRITE "Layer 5 of 350";
		MoveL Offs(pZero, 6.876, 2.296, 6.4), v100, z0, tNozzle, \Wobj := wobjFlatPlat;
		MoveL Offs(pZero, 6.876, 2.296, 1.4), v30, z0, tNozzle, \Wobj := wobjFlatPlat;
		WaitRob \InPos;
		SetDO DO6_Between_Layer_Retract, 0;
		WaitRob \InPos;
		SetDO DO5_Program_Feed, 1;
		MoveL Offs(pZero, 6.419, 3.369, 1.4), v30, z0, tNozzle, \Wobj := wobjFlatPlat;
		MoveL Offs(pZero, 5.795, 4.355, 1.4), v30, z0, tNozzle, \Wobj := wobjFlatPlat;
		MoveL Offs(pZero, 5.022, 5.228, 1.4), v30, z0, tNozzle, \Wobj := wobjFlatPlat;
		MoveL Offs(pZero, 4.118, 5.966, 1.4), v30, z0, tNozzle, \Wobj := wobjFlatPlat;
		MoveL Offs(pZero, 3.108, 6.549, 1.4), v30, z0, tNozzle, \Wobj := wobjFlatPlat;
		MoveL Offs(pZero, 2.017, 6.963, 1.4), v30, z0, tNozzle, \Wobj := wobjFlatPlat;
		MoveL Offs(pZero, 0.874, 7.196, 1.4), v30, z0, tNozzle, \Wobj := wobjFlatPlat;
		MoveL Offs(pZero, -0.292, 7.243, 1.4), v30, z0, tNozzle, \Wobj := wobjFlatPlat;
		MoveL Offs(pZero, -1.45, 7.103, 1.4), v30, z0, tNozzle, \Wobj := wobjFlatPlat;
		MoveL Offs(pZero, -2.571, 6.778, 1.4), v30, z0, tNozzle, \Wobj := wobjFlatPlat;
		MoveL Offs(pZero, -3.625, 6.278, 1.4), v30, z0, tNozzle, \Wobj := wobjFlatPlat;
		MoveL Offs(pZero, -4.585, 5.615, 1.4), v30, z0, tNozzle, \Wobj := wobjFlatPlat;
		MoveL Offs(pZero, -5.426, 4.807, 1.4), v30, z0, tNozzle, \Wobj := wobjFlatPlat;
		MoveL Offs(pZero, -6.127, 3.874, 1.4), v30, z0, tNozzle, \Wobj := wobjFlatPlat;
		MoveL Offs(pZero, -6.669, 2.841, 1.4), v30, z0, tNozzle, \Wobj := wobjFlatPlat;
		MoveL Offs(pZero, -7.039, 1.735, 1.4), v30, z0, tNozzle, \Wobj := wobjFlatPlat;
		MoveL Offs(pZero, -7.226, 0.583, 1.4), v30, z0, tNozzle, \Wobj := wobjFlatPlat;
		MoveL Offs(pZero, -7.226, -0.583, 1.4), v30, z0, tNozzle, \Wobj := wobjFlatPlat;
		MoveL Offs(pZero, -7.039, -1.735, 1.4), v30, z0, tNozzle, \Wobj := wobjFlatPlat;
		MoveL Offs(pZero, -6.669, -2.841, 1.4), v30, z0, tNozzle, \Wobj := wobjFlatPlat;
		MoveL Offs(pZero, -6.127, -3.874, 1.4), v30, z0, tNozzle, \Wobj := wobjFlatPlat;
		MoveL Offs(pZero, -5.426, -4.807, 1.4), v30, z0, tNozzle, \Wobj := wobjFlatPlat;
		MoveL Offs(pZero, -4.585, -5.615, 1.4), v30, z0, tNozzle, \Wobj := wobjFlatPlat;
		MoveL Offs(pZero, -3.625, -6.278, 1.4), v30, z0, tNozzle, \Wobj := wobjFlatPlat;
		MoveL Offs(pZero, -2.571, -6.778, 1.4), v30, z0, tNozzle, \Wobj := wobjFlatPlat;
		MoveL Offs(pZero, -1.45, -7.103, 1.4), v30, z0, tNozzle, \Wobj := wobjFlatPlat;
		MoveL Offs(pZero, -0.292, -7.243, 1.4), v30, z0, tNozzle, \Wobj := wobjFlatPlat;
		MoveL Offs(pZero, 0.874, -7.196, 1.4), v30, z0, tNozzle, \Wobj := wobjFlatPlat;
		MoveL Offs(pZero, 2.017, -6.963, 1.4), v30, z0, tNozzle, \Wobj := wobjFlatPlat;
		MoveL Offs(pZero, 3.108, -6.549, 1.4), v30, z0, tNozzle, \Wobj := wobjFlatPlat;
		MoveL Offs(pZero, 4.118, -5.966, 1.4), v30, z0, tNozzle, \Wobj := wobjFlatPlat;
		MoveL Offs(pZero, 5.022, -5.228, 1.4), v30, z0, tNozzle, \Wobj := wobjFlatPlat;
		MoveL Offs(pZero, 5.795, -4.355, 1.4), v30, z0, tNozzle, \Wobj := wobjFlatPlat;
		MoveL Offs(pZero, 6.419, -3.369, 1.4), v30, z0, tNozzle, \Wobj := wobjFlatPlat;
		MoveL Offs(pZero, 6.876, -2.296, 1.4), v30, z0, tNozzle, \Wobj := wobjFlatPlat;
		MoveL Offs(pZero, 7.155, -1.163, 1.4), v30, z0, tNozzle, \Wobj := wobjFlatPlat;
		MoveL Offs(pZero, 7.249, -0.0, 1.4), v30, z0, tNozzle, \Wobj := wobjFlatPlat;
		MoveL Offs(pZero, 7.155, 1.163, 1.4), v30, z0, tNozzle, \Wobj := wobjFlatPlat;
		MoveL Offs(pZero, 6.876, 2.296, 1.4), v30, z0, tNozzle, \Wobj := wobjFlatPlat;
		WaitRob \InPos;
		SetDO DO5_Program_Feed, 0;
		MoveL Offs(pZero, 6.414, 2.082, 1.4), v100, z0, tNozzle, \Wobj := wobjFlatPlat;
		WaitRob \InPos;
		SetDO DO5_Program_Feed, 1;
		MoveL Offs(pZero, 2.099, 6.397, 1.4), v30, z0, tNozzle, \Wobj := wobjFlatPlat;
		WaitRob \InPos;
		SetDO DO5_Program_Feed, 0;
		MoveL Offs(pZero, -2.131, 6.385, 1.4), v100, z0, tNozzle, \Wobj := wobjFlatPlat;
		WaitRob \InPos;
		SetDO DO5_Program_Feed, 1;
		MoveL Offs(pZero, 6.397, -2.144, 1.4), v30, z0, tNozzle, \Wobj := wobjFlatPlat;
		WaitRob \InPos;
		SetDO DO5_Program_Feed, 0;
		MoveL Offs(pZero, 4.77, -4.759, 1.4), v100, z0, tNozzle, \Wobj := wobjFlatPlat;
		WaitRob \InPos;
		SetDO DO5_Program_Feed, 1;
		MoveL Offs(pZero, -4.751, 4.762, 1.4), v30, z0, tNozzle, \Wobj := wobjFlatPlat;
		WaitRob \InPos;
		SetDO DO5_Program_Feed, 0;
		MoveL Offs(pZero, -6.375, 2.143, 1.4), v100, z0, tNozzle, \Wobj := wobjFlatPlat;
		WaitRob \InPos;
		SetDO DO5_Program_Feed, 1;
		MoveL Offs(pZero, 2.147, -6.379, 1.4), v30, z0, tNozzle, \Wobj := wobjFlatPlat;
		WaitRob \InPos;
		SetDO DO5_Program_Feed, 0;
		MoveL Offs(pZero, -2.072, -6.402, 1.4), v100, z0, tNozzle, \Wobj := wobjFlatPlat;
		WaitRob \InPos;
		SetDO DO5_Program_Feed, 1;
		MoveL Offs(pZero, -6.397, -2.077, 1.4), v30, z0, tNozzle, \Wobj := wobjFlatPlat;
		WaitRob \InPos;
		SetDO DO6_Between_Layer_Retract, 1;
		SetDO DO5_Program_Feed, 0;
		MoveL Offs(pZero, -6.397, -2.077, 6.4), v100, z0, tNozzle, \Wobj := wobjFlatPlat;

		! Layer: 6
		! LayerParams(infillAngleDegrees=45.0, layerHeight=0.2, infillShiftX=0.0, infillShiftY=0.0, numShells=1, infillOverlap=0.0002)
		! T26
		! M6
		TPWRITE "Layer 6 of 350";
		MoveL Offs(pZero, -4.585, -5.615, 6.6), v100, z0, tNozzle, \Wobj := wobjFlatPlat;
		MoveL Offs(pZero, -4.585, -5.615, 1.6), v30, z0, tNozzle, \Wobj := wobjFlatPlat;
		WaitRob \InPos;
		SetDO DO6_Between_Layer_Retract, 0;
		WaitRob \InPos;
		SetDO DO5_Program_Feed, 1;
		MoveL Offs(pZero, -3.625, -6.278, 1.6), v30, z0, tNozzle, \Wobj := wobjFlatPlat;
		MoveL Offs(pZero, -2.571, -6.778, 1.6), v30, z0, tNozzle, \Wobj := wobjFlatPlat;
		MoveL Offs(pZero, -1.45, -7.103, 1.6), v30, z0, tNozzle, \Wobj := wobjFlatPlat;
		MoveL Offs(pZero, -0.292, -7.243, 1.6), v30, z0, tNozzle, \Wobj := wobjFlatPlat;
		MoveL Offs(pZero, 0.874, -7.196, 1.6), v30, z0, tNozzle, \Wobj := wobjFlatPlat;
		MoveL Offs(pZero, 2.017, -6.963, 1.6), v30, z0, tNozzle, \Wobj := wobjFlatPlat;
		MoveL Offs(pZero, 3.108, -6.549, 1.6), v30, z0, tNozzle, \Wobj := wobjFlatPlat;
		MoveL Offs(pZero, 4.118, -5.966, 1.6), v30, z0, tNozzle, \Wobj := wobjFlatPlat;
		MoveL Offs(pZero, 5.022, -5.228, 1.6), v30, z0, tNozzle, \Wobj := wobjFlatPlat;
		MoveL Offs(pZero, 5.795, -4.355, 1.6), v30, z0, tNozzle, \Wobj := wobjFlatPlat;
		MoveL Offs(pZero, 6.419, -3.369, 1.6), v30, z0, tNozzle, \Wobj := wobjFlatPlat;
		MoveL Offs(pZero, 6.876, -2.296, 1.6), v30, z0, tNozzle, \Wobj := wobjFlatPlat;
		MoveL Offs(pZero, 7.155, -1.163, 1.6), v30, z0, tNozzle, \Wobj := wobjFlatPlat;
		MoveL Offs(pZero, 7.249, -0.0, 1.6), v30, z0, tNozzle, \Wobj := wobjFlatPlat;
		MoveL Offs(pZero, 7.155, 1.163, 1.6), v30, z0, tNozzle, \Wobj := wobjFlatPlat;
		MoveL Offs(pZero, 6.876, 2.296, 1.6), v30, z0, tNozzle, \Wobj := wobjFlatPlat;
		MoveL Offs(pZero, 6.419, 3.369, 1.6), v30, z0, tNozzle, \Wobj := wobjFlatPlat;
		MoveL Offs(pZero, 5.795, 4.355, 1.6), v30, z0, tNozzle, \Wobj := wobjFlatPlat;
		MoveL Offs(pZero, 5.022, 5.228, 1.6), v30, z0, tNozzle, \Wobj := wobjFlatPlat;
		MoveL Offs(pZero, 4.118, 5.966, 1.6), v30, z0, tNozzle, \Wobj := wobjFlatPlat;
		MoveL Offs(pZero, 3.108, 6.549, 1.6), v30, z0, tNozzle, \Wobj := wobjFlatPlat;
		MoveL Offs(pZero, 2.017, 6.963, 1.6), v30, z0, tNozzle, \Wobj := wobjFlatPlat;
		MoveL Offs(pZero, 0.874, 7.196, 1.6), v30, z0, tNozzle, \Wobj := wobjFlatPlat;
		MoveL Offs(pZero, -0.292, 7.243, 1.6), v30, z0, tNozzle, \Wobj := wobjFlatPlat;
		MoveL Offs(pZero, -1.45, 7.103, 1.6), v30, z0, tNozzle, \Wobj := wobjFlatPlat;
		MoveL Offs(pZero, -2.571, 6.778, 1.6), v30, z0, tNozzle, \Wobj := wobjFlatPlat;
		MoveL Offs(pZero, -3.625, 6.278, 1.6), v30, z0, tNozzle, \Wobj := wobjFlatPlat;
		MoveL Offs(pZero, -4.585, 5.615, 1.6), v30, z0, tNozzle, \Wobj := wobjFlatPlat;
		MoveL Offs(pZero, -5.426, 4.807, 1.6), v30, z0, tNozzle, \Wobj := wobjFlatPlat;
		MoveL Offs(pZero, -6.127, 3.874, 1.6), v30, z0, tNozzle, \Wobj := wobjFlatPlat;
		MoveL Offs(pZero, -6.669, 2.841, 1.6), v30, z0, tNozzle, \Wobj := wobjFlatPlat;
		MoveL Offs(pZero, -7.039, 1.735, 1.6), v30, z0, tNozzle, \Wobj := wobjFlatPlat;
		MoveL Offs(pZero, -7.226, 0.583, 1.6), v30, z0, tNozzle, \Wobj := wobjFlatPlat;
		MoveL Offs(pZero, -7.226, -0.583, 1.6), v30, z0, tNozzle, \Wobj := wobjFlatPlat;
		MoveL Offs(pZero, -7.039, -1.735, 1.6), v30, z0, tNozzle, \Wobj := wobjFlatPlat;
		MoveL Offs(pZero, -6.669, -2.841, 1.6), v30, z0, tNozzle, \Wobj := wobjFlatPlat;
		MoveL Offs(pZero, -6.127, -3.874, 1.6), v30, z0, tNozzle, \Wobj := wobjFlatPlat;
		MoveL Offs(pZero, -5.426, -4.807, 1.6), v30, z0, tNozzle, \Wobj := wobjFlatPlat;
		MoveL Offs(pZero, -4.585, -5.615, 1.6), v30, z0, tNozzle, \Wobj := wobjFlatPlat;
		WaitRob \InPos;
		SetDO DO5_Program_Feed, 0;
		MoveL Offs(pZero, -4.751, -4.762, 1.6), v100, z0, tNozzle, \Wobj := wobjFlatPlat;
		WaitRob \InPos;
		SetDO DO5_Program_Feed, 1;
		MoveL Offs(pZero, 4.77, 4.759, 1.6), v30, z0, tNozzle, \Wobj := wobjFlatPlat;
		WaitRob \InPos;
		SetDO DO5_Program_Feed, 0;
		MoveL Offs(pZero, 6.397, 2.144, 1.6), v100, z0, tNozzle, \Wobj := wobjFlatPlat;
		WaitRob \InPos;
		SetDO DO5_Program_Feed, 1;
		MoveL Offs(pZero, -2.131, -6.385, 1.6), v30, z0, tNozzle, \Wobj := wobjFlatPlat;
		WaitRob \InPos;
		SetDO DO5_Program_Feed, 0;
		MoveL Offs(pZero, 2.099, -6.397, 1.6), v100, z0, tNozzle, \Wobj := wobjFlatPlat;
		WaitRob \InPos;
		SetDO DO5_Program_Feed, 1;
		MoveL Offs(pZero, 6.414, -2.082, 1.6), v30, z0, tNozzle, \Wobj := wobjFlatPlat;
		WaitRob \InPos;
		SetDO DO5_Program_Feed, 0;
		MoveL Offs(pZero, 2.147, 6.379, 1.6), v100, z0, tNozzle, \Wobj := wobjFlatPlat;
		WaitRob \InPos;
		SetDO DO5_Program_Feed, 1;
		MoveL Offs(pZero, -6.375, -2.143, 1.6), v30, z0, tNozzle, \Wobj := wobjFlatPlat;
		WaitRob \InPos;
		SetDO DO5_Program_Feed, 0;
		MoveL Offs(pZero, -6.397, 2.077, 1.6), v100, z0, tNozzle, \Wobj := wobjFlatPlat;
		WaitRob \InPos;
		SetDO DO5_Program_Feed, 1;
		MoveL Offs(pZero, -2.072, 6.402, 1.6), v30, z0, tNozzle, \Wobj := wobjFlatPlat;
		WaitRob \InPos;
		SetDO DO6_Between_Layer_Retract, 1;
		SetDO DO5_Program_Feed, 0;
		MoveL Offs(pZero, -2.072, 6.402, 6.6), v100, z0, tNozzle, \Wobj := wobjFlatPlat;

		! Layer: 7
		! LayerParams(infillAngleDegrees=0.0, layerHeight=0.2, infillShiftX=0.0, infillShiftY=0.0, numShells=1, infillOverlap=0.0002)
		! T27
		! M6
		TPWRITE "Layer 7 of 350";
		MoveL Offs(pZero, 7.155, 1.163, 6.8), v100, z0, tNozzle, \Wobj := wobjFlatPlat;
		MoveL Offs(pZero, 7.155, 1.163, 1.8), v30, z0, tNozzle, \Wobj := wobjFlatPlat;
		WaitRob \InPos;
		SetDO DO6_Between_Layer_Retract, 0;
		WaitRob \InPos;
		SetDO DO5_Program_Feed, 1;
		MoveL Offs(pZero, 6.876, 2.296, 1.8), v30, z0, tNozzle, \Wobj := wobjFlatPlat;
		MoveL Offs(pZero, 6.419, 3.369, 1.8), v30, z0, tNozzle, \Wobj := wobjFlatPlat;
		MoveL Offs(pZero, 5.795, 4.355, 1.8), v30, z0, tNozzle, \Wobj := wobjFlatPlat;
		MoveL Offs(pZero, 5.022, 5.228, 1.8), v30, z0, tNozzle, \Wobj := wobjFlatPlat;
		MoveL Offs(pZero, 4.118, 5.966, 1.8), v30, z0, tNozzle, \Wobj := wobjFlatPlat;
		MoveL Offs(pZero, 3.108, 6.549, 1.8), v30, z0, tNozzle, \Wobj := wobjFlatPlat;
		MoveL Offs(pZero, 2.017, 6.963, 1.8), v30, z0, tNozzle, \Wobj := wobjFlatPlat;
		MoveL Offs(pZero, 0.874, 7.196, 1.8), v30, z0, tNozzle, \Wobj := wobjFlatPlat;
		MoveL Offs(pZero, -0.292, 7.243, 1.8), v30, z0, tNozzle, \Wobj := wobjFlatPlat;
		MoveL Offs(pZero, -1.45, 7.103, 1.8), v30, z0, tNozzle, \Wobj := wobjFlatPlat;
		MoveL Offs(pZero, -2.571, 6.778, 1.8), v30, z0, tNozzle, \Wobj := wobjFlatPlat;
		MoveL Offs(pZero, -3.625, 6.278, 1.8), v30, z0, tNozzle, \Wobj := wobjFlatPlat;
		MoveL Offs(pZero, -4.585, 5.615, 1.8), v30, z0, tNozzle, \Wobj := wobjFlatPlat;
		MoveL Offs(pZero, -5.426, 4.807, 1.8), v30, z0, tNozzle, \Wobj := wobjFlatPlat;
		MoveL Offs(pZero, -6.127, 3.874, 1.8), v30, z0, tNozzle, \Wobj := wobjFlatPlat;
		MoveL Offs(pZero, -6.669, 2.841, 1.8), v30, z0, tNozzle, \Wobj := wobjFlatPlat;
		MoveL Offs(pZero, -7.039, 1.735, 1.8), v30, z0, tNozzle, \Wobj := wobjFlatPlat;
		MoveL Offs(pZero, -7.226, 0.583, 1.8), v30, z0, tNozzle, \Wobj := wobjFlatPlat;
		MoveL Offs(pZero, -7.226, -0.583, 1.8), v30, z0, tNozzle, \Wobj := wobjFlatPlat;
		MoveL Offs(pZero, -7.039, -1.735, 1.8), v30, z0, tNozzle, \Wobj := wobjFlatPlat;
		MoveL Offs(pZero, -6.669, -2.841, 1.8), v30, z0, tNozzle, \Wobj := wobjFlatPlat;
		MoveL Offs(pZero, -6.127, -3.874, 1.8), v30, z0, tNozzle, \Wobj := wobjFlatPlat;
		MoveL Offs(pZero, -5.426, -4.807, 1.8), v30, z0, tNozzle, \Wobj := wobjFlatPlat;
		MoveL Offs(pZero, -4.585, -5.615, 1.8), v30, z0, tNozzle, \Wobj := wobjFlatPlat;
		MoveL Offs(pZero, -3.625, -6.278, 1.8), v30, z0, tNozzle, \Wobj := wobjFlatPlat;
		MoveL Offs(pZero, -2.571, -6.778, 1.8), v30, z0, tNozzle, \Wobj := wobjFlatPlat;
		MoveL Offs(pZero, -1.45, -7.103, 1.8), v30, z0, tNozzle, \Wobj := wobjFlatPlat;
		MoveL Offs(pZero, -0.292, -7.243, 1.8), v30, z0, tNozzle, \Wobj := wobjFlatPlat;
		MoveL Offs(pZero, 0.874, -7.196, 1.8), v30, z0, tNozzle, \Wobj := wobjFlatPlat;
		MoveL Offs(pZero, 2.017, -6.963, 1.8), v30, z0, tNozzle, \Wobj := wobjFlatPlat;
		MoveL Offs(pZero, 3.108, -6.549, 1.8), v30, z0, tNozzle, \Wobj := wobjFlatPlat;
		MoveL Offs(pZero, 4.118, -5.966, 1.8), v30, z0, tNozzle, \Wobj := wobjFlatPlat;
		MoveL Offs(pZero, 5.022, -5.228, 1.8), v30, z0, tNozzle, \Wobj := wobjFlatPlat;
		MoveL Offs(pZero, 5.795, -4.355, 1.8), v30, z0, tNozzle, \Wobj := wobjFlatPlat;
		MoveL Offs(pZero, 6.419, -3.369, 1.8), v30, z0, tNozzle, \Wobj := wobjFlatPlat;
		MoveL Offs(pZero, 6.876, -2.296, 1.8), v30, z0, tNozzle, \Wobj := wobjFlatPlat;
		MoveL Offs(pZero, 7.155, -1.163, 1.8), v30, z0, tNozzle, \Wobj := wobjFlatPlat;
		MoveL Offs(pZero, 7.249, -0.0, 1.8), v30, z0, tNozzle, \Wobj := wobjFlatPlat;
		MoveL Offs(pZero, 7.155, 1.163, 1.8), v30, z0, tNozzle, \Wobj := wobjFlatPlat;
		WaitRob \InPos;
		SetDO DO5_Program_Feed, 0;
		MoveL Offs(pZero, 6.748, 0.0, 1.8), v100, z0, tNozzle, \Wobj := wobjFlatPlat;
		WaitRob \InPos;
		SetDO DO5_Program_Feed, 1;
		MoveL Offs(pZero, -6.726, 0.0, 1.8), v30, z0, tNozzle, \Wobj := wobjFlatPlat;
		WaitRob \InPos;
		SetDO DO5_Program_Feed, 0;
		MoveL Offs(pZero, -6.021, 3.0, 1.8), v100, z0, tNozzle, \Wobj := wobjFlatPlat;
		WaitRob \InPos;
		SetDO DO5_Program_Feed, 1;
		MoveL Offs(pZero, 6.033, 3.0, 1.8), v30, z0, tNozzle, \Wobj := wobjFlatPlat;
		WaitRob \InPos;
		SetDO DO5_Program_Feed, 0;
		MoveL Offs(pZero, 3.059, 6.0, 1.8), v100, z0, tNozzle, \Wobj := wobjFlatPlat;
		WaitRob \InPos;
		SetDO DO5_Program_Feed, 1;
		MoveL Offs(pZero, -3.045, 6.0, 1.8), v30, z0, tNozzle, \Wobj := wobjFlatPlat;
		WaitRob \InPos;
		SetDO DO5_Program_Feed, 0;
		MoveL Offs(pZero, -6.021, -3.0, 1.8), v100, z0, tNozzle, \Wobj := wobjFlatPlat;
		WaitRob \InPos;
		SetDO DO5_Program_Feed, 1;
		MoveL Offs(pZero, 6.033, -3.0, 1.8), v30, z0, tNozzle, \Wobj := wobjFlatPlat;
		WaitRob \InPos;
		SetDO DO5_Program_Feed, 0;
		MoveL Offs(pZero, 3.059, -6.0, 1.8), v100, z0, tNozzle, \Wobj := wobjFlatPlat;
		WaitRob \InPos;
		SetDO DO5_Program_Feed, 1;
		MoveL Offs(pZero, -3.045, -6.0, 1.8), v30, z0, tNozzle, \Wobj := wobjFlatPlat;
		WaitRob \InPos;
		SetDO DO6_Between_Layer_Retract, 1;
		SetDO DO5_Program_Feed, 0;
		MoveL Offs(pZero, -3.045, -6.0, 6.8), v100, z0, tNozzle, \Wobj := wobjFlatPlat;

		! Layer: 8
		! LayerParams(infillAngleDegrees=90.0, layerHeight=0.2, infillShiftX=0.0, infillShiftY=0.0, numShells=1, infillOverlap=0.0002)
		! T28
		! M6
		TPWRITE "Layer 8 of 350";
		MoveL Offs(pZero, -7.039, 1.735, 7.0), v100, z0, tNozzle, \Wobj := wobjFlatPlat;
		MoveL Offs(pZero, -7.039, 1.735, 2.0), v30, z0, tNozzle, \Wobj := wobjFlatPlat;
		WaitRob \InPos;
		SetDO DO6_Between_Layer_Retract, 0;
		WaitRob \InPos;
		SetDO DO5_Program_Feed, 1;
		MoveL Offs(pZero, -7.226, 0.583, 2.0), v30, z0, tNozzle, \Wobj := wobjFlatPlat;
		MoveL Offs(pZero, -7.226, -0.583, 2.0), v30, z0, tNozzle, \Wobj := wobjFlatPlat;
		MoveL Offs(pZero, -7.039, -1.735, 2.0), v30, z0, tNozzle, \Wobj := wobjFlatPlat;
		MoveL Offs(pZero, -6.669, -2.841, 2.0), v30, z0, tNozzle, \Wobj := wobjFlatPlat;
		MoveL Offs(pZero, -6.127, -3.874, 2.0), v30, z0, tNozzle, \Wobj := wobjFlatPlat;
		MoveL Offs(pZero, -5.426, -4.807, 2.0), v30, z0, tNozzle, \Wobj := wobjFlatPlat;
		MoveL Offs(pZero, -4.585, -5.615, 2.0), v30, z0, tNozzle, \Wobj := wobjFlatPlat;
		MoveL Offs(pZero, -3.625, -6.278, 2.0), v30, z0, tNozzle, \Wobj := wobjFlatPlat;
		MoveL Offs(pZero, -2.571, -6.778, 2.0), v30, z0, tNozzle, \Wobj := wobjFlatPlat;
		MoveL Offs(pZero, -1.45, -7.103, 2.0), v30, z0, tNozzle, \Wobj := wobjFlatPlat;
		MoveL Offs(pZero, -0.292, -7.243, 2.0), v30, z0, tNozzle, \Wobj := wobjFlatPlat;
		MoveL Offs(pZero, 0.874, -7.196, 2.0), v30, z0, tNozzle, \Wobj := wobjFlatPlat;
		MoveL Offs(pZero, 2.017, -6.963, 2.0), v30, z0, tNozzle, \Wobj := wobjFlatPlat;
		MoveL Offs(pZero, 3.108, -6.549, 2.0), v30, z0, tNozzle, \Wobj := wobjFlatPlat;
		MoveL Offs(pZero, 4.118, -5.966, 2.0), v30, z0, tNozzle, \Wobj := wobjFlatPlat;
		MoveL Offs(pZero, 5.022, -5.228, 2.0), v30, z0, tNozzle, \Wobj := wobjFlatPlat;
		MoveL Offs(pZero, 5.795, -4.355, 2.0), v30, z0, tNozzle, \Wobj := wobjFlatPlat;
		MoveL Offs(pZero, 6.419, -3.369, 2.0), v30, z0, tNozzle, \Wobj := wobjFlatPlat;
		MoveL Offs(pZero, 6.876, -2.296, 2.0), v30, z0, tNozzle, \Wobj := wobjFlatPlat;
		MoveL Offs(pZero, 7.155, -1.163, 2.0), v30, z0, tNozzle, \Wobj := wobjFlatPlat;
		MoveL Offs(pZero, 7.249, -0.0, 2.0), v30, z0, tNozzle, \Wobj := wobjFlatPlat;
		MoveL Offs(pZero, 7.155, 1.163, 2.0), v30, z0, tNozzle, \Wobj := wobjFlatPlat;
		MoveL Offs(pZero, 6.876, 2.296, 2.0), v30, z0, tNozzle, \Wobj := wobjFlatPlat;
		MoveL Offs(pZero, 6.419, 3.369, 2.0), v30, z0, tNozzle, \Wobj := wobjFlatPlat;
		MoveL Offs(pZero, 5.795, 4.355, 2.0), v30, z0, tNozzle, \Wobj := wobjFlatPlat;
		MoveL Offs(pZero, 5.022, 5.228, 2.0), v30, z0, tNozzle, \Wobj := wobjFlatPlat;
		MoveL Offs(pZero, 4.118, 5.966, 2.0), v30, z0, tNozzle, \Wobj := wobjFlatPlat;
		MoveL Offs(pZero, 3.108, 6.549, 2.0), v30, z0, tNozzle, \Wobj := wobjFlatPlat;
		MoveL Offs(pZero, 2.017, 6.963, 2.0), v30, z0, tNozzle, \Wobj := wobjFlatPlat;
		MoveL Offs(pZero, 0.874, 7.196, 2.0), v30, z0, tNozzle, \Wobj := wobjFlatPlat;
		MoveL Offs(pZero, -0.292, 7.243, 2.0), v30, z0, tNozzle, \Wobj := wobjFlatPlat;
		MoveL Offs(pZero, -1.45, 7.103, 2.0), v30, z0, tNozzle, \Wobj := wobjFlatPlat;
		MoveL Offs(pZero, -2.571, 6.778, 2.0), v30, z0, tNozzle, \Wobj := wobjFlatPlat;
		MoveL Offs(pZero, -3.625, 6.278, 2.0), v30, z0, tNozzle, \Wobj := wobjFlatPlat;
		MoveL Offs(pZero, -4.585, 5.615, 2.0), v30, z0, tNozzle, \Wobj := wobjFlatPlat;
		MoveL Offs(pZero, -5.426, 4.807, 2.0), v30, z0, tNozzle, \Wobj := wobjFlatPlat;
		MoveL Offs(pZero, -6.127, 3.874, 2.0), v30, z0, tNozzle, \Wobj := wobjFlatPlat;
		MoveL Offs(pZero, -6.669, 2.841, 2.0), v30, z0, tNozzle, \Wobj := wobjFlatPlat;
		MoveL Offs(pZero, -7.039, 1.735, 2.0), v30, z0, tNozzle, \Wobj := wobjFlatPlat;
		WaitRob \InPos;
		SetDO DO5_Program_Feed, 0;
		MoveL Offs(pZero, -5.989, 3.062, 2.0), v100, z0, tNozzle, \Wobj := wobjFlatPlat;
		WaitRob \InPos;
		SetDO DO5_Program_Feed, 1;
		MoveL Offs(pZero, -5.989, -3.062, 2.0), v30, z0, tNozzle, \Wobj := wobjFlatPlat;
		WaitRob \InPos;
		SetDO DO5_Program_Feed, 0;
		MoveL Offs(pZero, -2.989, -6.026, 2.0), v100, z0, tNozzle, \Wobj := wobjFlatPlat;
		WaitRob \InPos;
		SetDO DO5_Program_Feed, 1;
		MoveL Offs(pZero, -2.989, 6.026, 2.0), v30, z0, tNozzle, \Wobj := wobjFlatPlat;
		WaitRob \InPos;
		SetDO DO5_Program_Feed, 0;
		MoveL Offs(pZero, 0.011, 6.731, 2.0), v100, z0, tNozzle, \Wobj := wobjFlatPlat;
		WaitRob \InPos;
		SetDO DO5_Program_Feed, 1;
		MoveL Offs(pZero, 0.011, -6.731, 2.0), v30, z0, tNozzle, \Wobj := wobjFlatPlat;
		WaitRob \InPos;
		SetDO DO5_Program_Feed, 0;
		MoveL Offs(pZero, 3.011, -6.028, 2.0), v100, z0, tNozzle, \Wobj := wobjFlatPlat;
		WaitRob \InPos;
		SetDO DO5_Program_Feed, 1;
		MoveL Offs(pZero, 3.011, 6.028, 2.0), v30, z0, tNozzle, \Wobj := wobjFlatPlat;
		WaitRob \InPos;
		SetDO DO5_Program_Feed, 0;
		MoveL Offs(pZero, 6.011, 3.051, 2.0), v100, z0, tNozzle, \Wobj := wobjFlatPlat;
		WaitRob \InPos;
		SetDO DO5_Program_Feed, 1;
		MoveL Offs(pZero, 6.011, -3.051, 2.0), v30, z0, tNozzle, \Wobj := wobjFlatPlat;
		WaitRob \InPos;
		SetDO DO6_Between_Layer_Retract, 1;
		SetDO DO5_Program_Feed, 0;
		MoveL Offs(pZero, 6.011, -3.051, 7.0), v100, z0, tNozzle, \Wobj := wobjFlatPlat;

		! Layer: 9
		! LayerParams(infillAngleDegrees=-45.0, layerHeight=0.2, infillShiftX=0.0, infillShiftY=0.0, numShells=1, infillOverlap=0.0002)
		! T29
		! M6
		TPWRITE "Layer 9 of 350";
		MoveL Offs(pZero, -5.426, 4.807, 7.2), v100, z0, tNozzle, \Wobj := wobjFlatPlat;
		MoveL Offs(pZero, -5.426, 4.807, 2.2), v30, z0, tNozzle, \Wobj := wobjFlatPlat;
		WaitRob \InPos;
		SetDO DO6_Between_Layer_Retract, 0;
		WaitRob \InPos;
		SetDO DO5_Program_Feed, 1;
		MoveL Offs(pZero, -6.127, 3.874, 2.2), v30, z0, tNozzle, \Wobj := wobjFlatPlat;
		MoveL Offs(pZero, -6.669, 2.841, 2.2), v30, z0, tNozzle, \Wobj := wobjFlatPlat;
		MoveL Offs(pZero, -7.039, 1.735, 2.2), v30, z0, tNozzle, \Wobj := wobjFlatPlat;
		MoveL Offs(pZero, -7.226, 0.583, 2.2), v30, z0, tNozzle, \Wobj := wobjFlatPlat;
		MoveL Offs(pZero, -7.226, -0.583, 2.2), v30, z0, tNozzle, \Wobj := wobjFlatPlat;
		MoveL Offs(pZero, -7.039, -1.735, 2.2), v30, z0, tNozzle, \Wobj := wobjFlatPlat;
		MoveL Offs(pZero, -6.669, -2.841, 2.2), v30, z0, tNozzle, \Wobj := wobjFlatPlat;
		MoveL Offs(pZero, -6.127, -3.874, 2.2), v30, z0, tNozzle, \Wobj := wobjFlatPlat;
		MoveL Offs(pZero, -5.426, -4.807, 2.2), v30, z0, tNozzle, \Wobj := wobjFlatPlat;
		MoveL Offs(pZero, -4.585, -5.615, 2.2), v30, z0, tNozzle, \Wobj := wobjFlatPlat;
		MoveL Offs(pZero, -3.625, -6.278, 2.2), v30, z0, tNozzle, \Wobj := wobjFlatPlat;
		MoveL Offs(pZero, -2.571, -6.778, 2.2), v30, z0, tNozzle, \Wobj := wobjFlatPlat;
		MoveL Offs(pZero, -1.45, -7.103, 2.2), v30, z0, tNozzle, \Wobj := wobjFlatPlat;
		MoveL Offs(pZero, -0.292, -7.243, 2.2), v30, z0, tNozzle, \Wobj := wobjFlatPlat;
		MoveL Offs(pZero, 0.874, -7.196, 2.2), v30, z0, tNozzle, \Wobj := wobjFlatPlat;
		MoveL Offs(pZero, 2.017, -6.963, 2.2), v30, z0, tNozzle, \Wobj := wobjFlatPlat;
		MoveL Offs(pZero, 3.108, -6.549, 2.2), v30, z0, tNozzle, \Wobj := wobjFlatPlat;
		MoveL Offs(pZero, 4.118, -5.966, 2.2), v30, z0, tNozzle, \Wobj := wobjFlatPlat;
		MoveL Offs(pZero, 5.022, -5.228, 2.2), v30, z0, tNozzle, \Wobj := wobjFlatPlat;
		MoveL Offs(pZero, 5.795, -4.355, 2.2), v30, z0, tNozzle, \Wobj := wobjFlatPlat;
		MoveL Offs(pZero, 6.419, -3.369, 2.2), v30, z0, tNozzle, \Wobj := wobjFlatPlat;
		MoveL Offs(pZero, 6.876, -2.296, 2.2), v30, z0, tNozzle, \Wobj := wobjFlatPlat;
		MoveL Offs(pZero, 7.155, -1.163, 2.2), v30, z0, tNozzle, \Wobj := wobjFlatPlat;
		MoveL Offs(pZero, 7.249, -0.0, 2.2), v30, z0, tNozzle, \Wobj := wobjFlatPlat;
		MoveL Offs(pZero, 7.155, 1.163, 2.2), v30, z0, tNozzle, \Wobj := wobjFlatPlat;
		MoveL Offs(pZero, 6.876, 2.296, 2.2), v30, z0, tNozzle, \Wobj := wobjFlatPlat;
		MoveL Offs(pZero, 6.419, 3.369, 2.2), v30, z0, tNozzle, \Wobj := wobjFlatPlat;
		MoveL Offs(pZero, 5.795, 4.355, 2.2), v30, z0, tNozzle, \Wobj := wobjFlatPlat;
		MoveL Offs(pZero, 5.022, 5.228, 2.2), v30, z0, tNozzle, \Wobj := wobjFlatPlat;
		MoveL Offs(pZero, 4.118, 5.966, 2.2), v30, z0, tNozzle, \Wobj := wobjFlatPlat;
		MoveL Offs(pZero, 3.108, 6.549, 2.2), v30, z0, tNozzle, \Wobj := wobjFlatPlat;
		MoveL Offs(pZero, 2.017, 6.963, 2.2), v30, z0, tNozzle, \Wobj := wobjFlatPlat;
		MoveL Offs(pZero, 0.874, 7.196, 2.2), v30, z0, tNozzle, \Wobj := wobjFlatPlat;
		MoveL Offs(pZero, -0.292, 7.243, 2.2), v30, z0, tNozzle, \Wobj := wobjFlatPlat;
		MoveL Offs(pZero, -1.45, 7.103, 2.2), v30, z0, tNozzle, \Wobj := wobjFlatPlat;
		MoveL Offs(pZero, -2.571, 6.778, 2.2), v30, z0, tNozzle, \Wobj := wobjFlatPlat;
		MoveL Offs(pZero, -3.625, 6.278, 2.2), v30, z0, tNozzle, \Wobj := wobjFlatPlat;
		MoveL Offs(pZero, -4.585, 5.615, 2.2), v30, z0, tNozzle, \Wobj := wobjFlatPlat;
		MoveL Offs(pZero, -5.426, 4.807, 2.2), v30, z0, tNozzle, \Wobj := wobjFlatPlat;
		WaitRob \InPos;
		SetDO DO5_Program_Feed, 0;
		MoveL Offs(pZero, -4.751, 4.762, 2.2), v100, z0, tNozzle, \Wobj := wobjFlatPlat;
		WaitRob \InPos;
		SetDO DO5_Program_Feed, 1;
		MoveL Offs(pZero, 4.77, -4.759, 2.2), v30, z0, tNozzle, \Wobj := wobjFlatPlat;
		WaitRob \InPos;
		SetDO DO5_Program_Feed, 0;
		MoveL Offs(pZero, 6.397, -2.144, 2.2), v100, z0, tNozzle, \Wobj := wobjFlatPlat;
		WaitRob \InPos;
		SetDO DO5_Program_Feed, 1;
		MoveL Offs(pZero, -2.131, 6.385, 2.2), v30, z0, tNozzle, \Wobj := wobjFlatPlat;
		WaitRob \InPos;
		SetDO DO5_Program_Feed, 0;
		MoveL Offs(pZero, 2.099, 6.397, 2.2), v100, z0, tNozzle, \Wobj := wobjFlatPlat;
		WaitRob \InPos;
		SetDO DO5_Program_Feed, 1;
		MoveL Offs(pZero, 6.414, 2.082, 2.2), v30, z0, tNozzle, \Wobj := wobjFlatPlat;
		WaitRob \InPos;
		SetDO DO5_Program_Feed, 0;
		MoveL Offs(pZero, 2.147, -6.379, 2.2), v100, z0, tNozzle, \Wobj := wobjFlatPlat;
		WaitRob \InPos;
		SetDO DO5_Program_Feed, 1;
		MoveL Offs(pZero, -6.375, 2.143, 2.2), v30, z0, tNozzle, \Wobj := wobjFlatPlat;
		WaitRob \InPos;
		SetDO DO5_Program_Feed, 0;
		MoveL Offs(pZero, -6.397, -2.077, 2.2), v100, z0, tNozzle, \Wobj := wobjFlatPlat;
		WaitRob \InPos;
		SetDO DO5_Program_Feed, 1;
		MoveL Offs(pZero, -2.072, -6.402, 2.2), v30, z0, tNozzle, \Wobj := wobjFlatPlat;
		WaitRob \InPos;
		SetDO DO6_Between_Layer_Retract, 1;
		SetDO DO5_Program_Feed, 0;
		MoveL Offs(pZero, -2.072, -6.402, 7.2), v100, z0, tNozzle, \Wobj := wobjFlatPlat;

		! Layer: 10
		! LayerParams(infillAngleDegrees=45.0, layerHeight=0.2, infillShiftX=0.0, infillShiftY=0.0, numShells=1, infillOverlap=0.0002)
		! T210
		! M6
		TPWRITE "Layer 10 of 350";
		MoveL Offs(pZero, 3.108, 6.549, 7.4), v100, z0, tNozzle, \Wobj := wobjFlatPlat;
		MoveL Offs(pZero, 3.108, 6.549, 2.4), v30, z0, tNozzle, \Wobj := wobjFlatPlat;
		WaitRob \InPos;
		SetDO DO6_Between_Layer_Retract, 0;
		WaitRob \InPos;
		SetDO DO5_Program_Feed, 1;
		MoveL Offs(pZero, 2.017, 6.963, 2.4), v30, z0, tNozzle, \Wobj := wobjFlatPlat;
		MoveL Offs(pZero, 0.874, 7.196, 2.4), v30, z0, tNozzle, \Wobj := wobjFlatPlat;
		MoveL Offs(pZero, -0.292, 7.243, 2.4), v30, z0, tNozzle, \Wobj := wobjFlatPlat;
		MoveL Offs(pZero, -1.45, 7.103, 2.4), v30, z0, tNozzle, \Wobj := wobjFlatPlat;
		MoveL Offs(pZero, -2.571, 6.778, 2.4), v30, z0, tNozzle, \Wobj := wobjFlatPlat;
		MoveL Offs(pZero, -3.625, 6.278, 2.4), v30, z0, tNozzle, \Wobj := wobjFlatPlat;
		MoveL Offs(pZero, -4.585, 5.615, 2.4), v30, z0, tNozzle, \Wobj := wobjFlatPlat;
		MoveL Offs(pZero, -5.426, 4.807, 2.4), v30, z0, tNozzle, \Wobj := wobjFlatPlat;
		MoveL Offs(pZero, -6.127, 3.874, 2.4), v30, z0, tNozzle, \Wobj := wobjFlatPlat;
		MoveL Offs(pZero, -6.669, 2.841, 2.4), v30, z0, tNozzle, \Wobj := wobjFlatPlat;
		MoveL Offs(pZero, -7.039, 1.735, 2.4), v30, z0, tNozzle, \Wobj := wobjFlatPlat;
		MoveL Offs(pZero, -7.226, 0.583, 2.4), v30, z0, tNozzle, \Wobj := wobjFlatPlat;
		MoveL Offs(pZero, -7.226, -0.583, 2.4), v30, z0, tNozzle, \Wobj := wobjFlatPlat;
		MoveL Offs(pZero, -7.039, -1.735, 2.4), v30, z0, tNozzle, \Wobj := wobjFlatPlat;
		MoveL Offs(pZero, -6.669, -2.841, 2.4), v30, z0, tNozzle, \Wobj := wobjFlatPlat;
		MoveL Offs(pZero, -6.127, -3.874, 2.4), v30, z0, tNozzle, \Wobj := wobjFlatPlat;
		MoveL Offs(pZero, -5.426, -4.807, 2.4), v30, z0, tNozzle, \Wobj := wobjFlatPlat;
		MoveL Offs(pZero, -4.585, -5.615, 2.4), v30, z0, tNozzle, \Wobj := wobjFlatPlat;
		MoveL Offs(pZero, -3.625, -6.278, 2.4), v30, z0, tNozzle, \Wobj := wobjFlatPlat;
		MoveL Offs(pZero, -2.571, -6.778, 2.4), v30, z0, tNozzle, \Wobj := wobjFlatPlat;
		MoveL Offs(pZero, -1.45, -7.103, 2.4), v30, z0, tNozzle, \Wobj := wobjFlatPlat;
		MoveL Offs(pZero, -0.292, -7.243, 2.4), v30, z0, tNozzle, \Wobj := wobjFlatPlat;
		MoveL Offs(pZero, 0.874, -7.196, 2.4), v30, z0, tNozzle, \Wobj := wobjFlatPlat;
		MoveL Offs(pZero, 2.017, -6.963, 2.4), v30, z0, tNozzle, \Wobj := wobjFlatPlat;
		MoveL Offs(pZero, 3.108, -6.549, 2.4), v30, z0, tNozzle, \Wobj := wobjFlatPlat;
		MoveL Offs(pZero, 4.118, -5.966, 2.4), v30, z0, tNozzle, \Wobj := wobjFlatPlat;
		MoveL Offs(pZero, 5.022, -5.228, 2.4), v30, z0, tNozzle, \Wobj := wobjFlatPlat;
		MoveL Offs(pZero, 5.795, -4.355, 2.4), v30, z0, tNozzle, \Wobj := wobjFlatPlat;
		MoveL Offs(pZero, 6.419, -3.369, 2.4), v30, z0, tNozzle, \Wobj := wobjFlatPlat;
		MoveL Offs(pZero, 6.876, -2.296, 2.4), v30, z0, tNozzle, \Wobj := wobjFlatPlat;
		MoveL Offs(pZero, 7.155, -1.163, 2.4), v30, z0, tNozzle, \Wobj := wobjFlatPlat;
		MoveL Offs(pZero, 7.249, -0.0, 2.4), v30, z0, tNozzle, \Wobj := wobjFlatPlat;
		MoveL Offs(pZero, 7.155, 1.163, 2.4), v30, z0, tNozzle, \Wobj := wobjFlatPlat;
		MoveL Offs(pZero, 6.876, 2.296, 2.4), v30, z0, tNozzle, \Wobj := wobjFlatPlat;
		MoveL Offs(pZero, 6.419, 3.369, 2.4), v30, z0, tNozzle, \Wobj := wobjFlatPlat;
		MoveL Offs(pZero, 5.795, 4.355, 2.4), v30, z0, tNozzle, \Wobj := wobjFlatPlat;
		MoveL Offs(pZero, 5.022, 5.228, 2.4), v30, z0, tNozzle, \Wobj := wobjFlatPlat;
		MoveL Offs(pZero, 4.118, 5.966, 2.4), v30, z0, tNozzle, \Wobj := wobjFlatPlat;
		MoveL Offs(pZero, 3.108, 6.549, 2.4), v30, z0, tNozzle, \Wobj := wobjFlatPlat;
		WaitRob \InPos;
		SetDO DO5_Program_Feed, 0;
		MoveL Offs(pZero, 2.147, 6.379, 2.4), v100, z0, tNozzle, \Wobj := wobjFlatPlat;
		WaitRob \InPos;
		SetDO DO5_Program_Feed, 1;
		MoveL Offs(pZero, -6.375, -2.143, 2.4), v30, z0, tNozzle, \Wobj := wobjFlatPlat;
		WaitRob \InPos;
		SetDO DO5_Program_Feed, 0;
		MoveL Offs(pZero, -4.751, -4.762, 2.4), v100, z0, tNozzle, \Wobj := wobjFlatPlat;
		WaitRob \InPos;
		SetDO DO5_Program_Feed, 1;
		MoveL Offs(pZero, 4.77, 4.759, 2.4), v30, z0, tNozzle, \Wobj := wobjFlatPlat;
		WaitRob \InPos;
		SetDO DO5_Program_Feed, 0;
		MoveL Offs(pZero, 6.397, 2.144, 2.4), v100, z0, tNozzle, \Wobj := wobjFlatPlat;
		WaitRob \InPos;
		SetDO DO5_Program_Feed, 1;
		MoveL Offs(pZero, -2.131, -6.385, 2.4), v30, z0, tNozzle, \Wobj := wobjFlatPlat;
		WaitRob \InPos;
		SetDO DO5_Program_Feed, 0;
		MoveL Offs(pZero, 2.099, -6.397, 2.4), v100, z0, tNozzle, \Wobj := wobjFlatPlat;
		WaitRob \InPos;
		SetDO DO5_Program_Feed, 1;
		MoveL Offs(pZero, 6.414, -2.082, 2.4), v30, z0, tNozzle, \Wobj := wobjFlatPlat;
		WaitRob \InPos;
		SetDO DO5_Program_Feed, 0;
		MoveL Offs(pZero, -2.072, 6.402, 2.4), v100, z0, tNozzle, \Wobj := wobjFlatPlat;
		WaitRob \InPos;
		SetDO DO5_Program_Feed, 1;
		MoveL Offs(pZero, -6.397, 2.077, 2.4), v30, z0, tNozzle, \Wobj := wobjFlatPlat;
		WaitRob \InPos;
		SetDO DO6_Between_Layer_Retract, 1;
		SetDO DO5_Program_Feed, 0;
		MoveL Offs(pZero, -6.397, 2.077, 7.4), v100, z0, tNozzle, \Wobj := wobjFlatPlat;

		! Layer: 11
		! LayerParams(infillAngleDegrees=0.0, layerHeight=0.2, infillShiftX=0.0, infillShiftY=0.0, numShells=1, infillOverlap=0.0002)
		! T211
		! M6
		TPWRITE "Layer 11 of 350";
		MoveL Offs(pZero, 6.876, 2.296, 7.6), v100, z0, tNozzle, \Wobj := wobjFlatPlat;
		MoveL Offs(pZero, 6.876, 2.296, 2.6), v30, z0, tNozzle, \Wobj := wobjFlatPlat;
		WaitRob \InPos;
		SetDO DO6_Between_Layer_Retract, 0;
		WaitRob \InPos;
		SetDO DO5_Program_Feed, 1;
		MoveL Offs(pZero, 6.419, 3.369, 2.6), v30, z0, tNozzle, \Wobj := wobjFlatPlat;
		MoveL Offs(pZero, 5.795, 4.355, 2.6), v30, z0, tNozzle, \Wobj := wobjFlatPlat;
		MoveL Offs(pZero, 5.022, 5.228, 2.6), v30, z0, tNozzle, \Wobj := wobjFlatPlat;
		MoveL Offs(pZero, 4.118, 5.966, 2.6), v30, z0, tNozzle, \Wobj := wobjFlatPlat;
		MoveL Offs(pZero, 3.108, 6.549, 2.6), v30, z0, tNozzle, \Wobj := wobjFlatPlat;
		MoveL Offs(pZero, 2.017, 6.963, 2.6), v30, z0, tNozzle, \Wobj := wobjFlatPlat;
		MoveL Offs(pZero, 0.874, 7.196, 2.6), v30, z0, tNozzle, \Wobj := wobjFlatPlat;
		MoveL Offs(pZero, -0.292, 7.243, 2.6), v30, z0, tNozzle, \Wobj := wobjFlatPlat;
		MoveL Offs(pZero, -1.45, 7.103, 2.6), v30, z0, tNozzle, \Wobj := wobjFlatPlat;
		MoveL Offs(pZero, -2.571, 6.778, 2.6), v30, z0, tNozzle, \Wobj := wobjFlatPlat;
		MoveL Offs(pZero, -3.625, 6.278, 2.6), v30, z0, tNozzle, \Wobj := wobjFlatPlat;
		MoveL Offs(pZero, -4.585, 5.615, 2.6), v30, z0, tNozzle, \Wobj := wobjFlatPlat;
		MoveL Offs(pZero, -5.426, 4.807, 2.6), v30, z0, tNozzle, \Wobj := wobjFlatPlat;
		MoveL Offs(pZero, -6.127, 3.874, 2.6), v30, z0, tNozzle, \Wobj := wobjFlatPlat;
		MoveL Offs(pZero, -6.669, 2.841, 2.6), v30, z0, tNozzle, \Wobj := wobjFlatPlat;
		MoveL Offs(pZero, -7.039, 1.735, 2.6), v30, z0, tNozzle, \Wobj := wobjFlatPlat;
		MoveL Offs(pZero, -7.226, 0.583, 2.6), v30, z0, tNozzle, \Wobj := wobjFlatPlat;
		MoveL Offs(pZero, -7.226, -0.583, 2.6), v30, z0, tNozzle, \Wobj := wobjFlatPlat;
		MoveL Offs(pZero, -7.039, -1.735, 2.6), v30, z0, tNozzle, \Wobj := wobjFlatPlat;
		MoveL Offs(pZero, -6.669, -2.841, 2.6), v30, z0, tNozzle, \Wobj := wobjFlatPlat;
		MoveL Offs(pZero, -6.127, -3.874, 2.6), v30, z0, tNozzle, \Wobj := wobjFlatPlat;
		MoveL Offs(pZero, -5.426, -4.807, 2.6), v30, z0, tNozzle, \Wobj := wobjFlatPlat;
		MoveL Offs(pZero, -4.585, -5.615, 2.6), v30, z0, tNozzle, \Wobj := wobjFlatPlat;
		MoveL Offs(pZero, -3.625, -6.278, 2.6), v30, z0, tNozzle, \Wobj := wobjFlatPlat;
		MoveL Offs(pZero, -2.571, -6.778, 2.6), v30, z0, tNozzle, \Wobj := wobjFlatPlat;
		MoveL Offs(pZero, -1.45, -7.103, 2.6), v30, z0, tNozzle, \Wobj := wobjFlatPlat;
		MoveL Offs(pZero, -0.292, -7.243, 2.6), v30, z0, tNozzle, \Wobj := wobjFlatPlat;
		MoveL Offs(pZero, 0.874, -7.196, 2.6), v30, z0, tNozzle, \Wobj := wobjFlatPlat;
		MoveL Offs(pZero, 2.017, -6.963, 2.6), v30, z0, tNozzle, \Wobj := wobjFlatPlat;
		MoveL Offs(pZero, 3.108, -6.549, 2.6), v30, z0, tNozzle, \Wobj := wobjFlatPlat;
		MoveL Offs(pZero, 4.118, -5.966, 2.6), v30, z0, tNozzle, \Wobj := wobjFlatPlat;
		MoveL Offs(pZero, 5.022, -5.228, 2.6), v30, z0, tNozzle, \Wobj := wobjFlatPlat;
		MoveL Offs(pZero, 5.795, -4.355, 2.6), v30, z0, tNozzle, \Wobj := wobjFlatPlat;
		MoveL Offs(pZero, 6.419, -3.369, 2.6), v30, z0, tNozzle, \Wobj := wobjFlatPlat;
		MoveL Offs(pZero, 6.876, -2.296, 2.6), v30, z0, tNozzle, \Wobj := wobjFlatPlat;
		MoveL Offs(pZero, 7.155, -1.163, 2.6), v30, z0, tNozzle, \Wobj := wobjFlatPlat;
		MoveL Offs(pZero, 7.249, -0.0, 2.6), v30, z0, tNozzle, \Wobj := wobjFlatPlat;
		MoveL Offs(pZero, 7.155, 1.163, 2.6), v30, z0, tNozzle, \Wobj := wobjFlatPlat;
		MoveL Offs(pZero, 6.876, 2.296, 2.6), v30, z0, tNozzle, \Wobj := wobjFlatPlat;
		WaitRob \InPos;
		SetDO DO5_Program_Feed, 0;
		MoveL Offs(pZero, 6.033, 3.0, 2.6), v100, z0, tNozzle, \Wobj := wobjFlatPlat;
		WaitRob \InPos;
		SetDO DO5_Program_Feed, 1;
		MoveL Offs(pZero, -6.021, 3.0, 2.6), v30, z0, tNozzle, \Wobj := wobjFlatPlat;
		WaitRob \InPos;
		SetDO DO5_Program_Feed, 0;
		MoveL Offs(pZero, -6.726, 0.0, 2.6), v100, z0, tNozzle, \Wobj := wobjFlatPlat;
		WaitRob \InPos;
		SetDO DO5_Program_Feed, 1;
		MoveL Offs(pZero, 6.748, 0.0, 2.6), v30, z0, tNozzle, \Wobj := wobjFlatPlat;
		WaitRob \InPos;
		SetDO DO5_Program_Feed, 0;
		MoveL Offs(pZero, 6.033, -3.0, 2.6), v100, z0, tNozzle, \Wobj := wobjFlatPlat;
		WaitRob \InPos;
		SetDO DO5_Program_Feed, 1;
		MoveL Offs(pZero, -6.021, -3.0, 2.6), v30, z0, tNozzle, \Wobj := wobjFlatPlat;
		WaitRob \InPos;
		SetDO DO5_Program_Feed, 0;
		MoveL Offs(pZero, -3.045, -6.0, 2.6), v100, z0, tNozzle, \Wobj := wobjFlatPlat;
		WaitRob \InPos;
		SetDO DO5_Program_Feed, 1;
		MoveL Offs(pZero, 3.059, -6.0, 2.6), v30, z0, tNozzle, \Wobj := wobjFlatPlat;
		WaitRob \InPos;
		SetDO DO5_Program_Feed, 0;
		MoveL Offs(pZero, 3.059, 6.0, 2.6), v100, z0, tNozzle, \Wobj := wobjFlatPlat;
		WaitRob \InPos;
		SetDO DO5_Program_Feed, 1;
		MoveL Offs(pZero, -3.045, 6.0, 2.6), v30, z0, tNozzle, \Wobj := wobjFlatPlat;
		WaitRob \InPos;
		SetDO DO6_Between_Layer_Retract, 1;
		SetDO DO5_Program_Feed, 0;
		MoveL Offs(pZero, -3.045, 6.0, 7.6), v100, z0, tNozzle, \Wobj := wobjFlatPlat;

		! Layer: 12
		! LayerParams(infillAngleDegrees=90.0, layerHeight=0.2, infillShiftX=0.0, infillShiftY=0.0, numShells=1, infillOverlap=0.0002)
		! T212
		! M6
		TPWRITE "Layer 12 of 350";
		MoveL Offs(pZero, 5.795, -4.355, 7.8), v100, z0, tNozzle, \Wobj := wobjFlatPlat;
		MoveL Offs(pZero, 5.795, -4.355, 2.8), v30, z0, tNozzle, \Wobj := wobjFlatPlat;
		WaitRob \InPos;
		SetDO DO6_Between_Layer_Retract, 0;
		WaitRob \InPos;
		SetDO DO5_Program_Feed, 1;
		MoveL Offs(pZero, 6.419, -3.369, 2.8), v30, z0, tNozzle, \Wobj := wobjFlatPlat;
		MoveL Offs(pZero, 6.876, -2.296, 2.8), v30, z0, tNozzle, \Wobj := wobjFlatPlat;
		MoveL Offs(pZero, 7.155, -1.163, 2.8), v30, z0, tNozzle, \Wobj := wobjFlatPlat;
		MoveL Offs(pZero, 7.249, -0.0, 2.8), v30, z0, tNozzle, \Wobj := wobjFlatPlat;
		MoveL Offs(pZero, 7.155, 1.163, 2.8), v30, z0, tNozzle, \Wobj := wobjFlatPlat;
		MoveL Offs(pZero, 6.876, 2.296, 2.8), v30, z0, tNozzle, \Wobj := wobjFlatPlat;
		MoveL Offs(pZero, 6.419, 3.369, 2.8), v30, z0, tNozzle, \Wobj := wobjFlatPlat;
		MoveL Offs(pZero, 5.795, 4.355, 2.8), v30, z0, tNozzle, \Wobj := wobjFlatPlat;
		MoveL Offs(pZero, 5.022, 5.228, 2.8), v30, z0, tNozzle, \Wobj := wobjFlatPlat;
		MoveL Offs(pZero, 4.118, 5.966, 2.8), v30, z0, tNozzle, \Wobj := wobjFlatPlat;
		MoveL Offs(pZero, 3.108, 6.549, 2.8), v30, z0, tNozzle, \Wobj := wobjFlatPlat;
		MoveL Offs(pZero, 2.017, 6.963, 2.8), v30, z0, tNozzle, \Wobj := wobjFlatPlat;
		MoveL Offs(pZero, 0.874, 7.196, 2.8), v30, z0, tNozzle, \Wobj := wobjFlatPlat;
		MoveL Offs(pZero, -0.292, 7.243, 2.8), v30, z0, tNozzle, \Wobj := wobjFlatPlat;
		MoveL Offs(pZero, -1.45, 7.103, 2.8), v30, z0, tNozzle, \Wobj := wobjFlatPlat;
		MoveL Offs(pZero, -2.571, 6.778, 2.8), v30, z0, tNozzle, \Wobj := wobjFlatPlat;
		MoveL Offs(pZero, -3.625, 6.278, 2.8), v30, z0, tNozzle, \Wobj := wobjFlatPlat;
		MoveL Offs(pZero, -4.585, 5.615, 2.8), v30, z0, tNozzle, \Wobj := wobjFlatPlat;
		MoveL Offs(pZero, -5.426, 4.807, 2.8), v30, z0, tNozzle, \Wobj := wobjFlatPlat;
		MoveL Offs(pZero, -6.127, 3.874, 2.8), v30, z0, tNozzle, \Wobj := wobjFlatPlat;
		MoveL Offs(pZero, -6.669, 2.841, 2.8), v30, z0, tNozzle, \Wobj := wobjFlatPlat;
		MoveL Offs(pZero, -7.039, 1.735, 2.8), v30, z0, tNozzle, \Wobj := wobjFlatPlat;
		MoveL Offs(pZero, -7.226, 0.583, 2.8), v30, z0, tNozzle, \Wobj := wobjFlatPlat;
		MoveL Offs(pZero, -7.226, -0.583, 2.8), v30, z0, tNozzle, \Wobj := wobjFlatPlat;
		MoveL Offs(pZero, -7.039, -1.735, 2.8), v30, z0, tNozzle, \Wobj := wobjFlatPlat;
		MoveL Offs(pZero, -6.669, -2.841, 2.8), v30, z0, tNozzle, \Wobj := wobjFlatPlat;
		MoveL Offs(pZero, -6.127, -3.874, 2.8), v30, z0, tNozzle, \Wobj := wobjFlatPlat;
		MoveL Offs(pZero, -5.426, -4.807, 2.8), v30, z0, tNozzle, \Wobj := wobjFlatPlat;
		MoveL Offs(pZero, -4.585, -5.615, 2.8), v30, z0, tNozzle, \Wobj := wobjFlatPlat;
		MoveL Offs(pZero, -3.625, -6.278, 2.8), v30, z0, tNozzle, \Wobj := wobjFlatPlat;
		MoveL Offs(pZero, -2.571, -6.778, 2.8), v30, z0, tNozzle, \Wobj := wobjFlatPlat;
		MoveL Offs(pZero, -1.45, -7.103, 2.8), v30, z0, tNozzle, \Wobj := wobjFlatPlat;
		MoveL Offs(pZero, -0.292, -7.243, 2.8), v30, z0, tNozzle, \Wobj := wobjFlatPlat;
		MoveL Offs(pZero, 0.874, -7.196, 2.8), v30, z0, tNozzle, \Wobj := wobjFlatPlat;
		MoveL Offs(pZero, 2.017, -6.963, 2.8), v30, z0, tNozzle, \Wobj := wobjFlatPlat;
		MoveL Offs(pZero, 3.108, -6.549, 2.8), v30, z0, tNozzle, \Wobj := wobjFlatPlat;
		MoveL Offs(pZero, 4.118, -5.966, 2.8), v30, z0, tNozzle, \Wobj := wobjFlatPlat;
		MoveL Offs(pZero, 5.022, -5.228, 2.8), v30, z0, tNozzle, \Wobj := wobjFlatPlat;
		MoveL Offs(pZero, 5.795, -4.355, 2.8), v30, z0, tNozzle, \Wobj := wobjFlatPlat;
		WaitRob \InPos;
		SetDO DO5_Program_Feed, 0;
		MoveL Offs(pZero, 6.011, -3.051, 2.8), v100, z0, tNozzle, \Wobj := wobjFlatPlat;
		WaitRob \InPos;
		SetDO DO5_Program_Feed, 1;
		MoveL Offs(pZero, 6.011, 3.051, 2.8), v30, z0, tNozzle, \Wobj := wobjFlatPlat;
		WaitRob \InPos;
		SetDO DO5_Program_Feed, 0;
		MoveL Offs(pZero, 3.011, 6.028, 2.8), v100, z0, tNozzle, \Wobj := wobjFlatPlat;
		WaitRob \InPos;
		SetDO DO5_Program_Feed, 1;
		MoveL Offs(pZero, 3.011, -6.028, 2.8), v30, z0, tNozzle, \Wobj := wobjFlatPlat;
		WaitRob \InPos;
		SetDO DO5_Program_Feed, 0;
		MoveL Offs(pZero, 0.011, -6.731, 2.8), v100, z0, tNozzle, \Wobj := wobjFlatPlat;
		WaitRob \InPos;
		SetDO DO5_Program_Feed, 1;
		MoveL Offs(pZero, 0.011, 6.731, 2.8), v30, z0, tNozzle, \Wobj := wobjFlatPlat;
		WaitRob \InPos;
		SetDO DO5_Program_Feed, 0;
		MoveL Offs(pZero, -2.989, 6.026, 2.8), v100, z0, tNozzle, \Wobj := wobjFlatPlat;
		WaitRob \InPos;
		SetDO DO5_Program_Feed, 1;
		MoveL Offs(pZero, -2.989, -6.026, 2.8), v30, z0, tNozzle, \Wobj := wobjFlatPlat;
		WaitRob \InPos;
		SetDO DO5_Program_Feed, 0;
		MoveL Offs(pZero, -5.989, -3.062, 2.8), v100, z0, tNozzle, \Wobj := wobjFlatPlat;
		WaitRob \InPos;
		SetDO DO5_Program_Feed, 1;
		MoveL Offs(pZero, -5.989, 3.062, 2.8), v30, z0, tNozzle, \Wobj := wobjFlatPlat;
		WaitRob \InPos;
		SetDO DO6_Between_Layer_Retract, 1;
		SetDO DO5_Program_Feed, 0;
		MoveL Offs(pZero, -5.989, 3.062, 7.8), v100, z0, tNozzle, \Wobj := wobjFlatPlat;

		! Layer: 13
		! LayerParams(infillAngleDegrees=-45.0, layerHeight=0.2, infillShiftX=0.0, infillShiftY=0.0, numShells=1, infillOverlap=0.0002)
		! T213
		! M6
		TPWRITE "Layer 13 of 350";
		MoveL Offs(pZero, -4.585, -5.615, 8.0), v100, z0, tNozzle, \Wobj := wobjFlatPlat;
		MoveL Offs(pZero, -4.585, -5.615, 3.0), v30, z0, tNozzle, \Wobj := wobjFlatPlat;
		WaitRob \InPos;
		SetDO DO6_Between_Layer_Retract, 0;
		WaitRob \InPos;
		SetDO DO5_Program_Feed, 1;
		MoveL Offs(pZero, -3.625, -6.278, 3.0), v30, z0, tNozzle, \Wobj := wobjFlatPlat;
		MoveL Offs(pZero, -2.571, -6.778, 3.0), v30, z0, tNozzle, \Wobj := wobjFlatPlat;
		MoveL Offs(pZero, -1.45, -7.103, 3.0), v30, z0, tNozzle, \Wobj := wobjFlatPlat;
		MoveL Offs(pZero, -0.292, -7.243, 3.0), v30, z0, tNozzle, \Wobj := wobjFlatPlat;
		MoveL Offs(pZero, 0.874, -7.196, 3.0), v30, z0, tNozzle, \Wobj := wobjFlatPlat;
		MoveL Offs(pZero, 2.017, -6.963, 3.0), v30, z0, tNozzle, \Wobj := wobjFlatPlat;
		MoveL Offs(pZero, 3.108, -6.549, 3.0), v30, z0, tNozzle, \Wobj := wobjFlatPlat;
		MoveL Offs(pZero, 4.118, -5.966, 3.0), v30, z0, tNozzle, \Wobj := wobjFlatPlat;
		MoveL Offs(pZero, 5.022, -5.228, 3.0), v30, z0, tNozzle, \Wobj := wobjFlatPlat;
		MoveL Offs(pZero, 5.795, -4.355, 3.0), v30, z0, tNozzle, \Wobj := wobjFlatPlat;
		MoveL Offs(pZero, 6.419, -3.369, 3.0), v30, z0, tNozzle, \Wobj := wobjFlatPlat;
		MoveL Offs(pZero, 6.876, -2.296, 3.0), v30, z0, tNozzle, \Wobj := wobjFlatPlat;
		MoveL Offs(pZero, 7.155, -1.163, 3.0), v30, z0, tNozzle, \Wobj := wobjFlatPlat;
		MoveL Offs(pZero, 7.249, -0.0, 3.0), v30, z0, tNozzle, \Wobj := wobjFlatPlat;
		MoveL Offs(pZero, 7.155, 1.163, 3.0), v30, z0, tNozzle, \Wobj := wobjFlatPlat;
		MoveL Offs(pZero, 6.876, 2.296, 3.0), v30, z0, tNozzle, \Wobj := wobjFlatPlat;
		MoveL Offs(pZero, 6.419, 3.369, 3.0), v30, z0, tNozzle, \Wobj := wobjFlatPlat;
		MoveL Offs(pZero, 5.795, 4.355, 3.0), v30, z0, tNozzle, \Wobj := wobjFlatPlat;
		MoveL Offs(pZero, 5.022, 5.228, 3.0), v30, z0, tNozzle, \Wobj := wobjFlatPlat;
		MoveL Offs(pZero, 4.118, 5.966, 3.0), v30, z0, tNozzle, \Wobj := wobjFlatPlat;
		MoveL Offs(pZero, 3.108, 6.549, 3.0), v30, z0, tNozzle, \Wobj := wobjFlatPlat;
		MoveL Offs(pZero, 2.017, 6.963, 3.0), v30, z0, tNozzle, \Wobj := wobjFlatPlat;
		MoveL Offs(pZero, 0.874, 7.196, 3.0), v30, z0, tNozzle, \Wobj := wobjFlatPlat;
		MoveL Offs(pZero, -0.292, 7.243, 3.0), v30, z0, tNozzle, \Wobj := wobjFlatPlat;
		MoveL Offs(pZero, -1.45, 7.103, 3.0), v30, z0, tNozzle, \Wobj := wobjFlatPlat;
		MoveL Offs(pZero, -2.571, 6.778, 3.0), v30, z0, tNozzle, \Wobj := wobjFlatPlat;
		MoveL Offs(pZero, -3.625, 6.278, 3.0), v30, z0, tNozzle, \Wobj := wobjFlatPlat;
		MoveL Offs(pZero, -4.585, 5.615, 3.0), v30, z0, tNozzle, \Wobj := wobjFlatPlat;
		MoveL Offs(pZero, -5.426, 4.807, 3.0), v30, z0, tNozzle, \Wobj := wobjFlatPlat;
		MoveL Offs(pZero, -6.127, 3.874, 3.0), v30, z0, tNozzle, \Wobj := wobjFlatPlat;
		MoveL Offs(pZero, -6.669, 2.841, 3.0), v30, z0, tNozzle, \Wobj := wobjFlatPlat;
		MoveL Offs(pZero, -7.039, 1.735, 3.0), v30, z0, tNozzle, \Wobj := wobjFlatPlat;
		MoveL Offs(pZero, -7.226, 0.583, 3.0), v30, z0, tNozzle, \Wobj := wobjFlatPlat;
		MoveL Offs(pZero, -7.226, -0.583, 3.0), v30, z0, tNozzle, \Wobj := wobjFlatPlat;
		MoveL Offs(pZero, -7.039, -1.735, 3.0), v30, z0, tNozzle, \Wobj := wobjFlatPlat;
		MoveL Offs(pZero, -6.669, -2.841, 3.0), v30, z0, tNozzle, \Wobj := wobjFlatPlat;
		MoveL Offs(pZero, -6.127, -3.874, 3.0), v30, z0, tNozzle, \Wobj := wobjFlatPlat;
		MoveL Offs(pZero, -5.426, -4.807, 3.0), v30, z0, tNozzle, \Wobj := wobjFlatPlat;
		MoveL Offs(pZero, -4.585, -5.615, 3.0), v30, z0, tNozzle, \Wobj := wobjFlatPlat;
		WaitRob \InPos;
		SetDO DO5_Program_Feed, 0;
		MoveL Offs(pZero, -2.072, -6.402, 3.0), v100, z0, tNozzle, \Wobj := wobjFlatPlat;
		WaitRob \InPos;
		SetDO DO5_Program_Feed, 1;
		MoveL Offs(pZero, -6.397, -2.077, 3.0), v30, z0, tNozzle, \Wobj := wobjFlatPlat;
		WaitRob \InPos;
		SetDO DO5_Program_Feed, 0;
		MoveL Offs(pZero, -6.375, 2.143, 3.0), v100, z0, tNozzle, \Wobj := wobjFlatPlat;
		WaitRob \InPos;
		SetDO DO5_Program_Feed, 1;
		MoveL Offs(pZero, 2.147, -6.379, 3.0), v30, z0, tNozzle, \Wobj := wobjFlatPlat;
		WaitRob \InPos;
		SetDO DO5_Program_Feed, 0;
		MoveL Offs(pZero, 4.77, -4.759, 3.0), v100, z0, tNozzle, \Wobj := wobjFlatPlat;
		WaitRob \InPos;
		SetDO DO5_Program_Feed, 1;
		MoveL Offs(pZero, -4.751, 4.762, 3.0), v30, z0, tNozzle, \Wobj := wobjFlatPlat;
		WaitRob \InPos;
		SetDO DO5_Program_Feed, 0;
		MoveL Offs(pZero, -2.131, 6.385, 3.0), v100, z0, tNozzle, \Wobj := wobjFlatPlat;
		WaitRob \InPos;
		SetDO DO5_Program_Feed, 1;
		MoveL Offs(pZero, 6.397, -2.144, 3.0), v30, z0, tNozzle, \Wobj := wobjFlatPlat;
		WaitRob \InPos;
		SetDO DO5_Program_Feed, 0;
		MoveL Offs(pZero, 6.414, 2.082, 3.0), v100, z0, tNozzle, \Wobj := wobjFlatPlat;
		WaitRob \InPos;
		SetDO DO5_Program_Feed, 1;
		MoveL Offs(pZero, 2.099, 6.397, 3.0), v30, z0, tNozzle, \Wobj := wobjFlatPlat;
		WaitRob \InPos;
		SetDO DO6_Between_Layer_Retract, 1;
		SetDO DO5_Program_Feed, 0;
		MoveL Offs(pZero, 2.099, 6.397, 8.0), v100, z0, tNozzle, \Wobj := wobjFlatPlat;

		! Layer: 14
		! LayerParams(infillAngleDegrees=45.0, layerHeight=0.2, infillShiftX=0.0, infillShiftY=0.0, numShells=1, infillOverlap=0.0002)
		! T214
		! M6
		TPWRITE "Layer 14 of 350";
		MoveL Offs(pZero, -1.45, -7.103, 8.2), v100, z0, tNozzle, \Wobj := wobjFlatPlat;
		MoveL Offs(pZero, -1.45, -7.103, 3.2), v30, z0, tNozzle, \Wobj := wobjFlatPlat;
		WaitRob \InPos;
		SetDO DO6_Between_Layer_Retract, 0;
		WaitRob \InPos;
		SetDO DO5_Program_Feed, 1;
		MoveL Offs(pZero, -0.292, -7.243, 3.2), v30, z0, tNozzle, \Wobj := wobjFlatPlat;
		MoveL Offs(pZero, 0.874, -7.196, 3.2), v30, z0, tNozzle, \Wobj := wobjFlatPlat;
		MoveL Offs(pZero, 2.017, -6.963, 3.2), v30, z0, tNozzle, \Wobj := wobjFlatPlat;
		MoveL Offs(pZero, 3.108, -6.549, 3.2), v30, z0, tNozzle, \Wobj := wobjFlatPlat;
		MoveL Offs(pZero, 4.118, -5.966, 3.2), v30, z0, tNozzle, \Wobj := wobjFlatPlat;
		MoveL Offs(pZero, 5.022, -5.228, 3.2), v30, z0, tNozzle, \Wobj := wobjFlatPlat;
		MoveL Offs(pZero, 5.795, -4.355, 3.2), v30, z0, tNozzle, \Wobj := wobjFlatPlat;
		MoveL Offs(pZero, 6.419, -3.369, 3.2), v30, z0, tNozzle, \Wobj := wobjFlatPlat;
		MoveL Offs(pZero, 6.876, -2.296, 3.2), v30, z0, tNozzle, \Wobj := wobjFlatPlat;
		MoveL Offs(pZero, 7.155, -1.163, 3.2), v30, z0, tNozzle, \Wobj := wobjFlatPlat;
		MoveL Offs(pZero, 7.249, -0.0, 3.2), v30, z0, tNozzle, \Wobj := wobjFlatPlat;
		MoveL Offs(pZero, 7.155, 1.163, 3.2), v30, z0, tNozzle, \Wobj := wobjFlatPlat;
		MoveL Offs(pZero, 6.876, 2.296, 3.2), v30, z0, tNozzle, \Wobj := wobjFlatPlat;
		MoveL Offs(pZero, 6.419, 3.369, 3.2), v30, z0, tNozzle, \Wobj := wobjFlatPlat;
		MoveL Offs(pZero, 5.795, 4.355, 3.2), v30, z0, tNozzle, \Wobj := wobjFlatPlat;
		MoveL Offs(pZero, 5.022, 5.228, 3.2), v30, z0, tNozzle, \Wobj := wobjFlatPlat;
		MoveL Offs(pZero, 4.118, 5.966, 3.2), v30, z0, tNozzle, \Wobj := wobjFlatPlat;
		MoveL Offs(pZero, 3.108, 6.549, 3.2), v30, z0, tNozzle, \Wobj := wobjFlatPlat;
		MoveL Offs(pZero, 2.017, 6.963, 3.2), v30, z0, tNozzle, \Wobj := wobjFlatPlat;
		MoveL Offs(pZero, 0.874, 7.196, 3.2), v30, z0, tNozzle, \Wobj := wobjFlatPlat;
		MoveL Offs(pZero, -0.292, 7.243, 3.2), v30, z0, tNozzle, \Wobj := wobjFlatPlat;
		MoveL Offs(pZero, -1.45, 7.103, 3.2), v30, z0, tNozzle, \Wobj := wobjFlatPlat;
		MoveL Offs(pZero, -2.571, 6.778, 3.2), v30, z0, tNozzle, \Wobj := wobjFlatPlat;
		MoveL Offs(pZero, -3.625, 6.278, 3.2), v30, z0, tNozzle, \Wobj := wobjFlatPlat;
		MoveL Offs(pZero, -4.585, 5.615, 3.2), v30, z0, tNozzle, \Wobj := wobjFlatPlat;
		MoveL Offs(pZero, -5.426, 4.807, 3.2), v30, z0, tNozzle, \Wobj := wobjFlatPlat;
		MoveL Offs(pZero, -6.127, 3.874, 3.2), v30, z0, tNozzle, \Wobj := wobjFlatPlat;
		MoveL Offs(pZero, -6.669, 2.841, 3.2), v30, z0, tNozzle, \Wobj := wobjFlatPlat;
		MoveL Offs(pZero, -7.039, 1.735, 3.2), v30, z0, tNozzle, \Wobj := wobjFlatPlat;
		MoveL Offs(pZero, -7.226, 0.583, 3.2), v30, z0, tNozzle, \Wobj := wobjFlatPlat;
		MoveL Offs(pZero, -7.226, -0.583, 3.2), v30, z0, tNozzle, \Wobj := wobjFlatPlat;
		MoveL Offs(pZero, -7.039, -1.735, 3.2), v30, z0, tNozzle, \Wobj := wobjFlatPlat;
		MoveL Offs(pZero, -6.669, -2.841, 3.2), v30, z0, tNozzle, \Wobj := wobjFlatPlat;
		MoveL Offs(pZero, -6.127, -3.874, 3.2), v30, z0, tNozzle, \Wobj := wobjFlatPlat;
		MoveL Offs(pZero, -5.426, -4.807, 3.2), v30, z0, tNozzle, \Wobj := wobjFlatPlat;
		MoveL Offs(pZero, -4.585, -5.615, 3.2), v30, z0, tNozzle, \Wobj := wobjFlatPlat;
		MoveL Offs(pZero, -3.625, -6.278, 3.2), v30, z0, tNozzle, \Wobj := wobjFlatPlat;
		MoveL Offs(pZero, -2.571, -6.778, 3.2), v30, z0, tNozzle, \Wobj := wobjFlatPlat;
		MoveL Offs(pZero, -1.45, -7.103, 3.2), v30, z0, tNozzle, \Wobj := wobjFlatPlat;
		WaitRob \InPos;
		SetDO DO5_Program_Feed, 0;
		MoveL Offs(pZero, -2.131, -6.385, 3.2), v100, z0, tNozzle, \Wobj := wobjFlatPlat;
		WaitRob \InPos;
		SetDO DO5_Program_Feed, 1;
		MoveL Offs(pZero, 6.397, 2.144, 3.2), v30, z0, tNozzle, \Wobj := wobjFlatPlat;
		WaitRob \InPos;
		SetDO DO5_Program_Feed, 0;
		MoveL Offs(pZero, 4.77, 4.759, 3.2), v100, z0, tNozzle, \Wobj := wobjFlatPlat;
		WaitRob \InPos;
		SetDO DO5_Program_Feed, 1;
		MoveL Offs(pZero, -4.751, -4.762, 3.2), v30, z0, tNozzle, \Wobj := wobjFlatPlat;
		WaitRob \InPos;
		SetDO DO5_Program_Feed, 0;
		MoveL Offs(pZero, -6.375, -2.143, 3.2), v100, z0, tNozzle, \Wobj := wobjFlatPlat;
		WaitRob \InPos;
		SetDO DO5_Program_Feed, 1;
		MoveL Offs(pZero, 2.147, 6.379, 3.2), v30, z0, tNozzle, \Wobj := wobjFlatPlat;
		WaitRob \InPos;
		SetDO DO5_Program_Feed, 0;
		MoveL Offs(pZero, -2.072, 6.402, 3.2), v100, z0, tNozzle, \Wobj := wobjFlatPlat;
		WaitRob \InPos;
		SetDO DO5_Program_Feed, 1;
		MoveL Offs(pZero, -6.397, 2.077, 3.2), v30, z0, tNozzle, \Wobj := wobjFlatPlat;
		WaitRob \InPos;
		SetDO DO5_Program_Feed, 0;
		MoveL Offs(pZero, 2.099, -6.397, 3.2), v100, z0, tNozzle, \Wobj := wobjFlatPlat;
		WaitRob \InPos;
		SetDO DO5_Program_Feed, 1;
		MoveL Offs(pZero, 6.414, -2.082, 3.2), v30, z0, tNozzle, \Wobj := wobjFlatPlat;
		WaitRob \InPos;
		SetDO DO6_Between_Layer_Retract, 1;
		SetDO DO5_Program_Feed, 0;
		MoveL Offs(pZero, 6.414, -2.082, 8.2), v100, z0, tNozzle, \Wobj := wobjFlatPlat;

		! Layer: 15
		! LayerParams(infillAngleDegrees=0.0, layerHeight=0.2, infillShiftX=0.0, infillShiftY=0.0, numShells=1, infillOverlap=0.0002)
		! T215
		! M6
		TPWRITE "Layer 15 of 350";
		MoveL Offs(pZero, 5.022, -5.228, 8.4), v100, z0, tNozzle, \Wobj := wobjFlatPlat;
		MoveL Offs(pZero, 5.022, -5.228, 3.4), v30, z0, tNozzle, \Wobj := wobjFlatPlat;
		WaitRob \InPos;
		SetDO DO6_Between_Layer_Retract, 0;
		WaitRob \InPos;
		SetDO DO5_Program_Feed, 1;
		MoveL Offs(pZero, 5.795, -4.355, 3.4), v30, z0, tNozzle, \Wobj := wobjFlatPlat;
		MoveL Offs(pZero, 6.419, -3.369, 3.4), v30, z0, tNozzle, \Wobj := wobjFlatPlat;
		MoveL Offs(pZero, 6.876, -2.296, 3.4), v30, z0, tNozzle, \Wobj := wobjFlatPlat;
		MoveL Offs(pZero, 7.155, -1.163, 3.4), v30, z0, tNozzle, \Wobj := wobjFlatPlat;
		MoveL Offs(pZero, 7.249, -0.0, 3.4), v30, z0, tNozzle, \Wobj := wobjFlatPlat;
		MoveL Offs(pZero, 7.155, 1.163, 3.4), v30, z0, tNozzle, \Wobj := wobjFlatPlat;
		MoveL Offs(pZero, 6.876, 2.296, 3.4), v30, z0, tNozzle, \Wobj := wobjFlatPlat;
		MoveL Offs(pZero, 6.419, 3.369, 3.4), v30, z0, tNozzle, \Wobj := wobjFlatPlat;
		MoveL Offs(pZero, 5.795, 4.355, 3.4), v30, z0, tNozzle, \Wobj := wobjFlatPlat;
		MoveL Offs(pZero, 5.022, 5.228, 3.4), v30, z0, tNozzle, \Wobj := wobjFlatPlat;
		MoveL Offs(pZero, 4.118, 5.966, 3.4), v30, z0, tNozzle, \Wobj := wobjFlatPlat;
		MoveL Offs(pZero, 3.108, 6.549, 3.4), v30, z0, tNozzle, \Wobj := wobjFlatPlat;
		MoveL Offs(pZero, 2.017, 6.963, 3.4), v30, z0, tNozzle, \Wobj := wobjFlatPlat;
		MoveL Offs(pZero, 0.874, 7.196, 3.4), v30, z0, tNozzle, \Wobj := wobjFlatPlat;
		MoveL Offs(pZero, -0.292, 7.243, 3.4), v30, z0, tNozzle, \Wobj := wobjFlatPlat;
		MoveL Offs(pZero, -1.45, 7.103, 3.4), v30, z0, tNozzle, \Wobj := wobjFlatPlat;
		MoveL Offs(pZero, -2.571, 6.778, 3.4), v30, z0, tNozzle, \Wobj := wobjFlatPlat;
		MoveL Offs(pZero, -3.625, 6.278, 3.4), v30, z0, tNozzle, \Wobj := wobjFlatPlat;
		MoveL Offs(pZero, -4.585, 5.615, 3.4), v30, z0, tNozzle, \Wobj := wobjFlatPlat;
		MoveL Offs(pZero, -5.426, 4.807, 3.4), v30, z0, tNozzle, \Wobj := wobjFlatPlat;
		MoveL Offs(pZero, -6.127, 3.874, 3.4), v30, z0, tNozzle, \Wobj := wobjFlatPlat;
		MoveL Offs(pZero, -6.669, 2.841, 3.4), v30, z0, tNozzle, \Wobj := wobjFlatPlat;
		MoveL Offs(pZero, -7.039, 1.735, 3.4), v30, z0, tNozzle, \Wobj := wobjFlatPlat;
		MoveL Offs(pZero, -7.226, 0.583, 3.4), v30, z0, tNozzle, \Wobj := wobjFlatPlat;
		MoveL Offs(pZero, -7.226, -0.583, 3.4), v30, z0, tNozzle, \Wobj := wobjFlatPlat;
		MoveL Offs(pZero, -7.039, -1.735, 3.4), v30, z0, tNozzle, \Wobj := wobjFlatPlat;
		MoveL Offs(pZero, -6.669, -2.841, 3.4), v30, z0, tNozzle, \Wobj := wobjFlatPlat;
		MoveL Offs(pZero, -6.127, -3.874, 3.4), v30, z0, tNozzle, \Wobj := wobjFlatPlat;
		MoveL Offs(pZero, -5.426, -4.807, 3.4), v30, z0, tNozzle, \Wobj := wobjFlatPlat;
		MoveL Offs(pZero, -4.585, -5.615, 3.4), v30, z0, tNozzle, \Wobj := wobjFlatPlat;
		MoveL Offs(pZero, -3.625, -6.278, 3.4), v30, z0, tNozzle, \Wobj := wobjFlatPlat;
		MoveL Offs(pZero, -2.571, -6.778, 3.4), v30, z0, tNozzle, \Wobj := wobjFlatPlat;
		MoveL Offs(pZero, -1.45, -7.103, 3.4), v30, z0, tNozzle, \Wobj := wobjFlatPlat;
		MoveL Offs(pZero, -0.292, -7.243, 3.4), v30, z0, tNozzle, \Wobj := wobjFlatPlat;
		MoveL Offs(pZero, 0.874, -7.196, 3.4), v30, z0, tNozzle, \Wobj := wobjFlatPlat;
		MoveL Offs(pZero, 2.017, -6.963, 3.4), v30, z0, tNozzle, \Wobj := wobjFlatPlat;
		MoveL Offs(pZero, 3.108, -6.549, 3.4), v30, z0, tNozzle, \Wobj := wobjFlatPlat;
		MoveL Offs(pZero, 4.118, -5.966, 3.4), v30, z0, tNozzle, \Wobj := wobjFlatPlat;
		MoveL Offs(pZero, 5.022, -5.228, 3.4), v30, z0, tNozzle, \Wobj := wobjFlatPlat;
		WaitRob \InPos;
		SetDO DO5_Program_Feed, 0;
		MoveL Offs(pZero, 3.059, -6.0, 3.4), v100, z0, tNozzle, \Wobj := wobjFlatPlat;
		WaitRob \InPos;
		SetDO DO5_Program_Feed, 1;
		MoveL Offs(pZero, -3.045, -6.0, 3.4), v30, z0, tNozzle, \Wobj := wobjFlatPlat;
		WaitRob \InPos;
		SetDO DO5_Program_Feed, 0;
		MoveL Offs(pZero, -6.021, -3.0, 3.4), v100, z0, tNozzle, \Wobj := wobjFlatPlat;
		WaitRob \InPos;
		SetDO DO5_Program_Feed, 1;
		MoveL Offs(pZero, 6.033, -3.0, 3.4), v30, z0, tNozzle, \Wobj := wobjFlatPlat;
		WaitRob \InPos;
		SetDO DO5_Program_Feed, 0;
		MoveL Offs(pZero, 6.748, 0.0, 3.4), v100, z0, tNozzle, \Wobj := wobjFlatPlat;
		WaitRob \InPos;
		SetDO DO5_Program_Feed, 1;
		MoveL Offs(pZero, -6.726, 0.0, 3.4), v30, z0, tNozzle, \Wobj := wobjFlatPlat;
		WaitRob \InPos;
		SetDO DO5_Program_Feed, 0;
		MoveL Offs(pZero, -6.021, 3.0, 3.4), v100, z0, tNozzle, \Wobj := wobjFlatPlat;
		WaitRob \InPos;
		SetDO DO5_Program_Feed, 1;
		MoveL Offs(pZero, 6.033, 3.0, 3.4), v30, z0, tNozzle, \Wobj := wobjFlatPlat;
		WaitRob \InPos;
		SetDO DO5_Program_Feed, 0;
		MoveL Offs(pZero, 3.059, 6.0, 3.4), v100, z0, tNozzle, \Wobj := wobjFlatPlat;
		WaitRob \InPos;
		SetDO DO5_Program_Feed, 1;
		MoveL Offs(pZero, -3.045, 6.0, 3.4), v30, z0, tNozzle, \Wobj := wobjFlatPlat;
		WaitRob \InPos;
		SetDO DO6_Between_Layer_Retract, 1;
		SetDO DO5_Program_Feed, 0;
		MoveL Offs(pZero, -3.045, 6.0, 8.4), v100, z0, tNozzle, \Wobj := wobjFlatPlat;

		! Layer: 16
		! LayerParams(infillAngleDegrees=90.0, layerHeight=0.2, infillShiftX=0.0, infillShiftY=0.0, numShells=1, infillOverlap=0.0002)
		! T216
		! M6
		TPWRITE "Layer 16 of 350";
		MoveL Offs(pZero, -0.292, -7.243, 8.6), v100, z0, tNozzle, \Wobj := wobjFlatPlat;
		MoveL Offs(pZero, -0.292, -7.243, 3.6), v30, z0, tNozzle, \Wobj := wobjFlatPlat;
		WaitRob \InPos;
		SetDO DO6_Between_Layer_Retract, 0;
		WaitRob \InPos;
		SetDO DO5_Program_Feed, 1;
		MoveL Offs(pZero, 0.874, -7.196, 3.6), v30, z0, tNozzle, \Wobj := wobjFlatPlat;
		MoveL Offs(pZero, 2.017, -6.963, 3.6), v30, z0, tNozzle, \Wobj := wobjFlatPlat;
		MoveL Offs(pZero, 3.108, -6.549, 3.6), v30, z0, tNozzle, \Wobj := wobjFlatPlat;
		MoveL Offs(pZero, 4.118, -5.966, 3.6), v30, z0, tNozzle, \Wobj := wobjFlatPlat;
		MoveL Offs(pZero, 5.022, -5.228, 3.6), v30, z0, tNozzle, \Wobj := wobjFlatPlat;
		MoveL Offs(pZero, 5.795, -4.355, 3.6), v30, z0, tNozzle, \Wobj := wobjFlatPlat;
		MoveL Offs(pZero, 6.419, -3.369, 3.6), v30, z0, tNozzle, \Wobj := wobjFlatPlat;
		MoveL Offs(pZero, 6.876, -2.296, 3.6), v30, z0, tNozzle, \Wobj := wobjFlatPlat;
		MoveL Offs(pZero, 7.155, -1.163, 3.6), v30, z0, tNozzle, \Wobj := wobjFlatPlat;
		MoveL Offs(pZero, 7.249, -0.0, 3.6), v30, z0, tNozzle, \Wobj := wobjFlatPlat;
		MoveL Offs(pZero, 7.155, 1.163, 3.6), v30, z0, tNozzle, \Wobj := wobjFlatPlat;
		MoveL Offs(pZero, 6.876, 2.296, 3.6), v30, z0, tNozzle, \Wobj := wobjFlatPlat;
		MoveL Offs(pZero, 6.419, 3.369, 3.6), v30, z0, tNozzle, \Wobj := wobjFlatPlat;
		MoveL Offs(pZero, 5.795, 4.355, 3.6), v30, z0, tNozzle, \Wobj := wobjFlatPlat;
		MoveL Offs(pZero, 5.022, 5.228, 3.6), v30, z0, tNozzle, \Wobj := wobjFlatPlat;
		MoveL Offs(pZero, 4.118, 5.966, 3.6), v30, z0, tNozzle, \Wobj := wobjFlatPlat;
		MoveL Offs(pZero, 3.108, 6.549, 3.6), v30, z0, tNozzle, \Wobj := wobjFlatPlat;
