MODULE MainModule
	PROC main()
		Heat;
		SetDO DO1_Auto_Mode, 1;

		

		! Part number: 1
		! PartParams(extrusionFactor=0.98, printSpeed=30, shiftX=0.0, shiftY=0.0, shiftZ=0.0, numLayers=4, designType=0, brims=0, horizontalExpansion=0.0, randomStartLocation=1)

		! Layer: 1
		! LayerParams(infillAngleDegrees=-45.0, pathWidth=1.5, layerHeight=0.2, infillShiftX=0.0, infillShiftY=0.0, numShells=2, infillOverlap=0.0002)
		! T11
		! M6
		TPWRITE "Layer 1 of 4";
		MoveL Offs(pZeroCircleMute 12.295, 12.801, 5.2), v100, z0, tNozzle, \Wobj := wobj2Circle;
		MoveL Offs(pZeroCircleMute 12.295, 12.801, 0.2), v30, z0, tNozzle, \Wobj := wobj2Circle;
		WaitRob \InPos;
		SetDO DO5_Program_Feed, 1;
		MoveL Offs(pZeroCircleMute 10.083, 14.607, 0.2), v30, z0, tNozzle, \Wobj := wobj2Circle;
		MoveL Offs(pZeroCircleMute 7.609, 16.036, 0.2), v30, z0, tNozzle, \Wobj := wobj2Circle;
		MoveL Offs(pZeroCircleMute 4.938, 17.048, 0.2), v30, z0, tNozzle, \Wobj := wobj2Circle;
		MoveL Offs(pZeroCircleMute 2.139, 17.62, 0.2), v30, z0, tNozzle, \Wobj := wobj2Circle;
		MoveL Offs(pZeroCircleMute -0.715, 17.735, 0.2), v30, z0, tNozzle, \Wobj := wobj2Circle;
		MoveL Offs(pZeroCircleMute -3.55, 17.39, 0.2), v30, z0, tNozzle, \Wobj := wobj2Circle;
		MoveL Offs(pZeroCircleMute -6.294, 16.596, 0.2), v30, z0, tNozzle, \Wobj := wobj2Circle;
		MoveL Offs(pZeroCircleMute -8.875, 15.371, 0.2), v30, z0, tNozzle, \Wobj := wobj2Circle;
		MoveL Offs(pZeroCircleMute -11.225, 13.749, 0.2), v30, z0, tNozzle, \Wobj := wobj2Circle;
		MoveL Offs(pZeroCircleMute -13.285, 11.77, 0.2), v30, z0, tNozzle, \Wobj := wobj2Circle;
		MoveL Offs(pZeroCircleMute -15.001, 9.486, 0.2), v30, z0, tNozzle, \Wobj := wobj2Circle;
		MoveL Offs(pZeroCircleMute -16.329, 6.957, 0.2), v30, z0, tNozzle, \Wobj := wobj2Circle;
		MoveL Offs(pZeroCircleMute -17.233, 4.248, 0.2), v30, z0, tNozzle, \Wobj := wobj2Circle;
		MoveL Offs(pZeroCircleMute -17.692, 1.428, 0.2), v30, z0, tNozzle, \Wobj := wobj2Circle;
		MoveL Offs(pZeroCircleMute -17.692, -1.428, 0.2), v30, z0, tNozzle, \Wobj := wobj2Circle;
		MoveL Offs(pZeroCircleMute -17.233, -4.248, 0.2), v30, z0, tNozzle, \Wobj := wobj2Circle;
		MoveL Offs(pZeroCircleMute -16.329, -6.957, 0.2), v30, z0, tNozzle, \Wobj := wobj2Circle;
		MoveL Offs(pZeroCircleMute -15.001, -9.486, 0.2), v30, z0, tNozzle, \Wobj := wobj2Circle;
		MoveL Offs(pZeroCircleMute -13.285, -11.77, 0.2), v30, z0, tNozzle, \Wobj := wobj2Circle;
		MoveL Offs(pZeroCircleMute -11.225, -13.749, 0.2), v30, z0, tNozzle, \Wobj := wobj2Circle;
		MoveL Offs(pZeroCircleMute -8.875, -15.371, 0.2), v30, z0, tNozzle, \Wobj := wobj2Circle;
		MoveL Offs(pZeroCircleMute -6.294, -16.596, 0.2), v30, z0, tNozzle, \Wobj := wobj2Circle;
		MoveL Offs(pZeroCircleMute -3.55, -17.39, 0.2), v30, z0, tNozzle, \Wobj := wobj2Circle;
		MoveL Offs(pZeroCircleMute -0.715, -17.735, 0.2), v30, z0, tNozzle, \Wobj := wobj2Circle;
		MoveL Offs(pZeroCircleMute 2.139, -17.62, 0.2), v30, z0, tNozzle, \Wobj := wobj2Circle;
		MoveL Offs(pZeroCircleMute 4.938, -17.048, 0.2), v30, z0, tNozzle, \Wobj := wobj2Circle;
		MoveL Offs(pZeroCircleMute 7.609, -16.036, 0.2), v30, z0, tNozzle, \Wobj := wobj2Circle;
		MoveL Offs(pZeroCircleMute 10.083, -14.607, 0.2), v30, z0, tNozzle, \Wobj := wobj2Circle;
		MoveL Offs(pZeroCircleMute 12.295, -12.801, 0.2), v30, z0, tNozzle, \Wobj := wobj2Circle;
		MoveL Offs(pZeroCircleMute 14.189, -10.663, 0.2), v30, z0, tNozzle, \Wobj := wobj2Circle;
		MoveL Offs(pZeroCircleMute 15.716, -8.248, 0.2), v30, z0, tNozzle, \Wobj := wobj2Circle;
		MoveL Offs(pZeroCircleMute 16.836, -5.621, 0.2), v30, z0, tNozzle, \Wobj := wobj2Circle;
		MoveL Offs(pZeroCircleMute 17.519, -2.847, 0.2), v30, z0, tNozzle, \Wobj := wobj2Circle;
		MoveL Offs(pZeroCircleMute 17.749, -0.0, 0.2), v30, z0, tNozzle, \Wobj := wobj2Circle;
		MoveL Offs(pZeroCircleMute 17.519, 2.847, 0.2), v30, z0, tNozzle, \Wobj := wobj2Circle;
		MoveL Offs(pZeroCircleMute 16.836, 5.621, 0.2), v30, z0, tNozzle, \Wobj := wobj2Circle;
		MoveL Offs(pZeroCircleMute 15.716, 8.248, 0.2), v30, z0, tNozzle, \Wobj := wobj2Circle;
		MoveL Offs(pZeroCircleMute 14.189, 10.663, 0.2), v30, z0, tNozzle, \Wobj := wobj2Circle;
		MoveL Offs(pZeroCircleMute 12.295, 12.801, 0.2), v30, z0, tNozzle, \Wobj := wobj2Circle;
		WaitRob \InPos;
		SetDO DO5_Program_Feed, 0;
		MoveL Offs(pZeroCircleMute 11.948, 12.439, 0.2), v100, z0, tNozzle, \Wobj := wobj2Circle;
		WaitRob \InPos;
		SetDO DO5_Program_Feed, 1;
		MoveL Offs(pZeroCircleMute 9.798, 14.194, 0.2), v30, z0, tNozzle, \Wobj := wobj2Circle;
		MoveL Offs(pZeroCircleMute 7.394, 15.582, 0.2), v30, z0, tNozzle, \Wobj := wobj2Circle;
		MoveL Offs(pZeroCircleMute 4.799, 16.567, 0.2), v30, z0, tNozzle, \Wobj := wobj2Circle;
		MoveL Offs(pZeroCircleMute 2.079, 17.122, 0.2), v30, z0, tNozzle, \Wobj := wobj2Circle;
		MoveL Offs(pZeroCircleMute -0.694, 17.234, 0.2), v30, z0, tNozzle, \Wobj := wobj2Circle;
		MoveL Offs(pZeroCircleMute -3.45, 16.899, 0.2), v30, z0, tNozzle, \Wobj := wobj2Circle;
		MoveL Offs(pZeroCircleMute -6.116, 16.127, 0.2), v30, z0, tNozzle, \Wobj := wobj2Circle;
		MoveL Offs(pZeroCircleMute -8.624, 14.937, 0.2), v30, z0, tNozzle, \Wobj := wobj2Circle;
		MoveL Offs(pZeroCircleMute -10.908, 13.36, 0.2), v30, z0, tNozzle, \Wobj := wobj2Circle;
		MoveL Offs(pZeroCircleMute -12.91, 11.437, 0.2), v30, z0, tNozzle, \Wobj := wobj2Circle;
		MoveL Offs(pZeroCircleMute -14.577, 9.218, 0.2), v30, z0, tNozzle, \Wobj := wobj2Circle;
		MoveL Offs(pZeroCircleMute -15.867, 6.76, 0.2), v30, z0, tNozzle, \Wobj := wobj2Circle;
		MoveL Offs(pZeroCircleMute -16.746, 4.128, 0.2), v30, z0, tNozzle, \Wobj := wobj2Circle;
		MoveL Offs(pZeroCircleMute -17.192, 1.388, 0.2), v30, z0, tNozzle, \Wobj := wobj2Circle;
		MoveL Offs(pZeroCircleMute -17.192, -1.388, 0.2), v30, z0, tNozzle, \Wobj := wobj2Circle;
		MoveL Offs(pZeroCircleMute -16.746, -4.128, 0.2), v30, z0, tNozzle, \Wobj := wobj2Circle;
		MoveL Offs(pZeroCircleMute -15.867, -6.76, 0.2), v30, z0, tNozzle, \Wobj := wobj2Circle;
		MoveL Offs(pZeroCircleMute -14.577, -9.218, 0.2), v30, z0, tNozzle, \Wobj := wobj2Circle;
		MoveL Offs(pZeroCircleMute -12.91, -11.437, 0.2), v30, z0, tNozzle, \Wobj := wobj2Circle;
		MoveL Offs(pZeroCircleMute -10.908, -13.36, 0.2), v30, z0, tNozzle, \Wobj := wobj2Circle;
		MoveL Offs(pZeroCircleMute -8.624, -14.937, 0.2), v30, z0, tNozzle, \Wobj := wobj2Circle;
		MoveL Offs(pZeroCircleMute -6.116, -16.127, 0.2), v30, z0, tNozzle, \Wobj := wobj2Circle;
		MoveL Offs(pZeroCircleMute -3.45, -16.899, 0.2), v30, z0, tNozzle, \Wobj := wobj2Circle;
		MoveL Offs(pZeroCircleMute -0.694, -17.234, 0.2), v30, z0, tNozzle, \Wobj := wobj2Circle;
		MoveL Offs(pZeroCircleMute 2.079, -17.122, 0.2), v30, z0, tNozzle, \Wobj := wobj2Circle;
		MoveL Offs(pZeroCircleMute 4.799, -16.567, 0.2), v30, z0, tNozzle, \Wobj := wobj2Circle;
		MoveL Offs(pZeroCircleMute 7.394, -15.582, 0.2), v30, z0, tNozzle, \Wobj := wobj2Circle;
		MoveL Offs(pZeroCircleMute 9.798, -14.194, 0.2), v30, z0, tNozzle, \Wobj := wobj2Circle;
		MoveL Offs(pZeroCircleMute 11.948, -12.439, 0.2), v30, z0, tNozzle, \Wobj := wobj2Circle;
		MoveL Offs(pZeroCircleMute 13.788, -10.361, 0.2), v30, z0, tNozzle, \Wobj := wobj2Circle;
		MoveL Offs(pZeroCircleMute 15.272, -8.015, 0.2), v30, z0, tNozzle, \Wobj := wobj2Circle;
		MoveL Offs(pZeroCircleMute 16.36, -5.462, 0.2), v30, z0, tNozzle, \Wobj := wobj2Circle;
		MoveL Offs(pZeroCircleMute 17.024, -2.767, 0.2), v30, z0, tNozzle, \Wobj := wobj2Circle;
		MoveL Offs(pZeroCircleMute 17.248, -0.0, 0.2), v30, z0, tNozzle, \Wobj := wobj2Circle;
		MoveL Offs(pZeroCircleMute 17.024, 2.767, 0.2), v30, z0, tNozzle, \Wobj := wobj2Circle;
		MoveL Offs(pZeroCircleMute 16.36, 5.462, 0.2), v30, z0, tNozzle, \Wobj := wobj2Circle;
		MoveL Offs(pZeroCircleMute 15.272, 8.015, 0.2), v30, z0, tNozzle, \Wobj := wobj2Circle;
		MoveL Offs(pZeroCircleMute 13.788, 10.361, 0.2), v30, z0, tNozzle, \Wobj := wobj2Circle;
		MoveL Offs(pZeroCircleMute 11.948, 12.439, 0.2), v30, z0, tNozzle, \Wobj := wobj2Circle;
		WaitRob \InPos;
		SetDO DO5_Program_Feed, 0;
		MoveL Offs(pZeroCircleMute 9.878, 13.484, 0.2), v100, z0, tNozzle, \Wobj := wobj2Circle;
		WaitRob \InPos;
		SetDO DO5_Program_Feed, 1;
		MoveL Offs(pZeroCircleMute 13.536, 9.826, 0.2), v30, z0, tNozzle, \Wobj := wobj2Circle;
		WaitRob \InPos;
		SetDO DO5_Program_Feed, 0;
		MoveL Offs(pZeroCircleMute 15.845, 5.395, 0.2), v100, z0, tNozzle, \Wobj := wobj2Circle;
		WaitRob \InPos;
		SetDO DO5_Program_Feed, 1;
		MoveL Offs(pZeroCircleMute 5.459, 15.782, 0.2), v30, z0, tNozzle, \Wobj := wobj2Circle;
		WaitRob \InPos;
		SetDO DO5_Program_Feed, 0;
		MoveL Offs(pZeroCircleMute 2.617, 16.502, 0.2), v100, z0, tNozzle, \Wobj := wobj2Circle;
		WaitRob \InPos;
		SetDO DO5_Program_Feed, 1;
		MoveL Offs(pZeroCircleMute 16.538, 2.581, 0.2), v30, z0, tNozzle, \Wobj := wobj2Circle;
		WaitRob \InPos;
		SetDO DO5_Program_Feed, 0;
		MoveL Offs(pZeroCircleMute 16.724, 0.274, 0.2), v100, z0, tNozzle, \Wobj := wobj2Circle;
		WaitRob \InPos;
		SetDO DO5_Program_Feed, 1;
		MoveL Offs(pZeroCircleMute 0.305, 16.693, 0.2), v30, z0, tNozzle, \Wobj := wobj2Circle;
		WaitRob \InPos;
		SetDO DO5_Program_Feed, 0;
		MoveL Offs(pZeroCircleMute -1.728, 16.605, 0.2), v100, z0, tNozzle, \Wobj := wobj2Circle;
		WaitRob \InPos;
		SetDO DO5_Program_Feed, 1;
		MoveL Offs(pZeroCircleMute 16.606, -1.73, 0.2), v30, z0, tNozzle, \Wobj := wobj2Circle;
		WaitRob \InPos;
		SetDO DO5_Program_Feed, 0;
		MoveL Offs(pZeroCircleMute 16.314, -3.559, 0.2), v100, z0, tNozzle, \Wobj := wobj2Circle;
		WaitRob \InPos;
		SetDO DO5_Program_Feed, 1;
		MoveL Offs(pZeroCircleMute -3.585, 16.34, 0.2), v30, z0, tNozzle, \Wobj := wobj2Circle;
		WaitRob \InPos;
		SetDO DO5_Program_Feed, 0;
		MoveL Offs(pZeroCircleMute -5.229, 15.863, 0.2), v100, z0, tNozzle, \Wobj := wobj2Circle;
		WaitRob \InPos;
		SetDO DO5_Program_Feed, 1;
		MoveL Offs(pZeroCircleMute 15.895, -5.261, 0.2), v30, z0, tNozzle, \Wobj := wobj2Circle;
		WaitRob \InPos;
		SetDO DO5_Program_Feed, 0;
		MoveL Offs(pZeroCircleMute 15.266, -6.754, 0.2), v100, z0, tNozzle, \Wobj := wobj2Circle;
		WaitRob \InPos;
		SetDO DO5_Program_Feed, 1;
		MoveL Offs(pZeroCircleMute -6.757, 15.269, 0.2), v30, z0, tNozzle, \Wobj := wobj2Circle;
		WaitRob \InPos;
		SetDO DO5_Program_Feed, 0;
		MoveL Offs(pZeroCircleMute -8.196, 14.587, 0.2), v100, z0, tNozzle, \Wobj := wobj2Circle;
		WaitRob \InPos;
		SetDO DO5_Program_Feed, 1;
		MoveL Offs(pZeroCircleMute 14.574, -8.183, 0.2), v30, z0, tNozzle, \Wobj := wobj2Circle;
		WaitRob \InPos;
		SetDO DO5_Program_Feed, 0;
		MoveL Offs(pZeroCircleMute 13.753, -9.483, 0.2), v100, z0, tNozzle, \Wobj := wobj2Circle;
		WaitRob \InPos;
		SetDO DO5_Program_Feed, 1;
		MoveL Offs(pZeroCircleMute -9.473, 13.743, 0.2), v30, z0, tNozzle, \Wobj := wobj2Circle;
		WaitRob \InPos;
		SetDO DO5_Program_Feed, 0;
		MoveL Offs(pZeroCircleMute -10.709, 12.858, 0.2), v100, z0, tNozzle, \Wobj := wobj2Circle;
		WaitRob \InPos;
		SetDO DO5_Program_Feed, 1;
		MoveL Offs(pZeroCircleMute 12.834, -10.685, 0.2), v30, z0, tNozzle, \Wobj := wobj2Circle;
		WaitRob \InPos;
		SetDO DO5_Program_Feed, 0;
		MoveL Offs(pZeroCircleMute 11.837, -11.81, 0.2), v100, z0, tNozzle, \Wobj := wobj2Circle;
		WaitRob \InPos;
		SetDO DO5_Program_Feed, 1;
		MoveL Offs(pZeroCircleMute -11.791, 11.819, 0.2), v30, z0, tNozzle, \Wobj := wobj2Circle;
		WaitRob \InPos;
		SetDO DO5_Program_Feed, 0;
		MoveL Offs(pZeroCircleMute -12.82, 10.725, 0.2), v100, z0, tNozzle, \Wobj := wobj2Circle;
		WaitRob \InPos;
		SetDO DO5_Program_Feed, 1;
		MoveL Offs(pZeroCircleMute 10.71, -12.804, 0.2), v30, z0, tNozzle, \Wobj := wobj2Circle;
		WaitRob \InPos;
		SetDO DO5_Program_Feed, 0;
		MoveL Offs(pZeroCircleMute 9.542, -13.758, 0.2), v100, z0, tNozzle, \Wobj := wobj2Circle;
		WaitRob \InPos;
		SetDO DO5_Program_Feed, 1;
		MoveL Offs(pZeroCircleMute -13.73, 9.514, 0.2), v30, z0, tNozzle, \Wobj := wobj2Circle;
		WaitRob \InPos;
		SetDO DO5_Program_Feed, 0;
		MoveL Offs(pZeroCircleMute -14.544, 8.207, 0.2), v100, z0, tNozzle, \Wobj := wobj2Circle;
		WaitRob \InPos;
		SetDO DO5_Program_Feed, 1;
		MoveL Offs(pZeroCircleMute 8.202, -14.539, 0.2), v30, z0, tNozzle, \Wobj := wobj2Circle;
		WaitRob \InPos;
		SetDO DO5_Program_Feed, 0;
		MoveL Offs(pZeroCircleMute 6.811, -15.269, 0.2), v100, z0, tNozzle, \Wobj := wobj2Circle;
		WaitRob \InPos;
		SetDO DO5_Program_Feed, 1;
		MoveL Offs(pZeroCircleMute -15.274, 6.816, 0.2), v30, z0, tNozzle, \Wobj := wobj2Circle;
		WaitRob \InPos;
		SetDO DO5_Program_Feed, 0;
		MoveL Offs(pZeroCircleMute -15.841, 5.261, 0.2), v100, z0, tNozzle, \Wobj := wobj2Circle;
		WaitRob \InPos;
		SetDO DO5_Program_Feed, 1;
		MoveL Offs(pZeroCircleMute 5.273, -15.852, 0.2), v30, z0, tNozzle, \Wobj := wobj2Circle;
		WaitRob \InPos;
		SetDO DO5_Program_Feed, 0;
		MoveL Offs(pZeroCircleMute 3.6, -16.301, 0.2), v100, z0, tNozzle, \Wobj := wobj2Circle;
		WaitRob \InPos;
		SetDO DO5_Program_Feed, 1;
		MoveL Offs(pZeroCircleMute -16.322, 3.622, 0.2), v30, z0, tNozzle, \Wobj := wobj2Circle;
		WaitRob \InPos;
		SetDO DO5_Program_Feed, 0;
		MoveL Offs(pZeroCircleMute -16.619, 1.797, 0.2), v100, z0, tNozzle, \Wobj := wobj2Circle;
		WaitRob \InPos;
		SetDO DO5_Program_Feed, 1;
		MoveL Offs(pZeroCircleMute 1.81, -16.632, 0.2), v30, z0, tNozzle, \Wobj := wobj2Circle;
		WaitRob \InPos;
		SetDO DO5_Program_Feed, 0;
		MoveL Offs(pZeroCircleMute -0.229, -16.715, 0.2), v100, z0, tNozzle, \Wobj := wobj2Circle;
		WaitRob \InPos;
		SetDO DO5_Program_Feed, 1;
		MoveL Offs(pZeroCircleMute -16.692, -0.252, 0.2), v30, z0, tNozzle, \Wobj := wobj2Circle;
		WaitRob \InPos;
		SetDO DO5_Program_Feed, 0;
		MoveL Offs(pZeroCircleMute -16.493, -2.572, 0.2), v100, z0, tNozzle, \Wobj := wobj2Circle;
		WaitRob \InPos;
		SetDO DO5_Program_Feed, 1;
		MoveL Offs(pZeroCircleMute -2.561, -16.503, 0.2), v30, z0, tNozzle, \Wobj := wobj2Circle;
		WaitRob \InPos;
		SetDO DO5_Program_Feed, 0;
		MoveL Offs(pZeroCircleMute -5.361, -15.825, 0.2), v100, z0, tNozzle, \Wobj := wobj2Circle;
		WaitRob \InPos;
		SetDO DO5_Program_Feed, 1;
		MoveL Offs(pZeroCircleMute -15.799, -5.387, 0.2), v30, z0, tNozzle, \Wobj := wobj2Circle;
		WaitRob \InPos;
		SetDO DO5_Program_Feed, 0;
		MoveL Offs(pZeroCircleMute -13.539, -9.769, 0.2), v100, z0, tNozzle, \Wobj := wobj2Circle;
		WaitRob \InPos;
		SetDO DO5_Program_Feed, 1;
		MoveL Offs(pZeroCircleMute -9.767, -13.541, 0.2), v30, z0, tNozzle, \Wobj := wobj2Circle;
		WaitRob \InPos;
		SetDO DO6_Between_Layer_Retract, 1;
		SetDO DO5_Program_Feed, 0;
		MoveL Offs(pZeroCircleMute -9.767, -13.541, 5.2), v100, z0, tNozzle, \Wobj := wobj2Circle;

		! Layer: 2
		! LayerParams(infillAngleDegrees=45.0, pathWidth=1.5, layerHeight=0.2, infillShiftX=0.0, infillShiftY=0.0, numShells=2, infillOverlap=0.0002)
		! T12
		! M6
		TPWRITE "Layer 2 of 4";
		MoveL Offs(pZeroCircleMute 7.609, -16.036, 5.4), v100, z0, tNozzle, \Wobj := wobj2Circle;
		MoveL Offs(pZeroCircleMute 7.609, -16.036, 0.4), v30, z0, tNozzle, \Wobj := wobj2Circle;
		WaitRob \InPos;
		SetDO DO6_Between_Layer_Retract, 0;
		WaitRob \InPos;
		SetDO DO5_Program_Feed, 1;
		MoveL Offs(pZeroCircleMute 10.083, -14.607, 0.4), v30, z0, tNozzle, \Wobj := wobj2Circle;
		MoveL Offs(pZeroCircleMute 12.295, -12.801, 0.4), v30, z0, tNozzle, \Wobj := wobj2Circle;
		MoveL Offs(pZeroCircleMute 14.189, -10.663, 0.4), v30, z0, tNozzle, \Wobj := wobj2Circle;
		MoveL Offs(pZeroCircleMute 15.716, -8.248, 0.4), v30, z0, tNozzle, \Wobj := wobj2Circle;
		MoveL Offs(pZeroCircleMute 16.836, -5.621, 0.4), v30, z0, tNozzle, \Wobj := wobj2Circle;
		MoveL Offs(pZeroCircleMute 17.519, -2.847, 0.4), v30, z0, tNozzle, \Wobj := wobj2Circle;
		MoveL Offs(pZeroCircleMute 17.749, -0.0, 0.4), v30, z0, tNozzle, \Wobj := wobj2Circle;
		MoveL Offs(pZeroCircleMute 17.519, 2.847, 0.4), v30, z0, tNozzle, \Wobj := wobj2Circle;
		MoveL Offs(pZeroCircleMute 16.836, 5.621, 0.4), v30, z0, tNozzle, \Wobj := wobj2Circle;
		MoveL Offs(pZeroCircleMute 15.716, 8.248, 0.4), v30, z0, tNozzle, \Wobj := wobj2Circle;
		MoveL Offs(pZeroCircleMute 14.189, 10.663, 0.4), v30, z0, tNozzle, \Wobj := wobj2Circle;
		MoveL Offs(pZeroCircleMute 12.295, 12.801, 0.4), v30, z0, tNozzle, \Wobj := wobj2Circle;
		MoveL Offs(pZeroCircleMute 10.083, 14.607, 0.4), v30, z0, tNozzle, \Wobj := wobj2Circle;
		MoveL Offs(pZeroCircleMute 7.609, 16.036, 0.4), v30, z0, tNozzle, \Wobj := wobj2Circle;
		MoveL Offs(pZeroCircleMute 4.938, 17.048, 0.4), v30, z0, tNozzle, \Wobj := wobj2Circle;
		MoveL Offs(pZeroCircleMute 2.139, 17.62, 0.4), v30, z0, tNozzle, \Wobj := wobj2Circle;
		MoveL Offs(pZeroCircleMute -0.715, 17.735, 0.4), v30, z0, tNozzle, \Wobj := wobj2Circle;
		MoveL Offs(pZeroCircleMute -3.55, 17.39, 0.4), v30, z0, tNozzle, \Wobj := wobj2Circle;
		MoveL Offs(pZeroCircleMute -6.294, 16.596, 0.4), v30, z0, tNozzle, \Wobj := wobj2Circle;
		MoveL Offs(pZeroCircleMute -8.875, 15.371, 0.4), v30, z0, tNozzle, \Wobj := wobj2Circle;
		MoveL Offs(pZeroCircleMute -11.225, 13.749, 0.4), v30, z0, tNozzle, \Wobj := wobj2Circle;
		MoveL Offs(pZeroCircleMute -13.285, 11.77, 0.4), v30, z0, tNozzle, \Wobj := wobj2Circle;
		MoveL Offs(pZeroCircleMute -15.001, 9.486, 0.4), v30, z0, tNozzle, \Wobj := wobj2Circle;
		MoveL Offs(pZeroCircleMute -16.329, 6.957, 0.4), v30, z0, tNozzle, \Wobj := wobj2Circle;
		MoveL Offs(pZeroCircleMute -17.233, 4.248, 0.4), v30, z0, tNozzle, \Wobj := wobj2Circle;
		MoveL Offs(pZeroCircleMute -17.692, 1.428, 0.4), v30, z0, tNozzle, \Wobj := wobj2Circle;
		MoveL Offs(pZeroCircleMute -17.692, -1.428, 0.4), v30, z0, tNozzle, \Wobj := wobj2Circle;
		MoveL Offs(pZeroCircleMute -17.233, -4.248, 0.4), v30, z0, tNozzle, \Wobj := wobj2Circle;
		MoveL Offs(pZeroCircleMute -16.329, -6.957, 0.4), v30, z0, tNozzle, \Wobj := wobj2Circle;
		MoveL Offs(pZeroCircleMute -15.001, -9.486, 0.4), v30, z0, tNozzle, \Wobj := wobj2Circle;
		MoveL Offs(pZeroCircleMute -13.285, -11.77, 0.4), v30, z0, tNozzle, \Wobj := wobj2Circle;
		MoveL Offs(pZeroCircleMute -11.225, -13.749, 0.4), v30, z0, tNozzle, \Wobj := wobj2Circle;
		MoveL Offs(pZeroCircleMute -8.875, -15.371, 0.4), v30, z0, tNozzle, \Wobj := wobj2Circle;
		MoveL Offs(pZeroCircleMute -6.294, -16.596, 0.4), v30, z0, tNozzle, \Wobj := wobj2Circle;
		MoveL Offs(pZeroCircleMute -3.55, -17.39, 0.4), v30, z0, tNozzle, \Wobj := wobj2Circle;
		MoveL Offs(pZeroCircleMute -0.715, -17.735, 0.4), v30, z0, tNozzle, \Wobj := wobj2Circle;
		MoveL Offs(pZeroCircleMute 2.139, -17.62, 0.4), v30, z0, tNozzle, \Wobj := wobj2Circle;
		MoveL Offs(pZeroCircleMute 4.938, -17.048, 0.4), v30, z0, tNozzle, \Wobj := wobj2Circle;
		MoveL Offs(pZeroCircleMute 7.609, -16.036, 0.4), v30, z0, tNozzle, \Wobj := wobj2Circle;
		WaitRob \InPos;
		SetDO DO5_Program_Feed, 0;
		MoveL Offs(pZeroCircleMute 7.394, -15.582, 0.4), v100, z0, tNozzle, \Wobj := wobj2Circle;
		WaitRob \InPos;
		SetDO DO5_Program_Feed, 1;
		MoveL Offs(pZeroCircleMute 9.798, -14.194, 0.4), v30, z0, tNozzle, \Wobj := wobj2Circle;
		MoveL Offs(pZeroCircleMute 11.948, -12.439, 0.4), v30, z0, tNozzle, \Wobj := wobj2Circle;
		MoveL Offs(pZeroCircleMute 13.788, -10.361, 0.4), v30, z0, tNozzle, \Wobj := wobj2Circle;
		MoveL Offs(pZeroCircleMute 15.272, -8.015, 0.4), v30, z0, tNozzle, \Wobj := wobj2Circle;
		MoveL Offs(pZeroCircleMute 16.36, -5.462, 0.4), v30, z0, tNozzle, \Wobj := wobj2Circle;
		MoveL Offs(pZeroCircleMute 17.024, -2.767, 0.4), v30, z0, tNozzle, \Wobj := wobj2Circle;
		MoveL Offs(pZeroCircleMute 17.248, -0.0, 0.4), v30, z0, tNozzle, \Wobj := wobj2Circle;
		MoveL Offs(pZeroCircleMute 17.024, 2.767, 0.4), v30, z0, tNozzle, \Wobj := wobj2Circle;
		MoveL Offs(pZeroCircleMute 16.36, 5.462, 0.4), v30, z0, tNozzle, \Wobj := wobj2Circle;
		MoveL Offs(pZeroCircleMute 15.272, 8.015, 0.4), v30, z0, tNozzle, \Wobj := wobj2Circle;
		MoveL Offs(pZeroCircleMute 13.788, 10.361, 0.4), v30, z0, tNozzle, \Wobj := wobj2Circle;
		MoveL Offs(pZeroCircleMute 11.948, 12.439, 0.4), v30, z0, tNozzle, \Wobj := wobj2Circle;
		MoveL Offs(pZeroCircleMute 9.798, 14.194, 0.4), v30, z0, tNozzle, \Wobj := wobj2Circle;
		MoveL Offs(pZeroCircleMute 7.394, 15.582, 0.4), v30, z0, tNozzle, \Wobj := wobj2Circle;
		MoveL Offs(pZeroCircleMute 4.799, 16.567, 0.4), v30, z0, tNozzle, \Wobj := wobj2Circle;
		MoveL Offs(pZeroCircleMute 2.079, 17.122, 0.4), v30, z0, tNozzle, \Wobj := wobj2Circle;
		MoveL Offs(pZeroCircleMute -0.694, 17.234, 0.4), v30, z0, tNozzle, \Wobj := wobj2Circle;
		MoveL Offs(pZeroCircleMute -3.45, 16.899, 0.4), v30, z0, tNozzle, \Wobj := wobj2Circle;
		MoveL Offs(pZeroCircleMute -6.116, 16.127, 0.4), v30, z0, tNozzle, \Wobj := wobj2Circle;
		MoveL Offs(pZeroCircleMute -8.624, 14.937, 0.4), v30, z0, tNozzle, \Wobj := wobj2Circle;
		MoveL Offs(pZeroCircleMute -10.908, 13.36, 0.4), v30, z0, tNozzle, \Wobj := wobj2Circle;
		MoveL Offs(pZeroCircleMute -12.91, 11.437, 0.4), v30, z0, tNozzle, \Wobj := wobj2Circle;
		MoveL Offs(pZeroCircleMute -14.577, 9.218, 0.4), v30, z0, tNozzle, \Wobj := wobj2Circle;
		MoveL Offs(pZeroCircleMute -15.867, 6.76, 0.4), v30, z0, tNozzle, \Wobj := wobj2Circle;
		MoveL Offs(pZeroCircleMute -16.746, 4.128, 0.4), v30, z0, tNozzle, \Wobj := wobj2Circle;
		MoveL Offs(pZeroCircleMute -17.192, 1.388, 0.4), v30, z0, tNozzle, \Wobj := wobj2Circle;
		MoveL Offs(pZeroCircleMute -17.192, -1.388, 0.4), v30, z0, tNozzle, \Wobj := wobj2Circle;
		MoveL Offs(pZeroCircleMute -16.746, -4.128, 0.4), v30, z0, tNozzle, \Wobj := wobj2Circle;
		MoveL Offs(pZeroCircleMute -15.867, -6.76, 0.4), v30, z0, tNozzle, \Wobj := wobj2Circle;
		MoveL Offs(pZeroCircleMute -14.577, -9.218, 0.4), v30, z0, tNozzle, \Wobj := wobj2Circle;
		MoveL Offs(pZeroCircleMute -12.91, -11.437, 0.4), v30, z0, tNozzle, \Wobj := wobj2Circle;
		MoveL Offs(pZeroCircleMute -10.908, -13.36, 0.4), v30, z0, tNozzle, \Wobj := wobj2Circle;
		MoveL Offs(pZeroCircleMute -8.624, -14.937, 0.4), v30, z0, tNozzle, \Wobj := wobj2Circle;
		MoveL Offs(pZeroCircleMute -6.116, -16.127, 0.4), v30, z0, tNozzle, \Wobj := wobj2Circle;
		MoveL Offs(pZeroCircleMute -3.45, -16.899, 0.4), v30, z0, tNozzle, \Wobj := wobj2Circle;
		MoveL Offs(pZeroCircleMute -0.694, -17.234, 0.4), v30, z0, tNozzle, \Wobj := wobj2Circle;
		MoveL Offs(pZeroCircleMute 2.079, -17.122, 0.4), v30, z0, tNozzle, \Wobj := wobj2Circle;
		MoveL Offs(pZeroCircleMute 4.799, -16.567, 0.4), v30, z0, tNozzle, \Wobj := wobj2Circle;
		MoveL Offs(pZeroCircleMute 7.394, -15.582, 0.4), v30, z0, tNozzle, \Wobj := wobj2Circle;
		WaitRob \InPos;
		SetDO DO5_Program_Feed, 0;
		MoveL Offs(pZeroCircleMute 5.459, -15.782, 0.4), v100, z0, tNozzle, \Wobj := wobj2Circle;
		WaitRob \InPos;
		SetDO DO5_Program_Feed, 1;
		MoveL Offs(pZeroCircleMute 15.845, -5.395, 0.4), v30, z0, tNozzle, \Wobj := wobj2Circle;
		WaitRob \InPos;
		SetDO DO5_Program_Feed, 0;
		MoveL Offs(pZeroCircleMute 16.538, -2.581, 0.4), v100, z0, tNozzle, \Wobj := wobj2Circle;
		WaitRob \InPos;
		SetDO DO5_Program_Feed, 1;
		MoveL Offs(pZeroCircleMute 2.617, -16.502, 0.4), v30, z0, tNozzle, \Wobj := wobj2Circle;
		WaitRob \InPos;
		SetDO DO5_Program_Feed, 0;
		MoveL Offs(pZeroCircleMute 0.305, -16.693, 0.4), v100, z0, tNozzle, \Wobj := wobj2Circle;
		WaitRob \InPos;
		SetDO DO5_Program_Feed, 1;
		MoveL Offs(pZeroCircleMute 16.724, -0.274, 0.4), v30, z0, tNozzle, \Wobj := wobj2Circle;
		WaitRob \InPos;
		SetDO DO5_Program_Feed, 0;
		MoveL Offs(pZeroCircleMute 16.606, 1.73, 0.4), v100, z0, tNozzle, \Wobj := wobj2Circle;
		WaitRob \InPos;
		SetDO DO5_Program_Feed, 1;
		MoveL Offs(pZeroCircleMute -1.728, -16.605, 0.4), v30, z0, tNozzle, \Wobj := wobj2Circle;
		WaitRob \InPos;
		SetDO DO5_Program_Feed, 0;
		MoveL Offs(pZeroCircleMute -3.585, -16.34, 0.4), v100, z0, tNozzle, \Wobj := wobj2Circle;
		WaitRob \InPos;
		SetDO DO5_Program_Feed, 1;
		MoveL Offs(pZeroCircleMute 16.314, 3.559, 0.4), v30, z0, tNozzle, \Wobj := wobj2Circle;
		WaitRob \InPos;
		SetDO DO5_Program_Feed, 0;
		MoveL Offs(pZeroCircleMute 15.895, 5.261, 0.4), v100, z0, tNozzle, \Wobj := wobj2Circle;
		WaitRob \InPos;
		SetDO DO5_Program_Feed, 1;
		MoveL Offs(pZeroCircleMute -5.229, -15.863, 0.4), v30, z0, tNozzle, \Wobj := wobj2Circle;
		WaitRob \InPos;
		SetDO DO5_Program_Feed, 0;
		MoveL Offs(pZeroCircleMute -6.757, -15.269, 0.4), v100, z0, tNozzle, \Wobj := wobj2Circle;
		WaitRob \InPos;
		SetDO DO5_Program_Feed, 1;
		MoveL Offs(pZeroCircleMute 15.266, 6.754, 0.4), v30, z0, tNozzle, \Wobj := wobj2Circle;
		WaitRob \InPos;
		SetDO DO5_Program_Feed, 0;
		MoveL Offs(pZeroCircleMute 14.574, 8.183, 0.4), v100, z0, tNozzle, \Wobj := wobj2Circle;
		WaitRob \InPos;
		SetDO DO5_Program_Feed, 1;
		MoveL Offs(pZeroCircleMute -8.196, -14.587, 0.4), v30, z0, tNozzle, \Wobj := wobj2Circle;
		WaitRob \InPos;
		SetDO DO5_Program_Feed, 0;
		MoveL Offs(pZeroCircleMute -9.473, -13.743, 0.4), v100, z0, tNozzle, \Wobj := wobj2Circle;
		WaitRob \InPos;
		SetDO DO5_Program_Feed, 1;
		MoveL Offs(pZeroCircleMute 13.753, 9.483, 0.4), v30, z0, tNozzle, \Wobj := wobj2Circle;
		WaitRob \InPos;
		SetDO DO5_Program_Feed, 0;
		MoveL Offs(pZeroCircleMute 12.834, 10.685, 0.4), v100, z0, tNozzle, \Wobj := wobj2Circle;
		WaitRob \InPos;
		SetDO DO5_Program_Feed, 1;
		MoveL Offs(pZeroCircleMute -10.709, -12.858, 0.4), v30, z0, tNozzle, \Wobj := wobj2Circle;
		WaitRob \InPos;
		SetDO DO5_Program_Feed, 0;
		MoveL Offs(pZeroCircleMute -11.791, -11.819, 0.4), v100, z0, tNozzle, \Wobj := wobj2Circle;
		WaitRob \InPos;
		SetDO DO5_Program_Feed, 1;
		MoveL Offs(pZeroCircleMute 11.837, 11.81, 0.4), v30, z0, tNozzle, \Wobj := wobj2Circle;
		WaitRob \InPos;
		SetDO DO5_Program_Feed, 0;
		MoveL Offs(pZeroCircleMute 10.71, 12.804, 0.4), v100, z0, tNozzle, \Wobj := wobj2Circle;
		WaitRob \InPos;
		SetDO DO5_Program_Feed, 1;
		MoveL Offs(pZeroCircleMute -12.82, -10.725, 0.4), v30, z0, tNozzle, \Wobj := wobj2Circle;
		WaitRob \InPos;
		SetDO DO5_Program_Feed, 0;
		MoveL Offs(pZeroCircleMute -13.73, -9.514, 0.4), v100, z0, tNozzle, \Wobj := wobj2Circle;
		WaitRob \InPos;
		SetDO DO5_Program_Feed, 1;
		MoveL Offs(pZeroCircleMute 9.542, 13.758, 0.4), v30, z0, tNozzle, \Wobj := wobj2Circle;
		WaitRob \InPos;
		SetDO DO5_Program_Feed, 0;
		MoveL Offs(pZeroCircleMute 8.202, 14.539, 0.4), v100, z0, tNozzle, \Wobj := wobj2Circle;
		WaitRob \InPos;
		SetDO DO5_Program_Feed, 1;
		MoveL Offs(pZeroCircleMute -14.544, -8.207, 0.4), v30, z0, tNozzle, \Wobj := wobj2Circle;
		WaitRob \InPos;
		SetDO DO5_Program_Feed, 0;
		MoveL Offs(pZeroCircleMute -15.274, -6.816, 0.4), v100, z0, tNozzle, \Wobj := wobj2Circle;
		WaitRob \InPos;
		SetDO DO5_Program_Feed, 1;
		MoveL Offs(pZeroCircleMute 6.811, 15.269, 0.4), v30, z0, tNozzle, \Wobj := wobj2Circle;
		WaitRob \InPos;
		SetDO DO5_Program_Feed, 0;
		MoveL Offs(pZeroCircleMute 5.273, 15.852, 0.4), v100, z0, tNozzle, \Wobj := wobj2Circle;
		WaitRob \InPos;
		SetDO DO5_Program_Feed, 1;
		MoveL Offs(pZeroCircleMute -15.841, -5.261, 0.4), v30, z0, tNozzle, \Wobj := wobj2Circle;
		WaitRob \InPos;
		SetDO DO5_Program_Feed, 0;
		MoveL Offs(pZeroCircleMute -16.322, -3.622, 0.4), v100, z0, tNozzle, \Wobj := wobj2Circle;
		WaitRob \InPos;
		SetDO DO5_Program_Feed, 1;
		MoveL Offs(pZeroCircleMute 3.6, 16.301, 0.4), v30, z0, tNozzle, \Wobj := wobj2Circle;
		WaitRob \InPos;
		SetDO DO5_Program_Feed, 0;
		MoveL Offs(pZeroCircleMute 1.81, 16.632, 0.4), v100, z0, tNozzle, \Wobj := wobj2Circle;
		WaitRob \InPos;
		SetDO DO5_Program_Feed, 1;
		MoveL Offs(pZeroCircleMute -16.619, -1.797, 0.4), v30, z0, tNozzle, \Wobj := wobj2Circle;
		WaitRob \InPos;
		SetDO DO5_Program_Feed, 0;
		MoveL Offs(pZeroCircleMute -16.692, 0.252, 0.4), v100, z0, tNozzle, \Wobj := wobj2Circle;
		WaitRob \InPos;
		SetDO DO5_Program_Feed, 1;
		MoveL Offs(pZeroCircleMute -0.229, 16.715, 0.4), v30, z0, tNozzle, \Wobj := wobj2Circle;
		WaitRob \InPos;
		SetDO DO5_Program_Feed, 0;
		MoveL Offs(pZeroCircleMute -2.561, 16.503, 0.4), v100, z0, tNozzle, \Wobj := wobj2Circle;
		WaitRob \InPos;
		SetDO DO5_Program_Feed, 1;
		MoveL Offs(pZeroCircleMute -16.493, 2.572, 0.4), v30, z0, tNozzle, \Wobj := wobj2Circle;
		WaitRob \InPos;
		SetDO DO5_Program_Feed, 0;
		MoveL Offs(pZeroCircleMute -15.799, 5.387, 0.4), v100, z0, tNozzle, \Wobj := wobj2Circle;
		WaitRob \InPos;
		SetDO DO5_Program_Feed, 1;
		MoveL Offs(pZeroCircleMute -5.361, 15.825, 0.4), v30, z0, tNozzle, \Wobj := wobj2Circle;
		WaitRob \InPos;
		SetDO DO5_Program_Feed, 0;
		MoveL Offs(pZeroCircleMute -9.767, 13.541, 0.4), v100, z0, tNozzle, \Wobj := wobj2Circle;
		WaitRob \InPos;
		SetDO DO5_Program_Feed, 1;
		MoveL Offs(pZeroCircleMute -13.539, 9.769, 0.4), v30, z0, tNozzle, \Wobj := wobj2Circle;
		WaitRob \InPos;
		SetDO DO5_Program_Feed, 0;
		MoveL Offs(pZeroCircleMute 9.878, -13.484, 0.4), v100, z0, tNozzle, \Wobj := wobj2Circle;
		WaitRob \InPos;
		SetDO DO5_Program_Feed, 1;
		MoveL Offs(pZeroCircleMute 13.536, -9.826, 0.4), v30, z0, tNozzle, \Wobj := wobj2Circle;
		WaitRob \InPos;
		SetDO DO6_Between_Layer_Retract, 1;
		SetDO DO5_Program_Feed, 0;
		MoveL Offs(pZeroCircleMute 13.536, -9.826, 5.4), v100, z0, tNozzle, \Wobj := wobj2Circle;

		! Layer: 3
		! LayerParams(infillAngleDegrees=-45.0, pathWidth=1.5, layerHeight=0.2, infillShiftX=0.0, infillShiftY=0.0, numShells=2, infillOverlap=0.0002)
		! T13
		! M6
		TPWRITE "Layer 3 of 4";
		MoveL Offs(pZeroCircleMute 4.938, -17.048, 5.6), v100, z0, tNozzle, \Wobj := wobj2Circle;
		MoveL Offs(pZeroCircleMute 4.938, -17.048, 0.6), v30, z0, tNozzle, \Wobj := wobj2Circle;
		WaitRob \InPos;
		SetDO DO6_Between_Layer_Retract, 0;
		WaitRob \InPos;
		SetDO DO5_Program_Feed, 1;
		MoveL Offs(pZeroCircleMute 7.609, -16.036, 0.6), v30, z0, tNozzle, \Wobj := wobj2Circle;
		MoveL Offs(pZeroCircleMute 10.083, -14.607, 0.6), v30, z0, tNozzle, \Wobj := wobj2Circle;
		MoveL Offs(pZeroCircleMute 12.295, -12.801, 0.6), v30, z0, tNozzle, \Wobj := wobj2Circle;
		MoveL Offs(pZeroCircleMute 14.189, -10.663, 0.6), v30, z0, tNozzle, \Wobj := wobj2Circle;
		MoveL Offs(pZeroCircleMute 15.716, -8.248, 0.6), v30, z0, tNozzle, \Wobj := wobj2Circle;
		MoveL Offs(pZeroCircleMute 16.836, -5.621, 0.6), v30, z0, tNozzle, \Wobj := wobj2Circle;
		MoveL Offs(pZeroCircleMute 17.519, -2.847, 0.6), v30, z0, tNozzle, \Wobj := wobj2Circle;
		MoveL Offs(pZeroCircleMute 17.749, -0.0, 0.6), v30, z0, tNozzle, \Wobj := wobj2Circle;
		MoveL Offs(pZeroCircleMute 17.519, 2.847, 0.6), v30, z0, tNozzle, \Wobj := wobj2Circle;
		MoveL Offs(pZeroCircleMute 16.836, 5.621, 0.6), v30, z0, tNozzle, \Wobj := wobj2Circle;
		MoveL Offs(pZeroCircleMute 15.716, 8.248, 0.6), v30, z0, tNozzle, \Wobj := wobj2Circle;
		MoveL Offs(pZeroCircleMute 14.189, 10.663, 0.6), v30, z0, tNozzle, \Wobj := wobj2Circle;
		MoveL Offs(pZeroCircleMute 12.295, 12.801, 0.6), v30, z0, tNozzle, \Wobj := wobj2Circle;
		MoveL Offs(pZeroCircleMute 10.083, 14.607, 0.6), v30, z0, tNozzle, \Wobj := wobj2Circle;
		MoveL Offs(pZeroCircleMute 7.609, 16.036, 0.6), v30, z0, tNozzle, \Wobj := wobj2Circle;
		MoveL Offs(pZeroCircleMute 4.938, 17.048, 0.6), v30, z0, tNozzle, \Wobj := wobj2Circle;
		MoveL Offs(pZeroCircleMute 2.139, 17.62, 0.6), v30, z0, tNozzle, \Wobj := wobj2Circle;
		MoveL Offs(pZeroCircleMute -0.715, 17.735, 0.6), v30, z0, tNozzle, \Wobj := wobj2Circle;
		MoveL Offs(pZeroCircleMute -3.55, 17.39, 0.6), v30, z0, tNozzle, \Wobj := wobj2Circle;
		MoveL Offs(pZeroCircleMute -6.294, 16.596, 0.6), v30, z0, tNozzle, \Wobj := wobj2Circle;
		MoveL Offs(pZeroCircleMute -8.875, 15.371, 0.6), v30, z0, tNozzle, \Wobj := wobj2Circle;
		MoveL Offs(pZeroCircleMute -11.225, 13.749, 0.6), v30, z0, tNozzle, \Wobj := wobj2Circle;
		MoveL Offs(pZeroCircleMute -13.285, 11.77, 0.6), v30, z0, tNozzle, \Wobj := wobj2Circle;
		MoveL Offs(pZeroCircleMute -15.001, 9.486, 0.6), v30, z0, tNozzle, \Wobj := wobj2Circle;
		MoveL Offs(pZeroCircleMute -16.329, 6.957, 0.6), v30, z0, tNozzle, \Wobj := wobj2Circle;
		MoveL Offs(pZeroCircleMute -17.233, 4.248, 0.6), v30, z0, tNozzle, \Wobj := wobj2Circle;
		MoveL Offs(pZeroCircleMute -17.692, 1.428, 0.6), v30, z0, tNozzle, \Wobj := wobj2Circle;
		MoveL Offs(pZeroCircleMute -17.692, -1.428, 0.6), v30, z0, tNozzle, \Wobj := wobj2Circle;
		MoveL Offs(pZeroCircleMute -17.233, -4.248, 0.6), v30, z0, tNozzle, \Wobj := wobj2Circle;
		MoveL Offs(pZeroCircleMute -16.329, -6.957, 0.6), v30, z0, tNozzle, \Wobj := wobj2Circle;
		MoveL Offs(pZeroCircleMute -15.001, -9.486, 0.6), v30, z0, tNozzle, \Wobj := wobj2Circle;
		MoveL Offs(pZeroCircleMute -13.285, -11.77, 0.6), v30, z0, tNozzle, \Wobj := wobj2Circle;
		MoveL Offs(pZeroCircleMute -11.225, -13.749, 0.6), v30, z0, tNozzle, \Wobj := wobj2Circle;
		MoveL Offs(pZeroCircleMute -8.875, -15.371, 0.6), v30, z0, tNozzle, \Wobj := wobj2Circle;
		MoveL Offs(pZeroCircleMute -6.294, -16.596, 0.6), v30, z0, tNozzle, \Wobj := wobj2Circle;
		MoveL Offs(pZeroCircleMute -3.55, -17.39, 0.6), v30, z0, tNozzle, \Wobj := wobj2Circle;
		MoveL Offs(pZeroCircleMute -0.715, -17.735, 0.6), v30, z0, tNozzle, \Wobj := wobj2Circle;
		MoveL Offs(pZeroCircleMute 2.139, -17.62, 0.6), v30, z0, tNozzle, \Wobj := wobj2Circle;
		MoveL Offs(pZeroCircleMute 4.938, -17.048, 0.6), v30, z0, tNozzle, \Wobj := wobj2Circle;
		WaitRob \InPos;
		SetDO DO5_Program_Feed, 0;
		MoveL Offs(pZeroCircleMute 4.799, -16.567, 0.6), v100, z0, tNozzle, \Wobj := wobj2Circle;
		WaitRob \InPos;
		SetDO DO5_Program_Feed, 1;
		MoveL Offs(pZeroCircleMute 7.394, -15.582, 0.6), v30, z0, tNozzle, \Wobj := wobj2Circle;
		MoveL Offs(pZeroCircleMute 9.798, -14.194, 0.6), v30, z0, tNozzle, \Wobj := wobj2Circle;
		MoveL Offs(pZeroCircleMute 11.948, -12.439, 0.6), v30, z0, tNozzle, \Wobj := wobj2Circle;
		MoveL Offs(pZeroCircleMute 13.788, -10.361, 0.6), v30, z0, tNozzle, \Wobj := wobj2Circle;
		MoveL Offs(pZeroCircleMute 15.272, -8.015, 0.6), v30, z0, tNozzle, \Wobj := wobj2Circle;
		MoveL Offs(pZeroCircleMute 16.36, -5.462, 0.6), v30, z0, tNozzle, \Wobj := wobj2Circle;
		MoveL Offs(pZeroCircleMute 17.024, -2.767, 0.6), v30, z0, tNozzle, \Wobj := wobj2Circle;
		MoveL Offs(pZeroCircleMute 17.248, -0.0, 0.6), v30, z0, tNozzle, \Wobj := wobj2Circle;
		MoveL Offs(pZeroCircleMute 17.024, 2.767, 0.6), v30, z0, tNozzle, \Wobj := wobj2Circle;
		MoveL Offs(pZeroCircleMute 16.36, 5.462, 0.6), v30, z0, tNozzle, \Wobj := wobj2Circle;
		MoveL Offs(pZeroCircleMute 15.272, 8.015, 0.6), v30, z0, tNozzle, \Wobj := wobj2Circle;
		MoveL Offs(pZeroCircleMute 13.788, 10.361, 0.6), v30, z0, tNozzle, \Wobj := wobj2Circle;
		MoveL Offs(pZeroCircleMute 11.948, 12.439, 0.6), v30, z0, tNozzle, \Wobj := wobj2Circle;
		MoveL Offs(pZeroCircleMute 9.798, 14.194, 0.6), v30, z0, tNozzle, \Wobj := wobj2Circle;
		MoveL Offs(pZeroCircleMute 7.394, 15.582, 0.6), v30, z0, tNozzle, \Wobj := wobj2Circle;
		MoveL Offs(pZeroCircleMute 4.799, 16.567, 0.6), v30, z0, tNozzle, \Wobj := wobj2Circle;
		MoveL Offs(pZeroCircleMute 2.079, 17.122, 0.6), v30, z0, tNozzle, \Wobj := wobj2Circle;
		MoveL Offs(pZeroCircleMute -0.694, 17.234, 0.6), v30, z0, tNozzle, \Wobj := wobj2Circle;
		MoveL Offs(pZeroCircleMute -3.45, 16.899, 0.6), v30, z0, tNozzle, \Wobj := wobj2Circle;
		MoveL Offs(pZeroCircleMute -6.116, 16.127, 0.6), v30, z0, tNozzle, \Wobj := wobj2Circle;
		MoveL Offs(pZeroCircleMute -8.624, 14.937, 0.6), v30, z0, tNozzle, \Wobj := wobj2Circle;
		MoveL Offs(pZeroCircleMute -10.908, 13.36, 0.6), v30, z0, tNozzle, \Wobj := wobj2Circle;
		MoveL Offs(pZeroCircleMute -12.91, 11.437, 0.6), v30, z0, tNozzle, \Wobj := wobj2Circle;
		MoveL Offs(pZeroCircleMute -14.577, 9.218, 0.6), v30, z0, tNozzle, \Wobj := wobj2Circle;
		MoveL Offs(pZeroCircleMute -15.867, 6.76, 0.6), v30, z0, tNozzle, \Wobj := wobj2Circle;
		MoveL Offs(pZeroCircleMute -16.746, 4.128, 0.6), v30, z0, tNozzle, \Wobj := wobj2Circle;
		MoveL Offs(pZeroCircleMute -17.192, 1.388, 0.6), v30, z0, tNozzle, \Wobj := wobj2Circle;
		MoveL Offs(pZeroCircleMute -17.192, -1.388, 0.6), v30, z0, tNozzle, \Wobj := wobj2Circle;
		MoveL Offs(pZeroCircleMute -16.746, -4.128, 0.6), v30, z0, tNozzle, \Wobj := wobj2Circle;
		MoveL Offs(pZeroCircleMute -15.867, -6.76, 0.6), v30, z0, tNozzle, \Wobj := wobj2Circle;
		MoveL Offs(pZeroCircleMute -14.577, -9.218, 0.6), v30, z0, tNozzle, \Wobj := wobj2Circle;
		MoveL Offs(pZeroCircleMute -12.91, -11.437, 0.6), v30, z0, tNozzle, \Wobj := wobj2Circle;
		MoveL Offs(pZeroCircleMute -10.908, -13.36, 0.6), v30, z0, tNozzle, \Wobj := wobj2Circle;
		MoveL Offs(pZeroCircleMute -8.624, -14.937, 0.6), v30, z0, tNozzle, \Wobj := wobj2Circle;
		MoveL Offs(pZeroCircleMute -6.116, -16.127, 0.6), v30, z0, tNozzle, \Wobj := wobj2Circle;
		MoveL Offs(pZeroCircleMute -3.45, -16.899, 0.6), v30, z0, tNozzle, \Wobj := wobj2Circle;
		MoveL Offs(pZeroCircleMute -0.694, -17.234, 0.6), v30, z0, tNozzle, \Wobj := wobj2Circle;
		MoveL Offs(pZeroCircleMute 2.079, -17.122, 0.6), v30, z0, tNozzle, \Wobj := wobj2Circle;
		MoveL Offs(pZeroCircleMute 4.799, -16.567, 0.6), v30, z0, tNozzle, \Wobj := wobj2Circle;
		WaitRob \InPos;
		SetDO DO5_Program_Feed, 0;
		MoveL Offs(pZeroCircleMute 5.273, -15.852, 0.6), v100, z0, tNozzle, \Wobj := wobj2Circle;
		WaitRob \InPos;
		SetDO DO5_Program_Feed, 1;
		MoveL Offs(pZeroCircleMute -15.841, 5.261, 0.6), v30, z0, tNozzle, \Wobj := wobj2Circle;
		WaitRob \InPos;
		SetDO DO5_Program_Feed, 0;
		MoveL Offs(pZeroCircleMute -15.274, 6.816, 0.6), v100, z0, tNozzle, \Wobj := wobj2Circle;
		WaitRob \InPos;
		SetDO DO5_Program_Feed, 1;
		MoveL Offs(pZeroCircleMute 6.811, -15.269, 0.6), v30, z0, tNozzle, \Wobj := wobj2Circle;
		WaitRob \InPos;
		SetDO DO5_Program_Feed, 0;
		MoveL Offs(pZeroCircleMute 8.202, -14.539, 0.6), v100, z0, tNozzle, \Wobj := wobj2Circle;
		WaitRob \InPos;
		SetDO DO5_Program_Feed, 1;
		MoveL Offs(pZeroCircleMute -14.544, 8.207, 0.6), v30, z0, tNozzle, \Wobj := wobj2Circle;
		WaitRob \InPos;
		SetDO DO5_Program_Feed, 0;
		MoveL Offs(pZeroCircleMute -13.73, 9.514, 0.6), v100, z0, tNozzle, \Wobj := wobj2Circle;
		WaitRob \InPos;
		SetDO DO5_Program_Feed, 1;
		MoveL Offs(pZeroCircleMute 9.542, -13.758, 0.6), v30, z0, tNozzle, \Wobj := wobj2Circle;
		WaitRob \InPos;
		SetDO DO5_Program_Feed, 0;
		MoveL Offs(pZeroCircleMute 10.71, -12.804, 0.6), v100, z0, tNozzle, \Wobj := wobj2Circle;
		WaitRob \InPos;
		SetDO DO5_Program_Feed, 1;
		MoveL Offs(pZeroCircleMute -12.82, 10.725, 0.6), v30, z0, tNozzle, \Wobj := wobj2Circle;
		WaitRob \InPos;
		SetDO DO5_Program_Feed, 0;
		MoveL Offs(pZeroCircleMute -11.791, 11.819, 0.6), v100, z0, tNozzle, \Wobj := wobj2Circle;
		WaitRob \InPos;
		SetDO DO5_Program_Feed, 1;
		MoveL Offs(pZeroCircleMute 11.837, -11.81, 0.6), v30, z0, tNozzle, \Wobj := wobj2Circle;
		WaitRob \InPos;
		SetDO DO5_Program_Feed, 0;
		MoveL Offs(pZeroCircleMute 12.834, -10.685, 0.6), v100, z0, tNozzle, \Wobj := wobj2Circle;
		WaitRob \InPos;
		SetDO DO5_Program_Feed, 1;
		MoveL Offs(pZeroCircleMute -10.709, 12.858, 0.6), v30, z0, tNozzle, \Wobj := wobj2Circle;
		WaitRob \InPos;
		SetDO DO5_Program_Feed, 0;
		MoveL Offs(pZeroCircleMute -9.473, 13.743, 0.6), v100, z0, tNozzle, \Wobj := wobj2Circle;
		WaitRob \InPos;
		SetDO DO5_Program_Feed, 1;
		MoveL Offs(pZeroCircleMute 13.753, -9.483, 0.6), v30, z0, tNozzle, \Wobj := wobj2Circle;
		WaitRob \InPos;
		SetDO DO5_Program_Feed, 0;
		MoveL Offs(pZeroCircleMute 14.574, -8.183, 0.6), v100, z0, tNozzle, \Wobj := wobj2Circle;
		WaitRob \InPos;
		SetDO DO5_Program_Feed, 1;
		MoveL Offs(pZeroCircleMute -8.196, 14.587, 0.6), v30, z0, tNozzle, \Wobj := wobj2Circle;
		WaitRob \InPos;
		SetDO DO5_Program_Feed, 0;
		MoveL Offs(pZeroCircleMute -6.757, 15.269, 0.6), v100, z0, tNozzle, \Wobj := wobj2Circle;
		WaitRob \InPos;
		SetDO DO5_Program_Feed, 1;
		MoveL Offs(pZeroCircleMute 15.266, -6.754, 0.6), v30, z0, tNozzle, \Wobj := wobj2Circle;
		WaitRob \InPos;
		SetDO DO5_Program_Feed, 0;
		MoveL Offs(pZeroCircleMute 15.895, -5.261, 0.6), v100, z0, tNozzle, \Wobj := wobj2Circle;
		WaitRob \InPos;
		SetDO DO5_Program_Feed, 1;
		MoveL Offs(pZeroCircleMute -5.229, 15.863, 0.6), v30, z0, tNozzle, \Wobj := wobj2Circle;
		WaitRob \InPos;
		SetDO DO5_Program_Feed, 0;
		MoveL Offs(pZeroCircleMute -3.585, 16.34, 0.6), v100, z0, tNozzle, \Wobj := wobj2Circle;
		WaitRob \InPos;
		SetDO DO5_Program_Feed, 1;
		MoveL Offs(pZeroCircleMute 16.314, -3.559, 0.6), v30, z0, tNozzle, \Wobj := wobj2Circle;
		WaitRob \InPos;
		SetDO DO5_Program_Feed, 0;
		MoveL Offs(pZeroCircleMute 16.606, -1.73, 0.6), v100, z0, tNozzle, \Wobj := wobj2Circle;
		WaitRob \InPos;
		SetDO DO5_Program_Feed, 1;
		MoveL Offs(pZeroCircleMute -1.728, 16.605, 0.6), v30, z0, tNozzle, \Wobj := wobj2Circle;
		WaitRob \InPos;
		SetDO DO5_Program_Feed, 0;
		MoveL Offs(pZeroCircleMute 0.305, 16.693, 0.6), v100, z0, tNozzle, \Wobj := wobj2Circle;
		WaitRob \InPos;
		SetDO DO5_Program_Feed, 1;
		MoveL Offs(pZeroCircleMute 16.724, 0.274, 0.6), v30, z0, tNozzle, \Wobj := wobj2Circle;
		WaitRob \InPos;
		SetDO DO5_Program_Feed, 0;
		MoveL Offs(pZeroCircleMute 16.538, 2.581, 0.6), v100, z0, tNozzle, \Wobj := wobj2Circle;
		WaitRob \InPos;
		SetDO DO5_Program_Feed, 1;
		MoveL Offs(pZeroCircleMute 2.617, 16.502, 0.6), v30, z0, tNozzle, \Wobj := wobj2Circle;
		WaitRob \InPos;
		SetDO DO5_Program_Feed, 0;
		MoveL Offs(pZeroCircleMute 5.459, 15.782, 0.6), v100, z0, tNozzle, \Wobj := wobj2Circle;
		WaitRob \InPos;
		SetDO DO5_Program_Feed, 1;
		MoveL Offs(pZeroCircleMute 15.845, 5.395, 0.6), v30, z0, tNozzle, \Wobj := wobj2Circle;
		WaitRob \InPos;
		SetDO DO5_Program_Feed, 0;
		MoveL Offs(pZeroCircleMute 13.536, 9.826, 0.6), v100, z0, tNozzle, \Wobj := wobj2Circle;
		WaitRob \InPos;
		SetDO DO5_Program_Feed, 1;
		MoveL Offs(pZeroCircleMute 9.878, 13.484, 0.6), v30, z0, tNozzle, \Wobj := wobj2Circle;
		WaitRob \InPos;
		SetDO DO5_Program_Feed, 0;
		MoveL Offs(pZeroCircleMute -16.322, 3.622, 0.6), v100, z0, tNozzle, \Wobj := wobj2Circle;
		WaitRob \InPos;
		SetDO DO5_Program_Feed, 1;
		MoveL Offs(pZeroCircleMute 3.6, -16.301, 0.6), v30, z0, tNozzle, \Wobj := wobj2Circle;
		WaitRob \InPos;
		SetDO DO5_Program_Feed, 0;
		MoveL Offs(pZeroCircleMute 1.81, -16.632, 0.6), v100, z0, tNozzle, \Wobj := wobj2Circle;
		WaitRob \InPos;
		SetDO DO5_Program_Feed, 1;
		MoveL Offs(pZeroCircleMute -16.619, 1.797, 0.6), v30, z0, tNozzle, \Wobj := wobj2Circle;
		WaitRob \InPos;
		SetDO DO5_Program_Feed, 0;
		MoveL Offs(pZeroCircleMute -16.692, -0.252, 0.6), v100, z0, tNozzle, \Wobj := wobj2Circle;
		WaitRob \InPos;
		SetDO DO5_Program_Feed, 1;
		MoveL Offs(pZeroCircleMute -0.229, -16.715, 0.6), v30, z0, tNozzle, \Wobj := wobj2Circle;
		WaitRob \InPos;
		SetDO DO5_Program_Feed, 0;
		MoveL Offs(pZeroCircleMute -2.561, -16.503, 0.6), v100, z0, tNozzle, \Wobj := wobj2Circle;
		WaitRob \InPos;
		SetDO DO5_Program_Feed, 1;
		MoveL Offs(pZeroCircleMute -16.493, -2.572, 0.6), v30, z0, tNozzle, \Wobj := wobj2Circle;
		WaitRob \InPos;
		SetDO DO5_Program_Feed, 0;
		MoveL Offs(pZeroCircleMute -15.799, -5.387, 0.6), v100, z0, tNozzle, \Wobj := wobj2Circle;
		WaitRob \InPos;
		SetDO DO5_Program_Feed, 1;
		MoveL Offs(pZeroCircleMute -5.361, -15.825, 0.6), v30, z0, tNozzle, \Wobj := wobj2Circle;
		WaitRob \InPos;
		SetDO DO5_Program_Feed, 0;
		MoveL Offs(pZeroCircleMute -9.767, -13.541, 0.6), v100, z0, tNozzle, \Wobj := wobj2Circle;
		WaitRob \InPos;
		SetDO DO5_Program_Feed, 1;
		MoveL Offs(pZeroCircleMute -13.539, -9.769, 0.6), v30, z0, tNozzle, \Wobj := wobj2Circle;
		WaitRob \InPos;
		SetDO DO6_Between_Layer_Retract, 1;
		SetDO DO5_Program_Feed, 0;
		MoveL Offs(pZeroCircleMute -13.539, -9.769, 5.6), v100, z0, tNozzle, \Wobj := wobj2Circle;

		! Layer: 4
		! LayerParams(infillAngleDegrees=45.0, pathWidth=1.5, layerHeight=0.2, infillShiftX=0.0, infillShiftY=0.0, numShells=2, infillOverlap=0.0002)
		! T14
		! M6
		TPWRITE "Layer 4 of 4";
		MoveL Offs(pZeroCircleMute -11.225, 13.749, 5.8), v100, z0, tNozzle, \Wobj := wobj2Circle;
		MoveL Offs(pZeroCircleMute -11.225, 13.749, 0.8), v30, z0, tNozzle, \Wobj := wobj2Circle;
		WaitRob \InPos;
		SetDO DO6_Between_Layer_Retract, 0;
		WaitRob \InPos;
		SetDO DO5_Program_Feed, 1;
		MoveL Offs(pZeroCircleMute -13.285, 11.77, 0.8), v30, z0, tNozzle, \Wobj := wobj2Circle;
		MoveL Offs(pZeroCircleMute -15.001, 9.486, 0.8), v30, z0, tNozzle, \Wobj := wobj2Circle;
		MoveL Offs(pZeroCircleMute -16.329, 6.957, 0.8), v30, z0, tNozzle, \Wobj := wobj2Circle;
		MoveL Offs(pZeroCircleMute -17.233, 4.248, 0.8), v30, z0, tNozzle, \Wobj := wobj2Circle;
		MoveL Offs(pZeroCircleMute -17.692, 1.428, 0.8), v30, z0, tNozzle, \Wobj := wobj2Circle;
		MoveL Offs(pZeroCircleMute -17.692, -1.428, 0.8), v30, z0, tNozzle, \Wobj := wobj2Circle;
		MoveL Offs(pZeroCircleMute -17.233, -4.248, 0.8), v30, z0, tNozzle, \Wobj := wobj2Circle;
		MoveL Offs(pZeroCircleMute -16.329, -6.957, 0.8), v30, z0, tNozzle, \Wobj := wobj2Circle;
		MoveL Offs(pZeroCircleMute -15.001, -9.486, 0.8), v30, z0, tNozzle, \Wobj := wobj2Circle;
		MoveL Offs(pZeroCircleMute -13.285, -11.77, 0.8), v30, z0, tNozzle, \Wobj := wobj2Circle;
		MoveL Offs(pZeroCircleMute -11.225, -13.749, 0.8), v30, z0, tNozzle, \Wobj := wobj2Circle;
		MoveL Offs(pZeroCircleMute -8.875, -15.371, 0.8), v30, z0, tNozzle, \Wobj := wobj2Circle;
		MoveL Offs(pZeroCircleMute -6.294, -16.596, 0.8), v30, z0, tNozzle, \Wobj := wobj2Circle;
		MoveL Offs(pZeroCircleMute -3.55, -17.39, 0.8), v30, z0, tNozzle, \Wobj := wobj2Circle;
		MoveL Offs(pZeroCircleMute -0.715, -17.735, 0.8), v30, z0, tNozzle, \Wobj := wobj2Circle;
		MoveL Offs(pZeroCircleMute 2.139, -17.62, 0.8), v30, z0, tNozzle, \Wobj := wobj2Circle;
		MoveL Offs(pZeroCircleMute 4.938, -17.048, 0.8), v30, z0, tNozzle, \Wobj := wobj2Circle;
		MoveL Offs(pZeroCircleMute 7.609, -16.036, 0.8), v30, z0, tNozzle, \Wobj := wobj2Circle;
		MoveL Offs(pZeroCircleMute 10.083, -14.607, 0.8), v30, z0, tNozzle, \Wobj := wobj2Circle;
		MoveL Offs(pZeroCircleMute 12.295, -12.801, 0.8), v30, z0, tNozzle, \Wobj := wobj2Circle;
		MoveL Offs(pZeroCircleMute 14.189, -10.663, 0.8), v30, z0, tNozzle, \Wobj := wobj2Circle;
		MoveL Offs(pZeroCircleMute 15.716, -8.248, 0.8), v30, z0, tNozzle, \Wobj := wobj2Circle;
		MoveL Offs(pZeroCircleMute 16.836, -5.621, 0.8), v30, z0, tNozzle, \Wobj := wobj2Circle;
		MoveL Offs(pZeroCircleMute 17.519, -2.847, 0.8), v30, z0, tNozzle, \Wobj := wobj2Circle;
		MoveL Offs(pZeroCircleMute 17.749, -0.0, 0.8), v30, z0, tNozzle, \Wobj := wobj2Circle;
		MoveL Offs(pZeroCircleMute 17.519, 2.847, 0.8), v30, z0, tNozzle, \Wobj := wobj2Circle;
		MoveL Offs(pZeroCircleMute 16.836, 5.621, 0.8), v30, z0, tNozzle, \Wobj := wobj2Circle;
		MoveL Offs(pZeroCircleMute 15.716, 8.248, 0.8), v30, z0, tNozzle, \Wobj := wobj2Circle;
		MoveL Offs(pZeroCircleMute 14.189, 10.663, 0.8), v30, z0, tNozzle, \Wobj := wobj2Circle;
		MoveL Offs(pZeroCircleMute 12.295, 12.801, 0.8), v30, z0, tNozzle, \Wobj := wobj2Circle;
		MoveL Offs(pZeroCircleMute 10.083, 14.607, 0.8), v30, z0, tNozzle, \Wobj := wobj2Circle;
		MoveL Offs(pZeroCircleMute 7.609, 16.036, 0.8), v30, z0, tNozzle, \Wobj := wobj2Circle;
		MoveL Offs(pZeroCircleMute 4.938, 17.048, 0.8), v30, z0, tNozzle, \Wobj := wobj2Circle;
		MoveL Offs(pZeroCircleMute 2.139, 17.62, 0.8), v30, z0, tNozzle, \Wobj := wobj2Circle;
		MoveL Offs(pZeroCircleMute -0.715, 17.735, 0.8), v30, z0, tNozzle, \Wobj := wobj2Circle;
		MoveL Offs(pZeroCircleMute -3.55, 17.39, 0.8), v30, z0, tNozzle, \Wobj := wobj2Circle;
		MoveL Offs(pZeroCircleMute -6.294, 16.596, 0.8), v30, z0, tNozzle, \Wobj := wobj2Circle;
		MoveL Offs(pZeroCircleMute -8.875, 15.371, 0.8), v30, z0, tNozzle, \Wobj := wobj2Circle;
		MoveL Offs(pZeroCircleMute -11.225, 13.749, 0.8), v30, z0, tNozzle, \Wobj := wobj2Circle;
		WaitRob \InPos;
		SetDO DO5_Program_Feed, 0;
		MoveL Offs(pZeroCircleMute -10.908, 13.36, 0.8), v100, z0, tNozzle, \Wobj := wobj2Circle;
		WaitRob \InPos;
		SetDO DO5_Program_Feed, 1;
		MoveL Offs(pZeroCircleMute -12.91, 11.437, 0.8), v30, z0, tNozzle, \Wobj := wobj2Circle;
		MoveL Offs(pZeroCircleMute -14.577, 9.218, 0.8), v30, z0, tNozzle, \Wobj := wobj2Circle;
		MoveL Offs(pZeroCircleMute -15.867, 6.76, 0.8), v30, z0, tNozzle, \Wobj := wobj2Circle;
		MoveL Offs(pZeroCircleMute -16.746, 4.128, 0.8), v30, z0, tNozzle, \Wobj := wobj2Circle;
		MoveL Offs(pZeroCircleMute -17.192, 1.388, 0.8), v30, z0, tNozzle, \Wobj := wobj2Circle;
		MoveL Offs(pZeroCircleMute -17.192, -1.388, 0.8), v30, z0, tNozzle, \Wobj := wobj2Circle;
		MoveL Offs(pZeroCircleMute -16.746, -4.128, 0.8), v30, z0, tNozzle, \Wobj := wobj2Circle;
		MoveL Offs(pZeroCircleMute -15.867, -6.76, 0.8), v30, z0, tNozzle, \Wobj := wobj2Circle;
		MoveL Offs(pZeroCircleMute -14.577, -9.218, 0.8), v30, z0, tNozzle, \Wobj := wobj2Circle;
		MoveL Offs(pZeroCircleMute -12.91, -11.437, 0.8), v30, z0, tNozzle, \Wobj := wobj2Circle;
		MoveL Offs(pZeroCircleMute -10.908, -13.36, 0.8), v30, z0, tNozzle, \Wobj := wobj2Circle;
		MoveL Offs(pZeroCircleMute -8.624, -14.937, 0.8), v30, z0, tNozzle, \Wobj := wobj2Circle;
		MoveL Offs(pZeroCircleMute -6.116, -16.127, 0.8), v30, z0, tNozzle, \Wobj := wobj2Circle;
		MoveL Offs(pZeroCircleMute -3.45, -16.899, 0.8), v30, z0, tNozzle, \Wobj := wobj2Circle;
		MoveL Offs(pZeroCircleMute -0.694, -17.234, 0.8), v30, z0, tNozzle, \Wobj := wobj2Circle;
		MoveL Offs(pZeroCircleMute 2.079, -17.122, 0.8), v30, z0, tNozzle, \Wobj := wobj2Circle;
		MoveL Offs(pZeroCircleMute 4.799, -16.567, 0.8), v30, z0, tNozzle, \Wobj := wobj2Circle;
		MoveL Offs(pZeroCircleMute 7.394, -15.582, 0.8), v30, z0, tNozzle, \Wobj := wobj2Circle;
		MoveL Offs(pZeroCircleMute 9.798, -14.194, 0.8), v30, z0, tNozzle, \Wobj := wobj2Circle;
		MoveL Offs(pZeroCircleMute 11.948, -12.439, 0.8), v30, z0, tNozzle, \Wobj := wobj2Circle;
		MoveL Offs(pZeroCircleMute 13.788, -10.361, 0.8), v30, z0, tNozzle, \Wobj := wobj2Circle;
		MoveL Offs(pZeroCircleMute 15.272, -8.015, 0.8), v30, z0, tNozzle, \Wobj := wobj2Circle;
		MoveL Offs(pZeroCircleMute 16.36, -5.462, 0.8), v30, z0, tNozzle, \Wobj := wobj2Circle;
		MoveL Offs(pZeroCircleMute 17.024, -2.767, 0.8), v30, z0, tNozzle, \Wobj := wobj2Circle;
		MoveL Offs(pZeroCircleMute 17.248, -0.0, 0.8), v30, z0, tNozzle, \Wobj := wobj2Circle;
		MoveL Offs(pZeroCircleMute 17.024, 2.767, 0.8), v30, z0, tNozzle, \Wobj := wobj2Circle;
		MoveL Offs(pZeroCircleMute 16.36, 5.462, 0.8), v30, z0, tNozzle, \Wobj := wobj2Circle;
		MoveL Offs(pZeroCircleMute 15.272, 8.015, 0.8), v30, z0, tNozzle, \Wobj := wobj2Circle;
		MoveL Offs(pZeroCircleMute 13.788, 10.361, 0.8), v30, z0, tNozzle, \Wobj := wobj2Circle;
		MoveL Offs(pZeroCircleMute 11.948, 12.439, 0.8), v30, z0, tNozzle, \Wobj := wobj2Circle;
		MoveL Offs(pZeroCircleMute 9.798, 14.194, 0.8), v30, z0, tNozzle, \Wobj := wobj2Circle;
		MoveL Offs(pZeroCircleMute 7.394, 15.582, 0.8), v30, z0, tNozzle, \Wobj := wobj2Circle;
		MoveL Offs(pZeroCircleMute 4.799, 16.567, 0.8), v30, z0, tNozzle, \Wobj := wobj2Circle;
		MoveL Offs(pZeroCircleMute 2.079, 17.122, 0.8), v30, z0, tNozzle, \Wobj := wobj2Circle;
		MoveL Offs(pZeroCircleMute -0.694, 17.234, 0.8), v30, z0, tNozzle, \Wobj := wobj2Circle;
		MoveL Offs(pZeroCircleMute -3.45, 16.899, 0.8), v30, z0, tNozzle, \Wobj := wobj2Circle;
		MoveL Offs(pZeroCircleMute -6.116, 16.127, 0.8), v30, z0, tNozzle, \Wobj := wobj2Circle;
		MoveL Offs(pZeroCircleMute -8.624, 14.937, 0.8), v30, z0, tNozzle, \Wobj := wobj2Circle;
		MoveL Offs(pZeroCircleMute -10.908, 13.36, 0.8), v30, z0, tNozzle, \Wobj := wobj2Circle;
		WaitRob \InPos;
		SetDO DO5_Program_Feed, 0;
		MoveL Offs(pZeroCircleMute -9.767, 13.541, 0.8), v100, z0, tNozzle, \Wobj := wobj2Circle;
		WaitRob \InPos;
		SetDO DO5_Program_Feed, 1;
		MoveL Offs(pZeroCircleMute -13.539, 9.769, 0.8), v30, z0, tNozzle, \Wobj := wobj2Circle;
		WaitRob \InPos;
		SetDO DO5_Program_Feed, 0;
		MoveL Offs(pZeroCircleMute -15.799, 5.387, 0.8), v100, z0, tNozzle, \Wobj := wobj2Circle;
		WaitRob \InPos;
		SetDO DO5_Program_Feed, 1;
		MoveL Offs(pZeroCircleMute -5.361, 15.825, 0.8), v30, z0, tNozzle, \Wobj := wobj2Circle;
		WaitRob \InPos;
		SetDO DO5_Program_Feed, 0;
		MoveL Offs(pZeroCircleMute -2.561, 16.503, 0.8), v100, z0, tNozzle, \Wobj := wobj2Circle;
		WaitRob \InPos;
		SetDO DO5_Program_Feed, 1;
		MoveL Offs(pZeroCircleMute -16.493, 2.572, 0.8), v30, z0, tNozzle, \Wobj := wobj2Circle;
		WaitRob \InPos;
		SetDO DO5_Program_Feed, 0;
		MoveL Offs(pZeroCircleMute -16.692, 0.252, 0.8), v100, z0, tNozzle, \Wobj := wobj2Circle;
		WaitRob \InPos;
		SetDO DO5_Program_Feed, 1;
		MoveL Offs(pZeroCircleMute -0.229, 16.715, 0.8), v30, z0, tNozzle, \Wobj := wobj2Circle;
		WaitRob \InPos;
		SetDO DO5_Program_Feed, 0;
		MoveL Offs(pZeroCircleMute 1.81, 16.632, 0.8), v100, z0, tNozzle, \Wobj := wobj2Circle;
		WaitRob \InPos;
		SetDO DO5_Program_Feed, 1;
		MoveL Offs(pZeroCircleMute -16.619, -1.797, 0.8), v30, z0, tNozzle, \Wobj := wobj2Circle;
		WaitRob \InPos;
		SetDO DO5_Program_Feed, 0;
		MoveL Offs(pZeroCircleMute -16.322, -3.622, 0.8), v100, z0, tNozzle, \Wobj := wobj2Circle;
		WaitRob \InPos;
		SetDO DO5_Program_Feed, 1;
		MoveL Offs(pZeroCircleMute 3.6, 16.301, 0.8), v30, z0, tNozzle, \Wobj := wobj2Circle;
		WaitRob \InPos;
		SetDO DO5_Program_Feed, 0;
		MoveL Offs(pZeroCircleMute 5.273, 15.852, 0.8), v100, z0, tNozzle, \Wobj := wobj2Circle;
		WaitRob \InPos;
		SetDO DO5_Program_Feed, 1;
		MoveL Offs(pZeroCircleMute -15.841, -5.261, 0.8), v30, z0, tNozzle, \Wobj := wobj2Circle;
		WaitRob \InPos;
		SetDO DO5_Program_Feed, 0;
		MoveL Offs(pZeroCircleMute -15.274, -6.816, 0.8), v100, z0, tNozzle, \Wobj := wobj2Circle;
		WaitRob \InPos;
		SetDO DO5_Program_Feed, 1;
		MoveL Offs(pZeroCircleMute 6.811, 15.269, 0.8), v30, z0, tNozzle, \Wobj := wobj2Circle;
		WaitRob \InPos;
		SetDO DO5_Program_Feed, 0;
		MoveL Offs(pZeroCircleMute 8.202, 14.539, 0.8), v100, z0, tNozzle, \Wobj := wobj2Circle;
		WaitRob \InPos;
		SetDO DO5_Program_Feed, 1;
		MoveL Offs(pZeroCircleMute -14.544, -8.207, 0.8), v30, z0, tNozzle, \Wobj := wobj2Circle;
		WaitRob \InPos;
		SetDO DO5_Program_Feed, 0;
		MoveL Offs(pZeroCircleMute -13.73, -9.514, 0.8), v100, z0, tNozzle, \Wobj := wobj2Circle;
		WaitRob \InPos;
		SetDO DO5_Program_Feed, 1;
		MoveL Offs(pZeroCircleMute 9.542, 13.758, 0.8), v30, z0, tNozzle, \Wobj := wobj2Circle;
		WaitRob \InPos;
		SetDO DO5_Program_Feed, 0;
		MoveL Offs(pZeroCircleMute 10.71, 12.804, 0.8), v100, z0, tNozzle, \Wobj := wobj2Circle;
		WaitRob \InPos;
		SetDO DO5_Program_Feed, 1;
		MoveL Offs(pZeroCircleMute -12.82, -10.725, 0.8), v30, z0, tNozzle, \Wobj := wobj2Circle;
		WaitRob \InPos;
		SetDO DO5_Program_Feed, 0;
		MoveL Offs(pZeroCircleMute -11.791, -11.819, 0.8), v100, z0, tNozzle, \Wobj := wobj2Circle;
		WaitRob \InPos;
		SetDO DO5_Program_Feed, 1;
		MoveL Offs(pZeroCircleMute 11.837, 11.81, 0.8), v30, z0, tNozzle, \Wobj := wobj2Circle;
		WaitRob \InPos;
		SetDO DO5_Program_Feed, 0;
		MoveL Offs(pZeroCircleMute 12.834, 10.685, 0.8), v100, z0, tNozzle, \Wobj := wobj2Circle;
		WaitRob \InPos;
		SetDO DO5_Program_Feed, 1;
		MoveL Offs(pZeroCircleMute -10.709, -12.858, 0.8), v30, z0, tNozzle, \Wobj := wobj2Circle;
		WaitRob \InPos;
		SetDO DO5_Program_Feed, 0;
		MoveL Offs(pZeroCircleMute -9.473, -13.743, 0.8), v100, z0, tNozzle, \Wobj := wobj2Circle;
		WaitRob \InPos;
		SetDO DO5_Program_Feed, 1;
		MoveL Offs(pZeroCircleMute 13.753, 9.483, 0.8), v30, z0, tNozzle, \Wobj := wobj2Circle;
		WaitRob \InPos;
		SetDO DO5_Program_Feed, 0;
		MoveL Offs(pZeroCircleMute 14.574, 8.183, 0.8), v100, z0, tNozzle, \Wobj := wobj2Circle;
		WaitRob \InPos;
		SetDO DO5_Program_Feed, 1;
		MoveL Offs(pZeroCircleMute -8.196, -14.587, 0.8), v30, z0, tNozzle, \Wobj := wobj2Circle;
		WaitRob \InPos;
		SetDO DO5_Program_Feed, 0;
		MoveL Offs(pZeroCircleMute -6.757, -15.269, 0.8), v100, z0, tNozzle, \Wobj := wobj2Circle;
		WaitRob \InPos;
		SetDO DO5_Program_Feed, 1;
		MoveL Offs(pZeroCircleMute 15.266, 6.754, 0.8), v30, z0, tNozzle, \Wobj := wobj2Circle;
		WaitRob \InPos;
		SetDO DO5_Program_Feed, 0;
		MoveL Offs(pZeroCircleMute 15.895, 5.261, 0.8), v100, z0, tNozzle, \Wobj := wobj2Circle;
		WaitRob \InPos;
		SetDO DO5_Program_Feed, 1;
		MoveL Offs(pZeroCircleMute -5.229, -15.863, 0.8), v30, z0, tNozzle, \Wobj := wobj2Circle;
		WaitRob \InPos;
		SetDO DO5_Program_Feed, 0;
		MoveL Offs(pZeroCircleMute -3.585, -16.34, 0.8), v100, z0, tNozzle, \Wobj := wobj2Circle;
		WaitRob \InPos;
		SetDO DO5_Program_Feed, 1;
		MoveL Offs(pZeroCircleMute 16.314, 3.559, 0.8), v30, z0, tNozzle, \Wobj := wobj2Circle;
		WaitRob \InPos;
		SetDO DO5_Program_Feed, 0;
		MoveL Offs(pZeroCircleMute 16.606, 1.73, 0.8), v100, z0, tNozzle, \Wobj := wobj2Circle;
		WaitRob \InPos;
		SetDO DO5_Program_Feed, 1;
		MoveL Offs(pZeroCircleMute -1.728, -16.605, 0.8), v30, z0, tNozzle, \Wobj := wobj2Circle;
		WaitRob \InPos;
		SetDO DO5_Program_Feed, 0;
		MoveL Offs(pZeroCircleMute 0.305, -16.693, 0.8), v100, z0, tNozzle, \Wobj := wobj2Circle;
		WaitRob \InPos;
		SetDO DO5_Program_Feed, 1;
		MoveL Offs(pZeroCircleMute 16.724, -0.274, 0.8), v30, z0, tNozzle, \Wobj := wobj2Circle;
		WaitRob \InPos;
		SetDO DO5_Program_Feed, 0;
		MoveL Offs(pZeroCircleMute 16.538, -2.581, 0.8), v100, z0, tNozzle, \Wobj := wobj2Circle;
		WaitRob \InPos;
		SetDO DO5_Program_Feed, 1;
		MoveL Offs(pZeroCircleMute 2.617, -16.502, 0.8), v30, z0, tNozzle, \Wobj := wobj2Circle;
		WaitRob \InPos;
		SetDO DO5_Program_Feed, 0;
		MoveL Offs(pZeroCircleMute 5.459, -15.782, 0.8), v100, z0, tNozzle, \Wobj := wobj2Circle;
		WaitRob \InPos;
		SetDO DO5_Program_Feed, 1;
		MoveL Offs(pZeroCircleMute 15.845, -5.395, 0.8), v30, z0, tNozzle, \Wobj := wobj2Circle;
		WaitRob \InPos;
		SetDO DO5_Program_Feed, 0;
		MoveL Offs(pZeroCircleMute 13.536, -9.826, 0.8), v100, z0, tNozzle, \Wobj := wobj2Circle;
		WaitRob \InPos;
		SetDO DO5_Program_Feed, 1;
		MoveL Offs(pZeroCircleMute 9.878, -13.484, 0.8), v30, z0, tNozzle, \Wobj := wobj2Circle;
		WaitRob \InPos;
		SetDO DO6_Between_Layer_Retract, 1;
		SetDO DO5_Program_Feed, 0;
		MoveL Offs(pZeroCircleMute 9.878, -13.484, 5.8), v100, z0, tNozzle, \Wobj := wobj2Circle;

		! Extrusion amount for part is (44.7 mm)

		! End Program codes
		SetDO DO1_Auto_Mode, 0;
		SetDO DO5_Program_Feed, 0;
		SetDO DO3_Heat_Bed, 0;
		SetDO DO4_Heat_Nozzle, 0;
		SetDO DO6_Between_Layer_Retract, 0;
	ENDPROC
	PROC Heat()
		SetDO DO4_Heat_Nozzle, 1;
        SetDO DO3_Heat_Bed, 1;
        TPWrite "Caution: Bed and Nozzle heating";
        WaitDI DI3_Nozzle_At_Temp, 1;
        TPWrite "Nozzle is at temperature";
        WaitDI DI2_Bed_At_Temp, 1;
        TPWrite "Bed at temp";
	ENDPROC
ENDMODULE