		pZeroStartMute = Offs(pZeroStarMute, 0, 0, 0.3);
		pZeroCircleMute = Offs(pZeroCircleMute, 0, 0, 0.3);
		pZeroSquareMute = Offs(pZeroSquareMute, 0, 0, 0.3);
		
		
		! Layer 1 Star
		MoveL Offs(pZeroStarMute, 6.414, -2.071, 5.3), v100, z0, tNozzle, \Wobj := wobj1Star;
		MoveL Offs(pZeroStarMute, 6.414, -2.071, 0.3), v30, z0, tNozzle, \Wobj := wobj1Star;
		WaitRob \InPos;
		SetDO DO5_Program_Feed, 1;
		MoveL Offs(pZeroStarMute, 6.691, -1.008, 0.3), v30, z0, tNozzle, \Wobj := wobj1Star;
		MoveL Offs(pZeroStarMute, 6.692, -1.004, 0.3), v30, z0, tNozzle, \Wobj := wobj1Star;
		MoveL Offs(pZeroStarMute, 6.696, -0.983, 0.3), v30, z0, tNozzle, \Wobj := wobj1Star;
		MoveL Offs(pZeroStarMute, 6.699, -0.962, 0.3), v30, z0, tNozzle, \Wobj := wobj1Star;
		MoveL Offs(pZeroStarMute, 6.792, 0.132, 0.3), v30, z0, tNozzle, \Wobj := wobj1Star;
		MoveL Offs(pZeroStarMute, 6.793, 0.137, 0.3), v30, z0, tNozzle, \Wobj := wobj1Star;
		MoveL Offs(pZeroStarMute, 6.793, 0.158, 0.3), v30, z0, tNozzle, \Wobj := wobj1Star;
		MoveL Offs(pZeroStarMute, 6.793, 0.179, 0.3), v30, z0, tNozzle, \Wobj := wobj1Star;
		MoveL Offs(pZeroStarMute, 6.699, 1.273, 0.3), v30, z0, tNozzle, \Wobj := wobj1Star;
		MoveL Offs(pZeroStarMute, 6.699, 1.278, 0.3), v30, z0, tNozzle, \Wobj := wobj1Star;
		MoveL Offs(pZeroStarMute, 6.696, 1.299, 0.3), v30, z0, tNozzle, \Wobj := wobj1Star;
		MoveL Offs(pZeroStarMute, 6.692, 1.319, 0.3), v30, z0, tNozzle, \Wobj := wobj1Star;
		MoveL Offs(pZeroStarMute, 6.415, 2.382, 0.3), v30, z0, tNozzle, \Wobj := wobj1Star;
		MoveL Offs(pZeroStarMute, 6.414, 2.386, 0.3), v30, z0, tNozzle, \Wobj := wobj1Star;
		MoveL Offs(pZeroStarMute, 6.408, 2.406, 0.3), v30, z0, tNozzle, \Wobj := wobj1Star;
		MoveL Offs(pZeroStarMute, 6.4, 2.426, 0.3), v30, z0, tNozzle, \Wobj := wobj1Star;
		MoveL Offs(pZeroStarMute, 5.948, 3.426, 0.3), v30, z0, tNozzle, \Wobj := wobj1Star;
		MoveL Offs(pZeroStarMute, 5.946, 3.431, 0.3), v30, z0, tNozzle, \Wobj := wobj1Star;
		MoveL Offs(pZeroStarMute, 5.936, 3.45, 0.3), v30, z0, tNozzle, \Wobj := wobj1Star;
		MoveL Offs(pZeroStarMute, 5.925, 3.468, 0.3), v30, z0, tNozzle, \Wobj := wobj1Star;
		MoveL Offs(pZeroStarMute, 5.31, 4.377, 0.3), v30, z0, tNozzle, \Wobj := wobj1Star;
		MoveL Offs(pZeroStarMute, 5.308, 4.381, 0.3), v30, z0, tNozzle, \Wobj := wobj1Star;
		MoveL Offs(pZeroStarMute, 5.295, 4.398, 0.3), v30, z0, tNozzle, \Wobj := wobj1Star;
		MoveL Offs(pZeroStarMute, 5.281, 4.414, 0.3), v30, z0, tNozzle, \Wobj := wobj1Star;
		MoveL Offs(pZeroStarMute, 4.522, 5.207, 0.3), v30, z0, tNozzle, \Wobj := wobj1Star;
		MoveL Offs(pZeroStarMute, 4.518, 5.21, 0.3), v30, z0, tNozzle, \Wobj := wobj1Star;
		MoveL Offs(pZeroStarMute, 4.503, 5.225, 0.3), v30, z0, tNozzle, \Wobj := wobj1Star;
		MoveL Offs(pZeroStarMute, 4.487, 5.238, 0.3), v30, z0, tNozzle, \Wobj := wobj1Star;
		MoveL Offs(pZeroStarMute, 3.604, 5.891, 0.3), v30, z0, tNozzle, \Wobj := wobj1Star;
		MoveL Offs(pZeroStarMute, 3.6, 5.894, 0.3), v30, z0, tNozzle, \Wobj := wobj1Star;
		MoveL Offs(pZeroStarMute, 3.583, 5.906, 0.3), v30, z0, tNozzle, \Wobj := wobj1Star;
		MoveL Offs(pZeroStarMute, 3.564, 5.916, 0.3), v30, z0, tNozzle, \Wobj := wobj1Star;
		MoveL Offs(pZeroStarMute, 2.584, 6.41, 0.3), v30, z0, tNozzle, \Wobj := wobj1Star;
		MoveL Offs(pZeroStarMute, 2.58, 6.412, 0.3), v30, z0, tNozzle, \Wobj := wobj1Star;
		MoveL Offs(pZeroStarMute, 2.56, 6.421, 0.3), v30, z0, tNozzle, \Wobj := wobj1Star;
		MoveL Offs(pZeroStarMute, 2.54, 6.428, 0.3), v30, z0, tNozzle, \Wobj := wobj1Star;
		MoveL Offs(pZeroStarMute, 1.491, 6.75, 0.3), v30, z0, tNozzle, \Wobj := wobj1Star;
		MoveL Offs(pZeroStarMute, 1.486, 6.751, 0.3), v30, z0, tNozzle, \Wobj := wobj1Star;
		MoveL Offs(pZeroStarMute, 1.466, 6.756, 0.3), v30, z0, tNozzle, \Wobj := wobj1Star;
		MoveL Offs(pZeroStarMute, 1.445, 6.76, 0.3), v30, z0, tNozzle, \Wobj := wobj1Star;
		MoveL Offs(pZeroStarMute, 0.356, 6.899, 0.3), v30, z0, tNozzle, \Wobj := wobj1Star;
		MoveL Offs(pZeroStarMute, 0.351, 6.9, 0.3), v30, z0, tNozzle, \Wobj := wobj1Star;
		MoveL Offs(pZeroStarMute, 0.33, 6.902, 0.3), v30, z0, tNozzle, \Wobj := wobj1Star;
		MoveL Offs(pZeroStarMute, 0.309, 6.902, 0.3), v30, z0, tNozzle, \Wobj := wobj1Star;
		MoveL Offs(pZeroStarMute, -0.788, 6.855, 0.3), v30, z0, tNozzle, \Wobj := wobj1Star;
		MoveL Offs(pZeroStarMute, -0.793, 6.855, 0.3), v30, z0, tNozzle, \Wobj := wobj1Star;
		MoveL Offs(pZeroStarMute, -0.814, 6.853, 0.3), v30, z0, tNozzle, \Wobj := wobj1Star;
		MoveL Offs(pZeroStarMute, -0.835, 6.85, 0.3), v30, z0, tNozzle, \Wobj := wobj1Star;
		MoveL Offs(pZeroStarMute, -1.908, 6.618, 0.3), v30, z0, tNozzle, \Wobj := wobj1Star;
		MoveL Offs(pZeroStarMute, -1.913, 6.617, 0.3), v30, z0, tNozzle, \Wobj := wobj1Star;
		MoveL Offs(pZeroStarMute, -1.933, 6.612, 0.3), v30, z0, tNozzle, \Wobj := wobj1Star;
		MoveL Offs(pZeroStarMute, -1.953, 6.605, 0.3), v30, z0, tNozzle, \Wobj := wobj1Star;
		MoveL Offs(pZeroStarMute, -2.972, 6.196, 0.3), v30, z0, tNozzle, \Wobj := wobj1Star;
		MoveL Offs(pZeroStarMute, -2.976, 6.194, 0.3), v30, z0, tNozzle, \Wobj := wobj1Star;
		MoveL Offs(pZeroStarMute, -2.995, 6.185, 0.3), v30, z0, tNozzle, \Wobj := wobj1Star;
		MoveL Offs(pZeroStarMute, -3.014, 6.175, 0.3), v30, z0, tNozzle, \Wobj := wobj1Star;
		MoveL Offs(pZeroStarMute, -3.949, 5.599, 0.3), v30, z0, tNozzle, \Wobj := wobj1Star;
		MoveL Offs(pZeroStarMute, -3.953, 5.597, 0.3), v30, z0, tNozzle, \Wobj := wobj1Star;
		MoveL Offs(pZeroStarMute, -3.97, 5.585, 0.3), v30, z0, tNozzle, \Wobj := wobj1Star;
		MoveL Offs(pZeroStarMute, -3.987, 5.571, 0.3), v30, z0, tNozzle, \Wobj := wobj1Star;
		MoveL Offs(pZeroStarMute, -4.811, 4.846, 0.3), v30, z0, tNozzle, \Wobj := wobj1Star;
		MoveL Offs(pZeroStarMute, -4.814, 4.843, 0.3), v30, z0, tNozzle, \Wobj := wobj1Star;
		MoveL Offs(pZeroStarMute, -4.83, 4.828, 0.3), v30, z0, tNozzle, \Wobj := wobj1Star;
		MoveL Offs(pZeroStarMute, -4.844, 4.812, 0.3), v30, z0, tNozzle, \Wobj := wobj1Star;
		MoveL Offs(pZeroStarMute, -5.533, 3.958, 0.3), v30, z0, tNozzle, \Wobj := wobj1Star;
		MoveL Offs(pZeroStarMute, -5.536, 3.955, 0.3), v30, z0, tNozzle, \Wobj := wobj1Star;
		MoveL Offs(pZeroStarMute, -5.549, 3.938, 0.3), v30, z0, tNozzle, \Wobj := wobj1Star;
		MoveL Offs(pZeroStarMute, -5.56, 3.92, 0.3), v30, z0, tNozzle, \Wobj := wobj1Star;
		MoveL Offs(pZeroStarMute, -6.095, 2.961, 0.3), v30, z0, tNozzle, \Wobj := wobj1Star;
		MoveL Offs(pZeroStarMute, -6.098, 2.957, 0.3), v30, z0, tNozzle, \Wobj := wobj1Star;
		MoveL Offs(pZeroStarMute, -6.107, 2.938, 0.3), v30, z0, tNozzle, \Wobj := wobj1Star;
		MoveL Offs(pZeroStarMute, -6.115, 2.918, 0.3), v30, z0, tNozzle, \Wobj := wobj1Star;
		MoveL Offs(pZeroStarMute, -6.481, 1.883, 0.3), v30, z0, tNozzle, \Wobj := wobj1Star;
		MoveL Offs(pZeroStarMute, -6.482, 1.879, 0.3), v30, z0, tNozzle, \Wobj := wobj1Star;
		MoveL Offs(pZeroStarMute, -6.489, 1.859, 0.3), v30, z0, tNozzle, \Wobj := wobj1Star;
		MoveL Offs(pZeroStarMute, -6.493, 1.838, 0.3), v30, z0, tNozzle, \Wobj := wobj1Star;
		MoveL Offs(pZeroStarMute, -6.679, 0.756, 0.3), v30, z0, tNozzle, \Wobj := wobj1Star;
		MoveL Offs(pZeroStarMute, -6.679, 0.751, 0.3), v30, z0, tNozzle, \Wobj := wobj1Star;
		MoveL Offs(pZeroStarMute, -6.682, 0.73, 0.3), v30, z0, tNozzle, \Wobj := wobj1Star;
		MoveL Offs(pZeroStarMute, -6.683, 0.709, 0.3), v30, z0, tNozzle, \Wobj := wobj1Star;
		MoveL Offs(pZeroStarMute, -6.683, -0.393, 0.3), v30, z0, tNozzle, \Wobj := wobj1Star;
		MoveL Offs(pZeroStarMute, -6.682, -0.415, 0.3), v30, z0, tNozzle, \Wobj := wobj1Star;
		MoveL Offs(pZeroStarMute, -6.679, -0.436, 0.3), v30, z0, tNozzle, \Wobj := wobj1Star;
		MoveL Offs(pZeroStarMute, -6.494, -1.518, 0.3), v30, z0, tNozzle, \Wobj := wobj1Star;
		MoveL Offs(pZeroStarMute, -6.493, -1.522, 0.3), v30, z0, tNozzle, \Wobj := wobj1Star;
		MoveL Offs(pZeroStarMute, -6.489, -1.543, 0.3), v30, z0, tNozzle, \Wobj := wobj1Star;
		MoveL Offs(pZeroStarMute, -6.482, -1.563, 0.3), v30, z0, tNozzle, \Wobj := wobj1Star;
		MoveL Offs(pZeroStarMute, -6.117, -2.598, 0.3), v30, z0, tNozzle, \Wobj := wobj1Star;
		MoveL Offs(pZeroStarMute, -6.115, -2.603, 0.3), v30, z0, tNozzle, \Wobj := wobj1Star;
		MoveL Offs(pZeroStarMute, -6.107, -2.623, 0.3), v30, z0, tNozzle, \Wobj := wobj1Star;
		MoveL Offs(pZeroStarMute, -6.098, -2.641, 0.3), v30, z0, tNozzle, \Wobj := wobj1Star;
		MoveL Offs(pZeroStarMute, -5.562, -3.6, 0.3), v30, z0, tNozzle, \Wobj := wobj1Star;
		MoveL Offs(pZeroStarMute, -5.56, -3.604, 0.3), v30, z0, tNozzle, \Wobj := wobj1Star;
		MoveL Offs(pZeroStarMute, -5.549, -3.622, 0.3), v30, z0, tNozzle, \Wobj := wobj1Star;
		MoveL Offs(pZeroStarMute, -5.536, -3.639, 0.3), v30, z0, tNozzle, \Wobj := wobj1Star;
		MoveL Offs(pZeroStarMute, -4.847, -4.493, 0.3), v30, z0, tNozzle, \Wobj := wobj1Star;
		MoveL Offs(pZeroStarMute, -4.844, -4.497, 0.3), v30, z0, tNozzle, \Wobj := wobj1Star;
		MoveL Offs(pZeroStarMute, -4.83, -4.513, 0.3), v30, z0, tNozzle, \Wobj := wobj1Star;
		MoveL Offs(pZeroStarMute, -4.814, -4.527, 0.3), v30, z0, tNozzle, \Wobj := wobj1Star;
		MoveL Offs(pZeroStarMute, -3.99, -5.253, 0.3), v30, z0, tNozzle, \Wobj := wobj1Star;
		MoveL Offs(pZeroStarMute, -3.987, -5.256, 0.3), v30, z0, tNozzle, \Wobj := wobj1Star;
		MoveL Offs(pZeroStarMute, -3.97, -5.269, 0.3), v30, z0, tNozzle, \Wobj := wobj1Star;
		MoveL Offs(pZeroStarMute, -3.953, -5.281, 0.3), v30, z0, tNozzle, \Wobj := wobj1Star;
		MoveL Offs(pZeroStarMute, -3.018, -5.857, 0.3), v30, z0, tNozzle, \Wobj := wobj1Star;
		MoveL Offs(pZeroStarMute, -3.014, -5.859, 0.3), v30, z0, tNozzle, \Wobj := wobj1Star;
		MoveL Offs(pZeroStarMute, -2.995, -5.869, 0.3), v30, z0, tNozzle, \Wobj := wobj1Star;
		MoveL Offs(pZeroStarMute, -2.976, -5.878, 0.3), v30, z0, tNozzle, \Wobj := wobj1Star;
		MoveL Offs(pZeroStarMute, -1.957, -6.287, 0.3), v30, z0, tNozzle, \Wobj := wobj1Star;
		MoveL Offs(pZeroStarMute, -1.953, -6.289, 0.3), v30, z0, tNozzle, \Wobj := wobj1Star;
		MoveL Offs(pZeroStarMute, -1.933, -6.296, 0.3), v30, z0, tNozzle, \Wobj := wobj1Star;
		MoveL Offs(pZeroStarMute, -1.913, -6.302, 0.3), v30, z0, tNozzle, \Wobj := wobj1Star;
		MoveL Offs(pZeroStarMute, -0.839, -6.533, 0.3), v30, z0, tNozzle, \Wobj := wobj1Star;
		MoveL Offs(pZeroStarMute, -0.835, -6.534, 0.3), v30, z0, tNozzle, \Wobj := wobj1Star;
		MoveL Offs(pZeroStarMute, -0.814, -6.538, 0.3), v30, z0, tNozzle, \Wobj := wobj1Star;
		MoveL Offs(pZeroStarMute, -0.793, -6.539, 0.3), v30, z0, tNozzle, \Wobj := wobj1Star;
		MoveL Offs(pZeroStarMute, 0.304, -6.586, 0.3), v30, z0, tNozzle, \Wobj := wobj1Star;
		MoveL Offs(pZeroStarMute, 0.309, -6.586, 0.3), v30, z0, tNozzle, \Wobj := wobj1Star;
		MoveL Offs(pZeroStarMute, 0.33, -6.586, 0.3), v30, z0, tNozzle, \Wobj := wobj1Star;
		MoveL Offs(pZeroStarMute, 0.351, -6.584, 0.3), v30, z0, tNozzle, \Wobj := wobj1Star;
		MoveL Offs(pZeroStarMute, 1.44, -6.445, 0.3), v30, z0, tNozzle, \Wobj := wobj1Star;
		MoveL Offs(pZeroStarMute, 1.445, -6.444, 0.3), v30, z0, tNozzle, \Wobj := wobj1Star;
		MoveL Offs(pZeroStarMute, 1.466, -6.441, 0.3), v30, z0, tNozzle, \Wobj := wobj1Star;
		MoveL Offs(pZeroStarMute, 1.486, -6.435, 0.3), v30, z0, tNozzle, \Wobj := wobj1Star;
		MoveL Offs(pZeroStarMute, 2.536, -6.114, 0.3), v30, z0, tNozzle, \Wobj := wobj1Star;
		MoveL Offs(pZeroStarMute, 2.54, -6.113, 0.3), v30, z0, tNozzle, \Wobj := wobj1Star;
		MoveL Offs(pZeroStarMute, 2.56, -6.105, 0.3), v30, z0, tNozzle, \Wobj := wobj1Star;
		MoveL Offs(pZeroStarMute, 2.58, -6.097, 0.3), v30, z0, tNozzle, \Wobj := wobj1Star;
		MoveL Offs(pZeroStarMute, 3.56, -5.603, 0.3), v30, z0, tNozzle, \Wobj := wobj1Star;
		MoveL Offs(pZeroStarMute, 3.564, -5.6, 0.3), v30, z0, tNozzle, \Wobj := wobj1Star;
		MoveL Offs(pZeroStarMute, 3.583, -5.59, 0.3), v30, z0, tNozzle, \Wobj := wobj1Star;
		MoveL Offs(pZeroStarMute, 3.6, -5.578, 0.3), v30, z0, tNozzle, \Wobj := wobj1Star;
		MoveL Offs(pZeroStarMute, 4.483, -4.925, 0.3), v30, z0, tNozzle, \Wobj := wobj1Star;
		MoveL Offs(pZeroStarMute, 4.487, -4.923, 0.3), v30, z0, tNozzle, \Wobj := wobj1Star;
		MoveL Offs(pZeroStarMute, 4.503, -4.909, 0.3), v30, z0, tNozzle, \Wobj := wobj1Star;
		MoveL Offs(pZeroStarMute, 4.518, -4.895, 0.3), v30, z0, tNozzle, \Wobj := wobj1Star;
		MoveL Offs(pZeroStarMute, 5.278, -4.102, 0.3), v30, z0, tNozzle, \Wobj := wobj1Star;
		MoveL Offs(pZeroStarMute, 5.281, -4.099, 0.3), v30, z0, tNozzle, \Wobj := wobj1Star;
		MoveL Offs(pZeroStarMute, 5.295, -4.083, 0.3), v30, z0, tNozzle, \Wobj := wobj1Star;
		MoveL Offs(pZeroStarMute, 5.308, -4.066, 0.3), v30, z0, tNozzle, \Wobj := wobj1Star;
		MoveL Offs(pZeroStarMute, 5.923, -3.156, 0.3), v30, z0, tNozzle, \Wobj := wobj1Star;
		MoveL Offs(pZeroStarMute, 5.925, -3.152, 0.3), v30, z0, tNozzle, \Wobj := wobj1Star;
		MoveL Offs(pZeroStarMute, 5.936, -3.134, 0.3), v30, z0, tNozzle, \Wobj := wobj1Star;
		MoveL Offs(pZeroStarMute, 5.946, -3.115, 0.3), v30, z0, tNozzle, \Wobj := wobj1Star;
		MoveL Offs(pZeroStarMute, 6.398, -2.115, 0.3), v30, z0, tNozzle, \Wobj := wobj1Star;
		MoveL Offs(pZeroStarMute, 6.4, -2.111, 0.3), v30, z0, tNozzle, \Wobj := wobj1Star;
		MoveL Offs(pZeroStarMute, 6.408, -2.091, 0.3), v30, z0, tNozzle, \Wobj := wobj1Star;
		MoveL Offs(pZeroStarMute, 6.414, -2.071, 0.3), v30, z0, tNozzle, \Wobj := wobj1Star;
		WaitRob \InPos;
		SetDO DO5_Program_Feed, 0;
		MoveL Offs(pZeroStarMute, 6.928, -2.129, 0.3), v100, z0, tNozzle, \Wobj := wobj1Star;
		WaitRob \InPos;
		SetDO DO5_Program_Feed, 1;
		MoveL Offs(pZeroStarMute, 6.927, -2.153, 0.3), v30, z0, tNozzle, \Wobj := wobj1Star;
		MoveL Offs(pZeroStarMute, 6.927, -2.177, 0.3), v30, z0, tNozzle, \Wobj := wobj1Star;
		MoveL Offs(pZeroStarMute, 6.93, -2.201, 0.3), v30, z0, tNozzle, \Wobj := wobj1Star;
		MoveL Offs(pZeroStarMute, 6.935, -2.224, 0.3), v30, z0, tNozzle, \Wobj := wobj1Star;
		MoveL Offs(pZeroStarMute, 6.948, -2.275, 0.3), v30, z0, tNozzle, \Wobj := wobj1Star;
		MoveL Offs(pZeroStarMute, 9.921, -13.438, 0.3), v30, z0, tNozzle, \Wobj := wobj1Star;
		MoveL Offs(pZeroStarMute, 0.179, -7.132, 0.3), v30, z0, tNozzle, \Wobj := wobj1Star;
		MoveL Offs(pZeroStarMute, 0.159, -7.12, 0.3), v30, z0, tNozzle, \Wobj := wobj1Star;
		MoveL Offs(pZeroStarMute, 0.137, -7.11, 0.3), v30, z0, tNozzle, \Wobj := wobj1Star;
		MoveL Offs(pZeroStarMute, 0.114, -7.102, 0.3), v30, z0, tNozzle, \Wobj := wobj1Star;
		MoveL Offs(pZeroStarMute, 0.091, -7.097, 0.3), v30, z0, tNozzle, \Wobj := wobj1Star;
		MoveL Offs(pZeroStarMute, 0.067, -7.093, 0.3), v30, z0, tNozzle, \Wobj := wobj1Star;
		MoveL Offs(pZeroStarMute, 0.043, -7.092, 0.3), v30, z0, tNozzle, \Wobj := wobj1Star;
		MoveL Offs(pZeroStarMute, 0.02, -7.093, 0.3), v30, z0, tNozzle, \Wobj := wobj1Star;
		MoveL Offs(pZeroStarMute, -0.004, -7.097, 0.3), v30, z0, tNozzle, \Wobj := wobj1Star;
		MoveL Offs(pZeroStarMute, -0.027, -7.102, 0.3), v30, z0, tNozzle, \Wobj := wobj1Star;
		MoveL Offs(pZeroStarMute, -0.05, -7.11, 0.3), v30, z0, tNozzle, \Wobj := wobj1Star;
		MoveL Offs(pZeroStarMute, -0.072, -7.12, 0.3), v30, z0, tNozzle, \Wobj := wobj1Star;
		MoveL Offs(pZeroStarMute, -0.092, -7.132, 0.3), v30, z0, tNozzle, \Wobj := wobj1Star;
		MoveL Offs(pZeroStarMute, -0.136, -7.161, 0.3), v30, z0, tNozzle, \Wobj := wobj1Star;
		MoveL Offs(pZeroStarMute, -9.834, -13.438, 0.3), v30, z0, tNozzle, \Wobj := wobj1Star;
		MoveL Offs(pZeroStarMute, -6.848, -2.224, 0.3), v30, z0, tNozzle, \Wobj := wobj1Star;
		MoveL Offs(pZeroStarMute, -6.843, -2.201, 0.3), v30, z0, tNozzle, \Wobj := wobj1Star;
		MoveL Offs(pZeroStarMute, -6.84, -2.177, 0.3), v30, z0, tNozzle, \Wobj := wobj1Star;
		MoveL Offs(pZeroStarMute, -6.84, -2.153, 0.3), v30, z0, tNozzle, \Wobj := wobj1Star;
		MoveL Offs(pZeroStarMute, -6.841, -2.129, 0.3), v30, z0, tNozzle, \Wobj := wobj1Star;
		MoveL Offs(pZeroStarMute, -6.845, -2.106, 0.3), v30, z0, tNozzle, \Wobj := wobj1Star;
		MoveL Offs(pZeroStarMute, -6.852, -2.083, 0.3), v30, z0, tNozzle, \Wobj := wobj1Star;
		MoveL Offs(pZeroStarMute, -6.86, -2.06, 0.3), v30, z0, tNozzle, \Wobj := wobj1Star;
		MoveL Offs(pZeroStarMute, -6.871, -2.039, 0.3), v30, z0, tNozzle, \Wobj := wobj1Star;
		MoveL Offs(pZeroStarMute, -6.883, -2.018, 0.3), v30, z0, tNozzle, \Wobj := wobj1Star;
		MoveL Offs(pZeroStarMute, -6.898, -1.999, 0.3), v30, z0, tNozzle, \Wobj := wobj1Star;
		MoveL Offs(pZeroStarMute, -6.914, -1.982, 0.3), v30, z0, tNozzle, \Wobj := wobj1Star;
		MoveL Offs(pZeroStarMute, -6.932, -1.966, 0.3), v30, z0, tNozzle, \Wobj := wobj1Star;
		MoveL Offs(pZeroStarMute, -6.973, -1.933, 0.3), v30, z0, tNozzle, \Wobj := wobj1Star;
		MoveL Offs(pZeroStarMute, -15.939, 5.351, 0.3), v30, z0, tNozzle, \Wobj := wobj1Star;
		MoveL Offs(pZeroStarMute, -4.351, 5.976, 0.3), v30, z0, tNozzle, \Wobj := wobj1Star;
		MoveL Offs(pZeroStarMute, -4.328, 5.978, 0.3), v30, z0, tNozzle, \Wobj := wobj1Star;
		MoveL Offs(pZeroStarMute, -4.304, 5.983, 0.3), v30, z0, tNozzle, \Wobj := wobj1Star;
		MoveL Offs(pZeroStarMute, -4.281, 5.99, 0.3), v30, z0, tNozzle, \Wobj := wobj1Star;
		MoveL Offs(pZeroStarMute, -4.259, 5.999, 0.3), v30, z0, tNozzle, \Wobj := wobj1Star;
		MoveL Offs(pZeroStarMute, -4.238, 6.01, 0.3), v30, z0, tNozzle, \Wobj := wobj1Star;
		MoveL Offs(pZeroStarMute, -4.218, 6.023, 0.3), v30, z0, tNozzle, \Wobj := wobj1Star;
		MoveL Offs(pZeroStarMute, -4.199, 6.038, 0.3), v30, z0, tNozzle, \Wobj := wobj1Star;
		MoveL Offs(pZeroStarMute, -4.182, 6.055, 0.3), v30, z0, tNozzle, \Wobj := wobj1Star;
		MoveL Offs(pZeroStarMute, -4.167, 6.073, 0.3), v30, z0, tNozzle, \Wobj := wobj1Star;
		MoveL Offs(pZeroStarMute, -4.153, 6.093, 0.3), v30, z0, tNozzle, \Wobj := wobj1Star;
		MoveL Offs(pZeroStarMute, -4.141, 6.114, 0.3), v30, z0, tNozzle, \Wobj := wobj1Star;
		MoveL Offs(pZeroStarMute, -4.132, 6.135, 0.3), v30, z0, tNozzle, \Wobj := wobj1Star;
		MoveL Offs(pZeroStarMute, -4.113, 6.184, 0.3), v30, z0, tNozzle, \Wobj := wobj1Star;
		MoveL Offs(pZeroStarMute, 0.043, 16.963, 0.3), v30, z0, tNozzle, \Wobj := wobj1Star;
		MoveL Offs(pZeroStarMute, 4.219, 6.135, 0.3), v30, z0, tNozzle, \Wobj := wobj1Star;
		MoveL Offs(pZeroStarMute, 4.228, 6.114, 0.3), v30, z0, tNozzle, \Wobj := wobj1Star;
		MoveL Offs(pZeroStarMute, 4.24, 6.093, 0.3), v30, z0, tNozzle, \Wobj := wobj1Star;
		MoveL Offs(pZeroStarMute, 4.254, 6.073, 0.3), v30, z0, tNozzle, \Wobj := wobj1Star;
		MoveL Offs(pZeroStarMute, 4.269, 6.055, 0.3), v30, z0, tNozzle, \Wobj := wobj1Star;
		MoveL Offs(pZeroStarMute, 4.286, 6.038, 0.3), v30, z0, tNozzle, \Wobj := wobj1Star;
		MoveL Offs(pZeroStarMute, 4.305, 6.023, 0.3), v30, z0, tNozzle, \Wobj := wobj1Star;
		MoveL Offs(pZeroStarMute, 4.325, 6.01, 0.3), v30, z0, tNozzle, \Wobj := wobj1Star;
		MoveL Offs(pZeroStarMute, 4.346, 5.999, 0.3), v30, z0, tNozzle, \Wobj := wobj1Star;
		MoveL Offs(pZeroStarMute, 4.368, 5.99, 0.3), v30, z0, tNozzle, \Wobj := wobj1Star;
		MoveL Offs(pZeroStarMute, 4.391, 5.983, 0.3), v30, z0, tNozzle, \Wobj := wobj1Star;
		MoveL Offs(pZeroStarMute, 4.415, 5.978, 0.3), v30, z0, tNozzle, \Wobj := wobj1Star;
		MoveL Offs(pZeroStarMute, 4.438, 5.976, 0.3), v30, z0, tNozzle, \Wobj := wobj1Star;
		MoveL Offs(pZeroStarMute, 4.491, 5.973, 0.3), v30, z0, tNozzle, \Wobj := wobj1Star;
		MoveL Offs(pZeroStarMute, 16.026, 5.351, 0.3), v30, z0, tNozzle, \Wobj := wobj1Star;
		MoveL Offs(pZeroStarMute, 7.019, -1.966, 0.3), v30, z0, tNozzle, \Wobj := wobj1Star;
		MoveL Offs(pZeroStarMute, 7.001, -1.982, 0.3), v30, z0, tNozzle, \Wobj := wobj1Star;
		MoveL Offs(pZeroStarMute, 6.985, -1.999, 0.3), v30, z0, tNozzle, \Wobj := wobj1Star;
		MoveL Offs(pZeroStarMute, 6.97, -2.018, 0.3), v30, z0, tNozzle, \Wobj := wobj1Star;
		MoveL Offs(pZeroStarMute, 6.958, -2.039, 0.3), v30, z0, tNozzle, \Wobj := wobj1Star;
		MoveL Offs(pZeroStarMute, 6.947, -2.06, 0.3), v30, z0, tNozzle, \Wobj := wobj1Star;
		MoveL Offs(pZeroStarMute, 6.939, -2.083, 0.3), v30, z0, tNozzle, \Wobj := wobj1Star;
		MoveL Offs(pZeroStarMute, 6.932, -2.106, 0.3), v30, z0, tNozzle, \Wobj := wobj1Star;
		MoveL Offs(pZeroStarMute, 6.928, -2.129, 0.3), v30, z0, tNozzle, \Wobj := wobj1Star;
		WaitRob \InPos;
		SetDO DO6_Between_Layer_Retract, 1;
		SetDO DO5_Program_Feed, 0;
		MoveL Offs(pZeroStarMute, 6.928, -2.129, 5.3), v100, z0, tNozzle, \Wobj := wobj1Star;
		
		! Layer 1 Circle
		MoveL Offs(pZeroCircleMute, -13.381, -10.927, 5.3), v100, z0, tNozzle, \Wobj := wobj2Circle;
		MoveL Offs(pZeroCircleMute, -13.381, -10.927, 0.3), v30, z0, tNozzle, \Wobj := wobj2Circle;
		WaitRob \InPos;
		SetDO DO6_Between_Layer_Retract, 0;
		WaitRob \InPos;
		SetDO DO5_Program_Feed, 1;
		MoveL Offs(pZeroCircleMute, -11.774, -12.647, 0.3), v30, z0, tNozzle, \Wobj := wobj2Circle;
		MoveL Offs(pZeroCircleMute, -9.947, -14.133, 0.3), v30, z0, tNozzle, \Wobj := wobj2Circle;
		MoveL Offs(pZeroCircleMute, -7.936, -15.356, 0.3), v30, z0, tNozzle, \Wobj := wobj2Circle;
		MoveL Offs(pZeroCircleMute, -5.776, -16.294, 0.3), v30, z0, tNozzle, \Wobj := wobj2Circle;
		MoveL Offs(pZeroCircleMute, -3.509, -16.929, 0.3), v30, z0, tNozzle, \Wobj := wobj2Circle;
		MoveL Offs(pZeroCircleMute, -1.177, -17.25, 0.3), v30, z0, tNozzle, \Wobj := wobj2Circle;
		MoveL Offs(pZeroCircleMute, 1.177, -17.25, 0.3), v30, z0, tNozzle, \Wobj := wobj2Circle;
		MoveL Offs(pZeroCircleMute, 3.509, -16.929, 0.3), v30, z0, tNozzle, \Wobj := wobj2Circle;
		MoveL Offs(pZeroCircleMute, 5.776, -16.294, 0.3), v30, z0, tNozzle, \Wobj := wobj2Circle;
		MoveL Offs(pZeroCircleMute, 7.936, -15.356, 0.3), v30, z0, tNozzle, \Wobj := wobj2Circle;
		MoveL Offs(pZeroCircleMute, 9.947, -14.133, 0.3), v30, z0, tNozzle, \Wobj := wobj2Circle;
		MoveL Offs(pZeroCircleMute, 11.774, -12.647, 0.3), v30, z0, tNozzle, \Wobj := wobj2Circle;
		MoveL Offs(pZeroCircleMute, 13.381, -10.927, 0.3), v30, z0, tNozzle, \Wobj := wobj2Circle;
		MoveL Offs(pZeroCircleMute, 14.738, -9.003, 0.3), v30, z0, tNozzle, \Wobj := wobj2Circle;
		MoveL Offs(pZeroCircleMute, 15.821, -6.913, 0.3), v30, z0, tNozzle, \Wobj := wobj2Circle;
		MoveL Offs(pZeroCircleMute, 16.61, -4.695, 0.3), v30, z0, tNozzle, \Wobj := wobj2Circle;
		MoveL Offs(pZeroCircleMute, 17.089, -2.39, 0.3), v30, z0, tNozzle, \Wobj := wobj2Circle;
		MoveL Offs(pZeroCircleMute, 17.249, -0.041, 0.3), v30, z0, tNozzle, \Wobj := wobj2Circle;
		MoveL Offs(pZeroCircleMute, 17.089, 2.308, 0.3), v30, z0, tNozzle, \Wobj := wobj2Circle;
		MoveL Offs(pZeroCircleMute, 16.61, 4.613, 0.3), v30, z0, tNozzle, \Wobj := wobj2Circle;
		MoveL Offs(pZeroCircleMute, 15.821, 6.831, 0.3), v30, z0, tNozzle, \Wobj := wobj2Circle;
		MoveL Offs(pZeroCircleMute, 14.738, 8.922, 0.3), v30, z0, tNozzle, \Wobj := wobj2Circle;
		MoveL Offs(pZeroCircleMute, 13.381, 10.845, 0.3), v30, z0, tNozzle, \Wobj := wobj2Circle;
		MoveL Offs(pZeroCircleMute, 11.774, 12.566, 0.3), v30, z0, tNozzle, \Wobj := wobj2Circle;
		MoveL Offs(pZeroCircleMute, 9.947, 14.051, 0.3), v30, z0, tNozzle, \Wobj := wobj2Circle;
		MoveL Offs(pZeroCircleMute, 7.936, 15.275, 0.3), v30, z0, tNozzle, \Wobj := wobj2Circle;
		MoveL Offs(pZeroCircleMute, 5.776, 16.213, 0.3), v30, z0, tNozzle, \Wobj := wobj2Circle;
		MoveL Offs(pZeroCircleMute, 3.509, 16.848, 0.3), v30, z0, tNozzle, \Wobj := wobj2Circle;
		MoveL Offs(pZeroCircleMute, 1.177, 17.168, 0.3), v30, z0, tNozzle, \Wobj := wobj2Circle;
		MoveL Offs(pZeroCircleMute, -1.177, 17.168, 0.3), v30, z0, tNozzle, \Wobj := wobj2Circle;
		MoveL Offs(pZeroCircleMute, -3.509, 16.848, 0.3), v30, z0, tNozzle, \Wobj := wobj2Circle;
		MoveL Offs(pZeroCircleMute, -5.776, 16.213, 0.3), v30, z0, tNozzle, \Wobj := wobj2Circle;
		MoveL Offs(pZeroCircleMute, -7.936, 15.275, 0.3), v30, z0, tNozzle, \Wobj := wobj2Circle;
		MoveL Offs(pZeroCircleMute, -9.947, 14.051, 0.3), v30, z0, tNozzle, \Wobj := wobj2Circle;
		MoveL Offs(pZeroCircleMute, -11.774, 12.566, 0.3), v30, z0, tNozzle, \Wobj := wobj2Circle;
		MoveL Offs(pZeroCircleMute, -13.381, 10.845, 0.3), v30, z0, tNozzle, \Wobj := wobj2Circle;
		MoveL Offs(pZeroCircleMute, -14.738, 8.922, 0.3), v30, z0, tNozzle, \Wobj := wobj2Circle;
		MoveL Offs(pZeroCircleMute, -15.821, 6.831, 0.3), v30, z0, tNozzle, \Wobj := wobj2Circle;
		MoveL Offs(pZeroCircleMute, -16.61, 4.613, 0.3), v30, z0, tNozzle, \Wobj := wobj2Circle;
		MoveL Offs(pZeroCircleMute, -17.089, 2.308, 0.3), v30, z0, tNozzle, \Wobj := wobj2Circle;
		MoveL Offs(pZeroCircleMute, -17.249, -0.041, 0.3), v30, z0, tNozzle, \Wobj := wobj2Circle;
		MoveL Offs(pZeroCircleMute, -17.089, -2.39, 0.3), v30, z0, tNozzle, \Wobj := wobj2Circle;
		MoveL Offs(pZeroCircleMute, -16.61, -4.695, 0.3), v30, z0, tNozzle, \Wobj := wobj2Circle;
		MoveL Offs(pZeroCircleMute, -15.821, -6.913, 0.3), v30, z0, tNozzle, \Wobj := wobj2Circle;
		MoveL Offs(pZeroCircleMute, -14.738, -9.003, 0.3), v30, z0, tNozzle, \Wobj := wobj2Circle;
		MoveL Offs(pZeroCircleMute, -13.381, -10.927, 0.3), v30, z0, tNozzle, \Wobj := wobj2Circle;
		WaitRob \InPos;
		SetDO DO5_Program_Feed, 0;
		MoveL Offs(pZeroCircleMute, -13.16, -10.372, 0.3), v100, z0, tNozzle, \Wobj := wobj2Circle;
		WaitRob \InPos;
		SetDO DO5_Program_Feed, 1;
		MoveL Offs(pZeroCircleMute, 10.318, 13.106, 0.3), v30, z0, tNozzle, \Wobj := wobj2Circle;
		WaitRob \InPos;
		SetDO DO5_Program_Feed, 0;
		MoveL Offs(pZeroCircleMute, 11.822, 11.781, 0.3), v100, z0, tNozzle, \Wobj := wobj2Circle;
		WaitRob \InPos;
		SetDO DO5_Program_Feed, 1;
		MoveL Offs(pZeroCircleMute, -11.822, -11.863, 0.3), v30, z0, tNozzle, \Wobj := wobj2Circle;
		WaitRob \InPos;
		SetDO DO5_Program_Feed, 0;
		MoveL Offs(pZeroCircleMute, -10.318, -13.187, 0.3), v100, z0, tNozzle, \Wobj := wobj2Circle;
		WaitRob \InPos;
		SetDO DO5_Program_Feed, 1;
		MoveL Offs(pZeroCircleMute, 13.16, 10.291, 0.3), v30, z0, tNozzle, \Wobj := wobj2Circle;
		WaitRob \InPos;
		SetDO DO5_Program_Feed, 0;
		MoveL Offs(pZeroCircleMute, 14.327, 8.629, 0.3), v100, z0, tNozzle, \Wobj := wobj2Circle;
		WaitRob \InPos;
		SetDO DO5_Program_Feed, 1;
		MoveL Offs(pZeroCircleMute, -8.643, -14.341, 0.3), v30, z0, tNozzle, \Wobj := wobj2Circle;
		WaitRob \InPos;
		SetDO DO5_Program_Feed, 0;
		MoveL Offs(pZeroCircleMute, -6.785, -15.311, 0.3), v100, z0, tNozzle, \Wobj := wobj2Circle;
		WaitRob \InPos;
		SetDO DO5_Program_Feed, 1;
		MoveL Offs(pZeroCircleMute, 15.292, 6.766, 0.3), v30, z0, tNozzle, \Wobj := wobj2Circle;
		WaitRob \InPos;
		SetDO DO5_Program_Feed, 0;
		MoveL Offs(pZeroCircleMute, 16.05, 4.696, 0.3), v100, z0, tNozzle, \Wobj := wobj2Circle;
		WaitRob \InPos;
		SetDO DO5_Program_Feed, 1;
		MoveL Offs(pZeroCircleMute, -4.717, -16.072, 0.3), v30, z0, tNozzle, \Wobj := wobj2Circle;
		WaitRob \InPos;
		SetDO DO5_Program_Feed, 0;
		MoveL Offs(pZeroCircleMute, -2.395, -16.578, 0.3), v100, z0, tNozzle, \Wobj := wobj2Circle;
		WaitRob \InPos;
		SetDO DO5_Program_Feed, 1;
		MoveL Offs(pZeroCircleMute, 16.563, 2.38, 0.3), v30, z0, tNozzle, \Wobj := wobj2Circle;
		WaitRob \InPos;
		SetDO DO5_Program_Feed, 0;
		MoveL Offs(pZeroCircleMute, 16.732, -0.279, 0.3), v100, z0, tNozzle, \Wobj := wobj2Circle;
		WaitRob \InPos;
		SetDO DO5_Program_Feed, 1;
		MoveL Offs(pZeroCircleMute, 0.261, -16.75, 0.3), v30, z0, tNozzle, \Wobj := wobj2Circle;
		WaitRob \InPos;
		SetDO DO5_Program_Feed, 0;
		MoveL Offs(pZeroCircleMute, 3.4, -16.44, 0.3), v100, z0, tNozzle, \Wobj := wobj2Circle;
		WaitRob \InPos;
		SetDO DO5_Program_Feed, 1;
		MoveL Offs(pZeroCircleMute, 16.35, -3.49, 0.3), v30, z0, tNozzle, \Wobj := wobj2Circle;
		WaitRob \InPos;
		SetDO DO5_Program_Feed, 0;
		MoveL Offs(pZeroCircleMute, 14.724, -7.944, 0.3), v100, z0, tNozzle, \Wobj := wobj2Circle;
		WaitRob \InPos;
		SetDO DO5_Program_Feed, 1;
		MoveL Offs(pZeroCircleMute, 7.836, -14.832, 0.3), v30, z0, tNozzle, \Wobj := wobj2Circle;
		WaitRob \InPos;
		SetDO DO5_Program_Feed, 0;
		MoveL Offs(pZeroCircleMute, -14.327, -8.711, 0.3), v100, z0, tNozzle, \Wobj := wobj2Circle;
		WaitRob \InPos;
		SetDO DO5_Program_Feed, 1;
		MoveL Offs(pZeroCircleMute, 8.643, 14.259, 0.3), v30, z0, tNozzle, \Wobj := wobj2Circle;
		WaitRob \InPos;
		SetDO DO5_Program_Feed, 0;
		MoveL Offs(pZeroCircleMute, 6.785, 15.23, 0.3), v100, z0, tNozzle, \Wobj := wobj2Circle;
		WaitRob \InPos;
		SetDO DO5_Program_Feed, 1;
		MoveL Offs(pZeroCircleMute, -15.292, -6.848, 0.3), v30, z0, tNozzle, \Wobj := wobj2Circle;
		WaitRob \InPos;
		SetDO DO5_Program_Feed, 0;
		MoveL Offs(pZeroCircleMute, -16.05, -4.777, 0.3), v100, z0, tNozzle, \Wobj := wobj2Circle;
		WaitRob \InPos;
		SetDO DO5_Program_Feed, 1;
		MoveL Offs(pZeroCircleMute, 4.717, 15.99, 0.3), v30, z0, tNozzle, \Wobj := wobj2Circle;
		WaitRob \InPos;
		SetDO DO5_Program_Feed, 0;
		MoveL Offs(pZeroCircleMute, 2.395, 16.496, 0.3), v100, z0, tNozzle, \Wobj := wobj2Circle;
		WaitRob \InPos;
		SetDO DO5_Program_Feed, 1;
		MoveL Offs(pZeroCircleMute, -16.563, -2.462, 0.3), v30, z0, tNozzle, \Wobj := wobj2Circle;
		WaitRob \InPos;
		SetDO DO5_Program_Feed, 0;
		MoveL Offs(pZeroCircleMute, -16.732, 0.198, 0.3), v100, z0, tNozzle, \Wobj := wobj2Circle;
		WaitRob \InPos;
		SetDO DO5_Program_Feed, 1;
		MoveL Offs(pZeroCircleMute, -0.261, 16.669, 0.3), v30, z0, tNozzle, \Wobj := wobj2Circle;
		WaitRob \InPos;
		SetDO DO5_Program_Feed, 0;
		MoveL Offs(pZeroCircleMute, -3.4, 16.358, 0.3), v100, z0, tNozzle, \Wobj := wobj2Circle;
		WaitRob \InPos;
		SetDO DO5_Program_Feed, 1;
		MoveL Offs(pZeroCircleMute, -16.35, 3.409, 0.3), v30, z0, tNozzle, \Wobj := wobj2Circle;
		WaitRob \InPos;
		SetDO DO5_Program_Feed, 0;
		MoveL Offs(pZeroCircleMute, -14.724, 7.862, 0.3), v100, z0, tNozzle, \Wobj := wobj2Circle;
		WaitRob \InPos;
		SetDO DO5_Program_Feed, 1;
		MoveL Offs(pZeroCircleMute, -7.836, 14.75, 0.3), v30, z0, tNozzle, \Wobj := wobj2Circle;
		WaitRob \InPos;
		SetDO DO6_Between_Layer_Retract, 1;
		SetDO DO5_Program_Feed, 0;
		MoveL Offs(pZeroCircleMute, -7.836, 14.75, 5.3), v100, z0, tNozzle, \Wobj := wobj2Circle;
		
		! Layer 1 Square
		MoveL Offs(pZeroSquareMute, -17.25, -17.25, 5.3), v100, z0, tNozzle, \Wobj := wobj3Square;
		MoveL Offs(pZeroSquareMute, -17.25, -17.25, 0.3), v30, z0, tNozzle, \Wobj := wobj3Square;
		WaitRob \InPos;
		SetDO DO6_Between_Layer_Retract, 0;
		WaitRob \InPos;
		SetDO DO5_Program_Feed, 1;
		MoveL Offs(pZeroSquareMute, 17.25, -17.25, 0.3), v30, z0, tNozzle, \Wobj := wobj3Square;
		MoveL Offs(pZeroSquareMute, 17.25, 17.25, 0.3), v30, z0, tNozzle, \Wobj := wobj3Square;
		MoveL Offs(pZeroSquareMute, -17.25, 17.25, 0.3), v30, z0, tNozzle, \Wobj := wobj3Square;
		MoveL Offs(pZeroSquareMute, -17.25, -17.25, 0.3), v30, z0, tNozzle, \Wobj := wobj3Square;
		WaitRob \InPos;
		SetDO DO5_Program_Feed, 0;
		MoveL Offs(pZeroSquareMute, -16.75, -16.75, 0.3), v100, z0, tNozzle, \Wobj := wobj3Square;
		WaitRob \InPos;
		SetDO DO5_Program_Feed, 1;
		MoveL Offs(pZeroSquareMute, 16.75, -16.75, 0.3), v30, z0, tNozzle, \Wobj := wobj3Square;
		MoveL Offs(pZeroSquareMute, 16.75, 16.75, 0.3), v30, z0, tNozzle, \Wobj := wobj3Square;
		MoveL Offs(pZeroSquareMute, -16.75, 16.75, 0.3), v30, z0, tNozzle, \Wobj := wobj3Square;
		MoveL Offs(pZeroSquareMute, -16.75, -16.75, 0.3), v30, z0, tNozzle, \Wobj := wobj3Square;
		WaitRob \InPos;
		SetDO DO5_Program_Feed, 0;
		MoveL Offs(pZeroSquareMute, -16.25, -15.75, 0.3), v100, z0, tNozzle, \Wobj := wobj3Square;
		WaitRob \InPos;
		SetDO DO5_Program_Feed, 1;
		MoveL Offs(pZeroSquareMute, 16.25, -15.75, 0.3), v30, z0, tNozzle, \Wobj := wobj3Square;
		WaitRob \InPos;
		SetDO DO5_Program_Feed, 0;
		MoveL Offs(pZeroSquareMute, 16.25, -14.25, 0.3), v100, z0, tNozzle, \Wobj := wobj3Square;
		WaitRob \InPos;
		SetDO DO5_Program_Feed, 1;
		MoveL Offs(pZeroSquareMute, -16.25, -14.25, 0.3), v30, z0, tNozzle, \Wobj := wobj3Square;
		WaitRob \InPos;
		SetDO DO5_Program_Feed, 0;
		MoveL Offs(pZeroSquareMute, -16.25, -12.75, 0.3), v100, z0, tNozzle, \Wobj := wobj3Square;
		WaitRob \InPos;
		SetDO DO5_Program_Feed, 1;
		MoveL Offs(pZeroSquareMute, 16.25, -12.75, 0.3), v30, z0, tNozzle, \Wobj := wobj3Square;
		WaitRob \InPos;
		SetDO DO5_Program_Feed, 0;
		MoveL Offs(pZeroSquareMute, 16.25, -11.25, 0.3), v100, z0, tNozzle, \Wobj := wobj3Square;
		WaitRob \InPos;
		SetDO DO5_Program_Feed, 1;
		MoveL Offs(pZeroSquareMute, -16.25, -11.25, 0.3), v30, z0, tNozzle, \Wobj := wobj3Square;
		WaitRob \InPos;
		SetDO DO5_Program_Feed, 0;
		MoveL Offs(pZeroSquareMute, -16.25, -9.75, 0.3), v100, z0, tNozzle, \Wobj := wobj3Square;
		WaitRob \InPos;
		SetDO DO5_Program_Feed, 1;
		MoveL Offs(pZeroSquareMute, 16.25, -9.75, 0.3), v30, z0, tNozzle, \Wobj := wobj3Square;
		WaitRob \InPos;
		SetDO DO5_Program_Feed, 0;
		MoveL Offs(pZeroSquareMute, 16.25, -8.25, 0.3), v100, z0, tNozzle, \Wobj := wobj3Square;
		WaitRob \InPos;
		SetDO DO5_Program_Feed, 1;
		MoveL Offs(pZeroSquareMute, -16.25, -8.25, 0.3), v30, z0, tNozzle, \Wobj := wobj3Square;
		WaitRob \InPos;
		SetDO DO5_Program_Feed, 0;
		MoveL Offs(pZeroSquareMute, -16.25, -6.75, 0.3), v100, z0, tNozzle, \Wobj := wobj3Square;
		WaitRob \InPos;
		SetDO DO5_Program_Feed, 1;
		MoveL Offs(pZeroSquareMute, 16.25, -6.75, 0.3), v30, z0, tNozzle, \Wobj := wobj3Square;
		WaitRob \InPos;
		SetDO DO5_Program_Feed, 0;
		MoveL Offs(pZeroSquareMute, 16.25, -5.25, 0.3), v100, z0, tNozzle, \Wobj := wobj3Square;
		WaitRob \InPos;
		SetDO DO5_Program_Feed, 1;
		MoveL Offs(pZeroSquareMute, -16.25, -5.25, 0.3), v30, z0, tNozzle, \Wobj := wobj3Square;
		WaitRob \InPos;
		SetDO DO5_Program_Feed, 0;
		MoveL Offs(pZeroSquareMute, -16.25, -3.75, 0.3), v100, z0, tNozzle, \Wobj := wobj3Square;
		WaitRob \InPos;
		SetDO DO5_Program_Feed, 1;
		MoveL Offs(pZeroSquareMute, 16.25, -3.75, 0.3), v30, z0, tNozzle, \Wobj := wobj3Square;
		WaitRob \InPos;
		SetDO DO5_Program_Feed, 0;
		MoveL Offs(pZeroSquareMute, 16.25, -2.25, 0.3), v100, z0, tNozzle, \Wobj := wobj3Square;
		WaitRob \InPos;
		SetDO DO5_Program_Feed, 1;
		MoveL Offs(pZeroSquareMute, -16.25, -2.25, 0.3), v30, z0, tNozzle, \Wobj := wobj3Square;
		WaitRob \InPos;
		SetDO DO5_Program_Feed, 0;
		MoveL Offs(pZeroSquareMute, -16.25, -0.75, 0.3), v100, z0, tNozzle, \Wobj := wobj3Square;
		WaitRob \InPos;
		SetDO DO5_Program_Feed, 1;
		MoveL Offs(pZeroSquareMute, 16.25, -0.75, 0.3), v30, z0, tNozzle, \Wobj := wobj3Square;
		WaitRob \InPos;
		SetDO DO5_Program_Feed, 0;
		MoveL Offs(pZeroSquareMute, 16.25, 0.75, 0.3), v100, z0, tNozzle, \Wobj := wobj3Square;
		WaitRob \InPos;
		SetDO DO5_Program_Feed, 1;
		MoveL Offs(pZeroSquareMute, -16.25, 0.75, 0.3), v30, z0, tNozzle, \Wobj := wobj3Square;
		WaitRob \InPos;
		SetDO DO5_Program_Feed, 0;
		MoveL Offs(pZeroSquareMute, -16.25, 2.25, 0.3), v100, z0, tNozzle, \Wobj := wobj3Square;
		WaitRob \InPos;
		SetDO DO5_Program_Feed, 1;
		MoveL Offs(pZeroSquareMute, 16.25, 2.25, 0.3), v30, z0, tNozzle, \Wobj := wobj3Square;
		WaitRob \InPos;
		SetDO DO5_Program_Feed, 0;
		MoveL Offs(pZeroSquareMute, 16.25, 3.75, 0.3), v100, z0, tNozzle, \Wobj := wobj3Square;
		WaitRob \InPos;
		SetDO DO5_Program_Feed, 1;
		MoveL Offs(pZeroSquareMute, -16.25, 3.75, 0.3), v30, z0, tNozzle, \Wobj := wobj3Square;
		WaitRob \InPos;
		SetDO DO5_Program_Feed, 0;
		MoveL Offs(pZeroSquareMute, -16.25, 5.25, 0.3), v100, z0, tNozzle, \Wobj := wobj3Square;
		WaitRob \InPos;
		SetDO DO5_Program_Feed, 1;
		MoveL Offs(pZeroSquareMute, 16.25, 5.25, 0.3), v30, z0, tNozzle, \Wobj := wobj3Square;
		WaitRob \InPos;
		SetDO DO5_Program_Feed, 0;
		MoveL Offs(pZeroSquareMute, 16.25, 6.75, 0.3), v100, z0, tNozzle, \Wobj := wobj3Square;
		WaitRob \InPos;
		SetDO DO5_Program_Feed, 1;
		MoveL Offs(pZeroSquareMute, -16.25, 6.75, 0.3), v30, z0, tNozzle, \Wobj := wobj3Square;
		WaitRob \InPos;
		SetDO DO5_Program_Feed, 0;
		MoveL Offs(pZeroSquareMute, -16.25, 8.25, 0.3), v100, z0, tNozzle, \Wobj := wobj3Square;
		WaitRob \InPos;
		SetDO DO5_Program_Feed, 1;
		MoveL Offs(pZeroSquareMute, 16.25, 8.25, 0.3), v30, z0, tNozzle, \Wobj := wobj3Square;
		WaitRob \InPos;
		SetDO DO5_Program_Feed, 0;
		MoveL Offs(pZeroSquareMute, 16.25, 9.75, 0.3), v100, z0, tNozzle, \Wobj := wobj3Square;
		WaitRob \InPos;
		SetDO DO5_Program_Feed, 1;
		MoveL Offs(pZeroSquareMute, -16.25, 9.75, 0.3), v30, z0, tNozzle, \Wobj := wobj3Square;
		WaitRob \InPos;
		SetDO DO5_Program_Feed, 0;
		MoveL Offs(pZeroSquareMute, -16.25, 11.25, 0.3), v100, z0, tNozzle, \Wobj := wobj3Square;
		WaitRob \InPos;
		SetDO DO5_Program_Feed, 1;
		MoveL Offs(pZeroSquareMute, 16.25, 11.25, 0.3), v30, z0, tNozzle, \Wobj := wobj3Square;
		WaitRob \InPos;
		SetDO DO5_Program_Feed, 0;
		MoveL Offs(pZeroSquareMute, 16.25, 12.75, 0.3), v100, z0, tNozzle, \Wobj := wobj3Square;
		WaitRob \InPos;
		SetDO DO5_Program_Feed, 1;
		MoveL Offs(pZeroSquareMute, -16.25, 12.75, 0.3), v30, z0, tNozzle, \Wobj := wobj3Square;
		WaitRob \InPos;
		SetDO DO5_Program_Feed, 0;
		MoveL Offs(pZeroSquareMute, -16.25, 14.25, 0.3), v100, z0, tNozzle, \Wobj := wobj3Square;
		WaitRob \InPos;
		SetDO DO5_Program_Feed, 1;
		MoveL Offs(pZeroSquareMute, 16.25, 14.25, 0.3), v30, z0, tNozzle, \Wobj := wobj3Square;
		WaitRob \InPos;
		SetDO DO5_Program_Feed, 0;
		MoveL Offs(pZeroSquareMute, 16.25, 15.75, 0.3), v100, z0, tNozzle, \Wobj := wobj3Square;
		WaitRob \InPos;
		SetDO DO5_Program_Feed, 1;
		MoveL Offs(pZeroSquareMute, -16.25, 15.75, 0.3), v30, z0, tNozzle, \Wobj := wobj3Square;
		WaitRob \InPos;
		SetDO DO6_Between_Layer_Retract, 1;
		SetDO DO5_Program_Feed, 0;
		MoveL Offs(pZeroSquareMute, -16.25, 15.75, 5.3), v100, z0, tNozzle, \Wobj := wobj3Square;