MODULE MainModule
    PERS robtarget pZeroStarMute;
    PERS robtarget pZeroCircleMute;
    PERS robtarget pZeroSquareMute;

    PERS robtarget rob1;
    
    PERS intnum layerNum:=4;

    
	PROC main()
		! Outside V1
        pZeroStarMute := Offs(pZeroStar, 0, 0, 0.2);
        pZeroCircleMute := Offs(pZeroCircle, 0, 0, 0.2);
        pZeroSquareMute := Offs(pZeroSquare, 0, 0, 0.2);
        
        Heat;
        
        WHILE layerNum < 250 DO 		
            ! Layer 1
			layerNum := layerNum + 1;
			Star1;
            MoveL Offs(pZeroStarMute, 0, 0, 50), v100, fine \Inpos := inpos50, tNozzle, \Wobj := wobj1Star;
            rob1 := CRobT(\Tool:=tool1 \WObj:=wobj0);
            MoveL RelTool(rob1,0,0,0\Rz:=-120), v20 \T:= 2, z0, tool1, \Wobj := wobj0;
            
            Circle1;
            MoveL Offs(pZeroCircleMute, 0, 0, 50), v100, fine \Inpos := inpos50, tNozzle, \Wobj := wobj2Circle;
            rob1 := CRobT(\Tool:=tool1 \WObj:=wobj0);
            MoveL RelTool(rob1,0,0,0\Rz:=-120), v20 \T:= 2, z0, tool1, \Wobj := wobj0;
            
            Square1;            
            MoveL Offs(pZeroSquareMute, 0, 0, 100), v100, fine \Inpos := inpos50, tNozzle, \Wobj := wobj3Square;
            
            Dance;
            MoveL Offs(pZeroStarMute, 0, 0, 50), v100, fine \Inpos := inpos50, tNozzle, \Wobj := wobj1Star;
			
			! Layer 2
			layerNum := layerNum + 1;
			Star2;
            MoveL Offs(pZeroStarMute, 0, 0, 50), v100, fine \Inpos := inpos50, tNozzle, \Wobj := wobj1Star;
            rob1 := CRobT(\Tool:=tool1 \WObj:=wobj0);
            MoveL RelTool(rob1,0,0,0\Rz:=-120), v20 \T:= 2, z0, tool1, \Wobj := wobj0;
            
            Circle2;
            MoveL Offs(pZeroCircleMute, 0, 0, 50), v100, fine \Inpos := inpos50, tNozzle, \Wobj := wobj2Circle;
            rob1 := CRobT(\Tool:=tool1 \WObj:=wobj0);
            MoveL RelTool(rob1,0,0,0\Rz:=-120), v20 \T:= 2, z0, tool1, \Wobj := wobj0;
            
            Square2;            
            MoveL Offs(pZeroSquareMute, 0, 0, 100), v100, fine \Inpos := inpos50, tNozzle, \Wobj := wobj3Square;
            
            Dance;
            MoveL Offs(pZeroStarMute, 0, 0, 50), v100, fine \Inpos := inpos50, tNozzle, \Wobj := wobj1Star;
			
			! Layer 3
			layerNum := layerNum + 1;
			Star3;
            MoveL Offs(pZeroStarMute, 0, 0, 50), v100, fine \Inpos := inpos50, tNozzle, \Wobj := wobj1Star;
            rob1 := CRobT(\Tool:=tool1 \WObj:=wobj0);
            MoveL RelTool(rob1,0,0,0\Rz:=-120), v20 \T:= 2, z0, tool1, \Wobj := wobj0;
            
            Circle3;
            MoveL Offs(pZeroCircleMute, 0, 0, 50), v100, fine \Inpos := inpos50, tNozzle, \Wobj := wobj2Circle;
            rob1 := CRobT(\Tool:=tool1 \WObj:=wobj0);
            MoveL RelTool(rob1,0,0,0\Rz:=-120), v20 \T:= 2, z0, tool1, \Wobj := wobj0;
            
            Square3;            
            MoveL Offs(pZeroSquareMute, 0, 0, 100), v100, fine \Inpos := inpos50, tNozzle, \Wobj := wobj3Square;
            
            Dance;
            MoveL Offs(pZeroStarMute, 0, 0, 50), v100, fine \Inpos := inpos50, tNozzle, \Wobj := wobj1Star;
			
			! Layer 4
			layerNum := layerNum + 1;
			Star4;
            MoveL Offs(pZeroStarMute, 0, 0, 50), v100, fine \Inpos := inpos50, tNozzle, \Wobj := wobj1Star;
            rob1 := CRobT(\Tool:=tool1 \WObj:=wobj0);
            MoveL RelTool(rob1,0,0,0\Rz:=-120), v20 \T:= 2, z0, tool1, \Wobj := wobj0;
            
            Circle4;
            MoveL Offs(pZeroCircleMute, 0, 0, 50), v100, fine \Inpos := inpos50, tNozzle, \Wobj := wobj2Circle;
            rob1 := CRobT(\Tool:=tool1 \WObj:=wobj0);
            MoveL RelTool(rob1,0,0,0\Rz:=-120), v20 \T:= 2, z0, tool1, \Wobj := wobj0;
            
            Square4;            
            MoveL Offs(pZeroSquareMute, 0, 0, 100), v100, fine \Inpos := inpos50, tNozzle, \Wobj := wobj3Square;
            
            Dance;
            MoveL Offs(pZeroStarMute, 0, 0, 50), v100, fine \Inpos := inpos50, tNozzle, \Wobj := wobj1Star;
            
        ENDWHILE
	
	ENDPROC
	
	PROC Dance()
        MoveL [[-22.49,-464.08,469.91],[0.012527,-0.0120047,-0.705598,0.7084],[-2,0,-1,0],[9E+09,9E+09,9E+09,9E+09,9E+09,9E+09]], v50, z10, tool1;
        MoveJ [[-17.92,-326.05,577.97],[0.0563153,0.00294746,-0.0125574,0.99833],[-2,0,-1,1],[9E+09,9E+09,9E+09,9E+09,9E+09,9E+09]], v50, z10, tool1;
        
        MoveL [[197.61,-326.05,507.47],[0.0563161,0.00294604,-0.0125557,0.99833],[-1,0,-1,1],[9E+09,9E+09,9E+09,9E+09,9E+09,9E+09]], v50, z10, tool1;
        MoveL [[197.61,-606.76,507.46],[0.320039,0.00618314,-0.0113187,0.947317],[-1,0,-1,1],[9E+09,9E+09,9E+09,9E+09,9E+09,9E+09]], v50, z10, tool1;
        WaitTime 4;
        MoveL [[124.82,-606.76,507.46],[0.525344,0.00476576,0.0119781,-0.850792],[-1,-1,0,1],[9E+09,9E+09,9E+09,9E+09,9E+09,9E+09]], v50, z10, tool1;
        WaitTime 4;
        MoveL [[-45.32,-606.76,507.46],[0.525341,0.00476954,0.0119837,-0.850794],[-2,-1,0,1],[9E+09,9E+09,9E+09,9E+09,9E+09,9E+09]], v50, z10, tool1;
        MoveL [[-234.19,-606.76,507.46],[0.505949,0.00835699,-0.00982349,0.862467],[-2,0,-1,1],[9E+09,9E+09,9E+09,9E+09,9E+09,9E+09]], v50, z10, tool1;
        WaitTime 4;
        MoveL [[-234.19,-202.97,507.46],[0.505947,0.00835666,-0.00982308,0.862468],[-2,0,-1,1],[9E+09,9E+09,9E+09,9E+09,9E+09,9E+09]], v50, z10, tool1;
        WaitTime 4;
        MoveJ [[23.23,-309.03,507.46],[0.0646149,0.0118804,-0.00502334,0.997827],[-1,0,-1,1],[9E+09,9E+09,9E+09,9E+09,9E+09,9E+09]], v50, z10, tool1;
        MoveJ [[-17.92,-326.06,577.96],[0.056308,0.00295517,-0.0125974,0.99833],[-2,0,-1,1],[9E+09,9E+09,9E+09,9E+09,9E+09,9E+09]], v50, z10, tool1;
        MoveJ [[-21.85,-389.58,453.14],[0.612787,0.611514,0.353243,-0.354629],[-2,1,-1,0],[9E+09,9E+09,9E+09,9E+09,9E+09,9E+09]], v50, z10, tool1;
	    MoveL Offs(pZeroStarMute, 0, 0, 100), v100, z5, tNozzle\WObj:=wobj1Star;
    ENDPROC
	
	PROC Square1()
		! Layer 1 Square
		pZeroSquareMute := Offs(pZeroSquare, 0, 0, 0.2*layerNum);
		
        MoveL Offs(pZeroSquareMute, -17.75, -17.75, 5.2), v100, z0, tNozzle, \Wobj := wobj3Square;
		MoveL Offs(pZeroSquareMute, -17.75, -17.75, 0.2), v30, z0, tNozzle, \Wobj := wobj3Square;
		WaitRob \InPos;
		SetDO DO6_Between_Layer_Retract, 0;
		WaitRob \InPos;
		SetDO DO5_Program_Feed, 1;
		MoveL Offs(pZeroSquareMute, 17.75, -17.75, 0.2), v30, z0, tNozzle, \Wobj := wobj3Square;
		MoveL Offs(pZeroSquareMute, 17.75, 17.75, 0.2), v30, z0, tNozzle, \Wobj := wobj3Square;
		MoveL Offs(pZeroSquareMute, -17.75, 17.75, 0.2), v30, z0, tNozzle, \Wobj := wobj3Square;
		MoveL Offs(pZeroSquareMute, -17.75, -17.75, 0.2), v30, z0, tNozzle, \Wobj := wobj3Square;
		WaitRob \InPos;
		SetDO DO5_Program_Feed, 0;
		MoveL Offs(pZeroSquareMute, -17.25, -17.25, 0.2), v100, z0, tNozzle, \Wobj := wobj3Square;
		WaitRob \InPos;
		SetDO DO5_Program_Feed, 1;
		MoveL Offs(pZeroSquareMute, 17.25, -17.25, 0.2), v30, z0, tNozzle, \Wobj := wobj3Square;
		MoveL Offs(pZeroSquareMute, 17.25, 17.25, 0.2), v30, z0, tNozzle, \Wobj := wobj3Square;
		MoveL Offs(pZeroSquareMute, -17.25, 17.25, 0.2), v30, z0, tNozzle, \Wobj := wobj3Square;
		MoveL Offs(pZeroSquareMute, -17.25, -17.25, 0.2), v30, z0, tNozzle, \Wobj := wobj3Square;
		WaitRob \InPos;
		SetDO DO5_Program_Feed, 0;
		MoveL Offs(pZeroSquareMute, -16.75, -16.5, 0.2), v100, z0, tNozzle, \Wobj := wobj3Square;
		WaitRob \InPos;
		SetDO DO5_Program_Feed, 1;
		MoveL Offs(pZeroSquareMute, 16.75, -16.5, 0.2), v30, z0, tNozzle, \Wobj := wobj3Square;
		WaitRob \InPos;
		SetDO DO5_Program_Feed, 0;
		MoveL Offs(pZeroSquareMute, 16.75, -15.0, 0.2), v100, z0, tNozzle, \Wobj := wobj3Square;
		WaitRob \InPos;
		SetDO DO5_Program_Feed, 1;
		MoveL Offs(pZeroSquareMute, -16.75, -15.0, 0.2), v30, z0, tNozzle, \Wobj := wobj3Square;
		WaitRob \InPos;
		SetDO DO5_Program_Feed, 0;
		MoveL Offs(pZeroSquareMute, -16.75, -13.5, 0.2), v100, z0, tNozzle, \Wobj := wobj3Square;
		WaitRob \InPos;
		SetDO DO5_Program_Feed, 1;
		MoveL Offs(pZeroSquareMute, 16.75, -13.5, 0.2), v30, z0, tNozzle, \Wobj := wobj3Square;
		WaitRob \InPos;
		SetDO DO5_Program_Feed, 0;
		MoveL Offs(pZeroSquareMute, 16.75, -12.0, 0.2), v100, z0, tNozzle, \Wobj := wobj3Square;
		WaitRob \InPos;
		SetDO DO5_Program_Feed, 1;
		MoveL Offs(pZeroSquareMute, -16.75, -12.0, 0.2), v30, z0, tNozzle, \Wobj := wobj3Square;
		WaitRob \InPos;
		SetDO DO5_Program_Feed, 0;
		MoveL Offs(pZeroSquareMute, -16.75, -10.5, 0.2), v100, z0, tNozzle, \Wobj := wobj3Square;
		WaitRob \InPos;
		SetDO DO5_Program_Feed, 1;
		MoveL Offs(pZeroSquareMute, 16.75, -10.5, 0.2), v30, z0, tNozzle, \Wobj := wobj3Square;
		WaitRob \InPos;
		SetDO DO5_Program_Feed, 0;
		MoveL Offs(pZeroSquareMute, 16.75, -9.0, 0.2), v100, z0, tNozzle, \Wobj := wobj3Square;
		WaitRob \InPos;
		SetDO DO5_Program_Feed, 1;
		MoveL Offs(pZeroSquareMute, -16.75, -9.0, 0.2), v30, z0, tNozzle, \Wobj := wobj3Square;
		WaitRob \InPos;
		SetDO DO5_Program_Feed, 0;
		MoveL Offs(pZeroSquareMute, -16.75, -7.5, 0.2), v100, z0, tNozzle, \Wobj := wobj3Square;
		WaitRob \InPos;
		SetDO DO5_Program_Feed, 1;
		MoveL Offs(pZeroSquareMute, 16.75, -7.5, 0.2), v30, z0, tNozzle, \Wobj := wobj3Square;
		WaitRob \InPos;
		SetDO DO5_Program_Feed, 0;
		MoveL Offs(pZeroSquareMute, 16.75, -6.0, 0.2), v100, z0, tNozzle, \Wobj := wobj3Square;
		WaitRob \InPos;
		SetDO DO5_Program_Feed, 1;
		MoveL Offs(pZeroSquareMute, -16.75, -6.0, 0.2), v30, z0, tNozzle, \Wobj := wobj3Square;
		WaitRob \InPos;
		SetDO DO5_Program_Feed, 0;
		MoveL Offs(pZeroSquareMute, -16.75, -4.5, 0.2), v100, z0, tNozzle, \Wobj := wobj3Square;
		WaitRob \InPos;
		SetDO DO5_Program_Feed, 1;
		MoveL Offs(pZeroSquareMute, 16.75, -4.5, 0.2), v30, z0, tNozzle, \Wobj := wobj3Square;
		WaitRob \InPos;
		SetDO DO5_Program_Feed, 0;
		MoveL Offs(pZeroSquareMute, 16.75, -3.0, 0.2), v100, z0, tNozzle, \Wobj := wobj3Square;
		WaitRob \InPos;
		SetDO DO5_Program_Feed, 1;
		MoveL Offs(pZeroSquareMute, -16.75, -3.0, 0.2), v30, z0, tNozzle, \Wobj := wobj3Square;
		WaitRob \InPos;
		SetDO DO5_Program_Feed, 0;
		MoveL Offs(pZeroSquareMute, -16.75, -1.5, 0.2), v100, z0, tNozzle, \Wobj := wobj3Square;
		WaitRob \InPos;
		SetDO DO5_Program_Feed, 1;
		MoveL Offs(pZeroSquareMute, 16.75, -1.5, 0.2), v30, z0, tNozzle, \Wobj := wobj3Square;
		WaitRob \InPos;
		SetDO DO5_Program_Feed, 0;
		MoveL Offs(pZeroSquareMute, 16.75, 0.0, 0.2), v100, z0, tNozzle, \Wobj := wobj3Square;
		WaitRob \InPos;
		SetDO DO5_Program_Feed, 1;
		MoveL Offs(pZeroSquareMute, -16.75, 0.0, 0.2), v30, z0, tNozzle, \Wobj := wobj3Square;
		WaitRob \InPos;
		SetDO DO5_Program_Feed, 0;
		MoveL Offs(pZeroSquareMute, -16.75, 1.5, 0.2), v100, z0, tNozzle, \Wobj := wobj3Square;
		WaitRob \InPos;
		SetDO DO5_Program_Feed, 1;
		MoveL Offs(pZeroSquareMute, 16.75, 1.5, 0.2), v30, z0, tNozzle, \Wobj := wobj3Square;
		WaitRob \InPos;
		SetDO DO5_Program_Feed, 0;
		MoveL Offs(pZeroSquareMute, 16.75, 3.0, 0.2), v100, z0, tNozzle, \Wobj := wobj3Square;
		WaitRob \InPos;
		SetDO DO5_Program_Feed, 1;
		MoveL Offs(pZeroSquareMute, -16.75, 3.0, 0.2), v30, z0, tNozzle, \Wobj := wobj3Square;
		WaitRob \InPos;
		SetDO DO5_Program_Feed, 0;
		MoveL Offs(pZeroSquareMute, -16.75, 4.5, 0.2), v100, z0, tNozzle, \Wobj := wobj3Square;
		WaitRob \InPos;
		SetDO DO5_Program_Feed, 1;
		MoveL Offs(pZeroSquareMute, 16.75, 4.5, 0.2), v30, z0, tNozzle, \Wobj := wobj3Square;
		WaitRob \InPos;
		SetDO DO5_Program_Feed, 0;
		MoveL Offs(pZeroSquareMute, 16.75, 6.0, 0.2), v100, z0, tNozzle, \Wobj := wobj3Square;
		WaitRob \InPos;
		SetDO DO5_Program_Feed, 1;
		MoveL Offs(pZeroSquareMute, -16.75, 6.0, 0.2), v30, z0, tNozzle, \Wobj := wobj3Square;
		WaitRob \InPos;
		SetDO DO5_Program_Feed, 0;
		MoveL Offs(pZeroSquareMute, -16.75, 7.5, 0.2), v100, z0, tNozzle, \Wobj := wobj3Square;
		WaitRob \InPos;
		SetDO DO5_Program_Feed, 1;
		MoveL Offs(pZeroSquareMute, 16.75, 7.5, 0.2), v30, z0, tNozzle, \Wobj := wobj3Square;
		WaitRob \InPos;
		SetDO DO5_Program_Feed, 0;
		MoveL Offs(pZeroSquareMute, 16.75, 9.0, 0.2), v100, z0, tNozzle, \Wobj := wobj3Square;
		WaitRob \InPos;
		SetDO DO5_Program_Feed, 1;
		MoveL Offs(pZeroSquareMute, -16.75, 9.0, 0.2), v30, z0, tNozzle, \Wobj := wobj3Square;
		WaitRob \InPos;
		SetDO DO5_Program_Feed, 0;
		MoveL Offs(pZeroSquareMute, -16.75, 10.5, 0.2), v100, z0, tNozzle, \Wobj := wobj3Square;
		WaitRob \InPos;
		SetDO DO5_Program_Feed, 1;
		MoveL Offs(pZeroSquareMute, 16.75, 10.5, 0.2), v30, z0, tNozzle, \Wobj := wobj3Square;
		WaitRob \InPos;
		SetDO DO5_Program_Feed, 0;
		MoveL Offs(pZeroSquareMute, 16.75, 12.0, 0.2), v100, z0, tNozzle, \Wobj := wobj3Square;
		WaitRob \InPos;
		SetDO DO5_Program_Feed, 1;
		MoveL Offs(pZeroSquareMute, -16.75, 12.0, 0.2), v30, z0, tNozzle, \Wobj := wobj3Square;
		WaitRob \InPos;
		SetDO DO5_Program_Feed, 0;
		MoveL Offs(pZeroSquareMute, -16.75, 13.5, 0.2), v100, z0, tNozzle, \Wobj := wobj3Square;
		WaitRob \InPos;
		SetDO DO5_Program_Feed, 1;
		MoveL Offs(pZeroSquareMute, 16.75, 13.5, 0.2), v30, z0, tNozzle, \Wobj := wobj3Square;
		WaitRob \InPos;
		SetDO DO5_Program_Feed, 0;
		MoveL Offs(pZeroSquareMute, 16.75, 15.0, 0.2), v100, z0, tNozzle, \Wobj := wobj3Square;
		WaitRob \InPos;
		SetDO DO5_Program_Feed, 1;
		MoveL Offs(pZeroSquareMute, -16.75, 15.0, 0.2), v30, z0, tNozzle, \Wobj := wobj3Square;
		WaitRob \InPos;
		SetDO DO5_Program_Feed, 0;
		MoveL Offs(pZeroSquareMute, -16.75, 16.5, 0.2), v100, z0, tNozzle, \Wobj := wobj3Square;
		WaitRob \InPos;
		SetDO DO5_Program_Feed, 1;
		MoveL Offs(pZeroSquareMute, 16.75, 16.5, 0.2), v30, z0, tNozzle, \Wobj := wobj3Square;
		WaitRob \InPos;
		SetDO DO6_Between_Layer_Retract, 1;
		SetDO DO5_Program_Feed, 0;
		MoveL Offs(pZeroSquareMute, 16.75, 16.5, 5.2), v100, z0, tNozzle, \Wobj := wobj3Square;
        MoveL Offs(pZeroSquareMute, 0, 0, 50), v100, fine \Inpos := inpos50, tNozzle, \Wobj := wobj3Square;
	ENDPROC
		
	PROC Square2()
		! Layer 2 Square
		pZeroSquareMute := Offs(pZeroSquare, 0, 0, 0.2*layerNum);
		MoveL Offs(pZeroSquareMute, -17.75, 17.75, 5.4), v100, z0, tNozzle, \Wobj := wobj3Square;
		MoveL Offs(pZeroSquareMute, -17.75, 17.75, 0.2), v30, z0, tNozzle, \Wobj := wobj3Square;
		WaitRob \InPos;
		SetDO DO6_Between_Layer_Retract, 0;
		WaitRob \InPos;
		SetDO DO5_Program_Feed, 1;
		MoveL Offs(pZeroSquareMute, -17.75, -17.75, 0.2), v30, z0, tNozzle, \Wobj := wobj3Square;
		MoveL Offs(pZeroSquareMute, 17.75, -17.75, 0.2), v30, z0, tNozzle, \Wobj := wobj3Square;
		MoveL Offs(pZeroSquareMute, 17.75, 17.75, 0.2), v30, z0, tNozzle, \Wobj := wobj3Square;
		MoveL Offs(pZeroSquareMute, -17.75, 17.75, 0.2), v30, z0, tNozzle, \Wobj := wobj3Square;
		WaitRob \InPos;
		SetDO DO5_Program_Feed, 0;
		MoveL Offs(pZeroSquareMute, -17.25, 17.25, 0.2), v100, z0, tNozzle, \Wobj := wobj3Square;
		WaitRob \InPos;
		SetDO DO5_Program_Feed, 1;
		MoveL Offs(pZeroSquareMute, -17.25, -17.25, 0.2), v30, z0, tNozzle, \Wobj := wobj3Square;
		MoveL Offs(pZeroSquareMute, 17.25, -17.25, 0.2), v30, z0, tNozzle, \Wobj := wobj3Square;
		MoveL Offs(pZeroSquareMute, 17.25, 17.25, 0.2), v30, z0, tNozzle, \Wobj := wobj3Square;
		MoveL Offs(pZeroSquareMute, -17.25, 17.25, 0.2), v30, z0, tNozzle, \Wobj := wobj3Square;
		WaitRob \InPos;
		SetDO DO5_Program_Feed, 0;
		MoveL Offs(pZeroSquareMute, -16.5, 16.75, 0.2), v100, z0, tNozzle, \Wobj := wobj3Square;
		WaitRob \InPos;
		SetDO DO5_Program_Feed, 1;
		MoveL Offs(pZeroSquareMute, -16.5, -16.75, 0.2), v30, z0, tNozzle, \Wobj := wobj3Square;
		WaitRob \InPos;
		SetDO DO5_Program_Feed, 0;
		MoveL Offs(pZeroSquareMute, -15.0, -16.75, 0.2), v100, z0, tNozzle, \Wobj := wobj3Square;
		WaitRob \InPos;
		SetDO DO5_Program_Feed, 1;
		MoveL Offs(pZeroSquareMute, -15.0, 16.75, 0.2), v30, z0, tNozzle, \Wobj := wobj3Square;
		WaitRob \InPos;
		SetDO DO5_Program_Feed, 0;
		MoveL Offs(pZeroSquareMute, -13.5, 16.75, 0.2), v100, z0, tNozzle, \Wobj := wobj3Square;
		WaitRob \InPos;
		SetDO DO5_Program_Feed, 1;
		MoveL Offs(pZeroSquareMute, -13.5, -16.75, 0.2), v30, z0, tNozzle, \Wobj := wobj3Square;
		WaitRob \InPos;
		SetDO DO5_Program_Feed, 0;
		MoveL Offs(pZeroSquareMute, -12.0, -16.75, 0.2), v100, z0, tNozzle, \Wobj := wobj3Square;
		WaitRob \InPos;
		SetDO DO5_Program_Feed, 1;
		MoveL Offs(pZeroSquareMute, -12.0, 16.75, 0.2), v30, z0, tNozzle, \Wobj := wobj3Square;
		WaitRob \InPos;
		SetDO DO5_Program_Feed, 0;
		MoveL Offs(pZeroSquareMute, -10.5, 16.75, 0.2), v100, z0, tNozzle, \Wobj := wobj3Square;
		WaitRob \InPos;
		SetDO DO5_Program_Feed, 1;
		MoveL Offs(pZeroSquareMute, -10.5, -16.75, 0.2), v30, z0, tNozzle, \Wobj := wobj3Square;
		WaitRob \InPos;
		SetDO DO5_Program_Feed, 0;
		MoveL Offs(pZeroSquareMute, -9.0, -16.75, 0.2), v100, z0, tNozzle, \Wobj := wobj3Square;
		WaitRob \InPos;
		SetDO DO5_Program_Feed, 1;
		MoveL Offs(pZeroSquareMute, -9.0, 16.75, 0.2), v30, z0, tNozzle, \Wobj := wobj3Square;
		WaitRob \InPos;
		SetDO DO5_Program_Feed, 0;
		MoveL Offs(pZeroSquareMute, -7.5, 16.75, 0.2), v100, z0, tNozzle, \Wobj := wobj3Square;
		WaitRob \InPos;
		SetDO DO5_Program_Feed, 1;
		MoveL Offs(pZeroSquareMute, -7.5, -16.75, 0.2), v30, z0, tNozzle, \Wobj := wobj3Square;
		WaitRob \InPos;
		SetDO DO5_Program_Feed, 0;
		MoveL Offs(pZeroSquareMute, -6.0, -16.75, 0.2), v100, z0, tNozzle, \Wobj := wobj3Square;
		WaitRob \InPos;
		SetDO DO5_Program_Feed, 1;
		MoveL Offs(pZeroSquareMute, -6.0, 16.75, 0.2), v30, z0, tNozzle, \Wobj := wobj3Square;
		WaitRob \InPos;
		SetDO DO5_Program_Feed, 0;
		MoveL Offs(pZeroSquareMute, -4.5, 16.75, 0.2), v100, z0, tNozzle, \Wobj := wobj3Square;
		WaitRob \InPos;
		SetDO DO5_Program_Feed, 1;
		MoveL Offs(pZeroSquareMute, -4.5, -16.75, 0.2), v30, z0, tNozzle, \Wobj := wobj3Square;
		WaitRob \InPos;
		SetDO DO5_Program_Feed, 0;
		MoveL Offs(pZeroSquareMute, -3.0, -16.75, 0.2), v100, z0, tNozzle, \Wobj := wobj3Square;
		WaitRob \InPos;
		SetDO DO5_Program_Feed, 1;
		MoveL Offs(pZeroSquareMute, -3.0, 16.75, 0.2), v30, z0, tNozzle, \Wobj := wobj3Square;
		WaitRob \InPos;
		SetDO DO5_Program_Feed, 0;
		MoveL Offs(pZeroSquareMute, -1.5, 16.75, 0.2), v100, z0, tNozzle, \Wobj := wobj3Square;
		WaitRob \InPos;
		SetDO DO5_Program_Feed, 1;
		MoveL Offs(pZeroSquareMute, -1.5, -16.75, 0.2), v30, z0, tNozzle, \Wobj := wobj3Square;
		WaitRob \InPos;
		SetDO DO5_Program_Feed, 0;
		MoveL Offs(pZeroSquareMute, 0.0, -16.75, 0.2), v100, z0, tNozzle, \Wobj := wobj3Square;
		WaitRob \InPos;
		SetDO DO5_Program_Feed, 1;
		MoveL Offs(pZeroSquareMute, 0.0, 16.75, 0.2), v30, z0, tNozzle, \Wobj := wobj3Square;
		WaitRob \InPos;
		SetDO DO5_Program_Feed, 0;
		MoveL Offs(pZeroSquareMute, 1.5, 16.75, 0.2), v100, z0, tNozzle, \Wobj := wobj3Square;
		WaitRob \InPos;
		SetDO DO5_Program_Feed, 1;
		MoveL Offs(pZeroSquareMute, 1.5, -16.75, 0.2), v30, z0, tNozzle, \Wobj := wobj3Square;
		WaitRob \InPos;
		SetDO DO5_Program_Feed, 0;
		MoveL Offs(pZeroSquareMute, 3.0, -16.75, 0.2), v100, z0, tNozzle, \Wobj := wobj3Square;
		WaitRob \InPos;
		SetDO DO5_Program_Feed, 1;
		MoveL Offs(pZeroSquareMute, 3.0, 16.75, 0.2), v30, z0, tNozzle, \Wobj := wobj3Square;
		WaitRob \InPos;
		SetDO DO5_Program_Feed, 0;
		MoveL Offs(pZeroSquareMute, 4.5, 16.75, 0.2), v100, z0, tNozzle, \Wobj := wobj3Square;
		WaitRob \InPos;
		SetDO DO5_Program_Feed, 1;
		MoveL Offs(pZeroSquareMute, 4.5, -16.75, 0.2), v30, z0, tNozzle, \Wobj := wobj3Square;
		WaitRob \InPos;
		SetDO DO5_Program_Feed, 0;
		MoveL Offs(pZeroSquareMute, 6.0, -16.75, 0.2), v100, z0, tNozzle, \Wobj := wobj3Square;
		WaitRob \InPos;
		SetDO DO5_Program_Feed, 1;
		MoveL Offs(pZeroSquareMute, 6.0, 16.75, 0.2), v30, z0, tNozzle, \Wobj := wobj3Square;
		WaitRob \InPos;
		SetDO DO5_Program_Feed, 0;
		MoveL Offs(pZeroSquareMute, 7.5, 16.75, 0.2), v100, z0, tNozzle, \Wobj := wobj3Square;
		WaitRob \InPos;
		SetDO DO5_Program_Feed, 1;
		MoveL Offs(pZeroSquareMute, 7.5, -16.75, 0.2), v30, z0, tNozzle, \Wobj := wobj3Square;
		WaitRob \InPos;
		SetDO DO5_Program_Feed, 0;
		MoveL Offs(pZeroSquareMute, 9.0, -16.75, 0.2), v100, z0, tNozzle, \Wobj := wobj3Square;
		WaitRob \InPos;
		SetDO DO5_Program_Feed, 1;
		MoveL Offs(pZeroSquareMute, 9.0, 16.75, 0.2), v30, z0, tNozzle, \Wobj := wobj3Square;
		WaitRob \InPos;
		SetDO DO5_Program_Feed, 0;
		MoveL Offs(pZeroSquareMute, 10.5, 16.75, 0.2), v100, z0, tNozzle, \Wobj := wobj3Square;
		WaitRob \InPos;
		SetDO DO5_Program_Feed, 1;
		MoveL Offs(pZeroSquareMute, 10.5, -16.75, 0.2), v30, z0, tNozzle, \Wobj := wobj3Square;
		WaitRob \InPos;
		SetDO DO5_Program_Feed, 0;
		MoveL Offs(pZeroSquareMute, 12.0, -16.75, 0.2), v100, z0, tNozzle, \Wobj := wobj3Square;
		WaitRob \InPos;
		SetDO DO5_Program_Feed, 1;
		MoveL Offs(pZeroSquareMute, 12.0, 16.75, 0.2), v30, z0, tNozzle, \Wobj := wobj3Square;
		WaitRob \InPos;
		SetDO DO5_Program_Feed, 0;
		MoveL Offs(pZeroSquareMute, 13.5, 16.75, 0.2), v100, z0, tNozzle, \Wobj := wobj3Square;
		WaitRob \InPos;
		SetDO DO5_Program_Feed, 1;
		MoveL Offs(pZeroSquareMute, 13.5, -16.75, 0.2), v30, z0, tNozzle, \Wobj := wobj3Square;
		WaitRob \InPos;
		SetDO DO5_Program_Feed, 0;
		MoveL Offs(pZeroSquareMute, 15.0, -16.75, 0.2), v100, z0, tNozzle, \Wobj := wobj3Square;
		WaitRob \InPos;
		SetDO DO5_Program_Feed, 1;
		MoveL Offs(pZeroSquareMute, 15.0, 16.75, 0.2), v30, z0, tNozzle, \Wobj := wobj3Square;
		WaitRob \InPos;
		SetDO DO5_Program_Feed, 0;
		MoveL Offs(pZeroSquareMute, 16.5, 16.75, 0.2), v100, z0, tNozzle, \Wobj := wobj3Square;
		WaitRob \InPos;
		SetDO DO5_Program_Feed, 1;
		MoveL Offs(pZeroSquareMute, 16.5, -16.75, 0.2), v30, z0, tNozzle, \Wobj := wobj3Square;
		WaitRob \InPos;
		SetDO DO6_Between_Layer_Retract, 1;
		SetDO DO5_Program_Feed, 0;
		MoveL Offs(pZeroSquareMute, 16.5, -16.75, 5.4), v100, z0, tNozzle, \Wobj := wobj3Square;
		MoveL Offs(pZeroSquareMute, 0, 0, 50), v100, fine \Inpos := inpos50, tNozzle, \Wobj := wobj3Square;
	ENDPROC
	
	PROC Square3()
		! Layer 3 Square
		pZeroSquareMute := Offs(pZeroSquare, 0, 0, 0.2*layerNum);
		MoveL Offs(pZeroSquareMute, -17.75, 17.75, 5.6), v100, z0, tNozzle, \Wobj := wobj3Square;
		MoveL Offs(pZeroSquareMute, -17.75, 17.75, 0.2), v30, z0, tNozzle, \Wobj := wobj3Square;
		WaitRob \InPos;
		SetDO DO6_Between_Layer_Retract, 0;
		WaitRob \InPos;
		SetDO DO5_Program_Feed, 1;
		MoveL Offs(pZeroSquareMute, -17.75, -17.75, 0.2), v30, z0, tNozzle, \Wobj := wobj3Square;
		MoveL Offs(pZeroSquareMute, 17.75, -17.75, 0.2), v30, z0, tNozzle, \Wobj := wobj3Square;
		MoveL Offs(pZeroSquareMute, 17.75, 17.75, 0.2), v30, z0, tNozzle, \Wobj := wobj3Square;
		MoveL Offs(pZeroSquareMute, -17.75, 17.75, 0.2), v30, z0, tNozzle, \Wobj := wobj3Square;
		WaitRob \InPos;
		SetDO DO5_Program_Feed, 0;
		MoveL Offs(pZeroSquareMute, -17.25, 17.25, 0.2), v100, z0, tNozzle, \Wobj := wobj3Square;
		WaitRob \InPos;
		SetDO DO5_Program_Feed, 1;
		MoveL Offs(pZeroSquareMute, -17.25, -17.25, 0.2), v30, z0, tNozzle, \Wobj := wobj3Square;
		MoveL Offs(pZeroSquareMute, 17.25, -17.25, 0.2), v30, z0, tNozzle, \Wobj := wobj3Square;
		MoveL Offs(pZeroSquareMute, 17.25, 17.25, 0.2), v30, z0, tNozzle, \Wobj := wobj3Square;
		MoveL Offs(pZeroSquareMute, -17.25, 17.25, 0.2), v30, z0, tNozzle, \Wobj := wobj3Square;
		WaitRob \InPos;
		SetDO DO5_Program_Feed, 0;
		MoveL Offs(pZeroSquareMute, -16.75, 16.5, 0.2), v100, z0, tNozzle, \Wobj := wobj3Square;
		WaitRob \InPos;
		SetDO DO5_Program_Feed, 1;
		MoveL Offs(pZeroSquareMute, 16.75, 16.5, 0.2), v30, z0, tNozzle, \Wobj := wobj3Square;
		WaitRob \InPos;
		SetDO DO5_Program_Feed, 0;
		MoveL Offs(pZeroSquareMute, 16.75, 15.0, 0.2), v100, z0, tNozzle, \Wobj := wobj3Square;
		WaitRob \InPos;
		SetDO DO5_Program_Feed, 1;
		MoveL Offs(pZeroSquareMute, -16.75, 15.0, 0.2), v30, z0, tNozzle, \Wobj := wobj3Square;
		WaitRob \InPos;
		SetDO DO5_Program_Feed, 0;
		MoveL Offs(pZeroSquareMute, -16.75, 13.5, 0.2), v100, z0, tNozzle, \Wobj := wobj3Square;
		WaitRob \InPos;
		SetDO DO5_Program_Feed, 1;
		MoveL Offs(pZeroSquareMute, 16.75, 13.5, 0.2), v30, z0, tNozzle, \Wobj := wobj3Square;
		WaitRob \InPos;
		SetDO DO5_Program_Feed, 0;
		MoveL Offs(pZeroSquareMute, 16.75, 12.0, 0.2), v100, z0, tNozzle, \Wobj := wobj3Square;
		WaitRob \InPos;
		SetDO DO5_Program_Feed, 1;
		MoveL Offs(pZeroSquareMute, -16.75, 12.0, 0.2), v30, z0, tNozzle, \Wobj := wobj3Square;
		WaitRob \InPos;
		SetDO DO5_Program_Feed, 0;
		MoveL Offs(pZeroSquareMute, -16.75, 10.5, 0.2), v100, z0, tNozzle, \Wobj := wobj3Square;
		WaitRob \InPos;
		SetDO DO5_Program_Feed, 1;
		MoveL Offs(pZeroSquareMute, 16.75, 10.5, 0.2), v30, z0, tNozzle, \Wobj := wobj3Square;
		WaitRob \InPos;
		SetDO DO5_Program_Feed, 0;
		MoveL Offs(pZeroSquareMute, 16.75, 9.0, 0.2), v100, z0, tNozzle, \Wobj := wobj3Square;
		WaitRob \InPos;
		SetDO DO5_Program_Feed, 1;
		MoveL Offs(pZeroSquareMute, -16.75, 9.0, 0.2), v30, z0, tNozzle, \Wobj := wobj3Square;
		WaitRob \InPos;
		SetDO DO5_Program_Feed, 0;
		MoveL Offs(pZeroSquareMute, -16.75, 7.5, 0.2), v100, z0, tNozzle, \Wobj := wobj3Square;
		WaitRob \InPos;
		SetDO DO5_Program_Feed, 1;
		MoveL Offs(pZeroSquareMute, 16.75, 7.5, 0.2), v30, z0, tNozzle, \Wobj := wobj3Square;
		WaitRob \InPos;
		SetDO DO5_Program_Feed, 0;
		MoveL Offs(pZeroSquareMute, 16.75, 6.0, 0.2), v100, z0, tNozzle, \Wobj := wobj3Square;
		WaitRob \InPos;
		SetDO DO5_Program_Feed, 1;
		MoveL Offs(pZeroSquareMute, -16.75, 6.0, 0.2), v30, z0, tNozzle, \Wobj := wobj3Square;
		WaitRob \InPos;
		SetDO DO5_Program_Feed, 0;
		MoveL Offs(pZeroSquareMute, -16.75, 4.5, 0.2), v100, z0, tNozzle, \Wobj := wobj3Square;
		WaitRob \InPos;
		SetDO DO5_Program_Feed, 1;
		MoveL Offs(pZeroSquareMute, 16.75, 4.5, 0.2), v30, z0, tNozzle, \Wobj := wobj3Square;
		WaitRob \InPos;
		SetDO DO5_Program_Feed, 0;
		MoveL Offs(pZeroSquareMute, 16.75, 3.0, 0.2), v100, z0, tNozzle, \Wobj := wobj3Square;
		WaitRob \InPos;
		SetDO DO5_Program_Feed, 1;
		MoveL Offs(pZeroSquareMute, -16.75, 3.0, 0.2), v30, z0, tNozzle, \Wobj := wobj3Square;
		WaitRob \InPos;
		SetDO DO5_Program_Feed, 0;
		MoveL Offs(pZeroSquareMute, -16.75, 1.5, 0.2), v100, z0, tNozzle, \Wobj := wobj3Square;
		WaitRob \InPos;
		SetDO DO5_Program_Feed, 1;
		MoveL Offs(pZeroSquareMute, 16.75, 1.5, 0.2), v30, z0, tNozzle, \Wobj := wobj3Square;
		WaitRob \InPos;
		SetDO DO5_Program_Feed, 0;
		MoveL Offs(pZeroSquareMute, 16.75, 0.0, 0.2), v100, z0, tNozzle, \Wobj := wobj3Square;
		WaitRob \InPos;
		SetDO DO5_Program_Feed, 1;
		MoveL Offs(pZeroSquareMute, -16.75, 0.0, 0.2), v30, z0, tNozzle, \Wobj := wobj3Square;
		WaitRob \InPos;
		SetDO DO5_Program_Feed, 0;
		MoveL Offs(pZeroSquareMute, -16.75, -1.5, 0.2), v100, z0, tNozzle, \Wobj := wobj3Square;
		WaitRob \InPos;
		SetDO DO5_Program_Feed, 1;
		MoveL Offs(pZeroSquareMute, 16.75, -1.5, 0.2), v30, z0, tNozzle, \Wobj := wobj3Square;
		WaitRob \InPos;
		SetDO DO5_Program_Feed, 0;
		MoveL Offs(pZeroSquareMute, 16.75, -3.0, 0.2), v100, z0, tNozzle, \Wobj := wobj3Square;
		WaitRob \InPos;
		SetDO DO5_Program_Feed, 1;
		MoveL Offs(pZeroSquareMute, -16.75, -3.0, 0.2), v30, z0, tNozzle, \Wobj := wobj3Square;
		WaitRob \InPos;
		SetDO DO5_Program_Feed, 0;
		MoveL Offs(pZeroSquareMute, -16.75, -4.5, 0.2), v100, z0, tNozzle, \Wobj := wobj3Square;
		WaitRob \InPos;
		SetDO DO5_Program_Feed, 1;
		MoveL Offs(pZeroSquareMute, 16.75, -4.5, 0.2), v30, z0, tNozzle, \Wobj := wobj3Square;
		WaitRob \InPos;
		SetDO DO5_Program_Feed, 0;
		MoveL Offs(pZeroSquareMute, 16.75, -6.0, 0.2), v100, z0, tNozzle, \Wobj := wobj3Square;
		WaitRob \InPos;
		SetDO DO5_Program_Feed, 1;
		MoveL Offs(pZeroSquareMute, -16.75, -6.0, 0.2), v30, z0, tNozzle, \Wobj := wobj3Square;
		WaitRob \InPos;
		SetDO DO5_Program_Feed, 0;
		MoveL Offs(pZeroSquareMute, -16.75, -7.5, 0.2), v100, z0, tNozzle, \Wobj := wobj3Square;
		WaitRob \InPos;
		SetDO DO5_Program_Feed, 1;
		MoveL Offs(pZeroSquareMute, 16.75, -7.5, 0.2), v30, z0, tNozzle, \Wobj := wobj3Square;
		WaitRob \InPos;
		SetDO DO5_Program_Feed, 0;
		MoveL Offs(pZeroSquareMute, 16.75, -9.0, 0.2), v100, z0, tNozzle, \Wobj := wobj3Square;
		WaitRob \InPos;
		SetDO DO5_Program_Feed, 1;
		MoveL Offs(pZeroSquareMute, -16.75, -9.0, 0.2), v30, z0, tNozzle, \Wobj := wobj3Square;
		WaitRob \InPos;
		SetDO DO5_Program_Feed, 0;
		MoveL Offs(pZeroSquareMute, -16.75, -10.5, 0.2), v100, z0, tNozzle, \Wobj := wobj3Square;
		WaitRob \InPos;
		SetDO DO5_Program_Feed, 1;
		MoveL Offs(pZeroSquareMute, 16.75, -10.5, 0.2), v30, z0, tNozzle, \Wobj := wobj3Square;
		WaitRob \InPos;
		SetDO DO5_Program_Feed, 0;
		MoveL Offs(pZeroSquareMute, 16.75, -12.0, 0.2), v100, z0, tNozzle, \Wobj := wobj3Square;
		WaitRob \InPos;
		SetDO DO5_Program_Feed, 1;
		MoveL Offs(pZeroSquareMute, -16.75, -12.0, 0.2), v30, z0, tNozzle, \Wobj := wobj3Square;
		WaitRob \InPos;
		SetDO DO5_Program_Feed, 0;
		MoveL Offs(pZeroSquareMute, -16.75, -13.5, 0.2), v100, z0, tNozzle, \Wobj := wobj3Square;
		WaitRob \InPos;
		SetDO DO5_Program_Feed, 1;
		MoveL Offs(pZeroSquareMute, 16.75, -13.5, 0.2), v30, z0, tNozzle, \Wobj := wobj3Square;
		WaitRob \InPos;
		SetDO DO5_Program_Feed, 0;
		MoveL Offs(pZeroSquareMute, 16.75, -15.0, 0.2), v100, z0, tNozzle, \Wobj := wobj3Square;
		WaitRob \InPos;
		SetDO DO5_Program_Feed, 1;
		MoveL Offs(pZeroSquareMute, -16.75, -15.0, 0.2), v30, z0, tNozzle, \Wobj := wobj3Square;
		WaitRob \InPos;
		SetDO DO5_Program_Feed, 0;
		MoveL Offs(pZeroSquareMute, -16.75, -16.5, 0.2), v100, z0, tNozzle, \Wobj := wobj3Square;
		WaitRob \InPos;
		SetDO DO5_Program_Feed, 1;
		MoveL Offs(pZeroSquareMute, 16.75, -16.5, 0.2), v30, z0, tNozzle, \Wobj := wobj3Square;
		WaitRob \InPos;
		SetDO DO6_Between_Layer_Retract, 1;
		SetDO DO5_Program_Feed, 0;
		MoveL Offs(pZeroSquareMute, 16.75, -16.5, 5.6), v100, z0, tNozzle, \Wobj := wobj3Square;
		MoveL Offs(pZeroSquareMute, 0, 0, 50), v100, fine \Inpos := inpos50, tNozzle, \Wobj := wobj3Square;
	ENDPROC
	
	PROC Square4()
		! Layer 4 Square
		pZeroSquareMute := Offs(pZeroSquare, 0, 0, 0.2*layerNum);
		MoveL Offs(pZeroSquareMute, 17.75, -17.75, 5.8), v100, z0, tNozzle, \Wobj := wobj3Square;
		MoveL Offs(pZeroSquareMute, 17.75, -17.75, 0.2), v30, z0, tNozzle, \Wobj := wobj3Square;
		WaitRob \InPos;
		SetDO DO6_Between_Layer_Retract, 0;
		WaitRob \InPos;
		SetDO DO5_Program_Feed, 1;
		MoveL Offs(pZeroSquareMute, 17.75, 17.75, 0.2), v30, z0, tNozzle, \Wobj := wobj3Square;
		MoveL Offs(pZeroSquareMute, -17.75, 17.75, 0.2), v30, z0, tNozzle, \Wobj := wobj3Square;
		MoveL Offs(pZeroSquareMute, -17.75, -17.75, 0.2), v30, z0, tNozzle, \Wobj := wobj3Square;
		MoveL Offs(pZeroSquareMute, 17.75, -17.75, 0.2), v30, z0, tNozzle, \Wobj := wobj3Square;
		WaitRob \InPos;
		SetDO DO5_Program_Feed, 0;
		MoveL Offs(pZeroSquareMute, 17.25, -17.25, 0.2), v100, z0, tNozzle, \Wobj := wobj3Square;
		WaitRob \InPos;
		SetDO DO5_Program_Feed, 1;
		MoveL Offs(pZeroSquareMute, 17.25, 17.25, 0.2), v30, z0, tNozzle, \Wobj := wobj3Square;
		MoveL Offs(pZeroSquareMute, -17.25, 17.25, 0.2), v30, z0, tNozzle, \Wobj := wobj3Square;
		MoveL Offs(pZeroSquareMute, -17.25, -17.25, 0.2), v30, z0, tNozzle, \Wobj := wobj3Square;
		MoveL Offs(pZeroSquareMute, 17.25, -17.25, 0.2), v30, z0, tNozzle, \Wobj := wobj3Square;
		WaitRob \InPos;
		SetDO DO5_Program_Feed, 0;
		MoveL Offs(pZeroSquareMute, 16.5, -16.75, 0.2), v100, z0, tNozzle, \Wobj := wobj3Square;
		WaitRob \InPos;
		SetDO DO5_Program_Feed, 1;
		MoveL Offs(pZeroSquareMute, 16.5, 16.75, 0.2), v30, z0, tNozzle, \Wobj := wobj3Square;
		WaitRob \InPos;
		SetDO DO5_Program_Feed, 0;
		MoveL Offs(pZeroSquareMute, 15.0, 16.75, 0.2), v100, z0, tNozzle, \Wobj := wobj3Square;
		WaitRob \InPos;
		SetDO DO5_Program_Feed, 1;
		MoveL Offs(pZeroSquareMute, 15.0, -16.75, 0.2), v30, z0, tNozzle, \Wobj := wobj3Square;
		WaitRob \InPos;
		SetDO DO5_Program_Feed, 0;
		MoveL Offs(pZeroSquareMute, 13.5, -16.75, 0.2), v100, z0, tNozzle, \Wobj := wobj3Square;
		WaitRob \InPos;
		SetDO DO5_Program_Feed, 1;
		MoveL Offs(pZeroSquareMute, 13.5, 16.75, 0.2), v30, z0, tNozzle, \Wobj := wobj3Square;
		WaitRob \InPos;
		SetDO DO5_Program_Feed, 0;
		MoveL Offs(pZeroSquareMute, 12.0, 16.75, 0.2), v100, z0, tNozzle, \Wobj := wobj3Square;
		WaitRob \InPos;
		SetDO DO5_Program_Feed, 1;
		MoveL Offs(pZeroSquareMute, 12.0, -16.75, 0.2), v30, z0, tNozzle, \Wobj := wobj3Square;
		WaitRob \InPos;
		SetDO DO5_Program_Feed, 0;
		MoveL Offs(pZeroSquareMute, 10.5, -16.75, 0.2), v100, z0, tNozzle, \Wobj := wobj3Square;
		WaitRob \InPos;
		SetDO DO5_Program_Feed, 1;
		MoveL Offs(pZeroSquareMute, 10.5, 16.75, 0.2), v30, z0, tNozzle, \Wobj := wobj3Square;
		WaitRob \InPos;
		SetDO DO5_Program_Feed, 0;
		MoveL Offs(pZeroSquareMute, 9.0, 16.75, 0.2), v100, z0, tNozzle, \Wobj := wobj3Square;
		WaitRob \InPos;
		SetDO DO5_Program_Feed, 1;
		MoveL Offs(pZeroSquareMute, 9.0, -16.75, 0.2), v30, z0, tNozzle, \Wobj := wobj3Square;
		WaitRob \InPos;
		SetDO DO5_Program_Feed, 0;
		MoveL Offs(pZeroSquareMute, 7.5, -16.75, 0.2), v100, z0, tNozzle, \Wobj := wobj3Square;
		WaitRob \InPos;
		SetDO DO5_Program_Feed, 1;
		MoveL Offs(pZeroSquareMute, 7.5, 16.75, 0.2), v30, z0, tNozzle, \Wobj := wobj3Square;
		WaitRob \InPos;
		SetDO DO5_Program_Feed, 0;
		MoveL Offs(pZeroSquareMute, 6.0, 16.75, 0.2), v100, z0, tNozzle, \Wobj := wobj3Square;
		WaitRob \InPos;
		SetDO DO5_Program_Feed, 1;
		MoveL Offs(pZeroSquareMute, 6.0, -16.75, 0.2), v30, z0, tNozzle, \Wobj := wobj3Square;
		WaitRob \InPos;
		SetDO DO5_Program_Feed, 0;
		MoveL Offs(pZeroSquareMute, 4.5, -16.75, 0.2), v100, z0, tNozzle, \Wobj := wobj3Square;
		WaitRob \InPos;
		SetDO DO5_Program_Feed, 1;
		MoveL Offs(pZeroSquareMute, 4.5, 16.75, 0.2), v30, z0, tNozzle, \Wobj := wobj3Square;
		WaitRob \InPos;
		SetDO DO5_Program_Feed, 0;
		MoveL Offs(pZeroSquareMute, 3.0, 16.75, 0.2), v100, z0, tNozzle, \Wobj := wobj3Square;
		WaitRob \InPos;
		SetDO DO5_Program_Feed, 1;
		MoveL Offs(pZeroSquareMute, 3.0, -16.75, 0.2), v30, z0, tNozzle, \Wobj := wobj3Square;
		WaitRob \InPos;
		SetDO DO5_Program_Feed, 0;
		MoveL Offs(pZeroSquareMute, 1.5, -16.75, 0.2), v100, z0, tNozzle, \Wobj := wobj3Square;
		WaitRob \InPos;
		SetDO DO5_Program_Feed, 1;
		MoveL Offs(pZeroSquareMute, 1.5, 16.75, 0.2), v30, z0, tNozzle, \Wobj := wobj3Square;
		WaitRob \InPos;
		SetDO DO5_Program_Feed, 0;
		MoveL Offs(pZeroSquareMute, 0.0, 16.75, 0.2), v100, z0, tNozzle, \Wobj := wobj3Square;
		WaitRob \InPos;
		SetDO DO5_Program_Feed, 1;
		MoveL Offs(pZeroSquareMute, 0.0, -16.75, 0.2), v30, z0, tNozzle, \Wobj := wobj3Square;
		WaitRob \InPos;
		SetDO DO5_Program_Feed, 0;
		MoveL Offs(pZeroSquareMute, -1.5, -16.75, 0.2), v100, z0, tNozzle, \Wobj := wobj3Square;
		WaitRob \InPos;
		SetDO DO5_Program_Feed, 1;
		MoveL Offs(pZeroSquareMute, -1.5, 16.75, 0.2), v30, z0, tNozzle, \Wobj := wobj3Square;
		WaitRob \InPos;
		SetDO DO5_Program_Feed, 0;
		MoveL Offs(pZeroSquareMute, -3.0, 16.75, 0.2), v100, z0, tNozzle, \Wobj := wobj3Square;
		WaitRob \InPos;
		SetDO DO5_Program_Feed, 1;
		MoveL Offs(pZeroSquareMute, -3.0, -16.75, 0.2), v30, z0, tNozzle, \Wobj := wobj3Square;
		WaitRob \InPos;
		SetDO DO5_Program_Feed, 0;
		MoveL Offs(pZeroSquareMute, -4.5, -16.75, 0.2), v100, z0, tNozzle, \Wobj := wobj3Square;
		WaitRob \InPos;
		SetDO DO5_Program_Feed, 1;
		MoveL Offs(pZeroSquareMute, -4.5, 16.75, 0.2), v30, z0, tNozzle, \Wobj := wobj3Square;
		WaitRob \InPos;
		SetDO DO5_Program_Feed, 0;
		MoveL Offs(pZeroSquareMute, -6.0, 16.75, 0.2), v100, z0, tNozzle, \Wobj := wobj3Square;
		WaitRob \InPos;
		SetDO DO5_Program_Feed, 1;
		MoveL Offs(pZeroSquareMute, -6.0, -16.75, 0.2), v30, z0, tNozzle, \Wobj := wobj3Square;
		WaitRob \InPos;
		SetDO DO5_Program_Feed, 0;
		MoveL Offs(pZeroSquareMute, -7.5, -16.75, 0.2), v100, z0, tNozzle, \Wobj := wobj3Square;
		WaitRob \InPos;
		SetDO DO5_Program_Feed, 1;
		MoveL Offs(pZeroSquareMute, -7.5, 16.75, 0.2), v30, z0, tNozzle, \Wobj := wobj3Square;
		WaitRob \InPos;
		SetDO DO5_Program_Feed, 0;
		MoveL Offs(pZeroSquareMute, -9.0, 16.75, 0.2), v100, z0, tNozzle, \Wobj := wobj3Square;
		WaitRob \InPos;
		SetDO DO5_Program_Feed, 1;
		MoveL Offs(pZeroSquareMute, -9.0, -16.75, 0.2), v30, z0, tNozzle, \Wobj := wobj3Square;
		WaitRob \InPos;
		SetDO DO5_Program_Feed, 0;
		MoveL Offs(pZeroSquareMute, -10.5, -16.75, 0.2), v100, z0, tNozzle, \Wobj := wobj3Square;
		WaitRob \InPos;
		SetDO DO5_Program_Feed, 1;
		MoveL Offs(pZeroSquareMute, -10.5, 16.75, 0.2), v30, z0, tNozzle, \Wobj := wobj3Square;
		WaitRob \InPos;
		SetDO DO5_Program_Feed, 0;
		MoveL Offs(pZeroSquareMute, -12.0, 16.75, 0.2), v100, z0, tNozzle, \Wobj := wobj3Square;
		WaitRob \InPos;
		SetDO DO5_Program_Feed, 1;
		MoveL Offs(pZeroSquareMute, -12.0, -16.75, 0.2), v30, z0, tNozzle, \Wobj := wobj3Square;
		WaitRob \InPos;
		SetDO DO5_Program_Feed, 0;
		MoveL Offs(pZeroSquareMute, -13.5, -16.75, 0.2), v100, z0, tNozzle, \Wobj := wobj3Square;
		WaitRob \InPos;
		SetDO DO5_Program_Feed, 1;
		MoveL Offs(pZeroSquareMute, -13.5, 16.75, 0.2), v30, z0, tNozzle, \Wobj := wobj3Square;
		WaitRob \InPos;
		SetDO DO5_Program_Feed, 0;
		MoveL Offs(pZeroSquareMute, -15.0, 16.75, 0.2), v100, z0, tNozzle, \Wobj := wobj3Square;
		WaitRob \InPos;
		SetDO DO5_Program_Feed, 1;
		MoveL Offs(pZeroSquareMute, -15.0, -16.75, 0.2), v30, z0, tNozzle, \Wobj := wobj3Square;
		WaitRob \InPos;
		SetDO DO5_Program_Feed, 0;
		MoveL Offs(pZeroSquareMute, -16.5, -16.75, 0.2), v100, z0, tNozzle, \Wobj := wobj3Square;
		WaitRob \InPos;
		SetDO DO5_Program_Feed, 1;
		MoveL Offs(pZeroSquareMute, -16.5, 16.75, 0.2), v30, z0, tNozzle, \Wobj := wobj3Square;
		WaitRob \InPos;
		SetDO DO6_Between_Layer_Retract, 1;
		SetDO DO5_Program_Feed, 0;
		MoveL Offs(pZeroSquareMute, -16.5, 16.75, 5.8), v100, z0, tNozzle, \Wobj := wobj3Square;
		MoveL Offs(pZeroSquareMute, 0, 0, 50), v100, fine \Inpos := inpos50, tNozzle, \Wobj := wobj3Square;
	ENDPROC
		
	PROC Circle1()
		! Layer 1 Circle
		pZeroCircleMute := Offs(pZeroCircle, 0, 0, 0.2*layerNum);
		MoveL Offs(pZeroCircleMute, 12.295, 12.801, 5.2), v100, z0, tNozzle, \Wobj := wobj2Circle;
		MoveL Offs(pZeroCircleMute, 12.295, 12.801, 0.2), v30, z0, tNozzle, \Wobj := wobj2Circle;
		WaitRob \InPos;
		SetDO DO6_Between_Layer_Retract, 0;
		WaitRob \InPos;
		SetDO DO5_Program_Feed, 1;
		MoveL Offs(pZeroCircleMute, 10.083, 14.607, 0.2), v30, z0, tNozzle, \Wobj := wobj2Circle;
		MoveL Offs(pZeroCircleMute, 7.609, 16.036, 0.2), v30, z0, tNozzle, \Wobj := wobj2Circle;
		MoveL Offs(pZeroCircleMute, 4.938, 17.048, 0.2), v30, z0, tNozzle, \Wobj := wobj2Circle;
		MoveL Offs(pZeroCircleMute, 2.139, 17.62, 0.2), v30, z0, tNozzle, \Wobj := wobj2Circle;
		MoveL Offs(pZeroCircleMute, -0.715, 17.735, 0.2), v30, z0, tNozzle, \Wobj := wobj2Circle;
		MoveL Offs(pZeroCircleMute, -3.55, 17.39, 0.2), v30, z0, tNozzle, \Wobj := wobj2Circle;
		MoveL Offs(pZeroCircleMute, -6.294, 16.596, 0.2), v30, z0, tNozzle, \Wobj := wobj2Circle;
		MoveL Offs(pZeroCircleMute, -8.875, 15.371, 0.2), v30, z0, tNozzle, \Wobj := wobj2Circle;
		MoveL Offs(pZeroCircleMute, -11.225, 13.749, 0.2), v30, z0, tNozzle, \Wobj := wobj2Circle;
		MoveL Offs(pZeroCircleMute, -13.285, 11.77, 0.2), v30, z0, tNozzle, \Wobj := wobj2Circle;
		MoveL Offs(pZeroCircleMute, -15.001, 9.486, 0.2), v30, z0, tNozzle, \Wobj := wobj2Circle;
		MoveL Offs(pZeroCircleMute, -16.329, 6.957, 0.2), v30, z0, tNozzle, \Wobj := wobj2Circle;
		MoveL Offs(pZeroCircleMute, -17.233, 4.248, 0.2), v30, z0, tNozzle, \Wobj := wobj2Circle;
		MoveL Offs(pZeroCircleMute, -17.692, 1.428, 0.2), v30, z0, tNozzle, \Wobj := wobj2Circle;
		MoveL Offs(pZeroCircleMute, -17.692, -1.428, 0.2), v30, z0, tNozzle, \Wobj := wobj2Circle;
		MoveL Offs(pZeroCircleMute, -17.233, -4.248, 0.2), v30, z0, tNozzle, \Wobj := wobj2Circle;
		MoveL Offs(pZeroCircleMute, -16.329, -6.957, 0.2), v30, z0, tNozzle, \Wobj := wobj2Circle;
		MoveL Offs(pZeroCircleMute, -15.001, -9.486, 0.2), v30, z0, tNozzle, \Wobj := wobj2Circle;
		MoveL Offs(pZeroCircleMute, -13.285, -11.77, 0.2), v30, z0, tNozzle, \Wobj := wobj2Circle;
		MoveL Offs(pZeroCircleMute, -11.225, -13.749, 0.2), v30, z0, tNozzle, \Wobj := wobj2Circle;
		MoveL Offs(pZeroCircleMute, -8.875, -15.371, 0.2), v30, z0, tNozzle, \Wobj := wobj2Circle;
		MoveL Offs(pZeroCircleMute, -6.294, -16.596, 0.2), v30, z0, tNozzle, \Wobj := wobj2Circle;
		MoveL Offs(pZeroCircleMute, -3.55, -17.39, 0.2), v30, z0, tNozzle, \Wobj := wobj2Circle;
		MoveL Offs(pZeroCircleMute, -0.715, -17.735, 0.2), v30, z0, tNozzle, \Wobj := wobj2Circle;
		MoveL Offs(pZeroCircleMute, 2.139, -17.62, 0.2), v30, z0, tNozzle, \Wobj := wobj2Circle;
		MoveL Offs(pZeroCircleMute, 4.938, -17.048, 0.2), v30, z0, tNozzle, \Wobj := wobj2Circle;
		MoveL Offs(pZeroCircleMute, 7.609, -16.036, 0.2), v30, z0, tNozzle, \Wobj := wobj2Circle;
		MoveL Offs(pZeroCircleMute, 10.083, -14.607, 0.2), v30, z0, tNozzle, \Wobj := wobj2Circle;
		MoveL Offs(pZeroCircleMute, 12.295, -12.801, 0.2), v30, z0, tNozzle, \Wobj := wobj2Circle;
		MoveL Offs(pZeroCircleMute, 14.189, -10.663, 0.2), v30, z0, tNozzle, \Wobj := wobj2Circle;
		MoveL Offs(pZeroCircleMute, 15.716, -8.248, 0.2), v30, z0, tNozzle, \Wobj := wobj2Circle;
		MoveL Offs(pZeroCircleMute, 16.836, -5.621, 0.2), v30, z0, tNozzle, \Wobj := wobj2Circle;
		MoveL Offs(pZeroCircleMute, 17.519, -2.847, 0.2), v30, z0, tNozzle, \Wobj := wobj2Circle;
		MoveL Offs(pZeroCircleMute, 17.749, -0.0, 0.2), v30, z0, tNozzle, \Wobj := wobj2Circle;
		MoveL Offs(pZeroCircleMute, 17.519, 2.847, 0.2), v30, z0, tNozzle, \Wobj := wobj2Circle;
		MoveL Offs(pZeroCircleMute, 16.836, 5.621, 0.2), v30, z0, tNozzle, \Wobj := wobj2Circle;
		MoveL Offs(pZeroCircleMute, 15.716, 8.248, 0.2), v30, z0, tNozzle, \Wobj := wobj2Circle;
		MoveL Offs(pZeroCircleMute, 14.189, 10.663, 0.2), v30, z0, tNozzle, \Wobj := wobj2Circle;
		MoveL Offs(pZeroCircleMute, 12.295, 12.801, 0.2), v30, z0, tNozzle, \Wobj := wobj2Circle;
		WaitRob \InPos;
		SetDO DO5_Program_Feed, 0;
		MoveL Offs(pZeroCircleMute, 11.948, 12.439, 0.2), v100, z0, tNozzle, \Wobj := wobj2Circle;
		WaitRob \InPos;
		SetDO DO5_Program_Feed, 1;
		MoveL Offs(pZeroCircleMute, 9.798, 14.194, 0.2), v30, z0, tNozzle, \Wobj := wobj2Circle;
		MoveL Offs(pZeroCircleMute, 7.394, 15.582, 0.2), v30, z0, tNozzle, \Wobj := wobj2Circle;
		MoveL Offs(pZeroCircleMute, 4.799, 16.567, 0.2), v30, z0, tNozzle, \Wobj := wobj2Circle;
		MoveL Offs(pZeroCircleMute, 2.079, 17.122, 0.2), v30, z0, tNozzle, \Wobj := wobj2Circle;
		MoveL Offs(pZeroCircleMute, -0.694, 17.234, 0.2), v30, z0, tNozzle, \Wobj := wobj2Circle;
		MoveL Offs(pZeroCircleMute, -3.45, 16.899, 0.2), v30, z0, tNozzle, \Wobj := wobj2Circle;
		MoveL Offs(pZeroCircleMute, -6.116, 16.127, 0.2), v30, z0, tNozzle, \Wobj := wobj2Circle;
		MoveL Offs(pZeroCircleMute, -8.624, 14.937, 0.2), v30, z0, tNozzle, \Wobj := wobj2Circle;
		MoveL Offs(pZeroCircleMute, -10.908, 13.36, 0.2), v30, z0, tNozzle, \Wobj := wobj2Circle;
		MoveL Offs(pZeroCircleMute, -12.91, 11.437, 0.2), v30, z0, tNozzle, \Wobj := wobj2Circle;
		MoveL Offs(pZeroCircleMute, -14.577, 9.218, 0.2), v30, z0, tNozzle, \Wobj := wobj2Circle;
		MoveL Offs(pZeroCircleMute, -15.867, 6.76, 0.2), v30, z0, tNozzle, \Wobj := wobj2Circle;
		MoveL Offs(pZeroCircleMute, -16.746, 4.128, 0.2), v30, z0, tNozzle, \Wobj := wobj2Circle;
		MoveL Offs(pZeroCircleMute, -17.192, 1.388, 0.2), v30, z0, tNozzle, \Wobj := wobj2Circle;
		MoveL Offs(pZeroCircleMute, -17.192, -1.388, 0.2), v30, z0, tNozzle, \Wobj := wobj2Circle;
		MoveL Offs(pZeroCircleMute, -16.746, -4.128, 0.2), v30, z0, tNozzle, \Wobj := wobj2Circle;
		MoveL Offs(pZeroCircleMute, -15.867, -6.76, 0.2), v30, z0, tNozzle, \Wobj := wobj2Circle;
		MoveL Offs(pZeroCircleMute, -14.577, -9.218, 0.2), v30, z0, tNozzle, \Wobj := wobj2Circle;
		MoveL Offs(pZeroCircleMute, -12.91, -11.437, 0.2), v30, z0, tNozzle, \Wobj := wobj2Circle;
		MoveL Offs(pZeroCircleMute, -10.908, -13.36, 0.2), v30, z0, tNozzle, \Wobj := wobj2Circle;
		MoveL Offs(pZeroCircleMute, -8.624, -14.937, 0.2), v30, z0, tNozzle, \Wobj := wobj2Circle;
		MoveL Offs(pZeroCircleMute, -6.116, -16.127, 0.2), v30, z0, tNozzle, \Wobj := wobj2Circle;
		MoveL Offs(pZeroCircleMute, -3.45, -16.899, 0.2), v30, z0, tNozzle, \Wobj := wobj2Circle;
		MoveL Offs(pZeroCircleMute, -0.694, -17.234, 0.2), v30, z0, tNozzle, \Wobj := wobj2Circle;
		MoveL Offs(pZeroCircleMute, 2.079, -17.122, 0.2), v30, z0, tNozzle, \Wobj := wobj2Circle;
		MoveL Offs(pZeroCircleMute, 4.799, -16.567, 0.2), v30, z0, tNozzle, \Wobj := wobj2Circle;
		MoveL Offs(pZeroCircleMute, 7.394, -15.582, 0.2), v30, z0, tNozzle, \Wobj := wobj2Circle;
		MoveL Offs(pZeroCircleMute, 9.798, -14.194, 0.2), v30, z0, tNozzle, \Wobj := wobj2Circle;
		MoveL Offs(pZeroCircleMute, 11.948, -12.439, 0.2), v30, z0, tNozzle, \Wobj := wobj2Circle;
		MoveL Offs(pZeroCircleMute, 13.788, -10.361, 0.2), v30, z0, tNozzle, \Wobj := wobj2Circle;
		MoveL Offs(pZeroCircleMute, 15.272, -8.015, 0.2), v30, z0, tNozzle, \Wobj := wobj2Circle;
		MoveL Offs(pZeroCircleMute, 16.36, -5.462, 0.2), v30, z0, tNozzle, \Wobj := wobj2Circle;
		MoveL Offs(pZeroCircleMute, 17.024, -2.767, 0.2), v30, z0, tNozzle, \Wobj := wobj2Circle;
		MoveL Offs(pZeroCircleMute, 17.248, -0.0, 0.2), v30, z0, tNozzle, \Wobj := wobj2Circle;
		MoveL Offs(pZeroCircleMute, 17.024, 2.767, 0.2), v30, z0, tNozzle, \Wobj := wobj2Circle;
		MoveL Offs(pZeroCircleMute, 16.36, 5.462, 0.2), v30, z0, tNozzle, \Wobj := wobj2Circle;
		MoveL Offs(pZeroCircleMute, 15.272, 8.015, 0.2), v30, z0, tNozzle, \Wobj := wobj2Circle;
		MoveL Offs(pZeroCircleMute, 13.788, 10.361, 0.2), v30, z0, tNozzle, \Wobj := wobj2Circle;
		MoveL Offs(pZeroCircleMute, 11.948, 12.439, 0.2), v30, z0, tNozzle, \Wobj := wobj2Circle;
		WaitRob \InPos;
		SetDO DO5_Program_Feed, 0;
		MoveL Offs(pZeroCircleMute, 9.878, 13.484, 0.2), v100, z0, tNozzle, \Wobj := wobj2Circle;
		WaitRob \InPos;
		SetDO DO5_Program_Feed, 1;
		MoveL Offs(pZeroCircleMute, 13.536, 9.826, 0.2), v30, z0, tNozzle, \Wobj := wobj2Circle;
		WaitRob \InPos;
		SetDO DO5_Program_Feed, 0;
		MoveL Offs(pZeroCircleMute, 15.845, 5.395, 0.2), v100, z0, tNozzle, \Wobj := wobj2Circle;
		WaitRob \InPos;
		SetDO DO5_Program_Feed, 1;
		MoveL Offs(pZeroCircleMute, 5.459, 15.782, 0.2), v30, z0, tNozzle, \Wobj := wobj2Circle;
		WaitRob \InPos;
		SetDO DO5_Program_Feed, 0;
		MoveL Offs(pZeroCircleMute, 2.617, 16.502, 0.2), v100, z0, tNozzle, \Wobj := wobj2Circle;
		WaitRob \InPos;
		SetDO DO5_Program_Feed, 1;
		MoveL Offs(pZeroCircleMute, 16.538, 2.581, 0.2), v30, z0, tNozzle, \Wobj := wobj2Circle;
		WaitRob \InPos;
		SetDO DO5_Program_Feed, 0;
		MoveL Offs(pZeroCircleMute, 16.724, 0.274, 0.2), v100, z0, tNozzle, \Wobj := wobj2Circle;
		WaitRob \InPos;
		SetDO DO5_Program_Feed, 1;
		MoveL Offs(pZeroCircleMute, 0.305, 16.693, 0.2), v30, z0, tNozzle, \Wobj := wobj2Circle;
		WaitRob \InPos;
		SetDO DO5_Program_Feed, 0;
		MoveL Offs(pZeroCircleMute, -1.728, 16.605, 0.2), v100, z0, tNozzle, \Wobj := wobj2Circle;
		WaitRob \InPos;
		SetDO DO5_Program_Feed, 1;
		MoveL Offs(pZeroCircleMute, 16.606, -1.73, 0.2), v30, z0, tNozzle, \Wobj := wobj2Circle;
		WaitRob \InPos;
		SetDO DO5_Program_Feed, 0;
		MoveL Offs(pZeroCircleMute, 16.314, -3.559, 0.2), v100, z0, tNozzle, \Wobj := wobj2Circle;
		WaitRob \InPos;
		SetDO DO5_Program_Feed, 1;
		MoveL Offs(pZeroCircleMute, -3.585, 16.34, 0.2), v30, z0, tNozzle, \Wobj := wobj2Circle;
		WaitRob \InPos;
		SetDO DO5_Program_Feed, 0;
		MoveL Offs(pZeroCircleMute, -5.229, 15.863, 0.2), v100, z0, tNozzle, \Wobj := wobj2Circle;
		WaitRob \InPos;
		SetDO DO5_Program_Feed, 1;
		MoveL Offs(pZeroCircleMute, 15.895, -5.261, 0.2), v30, z0, tNozzle, \Wobj := wobj2Circle;
		WaitRob \InPos;
		SetDO DO5_Program_Feed, 0;
		MoveL Offs(pZeroCircleMute, 15.266, -6.754, 0.2), v100, z0, tNozzle, \Wobj := wobj2Circle;
		WaitRob \InPos;
		SetDO DO5_Program_Feed, 1;
		MoveL Offs(pZeroCircleMute, -6.757, 15.269, 0.2), v30, z0, tNozzle, \Wobj := wobj2Circle;
		WaitRob \InPos;
		SetDO DO5_Program_Feed, 0;
		MoveL Offs(pZeroCircleMute, -8.196, 14.587, 0.2), v100, z0, tNozzle, \Wobj := wobj2Circle;
		WaitRob \InPos;
		SetDO DO5_Program_Feed, 1;
		MoveL Offs(pZeroCircleMute, 14.574, -8.183, 0.2), v30, z0, tNozzle, \Wobj := wobj2Circle;
		WaitRob \InPos;
		SetDO DO5_Program_Feed, 0;
		MoveL Offs(pZeroCircleMute, 13.753, -9.483, 0.2), v100, z0, tNozzle, \Wobj := wobj2Circle;
		WaitRob \InPos;
		SetDO DO5_Program_Feed, 1;
		MoveL Offs(pZeroCircleMute, -9.473, 13.743, 0.2), v30, z0, tNozzle, \Wobj := wobj2Circle;
		WaitRob \InPos;
		SetDO DO5_Program_Feed, 0;
		MoveL Offs(pZeroCircleMute, -10.709, 12.858, 0.2), v100, z0, tNozzle, \Wobj := wobj2Circle;
		WaitRob \InPos;
		SetDO DO5_Program_Feed, 1;
		MoveL Offs(pZeroCircleMute, 12.834, -10.685, 0.2), v30, z0, tNozzle, \Wobj := wobj2Circle;
		WaitRob \InPos;
		SetDO DO5_Program_Feed, 0;
		MoveL Offs(pZeroCircleMute, 11.837, -11.81, 0.2), v100, z0, tNozzle, \Wobj := wobj2Circle;
		WaitRob \InPos;
		SetDO DO5_Program_Feed, 1;
		MoveL Offs(pZeroCircleMute, -11.791, 11.819, 0.2), v30, z0, tNozzle, \Wobj := wobj2Circle;
		WaitRob \InPos;
		SetDO DO5_Program_Feed, 0;
		MoveL Offs(pZeroCircleMute, -12.82, 10.725, 0.2), v100, z0, tNozzle, \Wobj := wobj2Circle;
		WaitRob \InPos;
		SetDO DO5_Program_Feed, 1;
		MoveL Offs(pZeroCircleMute, 10.71, -12.804, 0.2), v30, z0, tNozzle, \Wobj := wobj2Circle;
		WaitRob \InPos;
		SetDO DO5_Program_Feed, 0;
		MoveL Offs(pZeroCircleMute, 9.542, -13.758, 0.2), v100, z0, tNozzle, \Wobj := wobj2Circle;
		WaitRob \InPos;
		SetDO DO5_Program_Feed, 1;
		MoveL Offs(pZeroCircleMute, -13.73, 9.514, 0.2), v30, z0, tNozzle, \Wobj := wobj2Circle;
		WaitRob \InPos;
		SetDO DO5_Program_Feed, 0;
		MoveL Offs(pZeroCircleMute, -14.544, 8.207, 0.2), v100, z0, tNozzle, \Wobj := wobj2Circle;
		WaitRob \InPos;
		SetDO DO5_Program_Feed, 1;
		MoveL Offs(pZeroCircleMute, 8.202, -14.539, 0.2), v30, z0, tNozzle, \Wobj := wobj2Circle;
		WaitRob \InPos;
		SetDO DO5_Program_Feed, 0;
		MoveL Offs(pZeroCircleMute, 6.811, -15.269, 0.2), v100, z0, tNozzle, \Wobj := wobj2Circle;
		WaitRob \InPos;
		SetDO DO5_Program_Feed, 1;
		MoveL Offs(pZeroCircleMute, -15.274, 6.816, 0.2), v30, z0, tNozzle, \Wobj := wobj2Circle;
		WaitRob \InPos;
		SetDO DO5_Program_Feed, 0;
		MoveL Offs(pZeroCircleMute, -15.841, 5.261, 0.2), v100, z0, tNozzle, \Wobj := wobj2Circle;
		WaitRob \InPos;
		SetDO DO5_Program_Feed, 1;
		MoveL Offs(pZeroCircleMute, 5.273, -15.852, 0.2), v30, z0, tNozzle, \Wobj := wobj2Circle;
		WaitRob \InPos;
		SetDO DO5_Program_Feed, 0;
		MoveL Offs(pZeroCircleMute, 3.6, -16.301, 0.2), v100, z0, tNozzle, \Wobj := wobj2Circle;
		WaitRob \InPos;
		SetDO DO5_Program_Feed, 1;
		MoveL Offs(pZeroCircleMute, -16.322, 3.622, 0.2), v30, z0, tNozzle, \Wobj := wobj2Circle;
		WaitRob \InPos;
		SetDO DO5_Program_Feed, 0;
		MoveL Offs(pZeroCircleMute, -16.619, 1.797, 0.2), v100, z0, tNozzle, \Wobj := wobj2Circle;
		WaitRob \InPos;
		SetDO DO5_Program_Feed, 1;
		MoveL Offs(pZeroCircleMute, 1.81, -16.632, 0.2), v30, z0, tNozzle, \Wobj := wobj2Circle;
		WaitRob \InPos;
		SetDO DO5_Program_Feed, 0;
		MoveL Offs(pZeroCircleMute, -0.229, -16.715, 0.2), v100, z0, tNozzle, \Wobj := wobj2Circle;
		WaitRob \InPos;
		SetDO DO5_Program_Feed, 1;
		MoveL Offs(pZeroCircleMute, -16.692, -0.252, 0.2), v30, z0, tNozzle, \Wobj := wobj2Circle;
		WaitRob \InPos;
		SetDO DO5_Program_Feed, 0;
		MoveL Offs(pZeroCircleMute, -16.493, -2.572, 0.2), v100, z0, tNozzle, \Wobj := wobj2Circle;
		WaitRob \InPos;
		SetDO DO5_Program_Feed, 1;
		MoveL Offs(pZeroCircleMute, -2.561, -16.503, 0.2), v30, z0, tNozzle, \Wobj := wobj2Circle;
		WaitRob \InPos;
		SetDO DO5_Program_Feed, 0;
		MoveL Offs(pZeroCircleMute, -5.361, -15.825, 0.2), v100, z0, tNozzle, \Wobj := wobj2Circle;
		WaitRob \InPos;
		SetDO DO5_Program_Feed, 1;
		MoveL Offs(pZeroCircleMute, -15.799, -5.387, 0.2), v30, z0, tNozzle, \Wobj := wobj2Circle;
		WaitRob \InPos;
		SetDO DO5_Program_Feed, 0;
		MoveL Offs(pZeroCircleMute, -13.539, -9.769, 0.2), v100, z0, tNozzle, \Wobj := wobj2Circle;
		WaitRob \InPos;
		SetDO DO5_Program_Feed, 1;
		MoveL Offs(pZeroCircleMute, -9.767, -13.541, 0.2), v30, z0, tNozzle, \Wobj := wobj2Circle;
		WaitRob \InPos;
		SetDO DO6_Between_Layer_Retract, 1;
		SetDO DO5_Program_Feed, 0;
		MoveL Offs(pZeroCircleMute, -9.767, -13.541, 5.2), v100, z0, tNozzle, \Wobj := wobj2Circle;
		MoveL Offs(pZeroCircleMute, 0, 0, 50), v100, fine \Inpos := inpos50, tNozzle, \Wobj := wobj2Circle;
	ENDPROC
	
	PROC Circle2()
		! Layer 2 Circle
		pZeroCircleMute := Offs(pZeroCircle, 0, 0, 0.2*layerNum);
		MoveL Offs(pZeroCircleMute, 7.609, -16.036, 5.4), v100, z0, tNozzle, \Wobj := wobj2Circle;
		MoveL Offs(pZeroCircleMute, 7.609, -16.036, 0.2), v30, z0, tNozzle, \Wobj := wobj2Circle;
		WaitRob \InPos;
		SetDO DO6_Between_Layer_Retract, 0;
		WaitRob \InPos;
		SetDO DO5_Program_Feed, 1;
		MoveL Offs(pZeroCircleMute, 10.083, -14.607, 0.2), v30, z0, tNozzle, \Wobj := wobj2Circle;
		MoveL Offs(pZeroCircleMute, 12.295, -12.801, 0.2), v30, z0, tNozzle, \Wobj := wobj2Circle;
		MoveL Offs(pZeroCircleMute, 14.189, -10.663, 0.2), v30, z0, tNozzle, \Wobj := wobj2Circle;
		MoveL Offs(pZeroCircleMute, 15.716, -8.248, 0.2), v30, z0, tNozzle, \Wobj := wobj2Circle;
		MoveL Offs(pZeroCircleMute, 16.836, -5.621, 0.2), v30, z0, tNozzle, \Wobj := wobj2Circle;
		MoveL Offs(pZeroCircleMute, 17.519, -2.847, 0.2), v30, z0, tNozzle, \Wobj := wobj2Circle;
		MoveL Offs(pZeroCircleMute, 17.749, -0.0, 0.2), v30, z0, tNozzle, \Wobj := wobj2Circle;
		MoveL Offs(pZeroCircleMute, 17.519, 2.847, 0.2), v30, z0, tNozzle, \Wobj := wobj2Circle;
		MoveL Offs(pZeroCircleMute, 16.836, 5.621, 0.2), v30, z0, tNozzle, \Wobj := wobj2Circle;
		MoveL Offs(pZeroCircleMute, 15.716, 8.248, 0.2), v30, z0, tNozzle, \Wobj := wobj2Circle;
		MoveL Offs(pZeroCircleMute, 14.189, 10.663, 0.2), v30, z0, tNozzle, \Wobj := wobj2Circle;
		MoveL Offs(pZeroCircleMute, 12.295, 12.801, 0.2), v30, z0, tNozzle, \Wobj := wobj2Circle;
		MoveL Offs(pZeroCircleMute, 10.083, 14.607, 0.2), v30, z0, tNozzle, \Wobj := wobj2Circle;
		MoveL Offs(pZeroCircleMute, 7.609, 16.036, 0.2), v30, z0, tNozzle, \Wobj := wobj2Circle;
		MoveL Offs(pZeroCircleMute, 4.938, 17.048, 0.2), v30, z0, tNozzle, \Wobj := wobj2Circle;
		MoveL Offs(pZeroCircleMute, 2.139, 17.62, 0.2), v30, z0, tNozzle, \Wobj := wobj2Circle;
		MoveL Offs(pZeroCircleMute, -0.715, 17.735, 0.2), v30, z0, tNozzle, \Wobj := wobj2Circle;
		MoveL Offs(pZeroCircleMute, -3.55, 17.39, 0.2), v30, z0, tNozzle, \Wobj := wobj2Circle;
		MoveL Offs(pZeroCircleMute, -6.294, 16.596, 0.2), v30, z0, tNozzle, \Wobj := wobj2Circle;
		MoveL Offs(pZeroCircleMute, -8.875, 15.371, 0.2), v30, z0, tNozzle, \Wobj := wobj2Circle;
		MoveL Offs(pZeroCircleMute, -11.225, 13.749, 0.2), v30, z0, tNozzle, \Wobj := wobj2Circle;
		MoveL Offs(pZeroCircleMute, -13.285, 11.77, 0.2), v30, z0, tNozzle, \Wobj := wobj2Circle;
		MoveL Offs(pZeroCircleMute, -15.001, 9.486, 0.2), v30, z0, tNozzle, \Wobj := wobj2Circle;
		MoveL Offs(pZeroCircleMute, -16.329, 6.957, 0.2), v30, z0, tNozzle, \Wobj := wobj2Circle;
		MoveL Offs(pZeroCircleMute, -17.233, 4.248, 0.2), v30, z0, tNozzle, \Wobj := wobj2Circle;
		MoveL Offs(pZeroCircleMute, -17.692, 1.428, 0.2), v30, z0, tNozzle, \Wobj := wobj2Circle;
		MoveL Offs(pZeroCircleMute, -17.692, -1.428, 0.2), v30, z0, tNozzle, \Wobj := wobj2Circle;
		MoveL Offs(pZeroCircleMute, -17.233, -4.248, 0.2), v30, z0, tNozzle, \Wobj := wobj2Circle;
		MoveL Offs(pZeroCircleMute, -16.329, -6.957, 0.2), v30, z0, tNozzle, \Wobj := wobj2Circle;
		MoveL Offs(pZeroCircleMute, -15.001, -9.486, 0.2), v30, z0, tNozzle, \Wobj := wobj2Circle;
		MoveL Offs(pZeroCircleMute, -13.285, -11.77, 0.2), v30, z0, tNozzle, \Wobj := wobj2Circle;
		MoveL Offs(pZeroCircleMute, -11.225, -13.749, 0.2), v30, z0, tNozzle, \Wobj := wobj2Circle;
		MoveL Offs(pZeroCircleMute, -8.875, -15.371, 0.2), v30, z0, tNozzle, \Wobj := wobj2Circle;
		MoveL Offs(pZeroCircleMute, -6.294, -16.596, 0.2), v30, z0, tNozzle, \Wobj := wobj2Circle;
		MoveL Offs(pZeroCircleMute, -3.55, -17.39, 0.2), v30, z0, tNozzle, \Wobj := wobj2Circle;
		MoveL Offs(pZeroCircleMute, -0.715, -17.735, 0.2), v30, z0, tNozzle, \Wobj := wobj2Circle;
		MoveL Offs(pZeroCircleMute, 2.139, -17.62, 0.2), v30, z0, tNozzle, \Wobj := wobj2Circle;
		MoveL Offs(pZeroCircleMute, 4.938, -17.048, 0.2), v30, z0, tNozzle, \Wobj := wobj2Circle;
		MoveL Offs(pZeroCircleMute, 7.609, -16.036, 0.2), v30, z0, tNozzle, \Wobj := wobj2Circle;
		WaitRob \InPos;
		SetDO DO5_Program_Feed, 0;
		MoveL Offs(pZeroCircleMute, 7.394, -15.582, 0.2), v100, z0, tNozzle, \Wobj := wobj2Circle;
		WaitRob \InPos;
		SetDO DO5_Program_Feed, 1;
		MoveL Offs(pZeroCircleMute, 9.798, -14.194, 0.2), v30, z0, tNozzle, \Wobj := wobj2Circle;
		MoveL Offs(pZeroCircleMute, 11.948, -12.439, 0.2), v30, z0, tNozzle, \Wobj := wobj2Circle;
		MoveL Offs(pZeroCircleMute, 13.788, -10.361, 0.2), v30, z0, tNozzle, \Wobj := wobj2Circle;
		MoveL Offs(pZeroCircleMute, 15.272, -8.015, 0.2), v30, z0, tNozzle, \Wobj := wobj2Circle;
		MoveL Offs(pZeroCircleMute, 16.36, -5.462, 0.2), v30, z0, tNozzle, \Wobj := wobj2Circle;
		MoveL Offs(pZeroCircleMute, 17.024, -2.767, 0.2), v30, z0, tNozzle, \Wobj := wobj2Circle;
		MoveL Offs(pZeroCircleMute, 17.248, -0.0, 0.2), v30, z0, tNozzle, \Wobj := wobj2Circle;
		MoveL Offs(pZeroCircleMute, 17.024, 2.767, 0.2), v30, z0, tNozzle, \Wobj := wobj2Circle;
		MoveL Offs(pZeroCircleMute, 16.36, 5.462, 0.2), v30, z0, tNozzle, \Wobj := wobj2Circle;
		MoveL Offs(pZeroCircleMute, 15.272, 8.015, 0.2), v30, z0, tNozzle, \Wobj := wobj2Circle;
		MoveL Offs(pZeroCircleMute, 13.788, 10.361, 0.2), v30, z0, tNozzle, \Wobj := wobj2Circle;
		MoveL Offs(pZeroCircleMute, 11.948, 12.439, 0.2), v30, z0, tNozzle, \Wobj := wobj2Circle;
		MoveL Offs(pZeroCircleMute, 9.798, 14.194, 0.2), v30, z0, tNozzle, \Wobj := wobj2Circle;
		MoveL Offs(pZeroCircleMute, 7.394, 15.582, 0.2), v30, z0, tNozzle, \Wobj := wobj2Circle;
		MoveL Offs(pZeroCircleMute, 4.799, 16.567, 0.2), v30, z0, tNozzle, \Wobj := wobj2Circle;
		MoveL Offs(pZeroCircleMute, 2.079, 17.122, 0.2), v30, z0, tNozzle, \Wobj := wobj2Circle;
		MoveL Offs(pZeroCircleMute, -0.694, 17.234, 0.2), v30, z0, tNozzle, \Wobj := wobj2Circle;
		MoveL Offs(pZeroCircleMute, -3.45, 16.899, 0.2), v30, z0, tNozzle, \Wobj := wobj2Circle;
		MoveL Offs(pZeroCircleMute, -6.116, 16.127, 0.2), v30, z0, tNozzle, \Wobj := wobj2Circle;
		MoveL Offs(pZeroCircleMute, -8.624, 14.937, 0.2), v30, z0, tNozzle, \Wobj := wobj2Circle;
		MoveL Offs(pZeroCircleMute, -10.908, 13.36, 0.2), v30, z0, tNozzle, \Wobj := wobj2Circle;
		MoveL Offs(pZeroCircleMute, -12.91, 11.437, 0.2), v30, z0, tNozzle, \Wobj := wobj2Circle;
		MoveL Offs(pZeroCircleMute, -14.577, 9.218, 0.2), v30, z0, tNozzle, \Wobj := wobj2Circle;
		MoveL Offs(pZeroCircleMute, -15.867, 6.76, 0.2), v30, z0, tNozzle, \Wobj := wobj2Circle;
		MoveL Offs(pZeroCircleMute, -16.746, 4.128, 0.2), v30, z0, tNozzle, \Wobj := wobj2Circle;
		MoveL Offs(pZeroCircleMute, -17.192, 1.388, 0.2), v30, z0, tNozzle, \Wobj := wobj2Circle;
		MoveL Offs(pZeroCircleMute, -17.192, -1.388, 0.2), v30, z0, tNozzle, \Wobj := wobj2Circle;
		MoveL Offs(pZeroCircleMute, -16.746, -4.128, 0.2), v30, z0, tNozzle, \Wobj := wobj2Circle;
		MoveL Offs(pZeroCircleMute, -15.867, -6.76, 0.2), v30, z0, tNozzle, \Wobj := wobj2Circle;
		MoveL Offs(pZeroCircleMute, -14.577, -9.218, 0.2), v30, z0, tNozzle, \Wobj := wobj2Circle;
		MoveL Offs(pZeroCircleMute, -12.91, -11.437, 0.2), v30, z0, tNozzle, \Wobj := wobj2Circle;
		MoveL Offs(pZeroCircleMute, -10.908, -13.36, 0.2), v30, z0, tNozzle, \Wobj := wobj2Circle;
		MoveL Offs(pZeroCircleMute, -8.624, -14.937, 0.2), v30, z0, tNozzle, \Wobj := wobj2Circle;
		MoveL Offs(pZeroCircleMute, -6.116, -16.127, 0.2), v30, z0, tNozzle, \Wobj := wobj2Circle;
		MoveL Offs(pZeroCircleMute, -3.45, -16.899, 0.2), v30, z0, tNozzle, \Wobj := wobj2Circle;
		MoveL Offs(pZeroCircleMute, -0.694, -17.234, 0.2), v30, z0, tNozzle, \Wobj := wobj2Circle;
		MoveL Offs(pZeroCircleMute, 2.079, -17.122, 0.2), v30, z0, tNozzle, \Wobj := wobj2Circle;
		MoveL Offs(pZeroCircleMute, 4.799, -16.567, 0.2), v30, z0, tNozzle, \Wobj := wobj2Circle;
		MoveL Offs(pZeroCircleMute, 7.394, -15.582, 0.2), v30, z0, tNozzle, \Wobj := wobj2Circle;
		WaitRob \InPos;
		SetDO DO5_Program_Feed, 0;
		MoveL Offs(pZeroCircleMute, 5.459, -15.782, 0.2), v100, z0, tNozzle, \Wobj := wobj2Circle;
		WaitRob \InPos;
		SetDO DO5_Program_Feed, 1;
		MoveL Offs(pZeroCircleMute, 15.845, -5.395, 0.2), v30, z0, tNozzle, \Wobj := wobj2Circle;
		WaitRob \InPos;
		SetDO DO5_Program_Feed, 0;
		MoveL Offs(pZeroCircleMute, 16.538, -2.581, 0.2), v100, z0, tNozzle, \Wobj := wobj2Circle;
		WaitRob \InPos;
		SetDO DO5_Program_Feed, 1;
		MoveL Offs(pZeroCircleMute, 2.617, -16.502, 0.2), v30, z0, tNozzle, \Wobj := wobj2Circle;
		WaitRob \InPos;
		SetDO DO5_Program_Feed, 0;
		MoveL Offs(pZeroCircleMute, 0.305, -16.693, 0.2), v100, z0, tNozzle, \Wobj := wobj2Circle;
		WaitRob \InPos;
		SetDO DO5_Program_Feed, 1;
		MoveL Offs(pZeroCircleMute, 16.724, -0.274, 0.2), v30, z0, tNozzle, \Wobj := wobj2Circle;
		WaitRob \InPos;
		SetDO DO5_Program_Feed, 0;
		MoveL Offs(pZeroCircleMute, 16.606, 1.73, 0.2), v100, z0, tNozzle, \Wobj := wobj2Circle;
		WaitRob \InPos;
		SetDO DO5_Program_Feed, 1;
		MoveL Offs(pZeroCircleMute, -1.728, -16.605, 0.2), v30, z0, tNozzle, \Wobj := wobj2Circle;
		WaitRob \InPos;
		SetDO DO5_Program_Feed, 0;
		MoveL Offs(pZeroCircleMute, -3.585, -16.34, 0.2), v100, z0, tNozzle, \Wobj := wobj2Circle;
		WaitRob \InPos;
		SetDO DO5_Program_Feed, 1;
		MoveL Offs(pZeroCircleMute, 16.314, 3.559, 0.2), v30, z0, tNozzle, \Wobj := wobj2Circle;
		WaitRob \InPos;
		SetDO DO5_Program_Feed, 0;
		MoveL Offs(pZeroCircleMute, 15.895, 5.261, 0.2), v100, z0, tNozzle, \Wobj := wobj2Circle;
		WaitRob \InPos;
		SetDO DO5_Program_Feed, 1;
		MoveL Offs(pZeroCircleMute, -5.229, -15.863, 0.2), v30, z0, tNozzle, \Wobj := wobj2Circle;
		WaitRob \InPos;
		SetDO DO5_Program_Feed, 0;
		MoveL Offs(pZeroCircleMute, -6.757, -15.269, 0.2), v100, z0, tNozzle, \Wobj := wobj2Circle;
		WaitRob \InPos;
		SetDO DO5_Program_Feed, 1;
		MoveL Offs(pZeroCircleMute, 15.266, 6.754, 0.2), v30, z0, tNozzle, \Wobj := wobj2Circle;
		WaitRob \InPos;
		SetDO DO5_Program_Feed, 0;
		MoveL Offs(pZeroCircleMute, 14.574, 8.183, 0.2), v100, z0, tNozzle, \Wobj := wobj2Circle;
		WaitRob \InPos;
		SetDO DO5_Program_Feed, 1;
		MoveL Offs(pZeroCircleMute, -8.196, -14.587, 0.2), v30, z0, tNozzle, \Wobj := wobj2Circle;
		WaitRob \InPos;
		SetDO DO5_Program_Feed, 0;
		MoveL Offs(pZeroCircleMute, -9.473, -13.743, 0.2), v100, z0, tNozzle, \Wobj := wobj2Circle;
		WaitRob \InPos;
		SetDO DO5_Program_Feed, 1;
		MoveL Offs(pZeroCircleMute, 13.753, 9.483, 0.2), v30, z0, tNozzle, \Wobj := wobj2Circle;
		WaitRob \InPos;
		SetDO DO5_Program_Feed, 0;
		MoveL Offs(pZeroCircleMute, 12.834, 10.685, 0.2), v100, z0, tNozzle, \Wobj := wobj2Circle;
		WaitRob \InPos;
		SetDO DO5_Program_Feed, 1;
		MoveL Offs(pZeroCircleMute, -10.709, -12.858, 0.2), v30, z0, tNozzle, \Wobj := wobj2Circle;
		WaitRob \InPos;
		SetDO DO5_Program_Feed, 0;
		MoveL Offs(pZeroCircleMute, -11.791, -11.819, 0.2), v100, z0, tNozzle, \Wobj := wobj2Circle;
		WaitRob \InPos;
		SetDO DO5_Program_Feed, 1;
		MoveL Offs(pZeroCircleMute, 11.837, 11.81, 0.2), v30, z0, tNozzle, \Wobj := wobj2Circle;
		WaitRob \InPos;
		SetDO DO5_Program_Feed, 0;
		MoveL Offs(pZeroCircleMute, 10.71, 12.804, 0.2), v100, z0, tNozzle, \Wobj := wobj2Circle;
		WaitRob \InPos;
		SetDO DO5_Program_Feed, 1;
		MoveL Offs(pZeroCircleMute, -12.82, -10.725, 0.2), v30, z0, tNozzle, \Wobj := wobj2Circle;
		WaitRob \InPos;
		SetDO DO5_Program_Feed, 0;
		MoveL Offs(pZeroCircleMute, -13.73, -9.514, 0.2), v100, z0, tNozzle, \Wobj := wobj2Circle;
		WaitRob \InPos;
		SetDO DO5_Program_Feed, 1;
		MoveL Offs(pZeroCircleMute, 9.542, 13.758, 0.2), v30, z0, tNozzle, \Wobj := wobj2Circle;
		WaitRob \InPos;
		SetDO DO5_Program_Feed, 0;
		MoveL Offs(pZeroCircleMute, 8.202, 14.539, 0.2), v100, z0, tNozzle, \Wobj := wobj2Circle;
		WaitRob \InPos;
		SetDO DO5_Program_Feed, 1;
		MoveL Offs(pZeroCircleMute, -14.544, -8.207, 0.2), v30, z0, tNozzle, \Wobj := wobj2Circle;
		WaitRob \InPos;
		SetDO DO5_Program_Feed, 0;
		MoveL Offs(pZeroCircleMute, -15.274, -6.816, 0.2), v100, z0, tNozzle, \Wobj := wobj2Circle;
		WaitRob \InPos;
		SetDO DO5_Program_Feed, 1;
		MoveL Offs(pZeroCircleMute, 6.811, 15.269, 0.2), v30, z0, tNozzle, \Wobj := wobj2Circle;
		WaitRob \InPos;
		SetDO DO5_Program_Feed, 0;
		MoveL Offs(pZeroCircleMute, 5.273, 15.852, 0.2), v100, z0, tNozzle, \Wobj := wobj2Circle;
		WaitRob \InPos;
		SetDO DO5_Program_Feed, 1;
		MoveL Offs(pZeroCircleMute, -15.841, -5.261, 0.2), v30, z0, tNozzle, \Wobj := wobj2Circle;
		WaitRob \InPos;
		SetDO DO5_Program_Feed, 0;
		MoveL Offs(pZeroCircleMute, -16.322, -3.622, 0.2), v100, z0, tNozzle, \Wobj := wobj2Circle;
		WaitRob \InPos;
		SetDO DO5_Program_Feed, 1;
		MoveL Offs(pZeroCircleMute, 3.6, 16.301, 0.2), v30, z0, tNozzle, \Wobj := wobj2Circle;
		WaitRob \InPos;
		SetDO DO5_Program_Feed, 0;
		MoveL Offs(pZeroCircleMute, 1.81, 16.632, 0.2), v100, z0, tNozzle, \Wobj := wobj2Circle;
		WaitRob \InPos;
		SetDO DO5_Program_Feed, 1;
		MoveL Offs(pZeroCircleMute, -16.619, -1.797, 0.2), v30, z0, tNozzle, \Wobj := wobj2Circle;
		WaitRob \InPos;
		SetDO DO5_Program_Feed, 0;
		MoveL Offs(pZeroCircleMute, -16.692, 0.252, 0.2), v100, z0, tNozzle, \Wobj := wobj2Circle;
		WaitRob \InPos;
		SetDO DO5_Program_Feed, 1;
		MoveL Offs(pZeroCircleMute, -0.229, 16.715, 0.2), v30, z0, tNozzle, \Wobj := wobj2Circle;
		WaitRob \InPos;
		SetDO DO5_Program_Feed, 0;
		MoveL Offs(pZeroCircleMute, -2.561, 16.503, 0.2), v100, z0, tNozzle, \Wobj := wobj2Circle;
		WaitRob \InPos;
		SetDO DO5_Program_Feed, 1;
		MoveL Offs(pZeroCircleMute, -16.493, 2.572, 0.2), v30, z0, tNozzle, \Wobj := wobj2Circle;
		WaitRob \InPos;
		SetDO DO5_Program_Feed, 0;
		MoveL Offs(pZeroCircleMute, -15.799, 5.387, 0.2), v100, z0, tNozzle, \Wobj := wobj2Circle;
		WaitRob \InPos;
		SetDO DO5_Program_Feed, 1;
		MoveL Offs(pZeroCircleMute, -5.361, 15.825, 0.2), v30, z0, tNozzle, \Wobj := wobj2Circle;
		WaitRob \InPos;
		SetDO DO5_Program_Feed, 0;
		MoveL Offs(pZeroCircleMute, -9.767, 13.541, 0.2), v100, z0, tNozzle, \Wobj := wobj2Circle;
		WaitRob \InPos;
		SetDO DO5_Program_Feed, 1;
		MoveL Offs(pZeroCircleMute, -13.539, 9.769, 0.2), v30, z0, tNozzle, \Wobj := wobj2Circle;
		WaitRob \InPos;
		SetDO DO5_Program_Feed, 0;
		MoveL Offs(pZeroCircleMute, 9.878, -13.484, 0.2), v100, z0, tNozzle, \Wobj := wobj2Circle;
		WaitRob \InPos;
		SetDO DO5_Program_Feed, 1;
		MoveL Offs(pZeroCircleMute, 13.536, -9.826, 0.2), v30, z0, tNozzle, \Wobj := wobj2Circle;
		WaitRob \InPos;
		SetDO DO6_Between_Layer_Retract, 1;
		SetDO DO5_Program_Feed, 0;
		MoveL Offs(pZeroCircleMute, 13.536, -9.826, 5.4), v100, z0, tNozzle, \Wobj := wobj2Circle;
		MoveL Offs(pZeroCircleMute, 0, 0, 50), v100, fine \Inpos := inpos50, tNozzle, \Wobj := wobj2Circle;
	ENDPROC
	
	PROC Circle3()
		! Layer 3 Circle
		pZeroCircleMute := Offs(pZeroCircle, 0, 0, 0.2*layerNum);
		MoveL Offs(pZeroCircleMute, 4.938, -17.048, 5.6), v100, z0, tNozzle, \Wobj := wobj2Circle;
		MoveL Offs(pZeroCircleMute, 4.938, -17.048, 0.2), v30, z0, tNozzle, \Wobj := wobj2Circle;
		WaitRob \InPos;
		SetDO DO6_Between_Layer_Retract, 0;
		WaitRob \InPos;
		SetDO DO5_Program_Feed, 1;
		MoveL Offs(pZeroCircleMute, 7.609, -16.036, 0.2), v30, z0, tNozzle, \Wobj := wobj2Circle;
		MoveL Offs(pZeroCircleMute, 10.083, -14.607, 0.2), v30, z0, tNozzle, \Wobj := wobj2Circle;
		MoveL Offs(pZeroCircleMute, 12.295, -12.801, 0.2), v30, z0, tNozzle, \Wobj := wobj2Circle;
		MoveL Offs(pZeroCircleMute, 14.189, -10.663, 0.2), v30, z0, tNozzle, \Wobj := wobj2Circle;
		MoveL Offs(pZeroCircleMute, 15.716, -8.248, 0.2), v30, z0, tNozzle, \Wobj := wobj2Circle;
		MoveL Offs(pZeroCircleMute, 16.836, -5.621, 0.2), v30, z0, tNozzle, \Wobj := wobj2Circle;
		MoveL Offs(pZeroCircleMute, 17.519, -2.847, 0.2), v30, z0, tNozzle, \Wobj := wobj2Circle;
		MoveL Offs(pZeroCircleMute, 17.749, -0.0, 0.2), v30, z0, tNozzle, \Wobj := wobj2Circle;
		MoveL Offs(pZeroCircleMute, 17.519, 2.847, 0.2), v30, z0, tNozzle, \Wobj := wobj2Circle;
		MoveL Offs(pZeroCircleMute, 16.836, 5.621, 0.2), v30, z0, tNozzle, \Wobj := wobj2Circle;
		MoveL Offs(pZeroCircleMute, 15.716, 8.248, 0.2), v30, z0, tNozzle, \Wobj := wobj2Circle;
		MoveL Offs(pZeroCircleMute, 14.189, 10.663, 0.2), v30, z0, tNozzle, \Wobj := wobj2Circle;
		MoveL Offs(pZeroCircleMute, 12.295, 12.801, 0.2), v30, z0, tNozzle, \Wobj := wobj2Circle;
		MoveL Offs(pZeroCircleMute, 10.083, 14.607, 0.2), v30, z0, tNozzle, \Wobj := wobj2Circle;
		MoveL Offs(pZeroCircleMute, 7.609, 16.036, 0.2), v30, z0, tNozzle, \Wobj := wobj2Circle;
		MoveL Offs(pZeroCircleMute, 4.938, 17.048, 0.2), v30, z0, tNozzle, \Wobj := wobj2Circle;
		MoveL Offs(pZeroCircleMute, 2.139, 17.62, 0.2), v30, z0, tNozzle, \Wobj := wobj2Circle;
		MoveL Offs(pZeroCircleMute, -0.715, 17.735, 0.2), v30, z0, tNozzle, \Wobj := wobj2Circle;
		MoveL Offs(pZeroCircleMute, -3.55, 17.39, 0.2), v30, z0, tNozzle, \Wobj := wobj2Circle;
		MoveL Offs(pZeroCircleMute, -6.294, 16.596, 0.2), v30, z0, tNozzle, \Wobj := wobj2Circle;
		MoveL Offs(pZeroCircleMute, -8.875, 15.371, 0.2), v30, z0, tNozzle, \Wobj := wobj2Circle;
		MoveL Offs(pZeroCircleMute, -11.225, 13.749, 0.2), v30, z0, tNozzle, \Wobj := wobj2Circle;
		MoveL Offs(pZeroCircleMute, -13.285, 11.77, 0.2), v30, z0, tNozzle, \Wobj := wobj2Circle;
		MoveL Offs(pZeroCircleMute, -15.001, 9.486, 0.2), v30, z0, tNozzle, \Wobj := wobj2Circle;
		MoveL Offs(pZeroCircleMute, -16.329, 6.957, 0.2), v30, z0, tNozzle, \Wobj := wobj2Circle;
		MoveL Offs(pZeroCircleMute, -17.233, 4.248, 0.2), v30, z0, tNozzle, \Wobj := wobj2Circle;
		MoveL Offs(pZeroCircleMute, -17.692, 1.428, 0.2), v30, z0, tNozzle, \Wobj := wobj2Circle;
		MoveL Offs(pZeroCircleMute, -17.692, -1.428, 0.2), v30, z0, tNozzle, \Wobj := wobj2Circle;
		MoveL Offs(pZeroCircleMute, -17.233, -4.248, 0.2), v30, z0, tNozzle, \Wobj := wobj2Circle;
		MoveL Offs(pZeroCircleMute, -16.329, -6.957, 0.2), v30, z0, tNozzle, \Wobj := wobj2Circle;
		MoveL Offs(pZeroCircleMute, -15.001, -9.486, 0.2), v30, z0, tNozzle, \Wobj := wobj2Circle;
		MoveL Offs(pZeroCircleMute, -13.285, -11.77, 0.2), v30, z0, tNozzle, \Wobj := wobj2Circle;
		MoveL Offs(pZeroCircleMute, -11.225, -13.749, 0.2), v30, z0, tNozzle, \Wobj := wobj2Circle;
		MoveL Offs(pZeroCircleMute, -8.875, -15.371, 0.2), v30, z0, tNozzle, \Wobj := wobj2Circle;
		MoveL Offs(pZeroCircleMute, -6.294, -16.596, 0.2), v30, z0, tNozzle, \Wobj := wobj2Circle;
		MoveL Offs(pZeroCircleMute, -3.55, -17.39, 0.2), v30, z0, tNozzle, \Wobj := wobj2Circle;
		MoveL Offs(pZeroCircleMute, -0.715, -17.735, 0.2), v30, z0, tNozzle, \Wobj := wobj2Circle;
		MoveL Offs(pZeroCircleMute, 2.139, -17.62, 0.2), v30, z0, tNozzle, \Wobj := wobj2Circle;
		MoveL Offs(pZeroCircleMute, 4.938, -17.048, 0.2), v30, z0, tNozzle, \Wobj := wobj2Circle;
		WaitRob \InPos;
		SetDO DO5_Program_Feed, 0;
		MoveL Offs(pZeroCircleMute, 4.799, -16.567, 0.2), v100, z0, tNozzle, \Wobj := wobj2Circle;
		WaitRob \InPos;
		SetDO DO5_Program_Feed, 1;
		MoveL Offs(pZeroCircleMute, 7.394, -15.582, 0.2), v30, z0, tNozzle, \Wobj := wobj2Circle;
		MoveL Offs(pZeroCircleMute, 9.798, -14.194, 0.2), v30, z0, tNozzle, \Wobj := wobj2Circle;
		MoveL Offs(pZeroCircleMute, 11.948, -12.439, 0.2), v30, z0, tNozzle, \Wobj := wobj2Circle;
		MoveL Offs(pZeroCircleMute, 13.788, -10.361, 0.2), v30, z0, tNozzle, \Wobj := wobj2Circle;
		MoveL Offs(pZeroCircleMute, 15.272, -8.015, 0.2), v30, z0, tNozzle, \Wobj := wobj2Circle;
		MoveL Offs(pZeroCircleMute, 16.36, -5.462, 0.2), v30, z0, tNozzle, \Wobj := wobj2Circle;
		MoveL Offs(pZeroCircleMute, 17.024, -2.767, 0.2), v30, z0, tNozzle, \Wobj := wobj2Circle;
		MoveL Offs(pZeroCircleMute, 17.248, -0.0, 0.2), v30, z0, tNozzle, \Wobj := wobj2Circle;
		MoveL Offs(pZeroCircleMute, 17.024, 2.767, 0.2), v30, z0, tNozzle, \Wobj := wobj2Circle;
		MoveL Offs(pZeroCircleMute, 16.36, 5.462, 0.2), v30, z0, tNozzle, \Wobj := wobj2Circle;
		MoveL Offs(pZeroCircleMute, 15.272, 8.015, 0.2), v30, z0, tNozzle, \Wobj := wobj2Circle;
		MoveL Offs(pZeroCircleMute, 13.788, 10.361, 0.2), v30, z0, tNozzle, \Wobj := wobj2Circle;
		MoveL Offs(pZeroCircleMute, 11.948, 12.439, 0.2), v30, z0, tNozzle, \Wobj := wobj2Circle;
		MoveL Offs(pZeroCircleMute, 9.798, 14.194, 0.2), v30, z0, tNozzle, \Wobj := wobj2Circle;
		MoveL Offs(pZeroCircleMute, 7.394, 15.582, 0.2), v30, z0, tNozzle, \Wobj := wobj2Circle;
		MoveL Offs(pZeroCircleMute, 4.799, 16.567, 0.2), v30, z0, tNozzle, \Wobj := wobj2Circle;
		MoveL Offs(pZeroCircleMute, 2.079, 17.122, 0.2), v30, z0, tNozzle, \Wobj := wobj2Circle;
		MoveL Offs(pZeroCircleMute, -0.694, 17.234, 0.2), v30, z0, tNozzle, \Wobj := wobj2Circle;
		MoveL Offs(pZeroCircleMute, -3.45, 16.899, 0.2), v30, z0, tNozzle, \Wobj := wobj2Circle;
		MoveL Offs(pZeroCircleMute, -6.116, 16.127, 0.2), v30, z0, tNozzle, \Wobj := wobj2Circle;
		MoveL Offs(pZeroCircleMute, -8.624, 14.937, 0.2), v30, z0, tNozzle, \Wobj := wobj2Circle;
		MoveL Offs(pZeroCircleMute, -10.908, 13.36, 0.2), v30, z0, tNozzle, \Wobj := wobj2Circle;
		MoveL Offs(pZeroCircleMute, -12.91, 11.437, 0.2), v30, z0, tNozzle, \Wobj := wobj2Circle;
		MoveL Offs(pZeroCircleMute, -14.577, 9.218, 0.2), v30, z0, tNozzle, \Wobj := wobj2Circle;
		MoveL Offs(pZeroCircleMute, -15.867, 6.76, 0.2), v30, z0, tNozzle, \Wobj := wobj2Circle;
		MoveL Offs(pZeroCircleMute, -16.746, 4.128, 0.2), v30, z0, tNozzle, \Wobj := wobj2Circle;
		MoveL Offs(pZeroCircleMute, -17.192, 1.388, 0.2), v30, z0, tNozzle, \Wobj := wobj2Circle;
		MoveL Offs(pZeroCircleMute, -17.192, -1.388, 0.2), v30, z0, tNozzle, \Wobj := wobj2Circle;
		MoveL Offs(pZeroCircleMute, -16.746, -4.128, 0.2), v30, z0, tNozzle, \Wobj := wobj2Circle;
		MoveL Offs(pZeroCircleMute, -15.867, -6.76, 0.2), v30, z0, tNozzle, \Wobj := wobj2Circle;
		MoveL Offs(pZeroCircleMute, -14.577, -9.218, 0.2), v30, z0, tNozzle, \Wobj := wobj2Circle;
		MoveL Offs(pZeroCircleMute, -12.91, -11.437, 0.2), v30, z0, tNozzle, \Wobj := wobj2Circle;
		MoveL Offs(pZeroCircleMute, -10.908, -13.36, 0.2), v30, z0, tNozzle, \Wobj := wobj2Circle;
		MoveL Offs(pZeroCircleMute, -8.624, -14.937, 0.2), v30, z0, tNozzle, \Wobj := wobj2Circle;
		MoveL Offs(pZeroCircleMute, -6.116, -16.127, 0.2), v30, z0, tNozzle, \Wobj := wobj2Circle;
		MoveL Offs(pZeroCircleMute, -3.45, -16.899, 0.2), v30, z0, tNozzle, \Wobj := wobj2Circle;
		MoveL Offs(pZeroCircleMute, -0.694, -17.234, 0.2), v30, z0, tNozzle, \Wobj := wobj2Circle;
		MoveL Offs(pZeroCircleMute, 2.079, -17.122, 0.2), v30, z0, tNozzle, \Wobj := wobj2Circle;
		MoveL Offs(pZeroCircleMute, 4.799, -16.567, 0.2), v30, z0, tNozzle, \Wobj := wobj2Circle;
		WaitRob \InPos;
		SetDO DO5_Program_Feed, 0;
		MoveL Offs(pZeroCircleMute, 5.273, -15.852, 0.2), v100, z0, tNozzle, \Wobj := wobj2Circle;
		WaitRob \InPos;
		SetDO DO5_Program_Feed, 1;
		MoveL Offs(pZeroCircleMute, -15.841, 5.261, 0.2), v30, z0, tNozzle, \Wobj := wobj2Circle;
		WaitRob \InPos;
		SetDO DO5_Program_Feed, 0;
		MoveL Offs(pZeroCircleMute, -15.274, 6.816, 0.2), v100, z0, tNozzle, \Wobj := wobj2Circle;
		WaitRob \InPos;
		SetDO DO5_Program_Feed, 1;
		MoveL Offs(pZeroCircleMute, 6.811, -15.269, 0.2), v30, z0, tNozzle, \Wobj := wobj2Circle;
		WaitRob \InPos;
		SetDO DO5_Program_Feed, 0;
		MoveL Offs(pZeroCircleMute, 8.202, -14.539, 0.2), v100, z0, tNozzle, \Wobj := wobj2Circle;
		WaitRob \InPos;
		SetDO DO5_Program_Feed, 1;
		MoveL Offs(pZeroCircleMute, -14.544, 8.207, 0.2), v30, z0, tNozzle, \Wobj := wobj2Circle;
		WaitRob \InPos;
		SetDO DO5_Program_Feed, 0;
		MoveL Offs(pZeroCircleMute, -13.73, 9.514, 0.2), v100, z0, tNozzle, \Wobj := wobj2Circle;
		WaitRob \InPos;
		SetDO DO5_Program_Feed, 1;
		MoveL Offs(pZeroCircleMute, 9.542, -13.758, 0.2), v30, z0, tNozzle, \Wobj := wobj2Circle;
		WaitRob \InPos;
		SetDO DO5_Program_Feed, 0;
		MoveL Offs(pZeroCircleMute, 10.71, -12.804, 0.2), v100, z0, tNozzle, \Wobj := wobj2Circle;
		WaitRob \InPos;
		SetDO DO5_Program_Feed, 1;
		MoveL Offs(pZeroCircleMute, -12.82, 10.725, 0.2), v30, z0, tNozzle, \Wobj := wobj2Circle;
		WaitRob \InPos;
		SetDO DO5_Program_Feed, 0;
		MoveL Offs(pZeroCircleMute, -11.791, 11.819, 0.2), v100, z0, tNozzle, \Wobj := wobj2Circle;
		WaitRob \InPos;
		SetDO DO5_Program_Feed, 1;
		MoveL Offs(pZeroCircleMute, 11.837, -11.81, 0.2), v30, z0, tNozzle, \Wobj := wobj2Circle;
		WaitRob \InPos;
		SetDO DO5_Program_Feed, 0;
		MoveL Offs(pZeroCircleMute, 12.834, -10.685, 0.2), v100, z0, tNozzle, \Wobj := wobj2Circle;
		WaitRob \InPos;
		SetDO DO5_Program_Feed, 1;
		MoveL Offs(pZeroCircleMute, -10.709, 12.858, 0.2), v30, z0, tNozzle, \Wobj := wobj2Circle;
		WaitRob \InPos;
		SetDO DO5_Program_Feed, 0;
		MoveL Offs(pZeroCircleMute, -9.473, 13.743, 0.2), v100, z0, tNozzle, \Wobj := wobj2Circle;
		WaitRob \InPos;
		SetDO DO5_Program_Feed, 1;
		MoveL Offs(pZeroCircleMute, 13.753, -9.483, 0.2), v30, z0, tNozzle, \Wobj := wobj2Circle;
		WaitRob \InPos;
		SetDO DO5_Program_Feed, 0;
		MoveL Offs(pZeroCircleMute, 14.574, -8.183, 0.2), v100, z0, tNozzle, \Wobj := wobj2Circle;
		WaitRob \InPos;
		SetDO DO5_Program_Feed, 1;
		MoveL Offs(pZeroCircleMute, -8.196, 14.587, 0.2), v30, z0, tNozzle, \Wobj := wobj2Circle;
		WaitRob \InPos;
		SetDO DO5_Program_Feed, 0;
		MoveL Offs(pZeroCircleMute, -6.757, 15.269, 0.2), v100, z0, tNozzle, \Wobj := wobj2Circle;
		WaitRob \InPos;
		SetDO DO5_Program_Feed, 1;
		MoveL Offs(pZeroCircleMute, 15.266, -6.754, 0.2), v30, z0, tNozzle, \Wobj := wobj2Circle;
		WaitRob \InPos;
		SetDO DO5_Program_Feed, 0;
		MoveL Offs(pZeroCircleMute, 15.895, -5.261, 0.2), v100, z0, tNozzle, \Wobj := wobj2Circle;
		WaitRob \InPos;
		SetDO DO5_Program_Feed, 1;
		MoveL Offs(pZeroCircleMute, -5.229, 15.863, 0.2), v30, z0, tNozzle, \Wobj := wobj2Circle;
		WaitRob \InPos;
		SetDO DO5_Program_Feed, 0;
		MoveL Offs(pZeroCircleMute, -3.585, 16.34, 0.2), v100, z0, tNozzle, \Wobj := wobj2Circle;
		WaitRob \InPos;
		SetDO DO5_Program_Feed, 1;
		MoveL Offs(pZeroCircleMute, 16.314, -3.559, 0.2), v30, z0, tNozzle, \Wobj := wobj2Circle;
		WaitRob \InPos;
		SetDO DO5_Program_Feed, 0;
		MoveL Offs(pZeroCircleMute, 16.606, -1.73, 0.2), v100, z0, tNozzle, \Wobj := wobj2Circle;
		WaitRob \InPos;
		SetDO DO5_Program_Feed, 1;
		MoveL Offs(pZeroCircleMute, -1.728, 16.605, 0.2), v30, z0, tNozzle, \Wobj := wobj2Circle;
		WaitRob \InPos;
		SetDO DO5_Program_Feed, 0;
		MoveL Offs(pZeroCircleMute, 0.305, 16.693, 0.2), v100, z0, tNozzle, \Wobj := wobj2Circle;
		WaitRob \InPos;
		SetDO DO5_Program_Feed, 1;
		MoveL Offs(pZeroCircleMute, 16.724, 0.274, 0.2), v30, z0, tNozzle, \Wobj := wobj2Circle;
		WaitRob \InPos;
		SetDO DO5_Program_Feed, 0;
		MoveL Offs(pZeroCircleMute, 16.538, 2.581, 0.2), v100, z0, tNozzle, \Wobj := wobj2Circle;
		WaitRob \InPos;
		SetDO DO5_Program_Feed, 1;
		MoveL Offs(pZeroCircleMute, 2.617, 16.502, 0.2), v30, z0, tNozzle, \Wobj := wobj2Circle;
		WaitRob \InPos;
		SetDO DO5_Program_Feed, 0;
		MoveL Offs(pZeroCircleMute, 5.459, 15.782, 0.2), v100, z0, tNozzle, \Wobj := wobj2Circle;
		WaitRob \InPos;
		SetDO DO5_Program_Feed, 1;
		MoveL Offs(pZeroCircleMute, 15.845, 5.395, 0.2), v30, z0, tNozzle, \Wobj := wobj2Circle;
		WaitRob \InPos;
		SetDO DO5_Program_Feed, 0;
		MoveL Offs(pZeroCircleMute, 13.536, 9.826, 0.2), v100, z0, tNozzle, \Wobj := wobj2Circle;
		WaitRob \InPos;
		SetDO DO5_Program_Feed, 1;
		MoveL Offs(pZeroCircleMute, 9.878, 13.484, 0.2), v30, z0, tNozzle, \Wobj := wobj2Circle;
		WaitRob \InPos;
		SetDO DO5_Program_Feed, 0;
		MoveL Offs(pZeroCircleMute, -16.322, 3.622, 0.2), v100, z0, tNozzle, \Wobj := wobj2Circle;
		WaitRob \InPos;
		SetDO DO5_Program_Feed, 1;
		MoveL Offs(pZeroCircleMute, 3.6, -16.301, 0.2), v30, z0, tNozzle, \Wobj := wobj2Circle;
		WaitRob \InPos;
		SetDO DO5_Program_Feed, 0;
		MoveL Offs(pZeroCircleMute, 1.81, -16.632, 0.2), v100, z0, tNozzle, \Wobj := wobj2Circle;
		WaitRob \InPos;
		SetDO DO5_Program_Feed, 1;
		MoveL Offs(pZeroCircleMute, -16.619, 1.797, 0.2), v30, z0, tNozzle, \Wobj := wobj2Circle;
		WaitRob \InPos;
		SetDO DO5_Program_Feed, 0;
		MoveL Offs(pZeroCircleMute, -16.692, -0.252, 0.2), v100, z0, tNozzle, \Wobj := wobj2Circle;
		WaitRob \InPos;
		SetDO DO5_Program_Feed, 1;
		MoveL Offs(pZeroCircleMute, -0.229, -16.715, 0.2), v30, z0, tNozzle, \Wobj := wobj2Circle;
		WaitRob \InPos;
		SetDO DO5_Program_Feed, 0;
		MoveL Offs(pZeroCircleMute, -2.561, -16.503, 0.2), v100, z0, tNozzle, \Wobj := wobj2Circle;
		WaitRob \InPos;
		SetDO DO5_Program_Feed, 1;
		MoveL Offs(pZeroCircleMute, -16.493, -2.572, 0.2), v30, z0, tNozzle, \Wobj := wobj2Circle;
		WaitRob \InPos;
		SetDO DO5_Program_Feed, 0;
		MoveL Offs(pZeroCircleMute, -15.799, -5.387, 0.2), v100, z0, tNozzle, \Wobj := wobj2Circle;
		WaitRob \InPos;
		SetDO DO5_Program_Feed, 1;
		MoveL Offs(pZeroCircleMute, -5.361, -15.825, 0.2), v30, z0, tNozzle, \Wobj := wobj2Circle;
		WaitRob \InPos;
		SetDO DO5_Program_Feed, 0;
		MoveL Offs(pZeroCircleMute, -9.767, -13.541, 0.2), v100, z0, tNozzle, \Wobj := wobj2Circle;
		WaitRob \InPos;
		SetDO DO5_Program_Feed, 1;
		MoveL Offs(pZeroCircleMute, -13.539, -9.769, 0.2), v30, z0, tNozzle, \Wobj := wobj2Circle;
		WaitRob \InPos;
		SetDO DO6_Between_Layer_Retract, 1;
		SetDO DO5_Program_Feed, 0;
		MoveL Offs(pZeroCircleMute, -13.539, -9.769, 5.6), v100, z0, tNozzle, \Wobj := wobj2Circle;
		MoveL Offs(pZeroCircleMute, 0, 0, 50), v100, fine \Inpos := inpos50, tNozzle, \Wobj := wobj2Circle;
	ENDPROC
	
	PROC Circle4()
		! Layer 4 Circle
		pZeroCircleMute := Offs(pZeroCircle, 0, 0, 0.2*layerNum);
		MoveL Offs(pZeroCircleMute, -11.225, 13.749, 5.8), v100, z0, tNozzle, \Wobj := wobj2Circle;
		MoveL Offs(pZeroCircleMute, -11.225, 13.749, 0.2), v30, z0, tNozzle, \Wobj := wobj2Circle;
		WaitRob \InPos;
		SetDO DO6_Between_Layer_Retract, 0;
		WaitRob \InPos;
		SetDO DO5_Program_Feed, 1;
		MoveL Offs(pZeroCircleMute, -13.285, 11.77, 0.2), v30, z0, tNozzle, \Wobj := wobj2Circle;
		MoveL Offs(pZeroCircleMute, -15.001, 9.486, 0.2), v30, z0, tNozzle, \Wobj := wobj2Circle;
		MoveL Offs(pZeroCircleMute, -16.329, 6.957, 0.2), v30, z0, tNozzle, \Wobj := wobj2Circle;
		MoveL Offs(pZeroCircleMute, -17.233, 4.248, 0.2), v30, z0, tNozzle, \Wobj := wobj2Circle;
		MoveL Offs(pZeroCircleMute, -17.692, 1.428, 0.2), v30, z0, tNozzle, \Wobj := wobj2Circle;
		MoveL Offs(pZeroCircleMute, -17.692, -1.428, 0.2), v30, z0, tNozzle, \Wobj := wobj2Circle;
		MoveL Offs(pZeroCircleMute, -17.233, -4.248, 0.2), v30, z0, tNozzle, \Wobj := wobj2Circle;
		MoveL Offs(pZeroCircleMute, -16.329, -6.957, 0.2), v30, z0, tNozzle, \Wobj := wobj2Circle;
		MoveL Offs(pZeroCircleMute, -15.001, -9.486, 0.2), v30, z0, tNozzle, \Wobj := wobj2Circle;
		MoveL Offs(pZeroCircleMute, -13.285, -11.77, 0.2), v30, z0, tNozzle, \Wobj := wobj2Circle;
		MoveL Offs(pZeroCircleMute, -11.225, -13.749, 0.2), v30, z0, tNozzle, \Wobj := wobj2Circle;
		MoveL Offs(pZeroCircleMute, -8.875, -15.371, 0.2), v30, z0, tNozzle, \Wobj := wobj2Circle;
		MoveL Offs(pZeroCircleMute, -6.294, -16.596, 0.2), v30, z0, tNozzle, \Wobj := wobj2Circle;
		MoveL Offs(pZeroCircleMute, -3.55, -17.39, 0.2), v30, z0, tNozzle, \Wobj := wobj2Circle;
		MoveL Offs(pZeroCircleMute, -0.715, -17.735, 0.2), v30, z0, tNozzle, \Wobj := wobj2Circle;
		MoveL Offs(pZeroCircleMute, 2.139, -17.62, 0.2), v30, z0, tNozzle, \Wobj := wobj2Circle;
		MoveL Offs(pZeroCircleMute, 4.938, -17.048, 0.2), v30, z0, tNozzle, \Wobj := wobj2Circle;
		MoveL Offs(pZeroCircleMute, 7.609, -16.036, 0.2), v30, z0, tNozzle, \Wobj := wobj2Circle;
		MoveL Offs(pZeroCircleMute, 10.083, -14.607, 0.2), v30, z0, tNozzle, \Wobj := wobj2Circle;
		MoveL Offs(pZeroCircleMute, 12.295, -12.801, 0.2), v30, z0, tNozzle, \Wobj := wobj2Circle;
		MoveL Offs(pZeroCircleMute, 14.189, -10.663, 0.2), v30, z0, tNozzle, \Wobj := wobj2Circle;
		MoveL Offs(pZeroCircleMute, 15.716, -8.248, 0.2), v30, z0, tNozzle, \Wobj := wobj2Circle;
		MoveL Offs(pZeroCircleMute, 16.836, -5.621, 0.2), v30, z0, tNozzle, \Wobj := wobj2Circle;
		MoveL Offs(pZeroCircleMute, 17.519, -2.847, 0.2), v30, z0, tNozzle, \Wobj := wobj2Circle;
		MoveL Offs(pZeroCircleMute, 17.749, -0.0, 0.2), v30, z0, tNozzle, \Wobj := wobj2Circle;
		MoveL Offs(pZeroCircleMute, 17.519, 2.847, 0.2), v30, z0, tNozzle, \Wobj := wobj2Circle;
		MoveL Offs(pZeroCircleMute, 16.836, 5.621, 0.2), v30, z0, tNozzle, \Wobj := wobj2Circle;
		MoveL Offs(pZeroCircleMute, 15.716, 8.248, 0.2), v30, z0, tNozzle, \Wobj := wobj2Circle;
		MoveL Offs(pZeroCircleMute, 14.189, 10.663, 0.2), v30, z0, tNozzle, \Wobj := wobj2Circle;
		MoveL Offs(pZeroCircleMute, 12.295, 12.801, 0.2), v30, z0, tNozzle, \Wobj := wobj2Circle;
		MoveL Offs(pZeroCircleMute, 10.083, 14.607, 0.2), v30, z0, tNozzle, \Wobj := wobj2Circle;
		MoveL Offs(pZeroCircleMute, 7.609, 16.036, 0.2), v30, z0, tNozzle, \Wobj := wobj2Circle;
		MoveL Offs(pZeroCircleMute, 4.938, 17.048, 0.2), v30, z0, tNozzle, \Wobj := wobj2Circle;
		MoveL Offs(pZeroCircleMute, 2.139, 17.62, 0.2), v30, z0, tNozzle, \Wobj := wobj2Circle;
		MoveL Offs(pZeroCircleMute, -0.715, 17.735, 0.2), v30, z0, tNozzle, \Wobj := wobj2Circle;
		MoveL Offs(pZeroCircleMute, -3.55, 17.39, 0.2), v30, z0, tNozzle, \Wobj := wobj2Circle;
		MoveL Offs(pZeroCircleMute, -6.294, 16.596, 0.2), v30, z0, tNozzle, \Wobj := wobj2Circle;
		MoveL Offs(pZeroCircleMute, -8.875, 15.371, 0.2), v30, z0, tNozzle, \Wobj := wobj2Circle;
		MoveL Offs(pZeroCircleMute, -11.225, 13.749, 0.2), v30, z0, tNozzle, \Wobj := wobj2Circle;
		WaitRob \InPos;
		SetDO DO5_Program_Feed, 0;
		MoveL Offs(pZeroCircleMute, -10.908, 13.36, 0.2), v100, z0, tNozzle, \Wobj := wobj2Circle;
		WaitRob \InPos;
		SetDO DO5_Program_Feed, 1;
		MoveL Offs(pZeroCircleMute, -12.91, 11.437, 0.2), v30, z0, tNozzle, \Wobj := wobj2Circle;
		MoveL Offs(pZeroCircleMute, -14.577, 9.218, 0.2), v30, z0, tNozzle, \Wobj := wobj2Circle;
		MoveL Offs(pZeroCircleMute, -15.867, 6.76, 0.2), v30, z0, tNozzle, \Wobj := wobj2Circle;
		MoveL Offs(pZeroCircleMute, -16.746, 4.128, 0.2), v30, z0, tNozzle, \Wobj := wobj2Circle;
		MoveL Offs(pZeroCircleMute, -17.192, 1.388, 0.2), v30, z0, tNozzle, \Wobj := wobj2Circle;
		MoveL Offs(pZeroCircleMute, -17.192, -1.388, 0.2), v30, z0, tNozzle, \Wobj := wobj2Circle;
		MoveL Offs(pZeroCircleMute, -16.746, -4.128, 0.2), v30, z0, tNozzle, \Wobj := wobj2Circle;
		MoveL Offs(pZeroCircleMute, -15.867, -6.76, 0.2), v30, z0, tNozzle, \Wobj := wobj2Circle;
		MoveL Offs(pZeroCircleMute, -14.577, -9.218, 0.2), v30, z0, tNozzle, \Wobj := wobj2Circle;
		MoveL Offs(pZeroCircleMute, -12.91, -11.437, 0.2), v30, z0, tNozzle, \Wobj := wobj2Circle;
		MoveL Offs(pZeroCircleMute, -10.908, -13.36, 0.2), v30, z0, tNozzle, \Wobj := wobj2Circle;
		MoveL Offs(pZeroCircleMute, -8.624, -14.937, 0.2), v30, z0, tNozzle, \Wobj := wobj2Circle;
		MoveL Offs(pZeroCircleMute, -6.116, -16.127, 0.2), v30, z0, tNozzle, \Wobj := wobj2Circle;
		MoveL Offs(pZeroCircleMute, -3.45, -16.899, 0.2), v30, z0, tNozzle, \Wobj := wobj2Circle;
		MoveL Offs(pZeroCircleMute, -0.694, -17.234, 0.2), v30, z0, tNozzle, \Wobj := wobj2Circle;
		MoveL Offs(pZeroCircleMute, 2.079, -17.122, 0.2), v30, z0, tNozzle, \Wobj := wobj2Circle;
		MoveL Offs(pZeroCircleMute, 4.799, -16.567, 0.2), v30, z0, tNozzle, \Wobj := wobj2Circle;
		MoveL Offs(pZeroCircleMute, 7.394, -15.582, 0.2), v30, z0, tNozzle, \Wobj := wobj2Circle;
		MoveL Offs(pZeroCircleMute, 9.798, -14.194, 0.2), v30, z0, tNozzle, \Wobj := wobj2Circle;
		MoveL Offs(pZeroCircleMute, 11.948, -12.439, 0.2), v30, z0, tNozzle, \Wobj := wobj2Circle;
		MoveL Offs(pZeroCircleMute, 13.788, -10.361, 0.2), v30, z0, tNozzle, \Wobj := wobj2Circle;
		MoveL Offs(pZeroCircleMute, 15.272, -8.015, 0.2), v30, z0, tNozzle, \Wobj := wobj2Circle;
		MoveL Offs(pZeroCircleMute, 16.36, -5.462, 0.2), v30, z0, tNozzle, \Wobj := wobj2Circle;
		MoveL Offs(pZeroCircleMute, 17.024, -2.767, 0.2), v30, z0, tNozzle, \Wobj := wobj2Circle;
		MoveL Offs(pZeroCircleMute, 17.248, -0.0, 0.2), v30, z0, tNozzle, \Wobj := wobj2Circle;
		MoveL Offs(pZeroCircleMute, 17.024, 2.767, 0.2), v30, z0, tNozzle, \Wobj := wobj2Circle;
		MoveL Offs(pZeroCircleMute, 16.36, 5.462, 0.2), v30, z0, tNozzle, \Wobj := wobj2Circle;
		MoveL Offs(pZeroCircleMute, 15.272, 8.015, 0.2), v30, z0, tNozzle, \Wobj := wobj2Circle;
		MoveL Offs(pZeroCircleMute, 13.788, 10.361, 0.2), v30, z0, tNozzle, \Wobj := wobj2Circle;
		MoveL Offs(pZeroCircleMute, 11.948, 12.439, 0.2), v30, z0, tNozzle, \Wobj := wobj2Circle;
		MoveL Offs(pZeroCircleMute, 9.798, 14.194, 0.2), v30, z0, tNozzle, \Wobj := wobj2Circle;
		MoveL Offs(pZeroCircleMute, 7.394, 15.582, 0.2), v30, z0, tNozzle, \Wobj := wobj2Circle;
		MoveL Offs(pZeroCircleMute, 4.799, 16.567, 0.2), v30, z0, tNozzle, \Wobj := wobj2Circle;
		MoveL Offs(pZeroCircleMute, 2.079, 17.122, 0.2), v30, z0, tNozzle, \Wobj := wobj2Circle;
		MoveL Offs(pZeroCircleMute, -0.694, 17.234, 0.2), v30, z0, tNozzle, \Wobj := wobj2Circle;
		MoveL Offs(pZeroCircleMute, -3.45, 16.899, 0.2), v30, z0, tNozzle, \Wobj := wobj2Circle;
		MoveL Offs(pZeroCircleMute, -6.116, 16.127, 0.2), v30, z0, tNozzle, \Wobj := wobj2Circle;
		MoveL Offs(pZeroCircleMute, -8.624, 14.937, 0.2), v30, z0, tNozzle, \Wobj := wobj2Circle;
		MoveL Offs(pZeroCircleMute, -10.908, 13.36, 0.2), v30, z0, tNozzle, \Wobj := wobj2Circle;
		WaitRob \InPos;
		SetDO DO5_Program_Feed, 0;
		MoveL Offs(pZeroCircleMute, -9.767, 13.541, 0.2), v100, z0, tNozzle, \Wobj := wobj2Circle;
		WaitRob \InPos;
		SetDO DO5_Program_Feed, 1;
		MoveL Offs(pZeroCircleMute, -13.539, 9.769, 0.2), v30, z0, tNozzle, \Wobj := wobj2Circle;
		WaitRob \InPos;
		SetDO DO5_Program_Feed, 0;
		MoveL Offs(pZeroCircleMute, -15.799, 5.387, 0.2), v100, z0, tNozzle, \Wobj := wobj2Circle;
		WaitRob \InPos;
		SetDO DO5_Program_Feed, 1;
		MoveL Offs(pZeroCircleMute, -5.361, 15.825, 0.2), v30, z0, tNozzle, \Wobj := wobj2Circle;
		WaitRob \InPos;
		SetDO DO5_Program_Feed, 0;
		MoveL Offs(pZeroCircleMute, -2.561, 16.503, 0.2), v100, z0, tNozzle, \Wobj := wobj2Circle;
		WaitRob \InPos;
		SetDO DO5_Program_Feed, 1;
		MoveL Offs(pZeroCircleMute, -16.493, 2.572, 0.2), v30, z0, tNozzle, \Wobj := wobj2Circle;
		WaitRob \InPos;
		SetDO DO5_Program_Feed, 0;
		MoveL Offs(pZeroCircleMute, -16.692, 0.252, 0.2), v100, z0, tNozzle, \Wobj := wobj2Circle;
		WaitRob \InPos;
		SetDO DO5_Program_Feed, 1;
		MoveL Offs(pZeroCircleMute, -0.229, 16.715, 0.2), v30, z0, tNozzle, \Wobj := wobj2Circle;
		WaitRob \InPos;
		SetDO DO5_Program_Feed, 0;
		MoveL Offs(pZeroCircleMute, 1.81, 16.632, 0.2), v100, z0, tNozzle, \Wobj := wobj2Circle;
		WaitRob \InPos;
		SetDO DO5_Program_Feed, 1;
		MoveL Offs(pZeroCircleMute, -16.619, -1.797, 0.2), v30, z0, tNozzle, \Wobj := wobj2Circle;
		WaitRob \InPos;
		SetDO DO5_Program_Feed, 0;
		MoveL Offs(pZeroCircleMute, -16.322, -3.622, 0.2), v100, z0, tNozzle, \Wobj := wobj2Circle;
		WaitRob \InPos;
		SetDO DO5_Program_Feed, 1;
		MoveL Offs(pZeroCircleMute, 3.6, 16.301, 0.2), v30, z0, tNozzle, \Wobj := wobj2Circle;
		WaitRob \InPos;
		SetDO DO5_Program_Feed, 0;
		MoveL Offs(pZeroCircleMute, 5.273, 15.852, 0.2), v100, z0, tNozzle, \Wobj := wobj2Circle;
		WaitRob \InPos;
		SetDO DO5_Program_Feed, 1;
		MoveL Offs(pZeroCircleMute, -15.841, -5.261, 0.2), v30, z0, tNozzle, \Wobj := wobj2Circle;
		WaitRob \InPos;
		SetDO DO5_Program_Feed, 0;
		MoveL Offs(pZeroCircleMute, -15.274, -6.816, 0.2), v100, z0, tNozzle, \Wobj := wobj2Circle;
		WaitRob \InPos;
		SetDO DO5_Program_Feed, 1;
		MoveL Offs(pZeroCircleMute, 6.811, 15.269, 0.2), v30, z0, tNozzle, \Wobj := wobj2Circle;
		WaitRob \InPos;
		SetDO DO5_Program_Feed, 0;
		MoveL Offs(pZeroCircleMute, 8.202, 14.539, 0.2), v100, z0, tNozzle, \Wobj := wobj2Circle;
		WaitRob \InPos;
		SetDO DO5_Program_Feed, 1;
		MoveL Offs(pZeroCircleMute, -14.544, -8.207, 0.2), v30, z0, tNozzle, \Wobj := wobj2Circle;
		WaitRob \InPos;
		SetDO DO5_Program_Feed, 0;
		MoveL Offs(pZeroCircleMute, -13.73, -9.514, 0.2), v100, z0, tNozzle, \Wobj := wobj2Circle;
		WaitRob \InPos;
		SetDO DO5_Program_Feed, 1;
		MoveL Offs(pZeroCircleMute, 9.542, 13.758, 0.2), v30, z0, tNozzle, \Wobj := wobj2Circle;
		WaitRob \InPos;
		SetDO DO5_Program_Feed, 0;
		MoveL Offs(pZeroCircleMute, 10.71, 12.804, 0.2), v100, z0, tNozzle, \Wobj := wobj2Circle;
		WaitRob \InPos;
		SetDO DO5_Program_Feed, 1;
		MoveL Offs(pZeroCircleMute, -12.82, -10.725, 0.2), v30, z0, tNozzle, \Wobj := wobj2Circle;
		WaitRob \InPos;
		SetDO DO5_Program_Feed, 0;
		MoveL Offs(pZeroCircleMute, -11.791, -11.819, 0.2), v100, z0, tNozzle, \Wobj := wobj2Circle;
		WaitRob \InPos;
		SetDO DO5_Program_Feed, 1;
		MoveL Offs(pZeroCircleMute, 11.837, 11.81, 0.2), v30, z0, tNozzle, \Wobj := wobj2Circle;
		WaitRob \InPos;
		SetDO DO5_Program_Feed, 0;
		MoveL Offs(pZeroCircleMute, 12.834, 10.685, 0.2), v100, z0, tNozzle, \Wobj := wobj2Circle;
		WaitRob \InPos;
		SetDO DO5_Program_Feed, 1;
		MoveL Offs(pZeroCircleMute, -10.709, -12.858, 0.2), v30, z0, tNozzle, \Wobj := wobj2Circle;
		WaitRob \InPos;
		SetDO DO5_Program_Feed, 0;
		MoveL Offs(pZeroCircleMute, -9.473, -13.743, 0.2), v100, z0, tNozzle, \Wobj := wobj2Circle;
		WaitRob \InPos;
		SetDO DO5_Program_Feed, 1;
		MoveL Offs(pZeroCircleMute, 13.753, 9.483, 0.2), v30, z0, tNozzle, \Wobj := wobj2Circle;
		WaitRob \InPos;
		SetDO DO5_Program_Feed, 0;
		MoveL Offs(pZeroCircleMute, 14.574, 8.183, 0.2), v100, z0, tNozzle, \Wobj := wobj2Circle;
		WaitRob \InPos;
		SetDO DO5_Program_Feed, 1;
		MoveL Offs(pZeroCircleMute, -8.196, -14.587, 0.2), v30, z0, tNozzle, \Wobj := wobj2Circle;
		WaitRob \InPos;
		SetDO DO5_Program_Feed, 0;
		MoveL Offs(pZeroCircleMute, -6.757, -15.269, 0.2), v100, z0, tNozzle, \Wobj := wobj2Circle;
		WaitRob \InPos;
		SetDO DO5_Program_Feed, 1;
		MoveL Offs(pZeroCircleMute, 15.266, 6.754, 0.2), v30, z0, tNozzle, \Wobj := wobj2Circle;
		WaitRob \InPos;
		SetDO DO5_Program_Feed, 0;
		MoveL Offs(pZeroCircleMute, 15.895, 5.261, 0.2), v100, z0, tNozzle, \Wobj := wobj2Circle;
		WaitRob \InPos;
		SetDO DO5_Program_Feed, 1;
		MoveL Offs(pZeroCircleMute, -5.229, -15.863, 0.2), v30, z0, tNozzle, \Wobj := wobj2Circle;
		WaitRob \InPos;
		SetDO DO5_Program_Feed, 0;
		MoveL Offs(pZeroCircleMute, -3.585, -16.34, 0.2), v100, z0, tNozzle, \Wobj := wobj2Circle;
		WaitRob \InPos;
		SetDO DO5_Program_Feed, 1;
		MoveL Offs(pZeroCircleMute, 16.314, 3.559, 0.2), v30, z0, tNozzle, \Wobj := wobj2Circle;
		WaitRob \InPos;
		SetDO DO5_Program_Feed, 0;
		MoveL Offs(pZeroCircleMute, 16.606, 1.73, 0.2), v100, z0, tNozzle, \Wobj := wobj2Circle;
		WaitRob \InPos;
		SetDO DO5_Program_Feed, 1;
		MoveL Offs(pZeroCircleMute, -1.728, -16.605, 0.2), v30, z0, tNozzle, \Wobj := wobj2Circle;
		WaitRob \InPos;
		SetDO DO5_Program_Feed, 0;
		MoveL Offs(pZeroCircleMute, 0.305, -16.693, 0.2), v100, z0, tNozzle, \Wobj := wobj2Circle;
		WaitRob \InPos;
		SetDO DO5_Program_Feed, 1;
		MoveL Offs(pZeroCircleMute, 16.724, -0.274, 0.2), v30, z0, tNozzle, \Wobj := wobj2Circle;
		WaitRob \InPos;
		SetDO DO5_Program_Feed, 0;
		MoveL Offs(pZeroCircleMute, 16.538, -2.581, 0.2), v100, z0, tNozzle, \Wobj := wobj2Circle;
		WaitRob \InPos;
		SetDO DO5_Program_Feed, 1;
		MoveL Offs(pZeroCircleMute, 2.617, -16.502, 0.2), v30, z0, tNozzle, \Wobj := wobj2Circle;
		WaitRob \InPos;
		SetDO DO5_Program_Feed, 0;
		MoveL Offs(pZeroCircleMute, 5.459, -15.782, 0.2), v100, z0, tNozzle, \Wobj := wobj2Circle;
		WaitRob \InPos;
		SetDO DO5_Program_Feed, 1;
		MoveL Offs(pZeroCircleMute, 15.845, -5.395, 0.2), v30, z0, tNozzle, \Wobj := wobj2Circle;
		WaitRob \InPos;
		SetDO DO5_Program_Feed, 0;
		MoveL Offs(pZeroCircleMute, 13.536, -9.826, 0.2), v100, z0, tNozzle, \Wobj := wobj2Circle;
		WaitRob \InPos;
		SetDO DO5_Program_Feed, 1;
		MoveL Offs(pZeroCircleMute, 9.878, -13.484, 0.2), v30, z0, tNozzle, \Wobj := wobj2Circle;
		WaitRob \InPos;
		SetDO DO6_Between_Layer_Retract, 1;
		SetDO DO5_Program_Feed, 0;
		MoveL Offs(pZeroCircleMute, 9.878, -13.484, 5.8), v100, z0, tNozzle, \Wobj := wobj2Circle;
		MoveL Offs(pZeroCircleMute, 0, 0, 50), v100, fine \Inpos := inpos50, tNozzle, \Wobj := wobj2Circle;
	ENDPROC
        
	PROC Star1()
		! Layer 1 Star
		pZeroStarMute := Offs(pZeroStar, 0, 0, 0.2*layerNum);
		MoveL Offs(pZeroStarMute, 10.398, -14.312, 5.2), v100, z0, tNozzle, \Wobj := wobj1Star;
		MoveL Offs(pZeroStarMute, 10.398, -14.312, 0.2), v30, z0, tNozzle, \Wobj := wobj1Star;
		WaitRob \InPos;
		SetDO DO6_Between_Layer_Retract, 0;
		WaitRob \InPos;
		SetDO DO5_Program_Feed, 1;
		MoveL Offs(pZeroStarMute, 16.825, 5.467, 0.2), v30, z0, tNozzle, \Wobj := wobj1Star;
		MoveL Offs(pZeroStarMute, 0.0, 17.691, 0.2), v30, z0, tNozzle, \Wobj := wobj1Star;
		MoveL Offs(pZeroStarMute, -16.825, 5.467, 0.2), v30, z0, tNozzle, \Wobj := wobj1Star;
		MoveL Offs(pZeroStarMute, -10.398, -14.312, 0.2), v30, z0, tNozzle, \Wobj := wobj1Star;
		MoveL Offs(pZeroStarMute, 10.398, -14.312, 0.2), v30, z0, tNozzle, \Wobj := wobj1Star;
		WaitRob \InPos;
		SetDO DO5_Program_Feed, 0;
		MoveL Offs(pZeroStarMute, 10.035, -13.812, 0.2), v100, z0, tNozzle, \Wobj := wobj1Star;
		WaitRob \InPos;
		SetDO DO5_Program_Feed, 1;
		MoveL Offs(pZeroStarMute, 16.237, 5.276, 0.2), v30, z0, tNozzle, \Wobj := wobj1Star;
		MoveL Offs(pZeroStarMute, 0.0, 17.073, 0.2), v30, z0, tNozzle, \Wobj := wobj1Star;
		MoveL Offs(pZeroStarMute, -16.237, 5.276, 0.2), v30, z0, tNozzle, \Wobj := wobj1Star;
		MoveL Offs(pZeroStarMute, -10.035, -13.812, 0.2), v30, z0, tNozzle, \Wobj := wobj1Star;
		MoveL Offs(pZeroStarMute, 10.035, -13.812, 0.2), v30, z0, tNozzle, \Wobj := wobj1Star;
		WaitRob \InPos;
		SetDO DO5_Program_Feed, 0;
		MoveL Offs(pZeroStarMute, 9.689, -13.259, 0.2), v100, z0, tNozzle, \Wobj := wobj1Star;
		WaitRob \InPos;
		SetDO DO5_Program_Feed, 1;
		MoveL Offs(pZeroStarMute, 9.543, -13.313, 0.2), v30, z0, tNozzle, \Wobj := wobj1Star;
		WaitRob \InPos;
		SetDO DO5_Program_Feed, 0;
		MoveL Offs(pZeroStarMute, 10.278, -11.449, 0.2), v100, z0, tNozzle, \Wobj := wobj1Star;
		WaitRob \InPos;
		SetDO DO5_Program_Feed, 1;
		MoveL Offs(pZeroStarMute, 5.157, -13.313, 0.2), v30, z0, tNozzle, \Wobj := wobj1Star;
		WaitRob \InPos;
		SetDO DO5_Program_Feed, 0;
		MoveL Offs(pZeroStarMute, 0.771, -13.313, 0.2), v100, z0, tNozzle, \Wobj := wobj1Star;
		WaitRob \InPos;
		SetDO DO5_Program_Feed, 1;
		MoveL Offs(pZeroStarMute, 10.866, -9.638, 0.2), v30, z0, tNozzle, \Wobj := wobj1Star;
		WaitRob \InPos;
		SetDO DO5_Program_Feed, 0;
		MoveL Offs(pZeroStarMute, 11.454, -7.828, 0.2), v100, z0, tNozzle, \Wobj := wobj1Star;
		WaitRob \InPos;
		SetDO DO5_Program_Feed, 1;
		MoveL Offs(pZeroStarMute, -3.614, -13.313, 0.2), v30, z0, tNozzle, \Wobj := wobj1Star;
		WaitRob \InPos;
		SetDO DO5_Program_Feed, 0;
		MoveL Offs(pZeroStarMute, -8.0, -13.313, 0.2), v100, z0, tNozzle, \Wobj := wobj1Star;
		WaitRob \InPos;
		SetDO DO5_Program_Feed, 1;
		MoveL Offs(pZeroStarMute, 12.042, -6.018, 0.2), v30, z0, tNozzle, \Wobj := wobj1Star;
		WaitRob \InPos;
		SetDO DO5_Program_Feed, 0;
		MoveL Offs(pZeroStarMute, 12.631, -4.207, 0.2), v100, z0, tNozzle, \Wobj := wobj1Star;
		WaitRob \InPos;
		SetDO DO5_Program_Feed, 1;
		MoveL Offs(pZeroStarMute, -9.959, -12.429, 0.2), v30, z0, tNozzle, \Wobj := wobj1Star;
		WaitRob \InPos;
		SetDO DO5_Program_Feed, 0;
		MoveL Offs(pZeroStarMute, -10.423, -11.002, 0.2), v100, z0, tNozzle, \Wobj := wobj1Star;
		WaitRob \InPos;
		SetDO DO5_Program_Feed, 1;
		MoveL Offs(pZeroStarMute, 13.219, -2.397, 0.2), v30, z0, tNozzle, \Wobj := wobj1Star;
		WaitRob \InPos;
		SetDO DO5_Program_Feed, 0;
		MoveL Offs(pZeroStarMute, 13.807, -0.587, 0.2), v100, z0, tNozzle, \Wobj := wobj1Star;
		WaitRob \InPos;
		SetDO DO5_Program_Feed, 1;
		MoveL Offs(pZeroStarMute, -10.887, -9.574, 0.2), v30, z0, tNozzle, \Wobj := wobj1Star;
		WaitRob \InPos;
		SetDO DO5_Program_Feed, 0;
		MoveL Offs(pZeroStarMute, -11.351, -8.147, 0.2), v100, z0, tNozzle, \Wobj := wobj1Star;
		WaitRob \InPos;
		SetDO DO5_Program_Feed, 1;
		MoveL Offs(pZeroStarMute, 14.395, 1.224, 0.2), v30, z0, tNozzle, \Wobj := wobj1Star;
		WaitRob \InPos;
		SetDO DO5_Program_Feed, 0;
		MoveL Offs(pZeroStarMute, 14.983, 3.034, 0.2), v100, z0, tNozzle, \Wobj := wobj1Star;
		WaitRob \InPos;
		SetDO DO5_Program_Feed, 1;
		MoveL Offs(pZeroStarMute, -11.814, -6.719, 0.2), v30, z0, tNozzle, \Wobj := wobj1Star;
		WaitRob \InPos;
		SetDO DO5_Program_Feed, 0;
		MoveL Offs(pZeroStarMute, -12.278, -5.292, 0.2), v100, z0, tNozzle, \Wobj := wobj1Star;
		WaitRob \InPos;
		SetDO DO5_Program_Feed, 1;
		MoveL Offs(pZeroStarMute, 15.572, 4.845, 0.2), v30, z0, tNozzle, \Wobj := wobj1Star;
		WaitRob \InPos;
		SetDO DO5_Program_Feed, 0;
		MoveL Offs(pZeroStarMute, 14.38, 6.007, 0.2), v100, z0, tNozzle, \Wobj := wobj1Star;
		WaitRob \InPos;
		SetDO DO5_Program_Feed, 1;
		MoveL Offs(pZeroStarMute, -12.742, -3.864, 0.2), v30, z0, tNozzle, \Wobj := wobj1Star;
		WaitRob \InPos;
		SetDO DO5_Program_Feed, 0;
