MODULE MainModule
	PROC main()
		Heat;
		SetDO DO1_Auto_Mode, 1;

		

		! Part number: 1
		! PartParams(extrusionFactor=0.98, printSpeed=30, shiftX=0.0, shiftY=0.0, shiftZ=0.0, numLayers=4, designType=0, brims=0, horizontalExpansion=0.0, randomStartLocation=1)

		! Layer: 1
		! LayerParams(infillAngleDegrees=20.0, pathWidth=1.5, layerHeight=0.2, infillShiftX=0.0, infillShiftY=0.0, numShells=2, infillOverlap=0.0002)
		! T11
		! M6
		TPWRITE "Layer 1 of 4";
		MoveL Offs(pZeroStarMute, 10.398, -14.312, 5.2), v100, z0, tNozzle, \Wobj := wobj1Star;
		MoveL Offs(pZeroStarMute, 10.398, -14.312, 0.2), v30, z0, tNozzle, \Wobj := wobj1Star;
		WaitRob \InPos;
		SetDO DO5_Program_Feed, 1;
		MoveL Offs(pZeroStarMute, 16.825, 5.467, 0.2), v30, z0, tNozzle, \Wobj := wobj1Star;
		MoveL Offs(pZeroStarMute, 0.0, 17.691, 0.2), v30, z0, tNozzle, \Wobj := wobj1Star;
		MoveL Offs(pZeroStarMute, -16.825, 5.467, 0.2), v30, z0, tNozzle, \Wobj := wobj1Star;
		MoveL Offs(pZeroStarMute, -10.398, -14.312, 0.2), v30, z0, tNozzle, \Wobj := wobj1Star;
		MoveL Offs(pZeroStarMute, 10.398, -14.312, 0.2), v30, z0, tNozzle, \Wobj := wobj1Star;
		WaitRob \InPos;
		SetDO DO5_Program_Feed, 0;
		MoveL Offs(pZeroStarMute, 10.035, -13.812, 0.2), v100, z0, tNozzle, \Wobj := wobj1Star;
		WaitRob \InPos;
		SetDO DO5_Program_Feed, 1;
		MoveL Offs(pZeroStarMute, 16.237, 5.276, 0.2), v30, z0, tNozzle, \Wobj := wobj1Star;
		MoveL Offs(pZeroStarMute, 0.0, 17.073, 0.2), v30, z0, tNozzle, \Wobj := wobj1Star;
		MoveL Offs(pZeroStarMute, -16.237, 5.276, 0.2), v30, z0, tNozzle, \Wobj := wobj1Star;
		MoveL Offs(pZeroStarMute, -10.035, -13.812, 0.2), v30, z0, tNozzle, \Wobj := wobj1Star;
		MoveL Offs(pZeroStarMute, 10.035, -13.812, 0.2), v30, z0, tNozzle, \Wobj := wobj1Star;
		WaitRob \InPos;
		SetDO DO5_Program_Feed, 0;
		MoveL Offs(pZeroStarMute, 9.689, -13.259, 0.2), v100, z0, tNozzle, \Wobj := wobj1Star;
		WaitRob \InPos;
		SetDO DO5_Program_Feed, 1;
		MoveL Offs(pZeroStarMute, 9.543, -13.313, 0.2), v30, z0, tNozzle, \Wobj := wobj1Star;
		WaitRob \InPos;
		SetDO DO5_Program_Feed, 0;
		MoveL Offs(pZeroStarMute, 10.278, -11.449, 0.2), v100, z0, tNozzle, \Wobj := wobj1Star;
		WaitRob \InPos;
		SetDO DO5_Program_Feed, 1;
		MoveL Offs(pZeroStarMute, 5.157, -13.313, 0.2), v30, z0, tNozzle, \Wobj := wobj1Star;
		WaitRob \InPos;
		SetDO DO5_Program_Feed, 0;
		MoveL Offs(pZeroStarMute, 0.771, -13.313, 0.2), v100, z0, tNozzle, \Wobj := wobj1Star;
		WaitRob \InPos;
		SetDO DO5_Program_Feed, 1;
		MoveL Offs(pZeroStarMute, 10.866, -9.638, 0.2), v30, z0, tNozzle, \Wobj := wobj1Star;
		WaitRob \InPos;
		SetDO DO5_Program_Feed, 0;
		MoveL Offs(pZeroStarMute, 11.454, -7.828, 0.2), v100, z0, tNozzle, \Wobj := wobj1Star;
		WaitRob \InPos;
		SetDO DO5_Program_Feed, 1;
		MoveL Offs(pZeroStarMute, -3.614, -13.313, 0.2), v30, z0, tNozzle, \Wobj := wobj1Star;
		WaitRob \InPos;
		SetDO DO5_Program_Feed, 0;
		MoveL Offs(pZeroStarMute, -8.0, -13.313, 0.2), v100, z0, tNozzle, \Wobj := wobj1Star;
		WaitRob \InPos;
		SetDO DO5_Program_Feed, 1;
		MoveL Offs(pZeroStarMute, 12.042, -6.018, 0.2), v30, z0, tNozzle, \Wobj := wobj1Star;
		WaitRob \InPos;
		SetDO DO5_Program_Feed, 0;
		MoveL Offs(pZeroStarMute, 12.631, -4.207, 0.2), v100, z0, tNozzle, \Wobj := wobj1Star;
		WaitRob \InPos;
		SetDO DO5_Program_Feed, 1;
		MoveL Offs(pZeroStarMute, -9.959, -12.429, 0.2), v30, z0, tNozzle, \Wobj := wobj1Star;
		WaitRob \InPos;
		SetDO DO5_Program_Feed, 0;
		MoveL Offs(pZeroStarMute, -10.423, -11.002, 0.2), v100, z0, tNozzle, \Wobj := wobj1Star;
		WaitRob \InPos;
		SetDO DO5_Program_Feed, 1;
		MoveL Offs(pZeroStarMute, 13.219, -2.397, 0.2), v30, z0, tNozzle, \Wobj := wobj1Star;
		WaitRob \InPos;
		SetDO DO5_Program_Feed, 0;
		MoveL Offs(pZeroStarMute, 13.807, -0.587, 0.2), v100, z0, tNozzle, \Wobj := wobj1Star;
		WaitRob \InPos;
		SetDO DO5_Program_Feed, 1;
		MoveL Offs(pZeroStarMute, -10.887, -9.574, 0.2), v30, z0, tNozzle, \Wobj := wobj1Star;
		WaitRob \InPos;
		SetDO DO5_Program_Feed, 0;
		MoveL Offs(pZeroStarMute, -11.351, -8.147, 0.2), v100, z0, tNozzle, \Wobj := wobj1Star;
		WaitRob \InPos;
		SetDO DO5_Program_Feed, 1;
		MoveL Offs(pZeroStarMute, 14.395, 1.224, 0.2), v30, z0, tNozzle, \Wobj := wobj1Star;
		WaitRob \InPos;
		SetDO DO5_Program_Feed, 0;
		MoveL Offs(pZeroStarMute, 14.983, 3.034, 0.2), v100, z0, tNozzle, \Wobj := wobj1Star;
		WaitRob \InPos;
		SetDO DO5_Program_Feed, 1;
		MoveL Offs(pZeroStarMute, -11.814, -6.719, 0.2), v30, z0, tNozzle, \Wobj := wobj1Star;
		WaitRob \InPos;
		SetDO DO5_Program_Feed, 0;
		MoveL Offs(pZeroStarMute, -12.278, -5.292, 0.2), v100, z0, tNozzle, \Wobj := wobj1Star;
		WaitRob \InPos;
		SetDO DO5_Program_Feed, 1;
		MoveL Offs(pZeroStarMute, 15.572, 4.845, 0.2), v30, z0, tNozzle, \Wobj := wobj1Star;
		WaitRob \InPos;
		SetDO DO5_Program_Feed, 0;
		MoveL Offs(pZeroStarMute, 14.38, 6.007, 0.2), v100, z0, tNozzle, \Wobj := wobj1Star;
		WaitRob \InPos;
		SetDO DO5_Program_Feed, 1;
		MoveL Offs(pZeroStarMute, -12.742, -3.864, 0.2), v30, z0, tNozzle, \Wobj := wobj1Star;
		WaitRob \InPos;
		SetDO DO5_Program_Feed, 0;
		MoveL Offs(pZeroStarMute, -13.206, -2.437, 0.2), v100, z0, tNozzle, \Wobj := wobj1Star;
		WaitRob \InPos;
		SetDO DO5_Program_Feed, 1;
		MoveL Offs(pZeroStarMute, 12.917, 7.071, 0.2), v30, z0, tNozzle, \Wobj := wobj1Star;
		WaitRob \InPos;
		SetDO DO5_Program_Feed, 0;
		MoveL Offs(pZeroStarMute, 11.453, 8.134, 0.2), v100, z0, tNozzle, \Wobj := wobj1Star;
		WaitRob \InPos;
		SetDO DO5_Program_Feed, 1;
		MoveL Offs(pZeroStarMute, -13.67, -1.01, 0.2), v30, z0, tNozzle, \Wobj := wobj1Star;
		WaitRob \InPos;
		SetDO DO5_Program_Feed, 0;
		MoveL Offs(pZeroStarMute, -14.133, 0.418, 0.2), v100, z0, tNozzle, \Wobj := wobj1Star;
		WaitRob \InPos;
		SetDO DO5_Program_Feed, 1;
		MoveL Offs(pZeroStarMute, 9.989, 9.198, 0.2), v30, z0, tNozzle, \Wobj := wobj1Star;
		WaitRob \InPos;
		SetDO DO5_Program_Feed, 0;
		MoveL Offs(pZeroStarMute, 8.525, 10.261, 0.2), v100, z0, tNozzle, \Wobj := wobj1Star;
		WaitRob \InPos;
		SetDO DO5_Program_Feed, 1;
		MoveL Offs(pZeroStarMute, -14.597, 1.845, 0.2), v30, z0, tNozzle, \Wobj := wobj1Star;
		WaitRob \InPos;
		SetDO DO5_Program_Feed, 0;
		MoveL Offs(pZeroStarMute, -15.061, 3.273, 0.2), v100, z0, tNozzle, \Wobj := wobj1Star;
		WaitRob \InPos;
		SetDO DO5_Program_Feed, 1;
		MoveL Offs(pZeroStarMute, 7.061, 11.325, 0.2), v30, z0, tNozzle, \Wobj := wobj1Star;
		WaitRob \InPos;
		SetDO DO5_Program_Feed, 0;
		MoveL Offs(pZeroStarMute, 5.598, 12.388, 0.2), v100, z0, tNozzle, \Wobj := wobj1Star;
		WaitRob \InPos;
		SetDO DO5_Program_Feed, 1;
		MoveL Offs(pZeroStarMute, -15.525, 4.7, 0.2), v30, z0, tNozzle, \Wobj := wobj1Star;
		WaitRob \InPos;
		SetDO DO5_Program_Feed, 0;
		MoveL Offs(pZeroStarMute, -12.434, 7.422, 0.2), v100, z0, tNozzle, \Wobj := wobj1Star;
		WaitRob \InPos;
		SetDO DO5_Program_Feed, 1;
		MoveL Offs(pZeroStarMute, 4.134, 13.452, 0.2), v30, z0, tNozzle, \Wobj := wobj1Star;
		WaitRob \InPos;
		SetDO DO5_Program_Feed, 0;
		MoveL Offs(pZeroStarMute, 2.67, 14.515, 0.2), v100, z0, tNozzle, \Wobj := wobj1Star;
		WaitRob \InPos;
		SetDO DO5_Program_Feed, 1;
		MoveL Offs(pZeroStarMute, -8.031, 10.62, 0.2), v30, z0, tNozzle, \Wobj := wobj1Star;
		WaitRob \InPos;
		SetDO DO5_Program_Feed, 0;
		MoveL Offs(pZeroStarMute, -3.628, 13.819, 0.2), v100, z0, tNozzle, \Wobj := wobj1Star;
		WaitRob \InPos;
		SetDO DO5_Program_Feed, 1;
		MoveL Offs(pZeroStarMute, 1.206, 15.579, 0.2), v30, z0, tNozzle, \Wobj := wobj1Star;
		WaitRob \InPos;
		SetDO DO6_Between_Layer_Retract, 1;
		SetDO DO5_Program_Feed, 0;
		MoveL Offs(pZeroStarMute, 1.206, 15.579, 5.2), v100, z0, tNozzle, \Wobj := wobj1Star;

		! Layer: 2
		! LayerParams(infillAngleDegrees=108.0, pathWidth=1.5, layerHeight=0.2, infillShiftX=0.0, infillShiftY=0.0, numShells=2, infillOverlap=0.0002)
		! T12
		! M6
		TPWRITE "Layer 2 of 4";
		MoveL Offs(pZeroStarMute, -16.825, 5.467, 5.4), v100, z0, tNozzle, \Wobj := wobj1Star;
		MoveL Offs(pZeroStarMute, -16.825, 5.467, 0.4), v30, z0, tNozzle, \Wobj := wobj1Star;
		WaitRob \InPos;
		SetDO DO6_Between_Layer_Retract, 0;
		WaitRob \InPos;
		SetDO DO5_Program_Feed, 1;
		MoveL Offs(pZeroStarMute, -10.398, -14.312, 0.4), v30, z0, tNozzle, \Wobj := wobj1Star;
		MoveL Offs(pZeroStarMute, 10.398, -14.312, 0.4), v30, z0, tNozzle, \Wobj := wobj1Star;
		MoveL Offs(pZeroStarMute, 16.825, 5.467, 0.4), v30, z0, tNozzle, \Wobj := wobj1Star;
		MoveL Offs(pZeroStarMute, 0.0, 17.691, 0.4), v30, z0, tNozzle, \Wobj := wobj1Star;
		MoveL Offs(pZeroStarMute, -16.825, 5.467, 0.4), v30, z0, tNozzle, \Wobj := wobj1Star;
		WaitRob \InPos;
		SetDO DO5_Program_Feed, 0;
		MoveL Offs(pZeroStarMute, -16.237, 5.276, 0.4), v100, z0, tNozzle, \Wobj := wobj1Star;
		WaitRob \InPos;
		SetDO DO5_Program_Feed, 1;
		MoveL Offs(pZeroStarMute, -10.035, -13.812, 0.4), v30, z0, tNozzle, \Wobj := wobj1Star;
		MoveL Offs(pZeroStarMute, 10.035, -13.812, 0.4), v30, z0, tNozzle, \Wobj := wobj1Star;
		MoveL Offs(pZeroStarMute, 16.237, 5.276, 0.4), v30, z0, tNozzle, \Wobj := wobj1Star;
		MoveL Offs(pZeroStarMute, 0.0, 17.073, 0.4), v30, z0, tNozzle, \Wobj := wobj1Star;
		MoveL Offs(pZeroStarMute, -16.237, 5.276, 0.4), v30, z0, tNozzle, \Wobj := wobj1Star;
		WaitRob \InPos;
		SetDO DO5_Program_Feed, 0;
		MoveL Offs(pZeroStarMute, -14.758, 5.733, 0.4), v100, z0, tNozzle, \Wobj := wobj1Star;
		WaitRob \InPos;
		SetDO DO5_Program_Feed, 1;
		MoveL Offs(pZeroStarMute, -8.57, -13.313, 0.4), v30, z0, tNozzle, \Wobj := wobj1Star;
		WaitRob \InPos;
		SetDO DO5_Program_Feed, 0;
		MoveL Offs(pZeroStarMute, -6.993, -13.313, 0.4), v100, z0, tNozzle, \Wobj := wobj1Star;
		WaitRob \InPos;
		SetDO DO5_Program_Feed, 1;
		MoveL Offs(pZeroStarMute, -13.482, 6.66, 0.4), v30, z0, tNozzle, \Wobj := wobj1Star;
		WaitRob \InPos;
		SetDO DO5_Program_Feed, 0;
		MoveL Offs(pZeroStarMute, -12.206, 7.587, 0.4), v100, z0, tNozzle, \Wobj := wobj1Star;
		WaitRob \InPos;
		SetDO DO5_Program_Feed, 1;
		MoveL Offs(pZeroStarMute, -5.416, -13.313, 0.4), v30, z0, tNozzle, \Wobj := wobj1Star;
		WaitRob \InPos;
		SetDO DO5_Program_Feed, 0;
		MoveL Offs(pZeroStarMute, -3.839, -13.313, 0.4), v100, z0, tNozzle, \Wobj := wobj1Star;
		WaitRob \InPos;
		SetDO DO5_Program_Feed, 1;
		MoveL Offs(pZeroStarMute, -10.93, 8.514, 0.4), v30, z0, tNozzle, \Wobj := wobj1Star;
		WaitRob \InPos;
		SetDO DO5_Program_Feed, 0;
		MoveL Offs(pZeroStarMute, -9.654, 9.441, 0.4), v100, z0, tNozzle, \Wobj := wobj1Star;
		WaitRob \InPos;
		SetDO DO5_Program_Feed, 1;
		MoveL Offs(pZeroStarMute, -2.261, -13.313, 0.4), v30, z0, tNozzle, \Wobj := wobj1Star;
		WaitRob \InPos;
		SetDO DO5_Program_Feed, 0;
		MoveL Offs(pZeroStarMute, -0.684, -13.313, 0.4), v100, z0, tNozzle, \Wobj := wobj1Star;
		WaitRob \InPos;
		SetDO DO5_Program_Feed, 1;
		MoveL Offs(pZeroStarMute, -8.378, 10.368, 0.4), v30, z0, tNozzle, \Wobj := wobj1Star;
		WaitRob \InPos;
		SetDO DO5_Program_Feed, 0;
		MoveL Offs(pZeroStarMute, -7.102, 11.295, 0.4), v100, z0, tNozzle, \Wobj := wobj1Star;
		WaitRob \InPos;
		SetDO DO5_Program_Feed, 1;
		MoveL Offs(pZeroStarMute, 0.893, -13.313, 0.4), v30, z0, tNozzle, \Wobj := wobj1Star;
		WaitRob \InPos;
		SetDO DO5_Program_Feed, 0;
		MoveL Offs(pZeroStarMute, 2.47, -13.313, 0.4), v100, z0, tNozzle, \Wobj := wobj1Star;
		WaitRob \InPos;
		SetDO DO5_Program_Feed, 1;
		MoveL Offs(pZeroStarMute, -5.826, 12.222, 0.4), v30, z0, tNozzle, \Wobj := wobj1Star;
		WaitRob \InPos;
		SetDO DO5_Program_Feed, 0;
		MoveL Offs(pZeroStarMute, -4.55, 13.149, 0.4), v100, z0, tNozzle, \Wobj := wobj1Star;
		WaitRob \InPos;
		SetDO DO5_Program_Feed, 1;
		MoveL Offs(pZeroStarMute, 4.047, -13.313, 0.4), v30, z0, tNozzle, \Wobj := wobj1Star;
		WaitRob \InPos;
		SetDO DO5_Program_Feed, 0;
		MoveL Offs(pZeroStarMute, 5.625, -13.313, 0.4), v100, z0, tNozzle, \Wobj := wobj1Star;
		WaitRob \InPos;
		SetDO DO5_Program_Feed, 1;
		MoveL Offs(pZeroStarMute, -3.274, 14.076, 0.4), v30, z0, tNozzle, \Wobj := wobj1Star;
		WaitRob \InPos;
		SetDO DO5_Program_Feed, 0;
		MoveL Offs(pZeroStarMute, -1.998, 15.003, 0.4), v100, z0, tNozzle, \Wobj := wobj1Star;
		WaitRob \InPos;
		SetDO DO5_Program_Feed, 1;
		MoveL Offs(pZeroStarMute, 7.202, -13.313, 0.4), v30, z0, tNozzle, \Wobj := wobj1Star;
		WaitRob \InPos;
		SetDO DO5_Program_Feed, 0;
		MoveL Offs(pZeroStarMute, 8.779, -13.313, 0.4), v100, z0, tNozzle, \Wobj := wobj1Star;
		WaitRob \InPos;
		SetDO DO5_Program_Feed, 1;
		MoveL Offs(pZeroStarMute, -0.723, 15.93, 0.4), v30, z0, tNozzle, \Wobj := wobj1Star;
		WaitRob \InPos;
		SetDO DO5_Program_Feed, 0;
		MoveL Offs(pZeroStarMute, 0.896, 15.805, 0.4), v100, z0, tNozzle, \Wobj := wobj1Star;
		WaitRob \InPos;
		SetDO DO5_Program_Feed, 1;
		MoveL Offs(pZeroStarMute, 10.014, -12.26, 0.4), v30, z0, tNozzle, \Wobj := wobj1Star;
		WaitRob \InPos;
		SetDO DO5_Program_Feed, 0;
		MoveL Offs(pZeroStarMute, 10.803, -9.833, 0.4), v100, z0, tNozzle, \Wobj := wobj1Star;
		WaitRob \InPos;
		SetDO DO5_Program_Feed, 1;
		MoveL Offs(pZeroStarMute, 2.96, 14.305, 0.4), v30, z0, tNozzle, \Wobj := wobj1Star;
		WaitRob \InPos;
		SetDO DO5_Program_Feed, 0;
		MoveL Offs(pZeroStarMute, 5.025, 12.805, 0.4), v100, z0, tNozzle, \Wobj := wobj1Star;
		WaitRob \InPos;
		SetDO DO5_Program_Feed, 1;
		MoveL Offs(pZeroStarMute, 11.591, -7.406, 0.4), v30, z0, tNozzle, \Wobj := wobj1Star;
		WaitRob \InPos;
		SetDO DO5_Program_Feed, 0;
		MoveL Offs(pZeroStarMute, 12.38, -4.979, 0.4), v100, z0, tNozzle, \Wobj := wobj1Star;
		WaitRob \InPos;
		SetDO DO5_Program_Feed, 1;
		MoveL Offs(pZeroStarMute, 7.089, 11.305, 0.4), v30, z0, tNozzle, \Wobj := wobj1Star;
		WaitRob \InPos;
		SetDO DO5_Program_Feed, 0;
		MoveL Offs(pZeroStarMute, 9.154, 9.805, 0.4), v100, z0, tNozzle, \Wobj := wobj1Star;
		WaitRob \InPos;
		SetDO DO5_Program_Feed, 1;
		MoveL Offs(pZeroStarMute, 13.169, -2.552, 0.4), v30, z0, tNozzle, \Wobj := wobj1Star;
		WaitRob \InPos;
		SetDO DO5_Program_Feed, 0;
		MoveL Offs(pZeroStarMute, 13.957, -0.124, 0.4), v100, z0, tNozzle, \Wobj := wobj1Star;
		WaitRob \InPos;
		SetDO DO5_Program_Feed, 1;
		MoveL Offs(pZeroStarMute, 11.218, 8.305, 0.4), v30, z0, tNozzle, \Wobj := wobj1Star;
		WaitRob \InPos;
		SetDO DO5_Program_Feed, 0;
		MoveL Offs(pZeroStarMute, 13.283, 6.805, 0.4), v100, z0, tNozzle, \Wobj := wobj1Star;
		WaitRob \InPos;
		SetDO DO5_Program_Feed, 1;
		MoveL Offs(pZeroStarMute, 14.746, 2.303, 0.4), v30, z0, tNozzle, \Wobj := wobj1Star;
		WaitRob \InPos;
		SetDO DO5_Program_Feed, 0;
		MoveL Offs(pZeroStarMute, 15.534, 4.73, 0.4), v100, z0, tNozzle, \Wobj := wobj1Star;
		WaitRob \InPos;
		SetDO DO5_Program_Feed, 1;
		MoveL Offs(pZeroStarMute, 15.348, 5.305, 0.4), v30, z0, tNozzle, \Wobj := wobj1Star;
		WaitRob \InPos;
		SetDO DO6_Between_Layer_Retract, 1;
		SetDO DO5_Program_Feed, 0;
		MoveL Offs(pZeroStarMute, 15.348, 5.305, 5.4), v100, z0, tNozzle, \Wobj := wobj1Star;

		! Layer: 3
		! LayerParams(infillAngleDegrees=20.0, pathWidth=1.5, layerHeight=0.2, infillShiftX=0.0, infillShiftY=0.0, numShells=2, infillOverlap=0.0002)
		! T13
		! M6
		TPWRITE "Layer 3 of 4";
		MoveL Offs(pZeroStarMute, -16.825, 5.467, 5.6), v100, z0, tNozzle, \Wobj := wobj1Star;
		MoveL Offs(pZeroStarMute, -16.825, 5.467, 0.6), v30, z0, tNozzle, \Wobj := wobj1Star;
		WaitRob \InPos;
		SetDO DO6_Between_Layer_Retract, 0;
		WaitRob \InPos;
		SetDO DO5_Program_Feed, 1;
		MoveL Offs(pZeroStarMute, -10.398, -14.312, 0.6), v30, z0, tNozzle, \Wobj := wobj1Star;
		MoveL Offs(pZeroStarMute, 10.398, -14.312, 0.6), v30, z0, tNozzle, \Wobj := wobj1Star;
		MoveL Offs(pZeroStarMute, 16.825, 5.467, 0.6), v30, z0, tNozzle, \Wobj := wobj1Star;
		MoveL Offs(pZeroStarMute, 0.0, 17.691, 0.6), v30, z0, tNozzle, \Wobj := wobj1Star;
		MoveL Offs(pZeroStarMute, -16.825, 5.467, 0.6), v30, z0, tNozzle, \Wobj := wobj1Star;
		WaitRob \InPos;
		SetDO DO5_Program_Feed, 0;
		MoveL Offs(pZeroStarMute, -16.237, 5.276, 0.6), v100, z0, tNozzle, \Wobj := wobj1Star;
		WaitRob \InPos;
		SetDO DO5_Program_Feed, 1;
		MoveL Offs(pZeroStarMute, -10.035, -13.812, 0.6), v30, z0, tNozzle, \Wobj := wobj1Star;
		MoveL Offs(pZeroStarMute, 10.035, -13.812, 0.6), v30, z0, tNozzle, \Wobj := wobj1Star;
		MoveL Offs(pZeroStarMute, 16.237, 5.276, 0.6), v30, z0, tNozzle, \Wobj := wobj1Star;
		MoveL Offs(pZeroStarMute, 0.0, 17.073, 0.6), v30, z0, tNozzle, \Wobj := wobj1Star;
		MoveL Offs(pZeroStarMute, -16.237, 5.276, 0.6), v30, z0, tNozzle, \Wobj := wobj1Star;
		WaitRob \InPos;
		SetDO DO5_Program_Feed, 0;
		MoveL Offs(pZeroStarMute, -15.525, 4.7, 0.6), v100, z0, tNozzle, \Wobj := wobj1Star;
		WaitRob \InPos;
		SetDO DO5_Program_Feed, 1;
		MoveL Offs(pZeroStarMute, 5.598, 12.388, 0.6), v30, z0, tNozzle, \Wobj := wobj1Star;
		WaitRob \InPos;
		SetDO DO5_Program_Feed, 0;
		MoveL Offs(pZeroStarMute, 4.134, 13.452, 0.6), v100, z0, tNozzle, \Wobj := wobj1Star;
		WaitRob \InPos;
		SetDO DO5_Program_Feed, 1;
		MoveL Offs(pZeroStarMute, -12.434, 7.422, 0.6), v30, z0, tNozzle, \Wobj := wobj1Star;
		WaitRob \InPos;
		SetDO DO5_Program_Feed, 0;
		MoveL Offs(pZeroStarMute, -15.061, 3.273, 0.6), v100, z0, tNozzle, \Wobj := wobj1Star;
		WaitRob \InPos;
		SetDO DO5_Program_Feed, 1;
		MoveL Offs(pZeroStarMute, 7.061, 11.325, 0.6), v30, z0, tNozzle, \Wobj := wobj1Star;
		WaitRob \InPos;
		SetDO DO5_Program_Feed, 0;
		MoveL Offs(pZeroStarMute, 8.525, 10.261, 0.6), v100, z0, tNozzle, \Wobj := wobj1Star;
		WaitRob \InPos;
		SetDO DO5_Program_Feed, 1;
		MoveL Offs(pZeroStarMute, -14.597, 1.845, 0.6), v30, z0, tNozzle, \Wobj := wobj1Star;
		WaitRob \InPos;
		SetDO DO5_Program_Feed, 0;
		MoveL Offs(pZeroStarMute, -14.133, 0.418, 0.6), v100, z0, tNozzle, \Wobj := wobj1Star;
		WaitRob \InPos;
		SetDO DO5_Program_Feed, 1;
		MoveL Offs(pZeroStarMute, 9.989, 9.198, 0.6), v30, z0, tNozzle, \Wobj := wobj1Star;
		WaitRob \InPos;
		SetDO DO5_Program_Feed, 0;
		MoveL Offs(pZeroStarMute, 11.453, 8.134, 0.6), v100, z0, tNozzle, \Wobj := wobj1Star;
		WaitRob \InPos;
		SetDO DO5_Program_Feed, 1;
		MoveL Offs(pZeroStarMute, -13.67, -1.01, 0.6), v30, z0, tNozzle, \Wobj := wobj1Star;
		WaitRob \InPos;
		SetDO DO5_Program_Feed, 0;
		MoveL Offs(pZeroStarMute, -13.206, -2.437, 0.6), v100, z0, tNozzle, \Wobj := wobj1Star;
		WaitRob \InPos;
		SetDO DO5_Program_Feed, 1;
		MoveL Offs(pZeroStarMute, 12.917, 7.071, 0.6), v30, z0, tNozzle, \Wobj := wobj1Star;
		WaitRob \InPos;
		SetDO DO5_Program_Feed, 0;
		MoveL Offs(pZeroStarMute, 14.38, 6.007, 0.6), v100, z0, tNozzle, \Wobj := wobj1Star;
		WaitRob \InPos;
		SetDO DO5_Program_Feed, 1;
		MoveL Offs(pZeroStarMute, -12.742, -3.864, 0.6), v30, z0, tNozzle, \Wobj := wobj1Star;
		WaitRob \InPos;
		SetDO DO5_Program_Feed, 0;
		MoveL Offs(pZeroStarMute, -12.278, -5.292, 0.6), v100, z0, tNozzle, \Wobj := wobj1Star;
		WaitRob \InPos;
		SetDO DO5_Program_Feed, 1;
		MoveL Offs(pZeroStarMute, 15.572, 4.845, 0.6), v30, z0, tNozzle, \Wobj := wobj1Star;
		WaitRob \InPos;
		SetDO DO5_Program_Feed, 0;
		MoveL Offs(pZeroStarMute, 14.983, 3.034, 0.6), v100, z0, tNozzle, \Wobj := wobj1Star;
		WaitRob \InPos;
		SetDO DO5_Program_Feed, 1;
		MoveL Offs(pZeroStarMute, -11.814, -6.719, 0.6), v30, z0, tNozzle, \Wobj := wobj1Star;
		WaitRob \InPos;
		SetDO DO5_Program_Feed, 0;
		MoveL Offs(pZeroStarMute, -11.351, -8.147, 0.6), v100, z0, tNozzle, \Wobj := wobj1Star;
		WaitRob \InPos;
		SetDO DO5_Program_Feed, 1;
		MoveL Offs(pZeroStarMute, 14.395, 1.224, 0.6), v30, z0, tNozzle, \Wobj := wobj1Star;
		WaitRob \InPos;
		SetDO DO5_Program_Feed, 0;
		MoveL Offs(pZeroStarMute, 13.807, -0.587, 0.6), v100, z0, tNozzle, \Wobj := wobj1Star;
		WaitRob \InPos;
		SetDO DO5_Program_Feed, 1;
		MoveL Offs(pZeroStarMute, -10.887, -9.574, 0.6), v30, z0, tNozzle, \Wobj := wobj1Star;
		WaitRob \InPos;
		SetDO DO5_Program_Feed, 0;
		MoveL Offs(pZeroStarMute, -10.423, -11.002, 0.6), v100, z0, tNozzle, \Wobj := wobj1Star;
		WaitRob \InPos;
		SetDO DO5_Program_Feed, 1;
		MoveL Offs(pZeroStarMute, 13.219, -2.397, 0.6), v30, z0, tNozzle, \Wobj := wobj1Star;
		WaitRob \InPos;
		SetDO DO5_Program_Feed, 0;
		MoveL Offs(pZeroStarMute, 12.631, -4.207, 0.6), v100, z0, tNozzle, \Wobj := wobj1Star;
		WaitRob \InPos;
		SetDO DO5_Program_Feed, 1;
		MoveL Offs(pZeroStarMute, -9.959, -12.429, 0.6), v30, z0, tNozzle, \Wobj := wobj1Star;
		WaitRob \InPos;
		SetDO DO5_Program_Feed, 0;
		MoveL Offs(pZeroStarMute, -8.0, -13.313, 0.6), v100, z0, tNozzle, \Wobj := wobj1Star;
		WaitRob \InPos;
		SetDO DO5_Program_Feed, 1;
		MoveL Offs(pZeroStarMute, 12.042, -6.018, 0.6), v30, z0, tNozzle, \Wobj := wobj1Star;
		WaitRob \InPos;
		SetDO DO5_Program_Feed, 0;
		MoveL Offs(pZeroStarMute, 11.454, -7.828, 0.6), v100, z0, tNozzle, \Wobj := wobj1Star;
		WaitRob \InPos;
		SetDO DO5_Program_Feed, 1;
		MoveL Offs(pZeroStarMute, -3.614, -13.313, 0.6), v30, z0, tNozzle, \Wobj := wobj1Star;
		WaitRob \InPos;
		SetDO DO5_Program_Feed, 0;
		MoveL Offs(pZeroStarMute, 0.771, -13.313, 0.6), v100, z0, tNozzle, \Wobj := wobj1Star;
		WaitRob \InPos;
		SetDO DO5_Program_Feed, 1;
		MoveL Offs(pZeroStarMute, 10.866, -9.638, 0.6), v30, z0, tNozzle, \Wobj := wobj1Star;
		WaitRob \InPos;
		SetDO DO5_Program_Feed, 0;
		MoveL Offs(pZeroStarMute, 10.278, -11.449, 0.6), v100, z0, tNozzle, \Wobj := wobj1Star;
		WaitRob \InPos;
		SetDO DO5_Program_Feed, 1;
		MoveL Offs(pZeroStarMute, 5.157, -13.313, 0.6), v30, z0, tNozzle, \Wobj := wobj1Star;
		WaitRob \InPos;
		SetDO DO5_Program_Feed, 0;
		MoveL Offs(pZeroStarMute, 9.543, -13.313, 0.6), v100, z0, tNozzle, \Wobj := wobj1Star;
		WaitRob \InPos;
		SetDO DO5_Program_Feed, 1;
		MoveL Offs(pZeroStarMute, 9.689, -13.259, 0.6), v30, z0, tNozzle, \Wobj := wobj1Star;
		WaitRob \InPos;
		SetDO DO5_Program_Feed, 0;
		MoveL Offs(pZeroStarMute, 2.67, 14.515, 0.6), v100, z0, tNozzle, \Wobj := wobj1Star;
		WaitRob \InPos;
		SetDO DO5_Program_Feed, 1;
		MoveL Offs(pZeroStarMute, -8.031, 10.62, 0.6), v30, z0, tNozzle, \Wobj := wobj1Star;
		WaitRob \InPos;
		SetDO DO5_Program_Feed, 0;
		MoveL Offs(pZeroStarMute, -3.628, 13.819, 0.6), v100, z0, tNozzle, \Wobj := wobj1Star;
		WaitRob \InPos;
		SetDO DO5_Program_Feed, 1;
		MoveL Offs(pZeroStarMute, 1.206, 15.579, 0.6), v30, z0, tNozzle, \Wobj := wobj1Star;
		WaitRob \InPos;
		SetDO DO6_Between_Layer_Retract, 1;
		SetDO DO5_Program_Feed, 0;
		MoveL Offs(pZeroStarMute, 1.206, 15.579, 5.6), v100, z0, tNozzle, \Wobj := wobj1Star;

		! Layer: 4
		! LayerParams(infillAngleDegrees=108.0, pathWidth=1.5, layerHeight=0.2, infillShiftX=0.0, infillShiftY=0.0, numShells=2, infillOverlap=0.0002)
		! T14
		! M6
		TPWRITE "Layer 4 of 4";
		MoveL Offs(pZeroStarMute, 16.825, 5.467, 5.8), v100, z0, tNozzle, \Wobj := wobj1Star;
		MoveL Offs(pZeroStarMute, 16.825, 5.467, 0.8), v30, z0, tNozzle, \Wobj := wobj1Star;
		WaitRob \InPos;
		SetDO DO6_Between_Layer_Retract, 0;
		WaitRob \InPos;
		SetDO DO5_Program_Feed, 1;
		MoveL Offs(pZeroStarMute, 0.0, 17.691, 0.8), v30, z0, tNozzle, \Wobj := wobj1Star;
		MoveL Offs(pZeroStarMute, -16.825, 5.467, 0.8), v30, z0, tNozzle, \Wobj := wobj1Star;
		MoveL Offs(pZeroStarMute, -10.398, -14.312, 0.8), v30, z0, tNozzle, \Wobj := wobj1Star;
		MoveL Offs(pZeroStarMute, 10.398, -14.312, 0.8), v30, z0, tNozzle, \Wobj := wobj1Star;
		MoveL Offs(pZeroStarMute, 16.825, 5.467, 0.8), v30, z0, tNozzle, \Wobj := wobj1Star;
		WaitRob \InPos;
		SetDO DO5_Program_Feed, 0;
		MoveL Offs(pZeroStarMute, 16.237, 5.276, 0.8), v100, z0, tNozzle, \Wobj := wobj1Star;
		WaitRob \InPos;
		SetDO DO5_Program_Feed, 1;
		MoveL Offs(pZeroStarMute, 0.0, 17.073, 0.8), v30, z0, tNozzle, \Wobj := wobj1Star;
		MoveL Offs(pZeroStarMute, -16.237, 5.276, 0.8), v30, z0, tNozzle, \Wobj := wobj1Star;
		MoveL Offs(pZeroStarMute, -10.035, -13.812, 0.8), v30, z0, tNozzle, \Wobj := wobj1Star;
		MoveL Offs(pZeroStarMute, 10.035, -13.812, 0.8), v30, z0, tNozzle, \Wobj := wobj1Star;
		MoveL Offs(pZeroStarMute, 16.237, 5.276, 0.8), v30, z0, tNozzle, \Wobj := wobj1Star;
		WaitRob \InPos;
		SetDO DO5_Program_Feed, 0;
		MoveL Offs(pZeroStarMute, 15.534, 4.73, 0.8), v100, z0, tNozzle, \Wobj := wobj1Star;
		WaitRob \InPos;
		SetDO DO5_Program_Feed, 1;
		MoveL Offs(pZeroStarMute, 15.348, 5.305, 0.8), v30, z0, tNozzle, \Wobj := wobj1Star;
		WaitRob \InPos;
		SetDO DO5_Program_Feed, 0;
		MoveL Offs(pZeroStarMute, 13.283, 6.805, 0.8), v100, z0, tNozzle, \Wobj := wobj1Star;
		WaitRob \InPos;
		SetDO DO5_Program_Feed, 1;
		MoveL Offs(pZeroStarMute, 14.746, 2.303, 0.8), v30, z0, tNozzle, \Wobj := wobj1Star;
		WaitRob \InPos;
		SetDO DO5_Program_Feed, 0;
		MoveL Offs(pZeroStarMute, 13.957, -0.124, 0.8), v100, z0, tNozzle, \Wobj := wobj1Star;
		WaitRob \InPos;
		SetDO DO5_Program_Feed, 1;
		MoveL Offs(pZeroStarMute, 11.218, 8.305, 0.8), v30, z0, tNozzle, \Wobj := wobj1Star;
		WaitRob \InPos;
		SetDO DO5_Program_Feed, 0;
		MoveL Offs(pZeroStarMute, 9.154, 9.805, 0.8), v100, z0, tNozzle, \Wobj := wobj1Star;
		WaitRob \InPos;
		SetDO DO5_Program_Feed, 1;
		MoveL Offs(pZeroStarMute, 13.169, -2.552, 0.8), v30, z0, tNozzle, \Wobj := wobj1Star;
		WaitRob \InPos;
		SetDO DO5_Program_Feed, 0;
		MoveL Offs(pZeroStarMute, 12.38, -4.979, 0.8), v100, z0, tNozzle, \Wobj := wobj1Star;
		WaitRob \InPos;
		SetDO DO5_Program_Feed, 1;
		MoveL Offs(pZeroStarMute, 7.089, 11.305, 0.8), v30, z0, tNozzle, \Wobj := wobj1Star;
		WaitRob \InPos;
		SetDO DO5_Program_Feed, 0;
		MoveL Offs(pZeroStarMute, 5.025, 12.805, 0.8), v100, z0, tNozzle, \Wobj := wobj1Star;
		WaitRob \InPos;
		SetDO DO5_Program_Feed, 1;
		MoveL Offs(pZeroStarMute, 11.591, -7.406, 0.8), v30, z0, tNozzle, \Wobj := wobj1Star;
		WaitRob \InPos;
		SetDO DO5_Program_Feed, 0;
		MoveL Offs(pZeroStarMute, 10.803, -9.833, 0.8), v100, z0, tNozzle, \Wobj := wobj1Star;
		WaitRob \InPos;
		SetDO DO5_Program_Feed, 1;
		MoveL Offs(pZeroStarMute, 2.96, 14.305, 0.8), v30, z0, tNozzle, \Wobj := wobj1Star;
		WaitRob \InPos;
		SetDO DO5_Program_Feed, 0;
		MoveL Offs(pZeroStarMute, 0.896, 15.805, 0.8), v100, z0, tNozzle, \Wobj := wobj1Star;
		WaitRob \InPos;
		SetDO DO5_Program_Feed, 1;
		MoveL Offs(pZeroStarMute, 10.014, -12.26, 0.8), v30, z0, tNozzle, \Wobj := wobj1Star;
		WaitRob \InPos;
		SetDO DO5_Program_Feed, 0;
		MoveL Offs(pZeroStarMute, 8.779, -13.313, 0.8), v100, z0, tNozzle, \Wobj := wobj1Star;
		WaitRob \InPos;
		SetDO DO5_Program_Feed, 1;
		MoveL Offs(pZeroStarMute, -0.723, 15.93, 0.8), v30, z0, tNozzle, \Wobj := wobj1Star;
		WaitRob \InPos;
		SetDO DO5_Program_Feed, 0;
		MoveL Offs(pZeroStarMute, -1.998, 15.003, 0.8), v100, z0, tNozzle, \Wobj := wobj1Star;
		WaitRob \InPos;
		SetDO DO5_Program_Feed, 1;
		MoveL Offs(pZeroStarMute, 7.202, -13.313, 0.8), v30, z0, tNozzle, \Wobj := wobj1Star;
		WaitRob \InPos;
		SetDO DO5_Program_Feed, 0;
		MoveL Offs(pZeroStarMute, 5.625, -13.313, 0.8), v100, z0, tNozzle, \Wobj := wobj1Star;
		WaitRob \InPos;
		SetDO DO5_Program_Feed, 1;
		MoveL Offs(pZeroStarMute, -3.274, 14.076, 0.8), v30, z0, tNozzle, \Wobj := wobj1Star;
		WaitRob \InPos;
		SetDO DO5_Program_Feed, 0;
		MoveL Offs(pZeroStarMute, -4.55, 13.149, 0.8), v100, z0, tNozzle, \Wobj := wobj1Star;
		WaitRob \InPos;
		SetDO DO5_Program_Feed, 1;
		MoveL Offs(pZeroStarMute, 4.047, -13.313, 0.8), v30, z0, tNozzle, \Wobj := wobj1Star;
		WaitRob \InPos;
		SetDO DO5_Program_Feed, 0;
		MoveL Offs(pZeroStarMute, 2.47, -13.313, 0.8), v100, z0, tNozzle, \Wobj := wobj1Star;
		WaitRob \InPos;
		SetDO DO5_Program_Feed, 1;
		MoveL Offs(pZeroStarMute, -5.826, 12.222, 0.8), v30, z0, tNozzle, \Wobj := wobj1Star;
		WaitRob \InPos;
		SetDO DO5_Program_Feed, 0;
		MoveL Offs(pZeroStarMute, -7.102, 11.295, 0.8), v100, z0, tNozzle, \Wobj := wobj1Star;
		WaitRob \InPos;
		SetDO DO5_Program_Feed, 1;
		MoveL Offs(pZeroStarMute, 0.893, -13.313, 0.8), v30, z0, tNozzle, \Wobj := wobj1Star;
		WaitRob \InPos;
		SetDO DO5_Program_Feed, 0;
		MoveL Offs(pZeroStarMute, -0.684, -13.313, 0.8), v100, z0, tNozzle, \Wobj := wobj1Star;
		WaitRob \InPos;
		SetDO DO5_Program_Feed, 1;
		MoveL Offs(pZeroStarMute, -8.378, 10.368, 0.8), v30, z0, tNozzle, \Wobj := wobj1Star;
		WaitRob \InPos;
		SetDO DO5_Program_Feed, 0;
		MoveL Offs(pZeroStarMute, -9.654, 9.441, 0.8), v100, z0, tNozzle, \Wobj := wobj1Star;
		WaitRob \InPos;
		SetDO DO5_Program_Feed, 1;
		MoveL Offs(pZeroStarMute, -2.261, -13.313, 0.8), v30, z0, tNozzle, \Wobj := wobj1Star;
		WaitRob \InPos;
		SetDO DO5_Program_Feed, 0;
		MoveL Offs(pZeroStarMute, -3.839, -13.313, 0.8), v100, z0, tNozzle, \Wobj := wobj1Star;
		WaitRob \InPos;
		SetDO DO5_Program_Feed, 1;
		MoveL Offs(pZeroStarMute, -10.93, 8.514, 0.8), v30, z0, tNozzle, \Wobj := wobj1Star;
		WaitRob \InPos;
		SetDO DO5_Program_Feed, 0;
		MoveL Offs(pZeroStarMute, -12.206, 7.587, 0.8), v100, z0, tNozzle, \Wobj := wobj1Star;
		WaitRob \InPos;
		SetDO DO5_Program_Feed, 1;
		MoveL Offs(pZeroStarMute, -5.416, -13.313, 0.8), v30, z0, tNozzle, \Wobj := wobj1Star;
		WaitRob \InPos;
		SetDO DO5_Program_Feed, 0;
		MoveL Offs(pZeroStarMute, -6.993, -13.313, 0.8), v100, z0, tNozzle, \Wobj := wobj1Star;
		WaitRob \InPos;
		SetDO DO5_Program_Feed, 1;
		MoveL Offs(pZeroStarMute, -13.482, 6.66, 0.8), v30, z0, tNozzle, \Wobj := wobj1Star;
		WaitRob \InPos;
		SetDO DO5_Program_Feed, 0;
		MoveL Offs(pZeroStarMute, -14.758, 5.733, 0.8), v100, z0, tNozzle, \Wobj := wobj1Star;
		WaitRob \InPos;
		SetDO DO5_Program_Feed, 1;
		MoveL Offs(pZeroStarMute, -8.57, -13.313, 0.8), v30, z0, tNozzle, \Wobj := wobj1Star;
		WaitRob \InPos;
		SetDO DO6_Between_Layer_Retract, 1;
		SetDO DO5_Program_Feed, 0;
		MoveL Offs(pZeroStarMute, -8.57, -13.313, 5.8), v100, z0, tNozzle, \Wobj := wobj1Star;

		! Extrusion amount for part is (35.0 mm)

		! End Program codes
		SetDO DO1_Auto_Mode, 0;
		SetDO DO5_Program_Feed, 0;
		SetDO DO3_Heat_Bed, 0;
		SetDO DO4_Heat_Nozzle, 0;
		SetDO DO6_Between_Layer_Retract, 0;
	ENDPROC
	PROC Heat()
		SetDO DO4_Heat_Nozzle, 1;
        SetDO DO3_Heat_Bed, 1;
        TPWrite "Caution: Bed and Nozzle heating";
        WaitDI DI3_Nozzle_At_Temp, 1;
        TPWrite "Nozzle is at temperature";
        WaitDI DI2_Bed_At_Temp, 1;
        TPWrite "Bed at temp";
	ENDPROC
ENDMODULE