MODULE MainModule
	PROC main()
		Heat;
		SetDO DO1_Auto_Mode, 1;

		

		! Part number: 1
		! PartParams(extrusionFactor=0.98, printSpeed=30, shiftX=-17.5, shiftY=-17.5, shiftZ=0.0, numLayers=-1, designType=0, brims=0, horizontalExpansion=0.0, randomStartLocation=1)

		! Layer: 1
		! LayerParams(infillAngleDegrees=0.0, pathWidth=3.0, layerHeight=0.3, infillShiftX=0.0, infillShiftY=0.0, numShells=2, infillOverlap=0.0002)
		! T11
		! M6
		TPWRITE "Layer 1 of -1";
		MoveL Offs(pZeroSquare, -17.25, -17.25, 10.3), v100, z0, tNozzle, \Wobj := wobj3Square;
		MoveL Offs(pZeroSquare, -17.25, -17.25, 0.3), v30, z0, tNozzle, \Wobj := wobj3Square;
		WaitRob \InPos;
		SetDO DO5_Program_Feed, 1;
		MoveL Offs(pZeroSquare, 17.25, -17.25, 0.3), v30, z0, tNozzle, \Wobj := wobj3Square;
		MoveL Offs(pZeroSquare, 17.25, 17.25, 0.3), v30, z0, tNozzle, \Wobj := wobj3Square;
		MoveL Offs(pZeroSquare, -17.25, 17.25, 0.3), v30, z0, tNozzle, \Wobj := wobj3Square;
		MoveL Offs(pZeroSquare, -17.25, -17.25, 0.3), v30, z0, tNozzle, \Wobj := wobj3Square;
		WaitRob \InPos;
		SetDO DO5_Program_Feed, 0;
		MoveL Offs(pZeroSquare, -16.75, -16.75, 0.3), v100, z0, tNozzle, \Wobj := wobj3Square;
		WaitRob \InPos;
		SetDO DO5_Program_Feed, 1;
		MoveL Offs(pZeroSquare, 16.75, -16.75, 0.3), v30, z0, tNozzle, \Wobj := wobj3Square;
		MoveL Offs(pZeroSquare, 16.75, 16.75, 0.3), v30, z0, tNozzle, \Wobj := wobj3Square;
		MoveL Offs(pZeroSquare, -16.75, 16.75, 0.3), v30, z0, tNozzle, \Wobj := wobj3Square;
		MoveL Offs(pZeroSquare, -16.75, -16.75, 0.3), v30, z0, tNozzle, \Wobj := wobj3Square;
		WaitRob \InPos;
		SetDO DO5_Program_Feed, 0;
		MoveL Offs(pZeroSquare, -16.25, -15.0, 0.3), v100, z0, tNozzle, \Wobj := wobj3Square;
		WaitRob \InPos;
		SetDO DO5_Program_Feed, 1;
		MoveL Offs(pZeroSquare, 16.25, -15.0, 0.3), v30, z0, tNozzle, \Wobj := wobj3Square;
		WaitRob \InPos;
		SetDO DO5_Program_Feed, 0;
		MoveL Offs(pZeroSquare, 16.25, -12.0, 0.3), v100, z0, tNozzle, \Wobj := wobj3Square;
		WaitRob \InPos;
		SetDO DO5_Program_Feed, 1;
		MoveL Offs(pZeroSquare, -16.25, -12.0, 0.3), v30, z0, tNozzle, \Wobj := wobj3Square;
		WaitRob \InPos;
		SetDO DO5_Program_Feed, 0;
		MoveL Offs(pZeroSquare, -16.25, -9.0, 0.3), v100, z0, tNozzle, \Wobj := wobj3Square;
		WaitRob \InPos;
		SetDO DO5_Program_Feed, 1;
		MoveL Offs(pZeroSquare, 16.25, -9.0, 0.3), v30, z0, tNozzle, \Wobj := wobj3Square;
		WaitRob \InPos;
		SetDO DO5_Program_Feed, 0;
		MoveL Offs(pZeroSquare, 16.25, -6.0, 0.3), v100, z0, tNozzle, \Wobj := wobj3Square;
		WaitRob \InPos;
		SetDO DO5_Program_Feed, 1;
		MoveL Offs(pZeroSquare, -16.25, -6.0, 0.3), v30, z0, tNozzle, \Wobj := wobj3Square;
		WaitRob \InPos;
		SetDO DO5_Program_Feed, 0;
		MoveL Offs(pZeroSquare, -16.25, -3.0, 0.3), v100, z0, tNozzle, \Wobj := wobj3Square;
		WaitRob \InPos;
		SetDO DO5_Program_Feed, 1;
		MoveL Offs(pZeroSquare, 16.25, -3.0, 0.3), v30, z0, tNozzle, \Wobj := wobj3Square;
		WaitRob \InPos;
		SetDO DO5_Program_Feed, 0;
		MoveL Offs(pZeroSquare, 16.25, 0.0, 0.3), v100, z0, tNozzle, \Wobj := wobj3Square;
		WaitRob \InPos;
		SetDO DO5_Program_Feed, 1;
		MoveL Offs(pZeroSquare, -16.25, 0.0, 0.3), v30, z0, tNozzle, \Wobj := wobj3Square;
		WaitRob \InPos;
		SetDO DO5_Program_Feed, 0;
		MoveL Offs(pZeroSquare, -16.25, 3.0, 0.3), v100, z0, tNozzle, \Wobj := wobj3Square;
		WaitRob \InPos;
		SetDO DO5_Program_Feed, 1;
		MoveL Offs(pZeroSquare, 16.25, 3.0, 0.3), v30, z0, tNozzle, \Wobj := wobj3Square;
		WaitRob \InPos;
		SetDO DO5_Program_Feed, 0;
		MoveL Offs(pZeroSquare, 16.25, 6.0, 0.3), v100, z0, tNozzle, \Wobj := wobj3Square;
		WaitRob \InPos;
		SetDO DO5_Program_Feed, 1;
		MoveL Offs(pZeroSquare, -16.25, 6.0, 0.3), v30, z0, tNozzle, \Wobj := wobj3Square;
		WaitRob \InPos;
		SetDO DO5_Program_Feed, 0;
		MoveL Offs(pZeroSquare, -16.25, 9.0, 0.3), v100, z0, tNozzle, \Wobj := wobj3Square;
		WaitRob \InPos;
		SetDO DO5_Program_Feed, 1;
		MoveL Offs(pZeroSquare, 16.25, 9.0, 0.3), v30, z0, tNozzle, \Wobj := wobj3Square;
		WaitRob \InPos;
		SetDO DO5_Program_Feed, 0;
		MoveL Offs(pZeroSquare, 16.25, 12.0, 0.3), v100, z0, tNozzle, \Wobj := wobj3Square;
		WaitRob \InPos;
		SetDO DO5_Program_Feed, 1;
		MoveL Offs(pZeroSquare, -16.25, 12.0, 0.3), v30, z0, tNozzle, \Wobj := wobj3Square;
		WaitRob \InPos;
		SetDO DO5_Program_Feed, 0;
		MoveL Offs(pZeroSquare, -16.25, 15.0, 0.3), v100, z0, tNozzle, \Wobj := wobj3Square;
		WaitRob \InPos;
		SetDO DO5_Program_Feed, 1;
		MoveL Offs(pZeroSquare, 16.25, 15.0, 0.3), v30, z0, tNozzle, \Wobj := wobj3Square;
		WaitRob \InPos;
		SetDO DO6_Between_Layer_Retract, 1;
		SetDO DO5_Program_Feed, 0;
		MoveL Offs(pZeroSquare, 16.25, 15.0, 10.3), v100, z0, tNozzle, \Wobj := wobj3Square;

		! Layer: 2
		! LayerParams(infillAngleDegrees=90.0, pathWidth=3.0, layerHeight=0.3, infillShiftX=0.0, infillShiftY=0.0, numShells=2, infillOverlap=0.0002)
		! T12
		! M6
		TPWRITE "Layer 2 of -1";
		MoveL Offs(pZeroSquare, 17.25, 17.25, 10.6), v100, z0, tNozzle, \Wobj := wobj3Square;
		MoveL Offs(pZeroSquare, 17.25, 17.25, 0.6), v30, z0, tNozzle, \Wobj := wobj3Square;
		WaitRob \InPos;
		SetDO DO6_Between_Layer_Retract, 0;
		WaitRob \InPos;
		SetDO DO5_Program_Feed, 1;
		MoveL Offs(pZeroSquare, -17.25, 17.25, 0.6), v30, z0, tNozzle, \Wobj := wobj3Square;
		MoveL Offs(pZeroSquare, -17.25, -17.2, 0.6), v30, z0, tNozzle, \Wobj := wobj3Square;
		MoveL Offs(pZeroSquare, -17.25, -17.25, 0.6), v30, z0, tNozzle, \Wobj := wobj3Square;
		MoveL Offs(pZeroSquare, 17.25, -17.25, 0.6), v30, z0, tNozzle, \Wobj := wobj3Square;
		MoveL Offs(pZeroSquare, 17.25, 17.25, 0.6), v30, z0, tNozzle, \Wobj := wobj3Square;
		WaitRob \InPos;
		SetDO DO5_Program_Feed, 0;
		MoveL Offs(pZeroSquare, 16.75, 16.75, 0.6), v100, z0, tNozzle, \Wobj := wobj3Square;
		WaitRob \InPos;
		SetDO DO5_Program_Feed, 1;
		MoveL Offs(pZeroSquare, -16.75, 16.75, 0.6), v30, z0, tNozzle, \Wobj := wobj3Square;
		MoveL Offs(pZeroSquare, -16.75, -16.75, 0.6), v30, z0, tNozzle, \Wobj := wobj3Square;
		MoveL Offs(pZeroSquare, 16.75, -16.75, 0.6), v30, z0, tNozzle, \Wobj := wobj3Square;
		MoveL Offs(pZeroSquare, 16.75, 16.75, 0.6), v30, z0, tNozzle, \Wobj := wobj3Square;
		WaitRob \InPos;
		SetDO DO5_Program_Feed, 0;
		MoveL Offs(pZeroSquare, 15.0, 16.25, 0.6), v100, z0, tNozzle, \Wobj := wobj3Square;
		WaitRob \InPos;
		SetDO DO5_Program_Feed, 1;
		MoveL Offs(pZeroSquare, 15.0, -16.25, 0.6), v30, z0, tNozzle, \Wobj := wobj3Square;
		WaitRob \InPos;
		SetDO DO5_Program_Feed, 0;
		MoveL Offs(pZeroSquare, 12.0, -16.25, 0.6), v100, z0, tNozzle, \Wobj := wobj3Square;
		WaitRob \InPos;
		SetDO DO5_Program_Feed, 1;
		MoveL Offs(pZeroSquare, 12.0, 16.25, 0.6), v30, z0, tNozzle, \Wobj := wobj3Square;
		WaitRob \InPos;
		SetDO DO5_Program_Feed, 0;
		MoveL Offs(pZeroSquare, 9.0, 16.25, 0.6), v100, z0, tNozzle, \Wobj := wobj3Square;
		WaitRob \InPos;
		SetDO DO5_Program_Feed, 1;
		MoveL Offs(pZeroSquare, 9.0, -16.25, 0.6), v30, z0, tNozzle, \Wobj := wobj3Square;
		WaitRob \InPos;
		SetDO DO5_Program_Feed, 0;
		MoveL Offs(pZeroSquare, 6.0, -16.25, 0.6), v100, z0, tNozzle, \Wobj := wobj3Square;
		WaitRob \InPos;
		SetDO DO5_Program_Feed, 1;
		MoveL Offs(pZeroSquare, 6.0, 16.25, 0.6), v30, z0, tNozzle, \Wobj := wobj3Square;
		WaitRob \InPos;
		SetDO DO5_Program_Feed, 0;
		MoveL Offs(pZeroSquare, 3.0, 16.25, 0.6), v100, z0, tNozzle, \Wobj := wobj3Square;
		WaitRob \InPos;
		SetDO DO5_Program_Feed, 1;
		MoveL Offs(pZeroSquare, 3.0, -16.25, 0.6), v30, z0, tNozzle, \Wobj := wobj3Square;
		WaitRob \InPos;
		SetDO DO5_Program_Feed, 0;
		MoveL Offs(pZeroSquare, 0.0, -16.25, 0.6), v100, z0, tNozzle, \Wobj := wobj3Square;
		WaitRob \InPos;
		SetDO DO5_Program_Feed, 1;
		MoveL Offs(pZeroSquare, 0.0, 16.25, 0.6), v30, z0, tNozzle, \Wobj := wobj3Square;
		WaitRob \InPos;
		SetDO DO5_Program_Feed, 0;
		MoveL Offs(pZeroSquare, -3.0, 16.25, 0.6), v100, z0, tNozzle, \Wobj := wobj3Square;
		WaitRob \InPos;
		SetDO DO5_Program_Feed, 1;
		MoveL Offs(pZeroSquare, -3.0, -16.25, 0.6), v30, z0, tNozzle, \Wobj := wobj3Square;
		WaitRob \InPos;
		SetDO DO5_Program_Feed, 0;
		MoveL Offs(pZeroSquare, -6.0, -16.25, 0.6), v100, z0, tNozzle, \Wobj := wobj3Square;
		WaitRob \InPos;
		SetDO DO5_Program_Feed, 1;
		MoveL Offs(pZeroSquare, -6.0, 16.25, 0.6), v30, z0, tNozzle, \Wobj := wobj3Square;
		WaitRob \InPos;
		SetDO DO5_Program_Feed, 0;
		MoveL Offs(pZeroSquare, -9.0, 16.25, 0.6), v100, z0, tNozzle, \Wobj := wobj3Square;
		WaitRob \InPos;
		SetDO DO5_Program_Feed, 1;
		MoveL Offs(pZeroSquare, -9.0, -16.25, 0.6), v30, z0, tNozzle, \Wobj := wobj3Square;
		WaitRob \InPos;
		SetDO DO5_Program_Feed, 0;
		MoveL Offs(pZeroSquare, -12.0, -16.25, 0.6), v100, z0, tNozzle, \Wobj := wobj3Square;
		WaitRob \InPos;
		SetDO DO5_Program_Feed, 1;
		MoveL Offs(pZeroSquare, -12.0, 16.25, 0.6), v30, z0, tNozzle, \Wobj := wobj3Square;
		WaitRob \InPos;
		SetDO DO5_Program_Feed, 0;
		MoveL Offs(pZeroSquare, -15.0, 16.25, 0.6), v100, z0, tNozzle, \Wobj := wobj3Square;
		WaitRob \InPos;
		SetDO DO5_Program_Feed, 1;
		MoveL Offs(pZeroSquare, -15.0, -16.25, 0.6), v30, z0, tNozzle, \Wobj := wobj3Square;
		WaitRob \InPos;
		SetDO DO6_Between_Layer_Retract, 1;
		SetDO DO5_Program_Feed, 0;
		MoveL Offs(pZeroSquare, -15.0, -16.25, 10.6), v100, z0, tNozzle, \Wobj := wobj3Square;

		! Layer: 3
		! LayerParams(infillAngleDegrees=0.0, pathWidth=3.0, layerHeight=0.3, infillShiftX=0.0, infillShiftY=0.0, numShells=2, infillOverlap=0.0002)
		! T13
		! M6
		TPWRITE "Layer 3 of -1";
		MoveL Offs(pZeroSquare, 17.25, 17.25, 10.9), v100, z0, tNozzle, \Wobj := wobj3Square;
		MoveL Offs(pZeroSquare, 17.25, 17.25, 0.9), v30, z0, tNozzle, \Wobj := wobj3Square;
		WaitRob \InPos;
		SetDO DO6_Between_Layer_Retract, 0;
		WaitRob \InPos;
		SetDO DO5_Program_Feed, 1;
		MoveL Offs(pZeroSquare, -17.25, 17.25, 0.9), v30, z0, tNozzle, \Wobj := wobj3Square;
		MoveL Offs(pZeroSquare, -17.25, -17.05, 0.9), v30, z0, tNozzle, \Wobj := wobj3Square;
		MoveL Offs(pZeroSquare, -17.25, -17.05, 0.9), v30, z0, tNozzle, \Wobj := wobj3Square;
		MoveL Offs(pZeroSquare, -17.25, -17.25, 0.9), v30, z0, tNozzle, \Wobj := wobj3Square;
		MoveL Offs(pZeroSquare, 17.25, -17.25, 0.9), v30, z0, tNozzle, \Wobj := wobj3Square;
		MoveL Offs(pZeroSquare, 17.25, 17.25, 0.9), v30, z0, tNozzle, \Wobj := wobj3Square;
		WaitRob \InPos;
		SetDO DO5_Program_Feed, 0;
		MoveL Offs(pZeroSquare, 16.75, 16.75, 0.9), v100, z0, tNozzle, \Wobj := wobj3Square;
		WaitRob \InPos;
		SetDO DO5_Program_Feed, 1;
		MoveL Offs(pZeroSquare, -16.75, 16.75, 0.9), v30, z0, tNozzle, \Wobj := wobj3Square;
		MoveL Offs(pZeroSquare, -16.75, -16.75, 0.9), v30, z0, tNozzle, \Wobj := wobj3Square;
		MoveL Offs(pZeroSquare, 16.75, -16.75, 0.9), v30, z0, tNozzle, \Wobj := wobj3Square;
		MoveL Offs(pZeroSquare, 16.75, 16.75, 0.9), v30, z0, tNozzle, \Wobj := wobj3Square;
		WaitRob \InPos;
		SetDO DO5_Program_Feed, 0;
		MoveL Offs(pZeroSquare, 16.25, 15.0, 0.9), v100, z0, tNozzle, \Wobj := wobj3Square;
		WaitRob \InPos;
		SetDO DO5_Program_Feed, 1;
		MoveL Offs(pZeroSquare, -16.25, 15.0, 0.9), v30, z0, tNozzle, \Wobj := wobj3Square;
		WaitRob \InPos;
		SetDO DO5_Program_Feed, 0;
		MoveL Offs(pZeroSquare, -16.25, 12.0, 0.9), v100, z0, tNozzle, \Wobj := wobj3Square;
		WaitRob \InPos;
		SetDO DO5_Program_Feed, 1;
		MoveL Offs(pZeroSquare, 16.25, 12.0, 0.9), v30, z0, tNozzle, \Wobj := wobj3Square;
		WaitRob \InPos;
		SetDO DO5_Program_Feed, 0;
		MoveL Offs(pZeroSquare, 16.25, 9.0, 0.9), v100, z0, tNozzle, \Wobj := wobj3Square;
		WaitRob \InPos;
		SetDO DO5_Program_Feed, 1;
		MoveL Offs(pZeroSquare, -16.25, 9.0, 0.9), v30, z0, tNozzle, \Wobj := wobj3Square;
		WaitRob \InPos;
		SetDO DO5_Program_Feed, 0;
		MoveL Offs(pZeroSquare, -16.25, 6.0, 0.9), v100, z0, tNozzle, \Wobj := wobj3Square;
		WaitRob \InPos;
		SetDO DO5_Program_Feed, 1;
		MoveL Offs(pZeroSquare, 16.25, 6.0, 0.9), v30, z0, tNozzle, \Wobj := wobj3Square;
		WaitRob \InPos;
		SetDO DO5_Program_Feed, 0;
		MoveL Offs(pZeroSquare, 16.25, 3.0, 0.9), v100, z0, tNozzle, \Wobj := wobj3Square;
		WaitRob \InPos;
		SetDO DO5_Program_Feed, 1;
		MoveL Offs(pZeroSquare, -16.25, 3.0, 0.9), v30, z0, tNozzle, \Wobj := wobj3Square;
		WaitRob \InPos;
		SetDO DO5_Program_Feed, 0;
		MoveL Offs(pZeroSquare, -16.25, 0.0, 0.9), v100, z0, tNozzle, \Wobj := wobj3Square;
		WaitRob \InPos;
		SetDO DO5_Program_Feed, 1;
		MoveL Offs(pZeroSquare, 16.25, 0.0, 0.9), v30, z0, tNozzle, \Wobj := wobj3Square;
		WaitRob \InPos;
		SetDO DO5_Program_Feed, 0;
		MoveL Offs(pZeroSquare, 16.25, -3.0, 0.9), v100, z0, tNozzle, \Wobj := wobj3Square;
		WaitRob \InPos;
		SetDO DO5_Program_Feed, 1;
		MoveL Offs(pZeroSquare, -16.25, -3.0, 0.9), v30, z0, tNozzle, \Wobj := wobj3Square;
		WaitRob \InPos;
		SetDO DO5_Program_Feed, 0;
		MoveL Offs(pZeroSquare, -16.25, -6.0, 0.9), v100, z0, tNozzle, \Wobj := wobj3Square;
		WaitRob \InPos;
		SetDO DO5_Program_Feed, 1;
		MoveL Offs(pZeroSquare, 16.25, -6.0, 0.9), v30, z0, tNozzle, \Wobj := wobj3Square;
		WaitRob \InPos;
		SetDO DO5_Program_Feed, 0;
		MoveL Offs(pZeroSquare, 16.25, -9.0, 0.9), v100, z0, tNozzle, \Wobj := wobj3Square;
		WaitRob \InPos;
		SetDO DO5_Program_Feed, 1;
		MoveL Offs(pZeroSquare, -16.25, -9.0, 0.9), v30, z0, tNozzle, \Wobj := wobj3Square;
		WaitRob \InPos;
		SetDO DO5_Program_Feed, 0;
		MoveL Offs(pZeroSquare, -16.25, -12.0, 0.9), v100, z0, tNozzle, \Wobj := wobj3Square;
		WaitRob \InPos;
		SetDO DO5_Program_Feed, 1;
		MoveL Offs(pZeroSquare, 16.25, -12.0, 0.9), v30, z0, tNozzle, \Wobj := wobj3Square;
		WaitRob \InPos;
		SetDO DO5_Program_Feed, 0;
		MoveL Offs(pZeroSquare, 16.25, -15.0, 0.9), v100, z0, tNozzle, \Wobj := wobj3Square;
		WaitRob \InPos;
		SetDO DO5_Program_Feed, 1;
		MoveL Offs(pZeroSquare, -16.25, -15.0, 0.9), v30, z0, tNozzle, \Wobj := wobj3Square;
		WaitRob \InPos;
		SetDO DO6_Between_Layer_Retract, 1;
		SetDO DO5_Program_Feed, 0;
		MoveL Offs(pZeroSquare, -16.25, -15.0, 10.9), v100, z0, tNozzle, \Wobj := wobj3Square;

		! Layer: 4
		! LayerParams(infillAngleDegrees=90.0, pathWidth=3.0, layerHeight=0.3, infillShiftX=0.0, infillShiftY=0.0, numShells=2, infillOverlap=0.0002)
		! T14
		! M6
		TPWRITE "Layer 4 of -1";
		MoveL Offs(pZeroSquare, -17.25, -17.25, 11.2), v100, z0, tNozzle, \Wobj := wobj3Square;
		MoveL Offs(pZeroSquare, -17.25, -17.25, 1.2), v30, z0, tNozzle, \Wobj := wobj3Square;
		WaitRob \InPos;
		SetDO DO6_Between_Layer_Retract, 0;
		WaitRob \InPos;
		SetDO DO5_Program_Feed, 1;
		MoveL Offs(pZeroSquare, 17.25, -17.25, 1.2), v30, z0, tNozzle, \Wobj := wobj3Square;
		MoveL Offs(pZeroSquare, 17.25, 17.25, 1.2), v30, z0, tNozzle, \Wobj := wobj3Square;
		MoveL Offs(pZeroSquare, -17.25, 17.25, 1.2), v30, z0, tNozzle, \Wobj := wobj3Square;
		MoveL Offs(pZeroSquare, -17.25, -16.9, 1.2), v30, z0, tNozzle, \Wobj := wobj3Square;
		MoveL Offs(pZeroSquare, -17.25, -17.25, 1.2), v30, z0, tNozzle, \Wobj := wobj3Square;
		WaitRob \InPos;
		SetDO DO5_Program_Feed, 0;
		MoveL Offs(pZeroSquare, -16.75, -16.75, 1.2), v100, z0, tNozzle, \Wobj := wobj3Square;
		WaitRob \InPos;
		SetDO DO5_Program_Feed, 1;
		MoveL Offs(pZeroSquare, 16.75, -16.75, 1.2), v30, z0, tNozzle, \Wobj := wobj3Square;
		MoveL Offs(pZeroSquare, 16.75, 16.75, 1.2), v30, z0, tNozzle, \Wobj := wobj3Square;
		MoveL Offs(pZeroSquare, -16.75, 16.75, 1.2), v30, z0, tNozzle, \Wobj := wobj3Square;
		MoveL Offs(pZeroSquare, -16.75, -16.75, 1.2), v30, z0, tNozzle, \Wobj := wobj3Square;
		WaitRob \InPos;
		SetDO DO5_Program_Feed, 0;
		MoveL Offs(pZeroSquare, -15.0, -16.25, 1.2), v100, z0, tNozzle, \Wobj := wobj3Square;
		WaitRob \InPos;
		SetDO DO5_Program_Feed, 1;
		MoveL Offs(pZeroSquare, -15.0, 16.25, 1.2), v30, z0, tNozzle, \Wobj := wobj3Square;
		WaitRob \InPos;
		SetDO DO5_Program_Feed, 0;
		MoveL Offs(pZeroSquare, -12.0, 16.25, 1.2), v100, z0, tNozzle, \Wobj := wobj3Square;
		WaitRob \InPos;
		SetDO DO5_Program_Feed, 1;
		MoveL Offs(pZeroSquare, -12.0, -16.25, 1.2), v30, z0, tNozzle, \Wobj := wobj3Square;
		WaitRob \InPos;
		SetDO DO5_Program_Feed, 0;
		MoveL Offs(pZeroSquare, -9.0, -16.25, 1.2), v100, z0, tNozzle, \Wobj := wobj3Square;
		WaitRob \InPos;
		SetDO DO5_Program_Feed, 1;
		MoveL Offs(pZeroSquare, -9.0, 16.25, 1.2), v30, z0, tNozzle, \Wobj := wobj3Square;
		WaitRob \InPos;
		SetDO DO5_Program_Feed, 0;
		MoveL Offs(pZeroSquare, -6.0, 16.25, 1.2), v100, z0, tNozzle, \Wobj := wobj3Square;
		WaitRob \InPos;
		SetDO DO5_Program_Feed, 1;
		MoveL Offs(pZeroSquare, -6.0, -16.25, 1.2), v30, z0, tNozzle, \Wobj := wobj3Square;
		WaitRob \InPos;
		SetDO DO5_Program_Feed, 0;
		MoveL Offs(pZeroSquare, -3.0, -16.25, 1.2), v100, z0, tNozzle, \Wobj := wobj3Square;
		WaitRob \InPos;
		SetDO DO5_Program_Feed, 1;
		MoveL Offs(pZeroSquare, -3.0, 16.25, 1.2), v30, z0, tNozzle, \Wobj := wobj3Square;
		WaitRob \InPos;
		SetDO DO5_Program_Feed, 0;
		MoveL Offs(pZeroSquare, 0.0, 16.25, 1.2), v100, z0, tNozzle, \Wobj := wobj3Square;
		WaitRob \InPos;
		SetDO DO5_Program_Feed, 1;
		MoveL Offs(pZeroSquare, 0.0, -16.25, 1.2), v30, z0, tNozzle, \Wobj := wobj3Square;
		WaitRob \InPos;
		SetDO DO5_Program_Feed, 0;
		MoveL Offs(pZeroSquare, 3.0, -16.25, 1.2), v100, z0, tNozzle, \Wobj := wobj3Square;
		WaitRob \InPos;
		SetDO DO5_Program_Feed, 1;
		MoveL Offs(pZeroSquare, 3.0, 16.25, 1.2), v30, z0, tNozzle, \Wobj := wobj3Square;
		WaitRob \InPos;
		SetDO DO5_Program_Feed, 0;
		MoveL Offs(pZeroSquare, 6.0, 16.25, 1.2), v100, z0, tNozzle, \Wobj := wobj3Square;
		WaitRob \InPos;
		SetDO DO5_Program_Feed, 1;
		MoveL Offs(pZeroSquare, 6.0, -16.25, 1.2), v30, z0, tNozzle, \Wobj := wobj3Square;
		WaitRob \InPos;
		SetDO DO5_Program_Feed, 0;
		MoveL Offs(pZeroSquare, 9.0, -16.25, 1.2), v100, z0, tNozzle, \Wobj := wobj3Square;
		WaitRob \InPos;
		SetDO DO5_Program_Feed, 1;
		MoveL Offs(pZeroSquare, 9.0, 16.25, 1.2), v30, z0, tNozzle, \Wobj := wobj3Square;
		WaitRob \InPos;
		SetDO DO5_Program_Feed, 0;
		MoveL Offs(pZeroSquare, 12.0, 16.25, 1.2), v100, z0, tNozzle, \Wobj := wobj3Square;
		WaitRob \InPos;
		SetDO DO5_Program_Feed, 1;
		MoveL Offs(pZeroSquare, 12.0, -16.25, 1.2), v30, z0, tNozzle, \Wobj := wobj3Square;
		WaitRob \InPos;
		SetDO DO5_Program_Feed, 0;
		MoveL Offs(pZeroSquare, 15.0, -16.25, 1.2), v100, z0, tNozzle, \Wobj := wobj3Square;
		WaitRob \InPos;
		SetDO DO5_Program_Feed, 1;
		MoveL Offs(pZeroSquare, 15.0, 16.25, 1.2), v30, z0, tNozzle, \Wobj := wobj3Square;
		WaitRob \InPos;
		SetDO DO6_Between_Layer_Retract, 1;
		SetDO DO5_Program_Feed, 0;
		MoveL Offs(pZeroSquare, 15.0, 16.25, 11.2), v100, z0, tNozzle, \Wobj := wobj3Square;

		! Layer: 5
		! LayerParams(infillAngleDegrees=0.0, pathWidth=3.0, layerHeight=0.3, infillShiftX=0.0, infillShiftY=0.0, numShells=2, infillOverlap=0.0002)
		! T15
		! M6
		TPWRITE "Layer 5 of -1";
		MoveL Offs(pZeroSquare, -17.25, -16.75, 11.5), v100, z0, tNozzle, \Wobj := wobj3Square;
		MoveL Offs(pZeroSquare, -17.25, -16.75, 1.5), v30, z0, tNozzle, \Wobj := wobj3Square;
		WaitRob \InPos;
		SetDO DO6_Between_Layer_Retract, 0;
		WaitRob \InPos;
		SetDO DO5_Program_Feed, 1;
		MoveL Offs(pZeroSquare, -17.25, -17.25, 1.5), v30, z0, tNozzle, \Wobj := wobj3Square;
		MoveL Offs(pZeroSquare, 17.25, -17.25, 1.5), v30, z0, tNozzle, \Wobj := wobj3Square;
		MoveL Offs(pZeroSquare, 17.25, 17.25, 1.5), v30, z0, tNozzle, \Wobj := wobj3Square;
		MoveL Offs(pZeroSquare, -17.25, 17.25, 1.5), v30, z0, tNozzle, \Wobj := wobj3Square;
		MoveL Offs(pZeroSquare, -17.25, -16.75, 1.5), v30, z0, tNozzle, \Wobj := wobj3Square;
		WaitRob \InPos;
		SetDO DO5_Program_Feed, 0;
		MoveL Offs(pZeroSquare, -16.75, -16.75, 1.5), v100, z0, tNozzle, \Wobj := wobj3Square;
		WaitRob \InPos;
		SetDO DO5_Program_Feed, 1;
		MoveL Offs(pZeroSquare, 16.75, -16.75, 1.5), v30, z0, tNozzle, \Wobj := wobj3Square;
		MoveL Offs(pZeroSquare, 16.75, 16.75, 1.5), v30, z0, tNozzle, \Wobj := wobj3Square;
		MoveL Offs(pZeroSquare, -16.75, 16.75, 1.5), v30, z0, tNozzle, \Wobj := wobj3Square;
		MoveL Offs(pZeroSquare, -16.75, -16.75, 1.5), v30, z0, tNozzle, \Wobj := wobj3Square;
		WaitRob \InPos;
		SetDO DO5_Program_Feed, 0;
		MoveL Offs(pZeroSquare, -16.25, -15.0, 1.5), v100, z0, tNozzle, \Wobj := wobj3Square;
		WaitRob \InPos;
		SetDO DO5_Program_Feed, 1;
		MoveL Offs(pZeroSquare, 16.25, -15.0, 1.5), v30, z0, tNozzle, \Wobj := wobj3Square;
		WaitRob \InPos;
		SetDO DO5_Program_Feed, 0;
		MoveL Offs(pZeroSquare, 16.25, -12.0, 1.5), v100, z0, tNozzle, \Wobj := wobj3Square;
		WaitRob \InPos;
		SetDO DO5_Program_Feed, 1;
		MoveL Offs(pZeroSquare, -16.25, -12.0, 1.5), v30, z0, tNozzle, \Wobj := wobj3Square;
		WaitRob \InPos;
		SetDO DO5_Program_Feed, 0;
		MoveL Offs(pZeroSquare, -16.25, -9.0, 1.5), v100, z0, tNozzle, \Wobj := wobj3Square;
		WaitRob \InPos;
		SetDO DO5_Program_Feed, 1;
		MoveL Offs(pZeroSquare, 16.25, -9.0, 1.5), v30, z0, tNozzle, \Wobj := wobj3Square;
		WaitRob \InPos;
		SetDO DO5_Program_Feed, 0;
		MoveL Offs(pZeroSquare, 16.25, -6.0, 1.5), v100, z0, tNozzle, \Wobj := wobj3Square;
		WaitRob \InPos;
		SetDO DO5_Program_Feed, 1;
		MoveL Offs(pZeroSquare, -16.25, -6.0, 1.5), v30, z0, tNozzle, \Wobj := wobj3Square;
		WaitRob \InPos;
		SetDO DO5_Program_Feed, 0;
		MoveL Offs(pZeroSquare, -16.25, -3.0, 1.5), v100, z0, tNozzle, \Wobj := wobj3Square;
		WaitRob \InPos;
		SetDO DO5_Program_Feed, 1;
		MoveL Offs(pZeroSquare, 16.25, -3.0, 1.5), v30, z0, tNozzle, \Wobj := wobj3Square;
		WaitRob \InPos;
		SetDO DO5_Program_Feed, 0;
		MoveL Offs(pZeroSquare, 16.25, 0.0, 1.5), v100, z0, tNozzle, \Wobj := wobj3Square;
		WaitRob \InPos;
		SetDO DO5_Program_Feed, 1;
		MoveL Offs(pZeroSquare, -16.25, 0.0, 1.5), v30, z0, tNozzle, \Wobj := wobj3Square;
		WaitRob \InPos;
		SetDO DO5_Program_Feed, 0;
		MoveL Offs(pZeroSquare, -16.25, 3.0, 1.5), v100, z0, tNozzle, \Wobj := wobj3Square;
		WaitRob \InPos;
		SetDO DO5_Program_Feed, 1;
		MoveL Offs(pZeroSquare, 16.25, 3.0, 1.5), v30, z0, tNozzle, \Wobj := wobj3Square;
		WaitRob \InPos;
		SetDO DO5_Program_Feed, 0;
		MoveL Offs(pZeroSquare, 16.25, 6.0, 1.5), v100, z0, tNozzle, \Wobj := wobj3Square;
		WaitRob \InPos;
		SetDO DO5_Program_Feed, 1;
		MoveL Offs(pZeroSquare, -16.25, 6.0, 1.5), v30, z0, tNozzle, \Wobj := wobj3Square;
		WaitRob \InPos;
		SetDO DO5_Program_Feed, 0;
		MoveL Offs(pZeroSquare, -16.25, 9.0, 1.5), v100, z0, tNozzle, \Wobj := wobj3Square;
		WaitRob \InPos;
		SetDO DO5_Program_Feed, 1;
		MoveL Offs(pZeroSquare, 16.25, 9.0, 1.5), v30, z0, tNozzle, \Wobj := wobj3Square;
		WaitRob \InPos;
		SetDO DO5_Program_Feed, 0;
		MoveL Offs(pZeroSquare, 16.25, 12.0, 1.5), v100, z0, tNozzle, \Wobj := wobj3Square;
		WaitRob \InPos;
		SetDO DO5_Program_Feed, 1;
		MoveL Offs(pZeroSquare, -16.25, 12.0, 1.5), v30, z0, tNozzle, \Wobj := wobj3Square;
		WaitRob \InPos;
		SetDO DO5_Program_Feed, 0;
		MoveL Offs(pZeroSquare, -16.25, 15.0, 1.5), v100, z0, tNozzle, \Wobj := wobj3Square;
		WaitRob \InPos;
		SetDO DO5_Program_Feed, 1;
		MoveL Offs(pZeroSquare, 16.25, 15.0, 1.5), v30, z0, tNozzle, \Wobj := wobj3Square;
		WaitRob \InPos;
		SetDO DO6_Between_Layer_Retract, 1;
		SetDO DO5_Program_Feed, 0;
		MoveL Offs(pZeroSquare, 16.25, 15.0, 11.5), v100, z0, tNozzle, \Wobj := wobj3Square;

		! Layer: 6
		! LayerParams(infillAngleDegrees=90.0, pathWidth=3.0, layerHeight=0.3, infillShiftX=0.0, infillShiftY=0.0, numShells=2, infillOverlap=0.0002)
		! T16
		! M6
		TPWRITE "Layer 6 of -1";
		MoveL Offs(pZeroSquare, 17.25, 17.25, 11.8), v100, z0, tNozzle, \Wobj := wobj3Square;
		MoveL Offs(pZeroSquare, 17.25, 17.25, 1.8), v30, z0, tNozzle, \Wobj := wobj3Square;
		WaitRob \InPos;
		SetDO DO6_Between_Layer_Retract, 0;
		WaitRob \InPos;
		SetDO DO5_Program_Feed, 1;
		MoveL Offs(pZeroSquare, -17.25, 17.25, 1.8), v30, z0, tNozzle, \Wobj := wobj3Square;
		MoveL Offs(pZeroSquare, -17.25, -16.6, 1.8), v30, z0, tNozzle, \Wobj := wobj3Square;
		WaitRob \InPos;
		SetDO DO5_Program_Feed, 0;
		MoveL Offs(pZeroSquare, -17.25, -16.6, 1.8), v100, z0, tNozzle, \Wobj := wobj3Square;
		WaitRob \InPos;
		SetDO DO5_Program_Feed, 1;
		MoveL Offs(pZeroSquare, -17.25, -17.25, 1.8), v30, z0, tNozzle, \Wobj := wobj3Square;
		MoveL Offs(pZeroSquare, 17.25, -17.25, 1.8), v30, z0, tNozzle, \Wobj := wobj3Square;
		MoveL Offs(pZeroSquare, 17.25, 17.25, 1.8), v30, z0, tNozzle, \Wobj := wobj3Square;
		WaitRob \InPos;
		SetDO DO5_Program_Feed, 0;
		MoveL Offs(pZeroSquare, 16.75, 16.75, 1.8), v100, z0, tNozzle, \Wobj := wobj3Square;
		WaitRob \InPos;
		SetDO DO5_Program_Feed, 1;
		MoveL Offs(pZeroSquare, -16.75, 16.75, 1.8), v30, z0, tNozzle, \Wobj := wobj3Square;
		MoveL Offs(pZeroSquare, -16.75, -16.6, 1.8), v30, z0, tNozzle, \Wobj := wobj3Square;
		WaitRob \InPos;
		SetDO DO5_Program_Feed, 0;
		MoveL Offs(pZeroSquare, -16.75, -16.6, 1.8), v100, z0, tNozzle, \Wobj := wobj3Square;
		WaitRob \InPos;
		SetDO DO5_Program_Feed, 1;
		MoveL Offs(pZeroSquare, -16.75, -16.75, 1.8), v30, z0, tNozzle, \Wobj := wobj3Square;
		MoveL Offs(pZeroSquare, 16.75, -16.75, 1.8), v30, z0, tNozzle, \Wobj := wobj3Square;
		MoveL Offs(pZeroSquare, 16.75, 16.75, 1.8), v30, z0, tNozzle, \Wobj := wobj3Square;
		WaitRob \InPos;
		SetDO DO5_Program_Feed, 0;
		MoveL Offs(pZeroSquare, 15.0, 16.25, 1.8), v100, z0, tNozzle, \Wobj := wobj3Square;
		WaitRob \InPos;
		SetDO DO5_Program_Feed, 1;
		MoveL Offs(pZeroSquare, 15.0, -16.25, 1.8), v30, z0, tNozzle, \Wobj := wobj3Square;
		WaitRob \InPos;
		SetDO DO5_Program_Feed, 0;
		MoveL Offs(pZeroSquare, 12.0, -16.25, 1.8), v100, z0, tNozzle, \Wobj := wobj3Square;
		WaitRob \InPos;
		SetDO DO5_Program_Feed, 1;
		MoveL Offs(pZeroSquare, 12.0, 16.25, 1.8), v30, z0, tNozzle, \Wobj := wobj3Square;
		WaitRob \InPos;
		SetDO DO5_Program_Feed, 0;
		MoveL Offs(pZeroSquare, 9.0, 16.25, 1.8), v100, z0, tNozzle, \Wobj := wobj3Square;
		WaitRob \InPos;
		SetDO DO5_Program_Feed, 1;
		MoveL Offs(pZeroSquare, 9.0, -16.25, 1.8), v30, z0, tNozzle, \Wobj := wobj3Square;
		WaitRob \InPos;
		SetDO DO5_Program_Feed, 0;
		MoveL Offs(pZeroSquare, 6.0, -16.25, 1.8), v100, z0, tNozzle, \Wobj := wobj3Square;
		WaitRob \InPos;
		SetDO DO5_Program_Feed, 1;
		MoveL Offs(pZeroSquare, 6.0, 16.25, 1.8), v30, z0, tNozzle, \Wobj := wobj3Square;
		WaitRob \InPos;
		SetDO DO5_Program_Feed, 0;
		MoveL Offs(pZeroSquare, 3.0, 16.25, 1.8), v100, z0, tNozzle, \Wobj := wobj3Square;
		WaitRob \InPos;
		SetDO DO5_Program_Feed, 1;
		MoveL Offs(pZeroSquare, 3.0, -16.25, 1.8), v30, z0, tNozzle, \Wobj := wobj3Square;
		WaitRob \InPos;
		SetDO DO5_Program_Feed, 0;
		MoveL Offs(pZeroSquare, 0.0, -16.25, 1.8), v100, z0, tNozzle, \Wobj := wobj3Square;
		WaitRob \InPos;
		SetDO DO5_Program_Feed, 1;
		MoveL Offs(pZeroSquare, 0.0, 16.25, 1.8), v30, z0, tNozzle, \Wobj := wobj3Square;
		WaitRob \InPos;
		SetDO DO5_Program_Feed, 0;
		MoveL Offs(pZeroSquare, -3.0, 16.25, 1.8), v100, z0, tNozzle, \Wobj := wobj3Square;
		WaitRob \InPos;
		SetDO DO5_Program_Feed, 1;
		MoveL Offs(pZeroSquare, -3.0, -16.25, 1.8), v30, z0, tNozzle, \Wobj := wobj3Square;
		WaitRob \InPos;
		SetDO DO5_Program_Feed, 0;
		MoveL Offs(pZeroSquare, -6.0, -16.25, 1.8), v100, z0, tNozzle, \Wobj := wobj3Square;
		WaitRob \InPos;
		SetDO DO5_Program_Feed, 1;
		MoveL Offs(pZeroSquare, -6.0, 16.25, 1.8), v30, z0, tNozzle, \Wobj := wobj3Square;
		WaitRob \InPos;
		SetDO DO5_Program_Feed, 0;
		MoveL Offs(pZeroSquare, -9.0, 16.25, 1.8), v100, z0, tNozzle, \Wobj := wobj3Square;
		WaitRob \InPos;
		SetDO DO5_Program_Feed, 1;
		MoveL Offs(pZeroSquare, -9.0, -16.25, 1.8), v30, z0, tNozzle, \Wobj := wobj3Square;
		WaitRob \InPos;
		SetDO DO5_Program_Feed, 0;
		MoveL Offs(pZeroSquare, -12.0, -16.25, 1.8), v100, z0, tNozzle, \Wobj := wobj3Square;
		WaitRob \InPos;
		SetDO DO5_Program_Feed, 1;
		MoveL Offs(pZeroSquare, -12.0, 16.25, 1.8), v30, z0, tNozzle, \Wobj := wobj3Square;
		WaitRob \InPos;
		SetDO DO5_Program_Feed, 0;
		MoveL Offs(pZeroSquare, -15.0, 16.25, 1.8), v100, z0, tNozzle, \Wobj := wobj3Square;
		WaitRob \InPos;
		SetDO DO5_Program_Feed, 1;
		MoveL Offs(pZeroSquare, -15.0, -16.25, 1.8), v30, z0, tNozzle, \Wobj := wobj3Square;
		WaitRob \InPos;
		SetDO DO6_Between_Layer_Retract, 1;
		SetDO DO5_Program_Feed, 0;
		MoveL Offs(pZeroSquare, -15.0, -16.25, 11.8), v100, z0, tNozzle, \Wobj := wobj3Square;

		! Layer: 7
		! LayerParams(infillAngleDegrees=0.0, pathWidth=3.0, layerHeight=0.3, infillShiftX=0.0, infillShiftY=0.0, numShells=2, infillOverlap=0.0002)
		! T17
		! M6
		TPWRITE "Layer 7 of -1";
		MoveL Offs(pZeroSquare, -17.25, -16.45, 12.1), v100, z0, tNozzle, \Wobj := wobj3Square;
		MoveL Offs(pZeroSquare, -17.25, -16.45, 2.1), v30, z0, tNozzle, \Wobj := wobj3Square;
		WaitRob \InPos;
		SetDO DO6_Between_Layer_Retract, 0;
		WaitRob \InPos;
		SetDO DO5_Program_Feed, 1;
		MoveL Offs(pZeroSquare, -17.25, -17.25, 2.1), v30, z0, tNozzle, \Wobj := wobj3Square;
		MoveL Offs(pZeroSquare, 17.25, -17.25, 2.1), v30, z0, tNozzle, \Wobj := wobj3Square;
		MoveL Offs(pZeroSquare, 17.25, 17.25, 2.1), v30, z0, tNozzle, \Wobj := wobj3Square;
		MoveL Offs(pZeroSquare, -17.25, 17.25, 2.1), v30, z0, tNozzle, \Wobj := wobj3Square;
		MoveL Offs(pZeroSquare, -17.25, -16.45, 2.1), v30, z0, tNozzle, \Wobj := wobj3Square;
		WaitRob \InPos;
		SetDO DO5_Program_Feed, 0;
		MoveL Offs(pZeroSquare, -16.75, -16.45, 2.1), v100, z0, tNozzle, \Wobj := wobj3Square;
		WaitRob \InPos;
		SetDO DO5_Program_Feed, 1;
		MoveL Offs(pZeroSquare, -16.75, -16.75, 2.1), v30, z0, tNozzle, \Wobj := wobj3Square;
		MoveL Offs(pZeroSquare, 16.75, -16.75, 2.1), v30, z0, tNozzle, \Wobj := wobj3Square;
		MoveL Offs(pZeroSquare, 16.75, 16.75, 2.1), v30, z0, tNozzle, \Wobj := wobj3Square;
		MoveL Offs(pZeroSquare, -16.75, 16.75, 2.1), v30, z0, tNozzle, \Wobj := wobj3Square;
		MoveL Offs(pZeroSquare, -16.75, -16.45, 2.1), v30, z0, tNozzle, \Wobj := wobj3Square;
		WaitRob \InPos;
		SetDO DO5_Program_Feed, 0;
		MoveL Offs(pZeroSquare, -16.25, -15.0, 2.1), v100, z0, tNozzle, \Wobj := wobj3Square;
		WaitRob \InPos;
		SetDO DO5_Program_Feed, 1;
		MoveL Offs(pZeroSquare, 16.25, -15.0, 2.1), v30, z0, tNozzle, \Wobj := wobj3Square;
		WaitRob \InPos;
		SetDO DO5_Program_Feed, 0;
		MoveL Offs(pZeroSquare, 16.25, -12.0, 2.1), v100, z0, tNozzle, \Wobj := wobj3Square;
		WaitRob \InPos;
		SetDO DO5_Program_Feed, 1;
		MoveL Offs(pZeroSquare, -16.25, -12.0, 2.1), v30, z0, tNozzle, \Wobj := wobj3Square;
		WaitRob \InPos;
		SetDO DO5_Program_Feed, 0;
		MoveL Offs(pZeroSquare, -16.25, -9.0, 2.1), v100, z0, tNozzle, \Wobj := wobj3Square;
		WaitRob \InPos;
		SetDO DO5_Program_Feed, 1;
		MoveL Offs(pZeroSquare, 16.25, -9.0, 2.1), v30, z0, tNozzle, \Wobj := wobj3Square;
		WaitRob \InPos;
		SetDO DO5_Program_Feed, 0;
		MoveL Offs(pZeroSquare, 16.25, -6.0, 2.1), v100, z0, tNozzle, \Wobj := wobj3Square;
		WaitRob \InPos;
		SetDO DO5_Program_Feed, 1;
		MoveL Offs(pZeroSquare, -16.25, -6.0, 2.1), v30, z0, tNozzle, \Wobj := wobj3Square;
		WaitRob \InPos;
		SetDO DO5_Program_Feed, 0;
		MoveL Offs(pZeroSquare, -16.25, -3.0, 2.1), v100, z0, tNozzle, \Wobj := wobj3Square;
		WaitRob \InPos;
		SetDO DO5_Program_Feed, 1;
		MoveL Offs(pZeroSquare, 16.25, -3.0, 2.1), v30, z0, tNozzle, \Wobj := wobj3Square;
		WaitRob \InPos;
		SetDO DO5_Program_Feed, 0;
		MoveL Offs(pZeroSquare, 16.25, 0.0, 2.1), v100, z0, tNozzle, \Wobj := wobj3Square;
		WaitRob \InPos;
		SetDO DO5_Program_Feed, 1;
		MoveL Offs(pZeroSquare, -16.25, 0.0, 2.1), v30, z0, tNozzle, \Wobj := wobj3Square;
		WaitRob \InPos;
		SetDO DO5_Program_Feed, 0;
		MoveL Offs(pZeroSquare, -16.25, 3.0, 2.1), v100, z0, tNozzle, \Wobj := wobj3Square;
		WaitRob \InPos;
		SetDO DO5_Program_Feed, 1;
		MoveL Offs(pZeroSquare, 16.25, 3.0, 2.1), v30, z0, tNozzle, \Wobj := wobj3Square;
		WaitRob \InPos;
		SetDO DO5_Program_Feed, 0;
		MoveL Offs(pZeroSquare, 16.25, 6.0, 2.1), v100, z0, tNozzle, \Wobj := wobj3Square;
		WaitRob \InPos;
		SetDO DO5_Program_Feed, 1;
		MoveL Offs(pZeroSquare, -16.25, 6.0, 2.1), v30, z0, tNozzle, \Wobj := wobj3Square;
		WaitRob \InPos;
		SetDO DO5_Program_Feed, 0;
		MoveL Offs(pZeroSquare, -16.25, 9.0, 2.1), v100, z0, tNozzle, \Wobj := wobj3Square;
		WaitRob \InPos;
		SetDO DO5_Program_Feed, 1;
		MoveL Offs(pZeroSquare, 16.25, 9.0, 2.1), v30, z0, tNozzle, \Wobj := wobj3Square;
		WaitRob \InPos;
		SetDO DO5_Program_Feed, 0;
		MoveL Offs(pZeroSquare, 16.25, 12.0, 2.1), v100, z0, tNozzle, \Wobj := wobj3Square;
		WaitRob \InPos;
		SetDO DO5_Program_Feed, 1;
		MoveL Offs(pZeroSquare, -16.25, 12.0, 2.1), v30, z0, tNozzle, \Wobj := wobj3Square;
		WaitRob \InPos;
		SetDO DO5_Program_Feed, 0;
		MoveL Offs(pZeroSquare, -16.25, 15.0, 2.1), v100, z0, tNozzle, \Wobj := wobj3Square;
		WaitRob \InPos;
		SetDO DO5_Program_Feed, 1;
		MoveL Offs(pZeroSquare, 16.25, 15.0, 2.1), v30, z0, tNozzle, \Wobj := wobj3Square;
		WaitRob \InPos;
		SetDO DO6_Between_Layer_Retract, 1;
		SetDO DO5_Program_Feed, 0;
		MoveL Offs(pZeroSquare, 16.25, 15.0, 12.1), v100, z0, tNozzle, \Wobj := wobj3Square;

		! Layer: 8
		! LayerParams(infillAngleDegrees=90.0, pathWidth=3.0, layerHeight=0.3, infillShiftX=0.0, infillShiftY=0.0, numShells=2, infillOverlap=0.0002)
		! T18
		! M6
		TPWRITE "Layer 8 of -1";
		MoveL Offs(pZeroSquare, 17.25, -17.25, 12.4), v100, z0, tNozzle, \Wobj := wobj3Square;
		MoveL Offs(pZeroSquare, 17.25, -17.25, 2.4), v30, z0, tNozzle, \Wobj := wobj3Square;
		WaitRob \InPos;
		SetDO DO6_Between_Layer_Retract, 0;
		WaitRob \InPos;
		SetDO DO5_Program_Feed, 1;
		MoveL Offs(pZeroSquare, 17.25, 17.25, 2.4), v30, z0, tNozzle, \Wobj := wobj3Square;
		MoveL Offs(pZeroSquare, -17.25, 17.25, 2.4), v30, z0, tNozzle, \Wobj := wobj3Square;
		MoveL Offs(pZeroSquare, -17.25, -16.3, 2.4), v30, z0, tNozzle, \Wobj := wobj3Square;
		WaitRob \InPos;
		SetDO DO5_Program_Feed, 0;
		MoveL Offs(pZeroSquare, -17.25, -16.3, 2.4), v100, z0, tNozzle, \Wobj := wobj3Square;
		WaitRob \InPos;
		SetDO DO5_Program_Feed, 1;
		MoveL Offs(pZeroSquare, -17.25, -17.25, 2.4), v30, z0, tNozzle, \Wobj := wobj3Square;
		MoveL Offs(pZeroSquare, 17.25, -17.25, 2.4), v30, z0, tNozzle, \Wobj := wobj3Square;
		WaitRob \InPos;
		SetDO DO5_Program_Feed, 0;
		MoveL Offs(pZeroSquare, 16.75, -16.75, 2.4), v100, z0, tNozzle, \Wobj := wobj3Square;
		WaitRob \InPos;
		SetDO DO5_Program_Feed, 1;
		MoveL Offs(pZeroSquare, 16.75, 16.75, 2.4), v30, z0, tNozzle, \Wobj := wobj3Square;
		MoveL Offs(pZeroSquare, -16.75, 16.75, 2.4), v30, z0, tNozzle, \Wobj := wobj3Square;
		MoveL Offs(pZeroSquare, -16.75, -16.3, 2.4), v30, z0, tNozzle, \Wobj := wobj3Square;
		WaitRob \InPos;
		SetDO DO5_Program_Feed, 0;
		MoveL Offs(pZeroSquare, -16.75, -16.3, 2.4), v100, z0, tNozzle, \Wobj := wobj3Square;
		WaitRob \InPos;
		SetDO DO5_Program_Feed, 1;
		MoveL Offs(pZeroSquare, -16.75, -16.75, 2.4), v30, z0, tNozzle, \Wobj := wobj3Square;
		MoveL Offs(pZeroSquare, 16.75, -16.75, 2.4), v30, z0, tNozzle, \Wobj := wobj3Square;
		WaitRob \InPos;
		SetDO DO5_Program_Feed, 0;
		MoveL Offs(pZeroSquare, 15.0, -16.25, 2.4), v100, z0, tNozzle, \Wobj := wobj3Square;
		WaitRob \InPos;
		SetDO DO5_Program_Feed, 1;
		MoveL Offs(pZeroSquare, 15.0, 16.25, 2.4), v30, z0, tNozzle, \Wobj := wobj3Square;
		WaitRob \InPos;
		SetDO DO5_Program_Feed, 0;
		MoveL Offs(pZeroSquare, 12.0, 16.25, 2.4), v100, z0, tNozzle, \Wobj := wobj3Square;
		WaitRob \InPos;
		SetDO DO5_Program_Feed, 1;
		MoveL Offs(pZeroSquare, 12.0, -16.25, 2.4), v30, z0, tNozzle, \Wobj := wobj3Square;
		WaitRob \InPos;
		SetDO DO5_Program_Feed, 0;
		MoveL Offs(pZeroSquare, 9.0, -16.25, 2.4), v100, z0, tNozzle, \Wobj := wobj3Square;
		WaitRob \InPos;
		SetDO DO5_Program_Feed, 1;
		MoveL Offs(pZeroSquare, 9.0, 16.25, 2.4), v30, z0, tNozzle, \Wobj := wobj3Square;
		WaitRob \InPos;
		SetDO DO5_Program_Feed, 0;
		MoveL Offs(pZeroSquare, 6.0, 16.25, 2.4), v100, z0, tNozzle, \Wobj := wobj3Square;
		WaitRob \InPos;
		SetDO DO5_Program_Feed, 1;
		MoveL Offs(pZeroSquare, 6.0, -16.25, 2.4), v30, z0, tNozzle, \Wobj := wobj3Square;
		WaitRob \InPos;
		SetDO DO5_Program_Feed, 0;
		MoveL Offs(pZeroSquare, 3.0, -16.25, 2.4), v100, z0, tNozzle, \Wobj := wobj3Square;
		WaitRob \InPos;
		SetDO DO5_Program_Feed, 1;
		MoveL Offs(pZeroSquare, 3.0, 16.25, 2.4), v30, z0, tNozzle, \Wobj := wobj3Square;
		WaitRob \InPos;
		SetDO DO5_Program_Feed, 0;
		MoveL Offs(pZeroSquare, 0.0, 16.25, 2.4), v100, z0, tNozzle, \Wobj := wobj3Square;
		WaitRob \InPos;
		SetDO DO5_Program_Feed, 1;
		MoveL Offs(pZeroSquare, 0.0, -16.25, 2.4), v30, z0, tNozzle, \Wobj := wobj3Square;
		WaitRob \InPos;
		SetDO DO5_Program_Feed, 0;
		MoveL Offs(pZeroSquare, -3.0, -16.25, 2.4), v100, z0, tNozzle, \Wobj := wobj3Square;
		WaitRob \InPos;
		SetDO DO5_Program_Feed, 1;
		MoveL Offs(pZeroSquare, -3.0, 16.25, 2.4), v30, z0, tNozzle, \Wobj := wobj3Square;
		WaitRob \InPos;
		SetDO DO5_Program_Feed, 0;
		MoveL Offs(pZeroSquare, -6.0, 16.25, 2.4), v100, z0, tNozzle, \Wobj := wobj3Square;
		WaitRob \InPos;
		SetDO DO5_Program_Feed, 1;
		MoveL Offs(pZeroSquare, -6.0, -16.25, 2.4), v30, z0, tNozzle, \Wobj := wobj3Square;
		WaitRob \InPos;
		SetDO DO5_Program_Feed, 0;
		MoveL Offs(pZeroSquare, -9.0, -16.25, 2.4), v100, z0, tNozzle, \Wobj := wobj3Square;
		WaitRob \InPos;
		SetDO DO5_Program_Feed, 1;
		MoveL Offs(pZeroSquare, -9.0, 16.25, 2.4), v30, z0, tNozzle, \Wobj := wobj3Square;
		WaitRob \InPos;
		SetDO DO5_Program_Feed, 0;
		MoveL Offs(pZeroSquare, -12.0, 16.25, 2.4), v100, z0, tNozzle, \Wobj := wobj3Square;
		WaitRob \InPos;
		SetDO DO5_Program_Feed, 1;
		MoveL Offs(pZeroSquare, -12.0, -16.25, 2.4), v30, z0, tNozzle, \Wobj := wobj3Square;
		WaitRob \InPos;
		SetDO DO5_Program_Feed, 0;
		MoveL Offs(pZeroSquare, -15.0, -16.25, 2.4), v100, z0, tNozzle, \Wobj := wobj3Square;
		WaitRob \InPos;
		SetDO DO5_Program_Feed, 1;
		MoveL Offs(pZeroSquare, -15.0, 16.25, 2.4), v30, z0, tNozzle, \Wobj := wobj3Square;
		WaitRob \InPos;
		SetDO DO6_Between_Layer_Retract, 1;
		SetDO DO5_Program_Feed, 0;
		MoveL Offs(pZeroSquare, -15.0, 16.25, 12.4), v100, z0, tNozzle, \Wobj := wobj3Square;

		! Layer: 9
		! LayerParams(infillAngleDegrees=0.0, pathWidth=3.0, layerHeight=0.3, infillShiftX=0.0, infillShiftY=0.0, numShells=2, infillOverlap=0.0002)
		! T19
		! M6
		TPWRITE "Layer 9 of -1";
		MoveL Offs(pZeroSquare, -17.25, -17.25, 12.7), v100, z0, tNozzle, \Wobj := wobj3Square;
		MoveL Offs(pZeroSquare, -17.25, -17.25, 2.7), v30, z0, tNozzle, \Wobj := wobj3Square;
		WaitRob \InPos;
		SetDO DO6_Between_Layer_Retract, 0;
		WaitRob \InPos;
		SetDO DO5_Program_Feed, 1;
		MoveL Offs(pZeroSquare, 17.25, -17.25, 2.7), v30, z0, tNozzle, \Wobj := wobj3Square;
		MoveL Offs(pZeroSquare, 17.25, 17.25, 2.7), v30, z0, tNozzle, \Wobj := wobj3Square;
		MoveL Offs(pZeroSquare, -17.25, 17.25, 2.7), v30, z0, tNozzle, \Wobj := wobj3Square;
		MoveL Offs(pZeroSquare, -17.25, -16.15, 2.7), v30, z0, tNozzle, \Wobj := wobj3Square;
		MoveL Offs(pZeroSquare, -17.25, -16.15, 2.7), v30, z0, tNozzle, \Wobj := wobj3Square;
		MoveL Offs(pZeroSquare, -17.25, -17.25, 2.7), v30, z0, tNozzle, \Wobj := wobj3Square;
		WaitRob \InPos;
		SetDO DO5_Program_Feed, 0;
		MoveL Offs(pZeroSquare, -16.75, -16.75, 2.7), v100, z0, tNozzle, \Wobj := wobj3Square;
		WaitRob \InPos;
		SetDO DO5_Program_Feed, 1;
		MoveL Offs(pZeroSquare, 16.75, -16.75, 2.7), v30, z0, tNozzle, \Wobj := wobj3Square;
		MoveL Offs(pZeroSquare, 16.75, 16.75, 2.7), v30, z0, tNozzle, \Wobj := wobj3Square;
		MoveL Offs(pZeroSquare, -16.75, 16.75, 2.7), v30, z0, tNozzle, \Wobj := wobj3Square;
		MoveL Offs(pZeroSquare, -16.75, -16.15, 2.7), v30, z0, tNozzle, \Wobj := wobj3Square;
		MoveL Offs(pZeroSquare, -16.75, -16.15, 2.7), v30, z0, tNozzle, \Wobj := wobj3Square;
		MoveL Offs(pZeroSquare, -16.75, -16.75, 2.7), v30, z0, tNozzle, \Wobj := wobj3Square;
		WaitRob \InPos;
		SetDO DO5_Program_Feed, 0;
		MoveL Offs(pZeroSquare, -16.25, -15.0, 2.7), v100, z0, tNozzle, \Wobj := wobj3Square;
		WaitRob \InPos;
		SetDO DO5_Program_Feed, 1;
		MoveL Offs(pZeroSquare, 16.25, -15.0, 2.7), v30, z0, tNozzle, \Wobj := wobj3Square;
		WaitRob \InPos;
		SetDO DO5_Program_Feed, 0;
		MoveL Offs(pZeroSquare, 16.25, -12.0, 2.7), v100, z0, tNozzle, \Wobj := wobj3Square;
		WaitRob \InPos;
		SetDO DO5_Program_Feed, 1;
		MoveL Offs(pZeroSquare, -16.25, -12.0, 2.7), v30, z0, tNozzle, \Wobj := wobj3Square;
		WaitRob \InPos;
		SetDO DO5_Program_Feed, 0;
		MoveL Offs(pZeroSquare, -16.25, -9.0, 2.7), v100, z0, tNozzle, \Wobj := wobj3Square;
		WaitRob \InPos;
		SetDO DO5_Program_Feed, 1;
		MoveL Offs(pZeroSquare, 16.25, -9.0, 2.7), v30, z0, tNozzle, \Wobj := wobj3Square;
		WaitRob \InPos;
		SetDO DO5_Program_Feed, 0;
		MoveL Offs(pZeroSquare, 16.25, -6.0, 2.7), v100, z0, tNozzle, \Wobj := wobj3Square;
		WaitRob \InPos;
		SetDO DO5_Program_Feed, 1;
		MoveL Offs(pZeroSquare, -16.25, -6.0, 2.7), v30, z0, tNozzle, \Wobj := wobj3Square;
		WaitRob \InPos;
		SetDO DO5_Program_Feed, 0;
		MoveL Offs(pZeroSquare, -16.25, -3.0, 2.7), v100, z0, tNozzle, \Wobj := wobj3Square;
		WaitRob \InPos;
		SetDO DO5_Program_Feed, 1;
		MoveL Offs(pZeroSquare, 16.25, -3.0, 2.7), v30, z0, tNozzle, \Wobj := wobj3Square;
		WaitRob \InPos;
		SetDO DO5_Program_Feed, 0;
		MoveL Offs(pZeroSquare, 16.25, 0.0, 2.7), v100, z0, tNozzle, \Wobj := wobj3Square;
		WaitRob \InPos;
		SetDO DO5_Program_Feed, 1;
		MoveL Offs(pZeroSquare, -16.25, 0.0, 2.7), v30, z0, tNozzle, \Wobj := wobj3Square;
		WaitRob \InPos;
		SetDO DO5_Program_Feed, 0;
		MoveL Offs(pZeroSquare, -16.25, 3.0, 2.7), v100, z0, tNozzle, \Wobj := wobj3Square;
		WaitRob \InPos;
		SetDO DO5_Program_Feed, 1;
		MoveL Offs(pZeroSquare, 16.25, 3.0, 2.7), v30, z0, tNozzle, \Wobj := wobj3Square;
		WaitRob \InPos;
		SetDO DO5_Program_Feed, 0;
		MoveL Offs(pZeroSquare, 16.25, 6.0, 2.7), v100, z0, tNozzle, \Wobj := wobj3Square;
		WaitRob \InPos;
		SetDO DO5_Program_Feed, 1;
		MoveL Offs(pZeroSquare, -16.25, 6.0, 2.7), v30, z0, tNozzle, \Wobj := wobj3Square;
		WaitRob \InPos;
		SetDO DO5_Program_Feed, 0;
		MoveL Offs(pZeroSquare, -16.25, 9.0, 2.7), v100, z0, tNozzle, \Wobj := wobj3Square;
		WaitRob \InPos;
		SetDO DO5_Program_Feed, 1;
		MoveL Offs(pZeroSquare, 16.25, 9.0, 2.7), v30, z0, tNozzle, \Wobj := wobj3Square;
		WaitRob \InPos;
		SetDO DO5_Program_Feed, 0;
		MoveL Offs(pZeroSquare, 16.25, 12.0, 2.7), v100, z0, tNozzle, \Wobj := wobj3Square;
		WaitRob \InPos;
		SetDO DO5_Program_Feed, 1;
		MoveL Offs(pZeroSquare, -16.25, 12.0, 2.7), v30, z0, tNozzle, \Wobj := wobj3Square;
		WaitRob \InPos;
		SetDO DO5_Program_Feed, 0;
		MoveL Offs(pZeroSquare, -16.25, 15.0, 2.7), v100, z0, tNozzle, \Wobj := wobj3Square;
		WaitRob \InPos;
		SetDO DO5_Program_Feed, 1;
		MoveL Offs(pZeroSquare, 16.25, 15.0, 2.7), v30, z0, tNozzle, \Wobj := wobj3Square;
		WaitRob \InPos;
		SetDO DO6_Between_Layer_Retract, 1;
		SetDO DO5_Program_Feed, 0;
		MoveL Offs(pZeroSquare, 16.25, 15.0, 12.7), v100, z0, tNozzle, \Wobj := wobj3Square;

		! Layer: 10
		! LayerParams(infillAngleDegrees=90.0, pathWidth=3.0, layerHeight=0.3, infillShiftX=0.0, infillShiftY=0.0, numShells=2, infillOverlap=0.0002)
		! T110
		! M6
		TPWRITE "Layer 10 of -1";
		MoveL Offs(pZeroSquare, -17.25, -16.0, 13.0), v100, z0, tNozzle, \Wobj := wobj3Square;
		MoveL Offs(pZeroSquare, -17.25, -16.0, 3.0), v30, z0, tNozzle, \Wobj := wobj3Square;
		WaitRob \InPos;
		SetDO DO6_Between_Layer_Retract, 0;
		WaitRob \InPos;
		SetDO DO5_Program_Feed, 1;
		MoveL Offs(pZeroSquare, -17.25, -17.25, 3.0), v30, z0, tNozzle, \Wobj := wobj3Square;
		MoveL Offs(pZeroSquare, 17.25, -17.25, 3.0), v30, z0, tNozzle, \Wobj := wobj3Square;
		MoveL Offs(pZeroSquare, 17.25, 17.25, 3.0), v30, z0, tNozzle, \Wobj := wobj3Square;
		MoveL Offs(pZeroSquare, -17.25, 17.25, 3.0), v30, z0, tNozzle, \Wobj := wobj3Square;
		MoveL Offs(pZeroSquare, -17.25, -16.0, 3.0), v30, z0, tNozzle, \Wobj := wobj3Square;
		MoveL Offs(pZeroSquare, -17.25, -16.0, 3.0), v30, z0, tNozzle, \Wobj := wobj3Square;
		WaitRob \InPos;
		SetDO DO5_Program_Feed, 0;
		MoveL Offs(pZeroSquare, -16.75, -16.0, 3.0), v100, z0, tNozzle, \Wobj := wobj3Square;
		WaitRob \InPos;
		SetDO DO5_Program_Feed, 1;
		MoveL Offs(pZeroSquare, -16.75, -16.75, 3.0), v30, z0, tNozzle, \Wobj := wobj3Square;
		MoveL Offs(pZeroSquare, 16.75, -16.75, 3.0), v30, z0, tNozzle, \Wobj := wobj3Square;
		MoveL Offs(pZeroSquare, 16.75, 16.75, 3.0), v30, z0, tNozzle, \Wobj := wobj3Square;
		MoveL Offs(pZeroSquare, -16.75, 16.75, 3.0), v30, z0, tNozzle, \Wobj := wobj3Square;
		MoveL Offs(pZeroSquare, -16.75, -16.0, 3.0), v30, z0, tNozzle, \Wobj := wobj3Square;
		MoveL Offs(pZeroSquare, -16.75, -16.0, 3.0), v30, z0, tNozzle, \Wobj := wobj3Square;
		WaitRob \InPos;
		SetDO DO5_Program_Feed, 0;
		MoveL Offs(pZeroSquare, -15.0, -16.25, 3.0), v100, z0, tNozzle, \Wobj := wobj3Square;
		WaitRob \InPos;
		SetDO DO5_Program_Feed, 1;
		MoveL Offs(pZeroSquare, -15.0, 16.25, 3.0), v30, z0, tNozzle, \Wobj := wobj3Square;
		WaitRob \InPos;
		SetDO DO5_Program_Feed, 0;
		MoveL Offs(pZeroSquare, -12.0, 16.25, 3.0), v100, z0, tNozzle, \Wobj := wobj3Square;
		WaitRob \InPos;
		SetDO DO5_Program_Feed, 1;
		MoveL Offs(pZeroSquare, -12.0, -16.25, 3.0), v30, z0, tNozzle, \Wobj := wobj3Square;
		WaitRob \InPos;
		SetDO DO5_Program_Feed, 0;
		MoveL Offs(pZeroSquare, -9.0, -16.25, 3.0), v100, z0, tNozzle, \Wobj := wobj3Square;
		WaitRob \InPos;
		SetDO DO5_Program_Feed, 1;
		MoveL Offs(pZeroSquare, -9.0, 16.25, 3.0), v30, z0, tNozzle, \Wobj := wobj3Square;
		WaitRob \InPos;
		SetDO DO5_Program_Feed, 0;
		MoveL Offs(pZeroSquare, -6.0, 16.25, 3.0), v100, z0, tNozzle, \Wobj := wobj3Square;
		WaitRob \InPos;
		SetDO DO5_Program_Feed, 1;
		MoveL Offs(pZeroSquare, -6.0, -16.25, 3.0), v30, z0, tNozzle, \Wobj := wobj3Square;
		WaitRob \InPos;
		SetDO DO5_Program_Feed, 0;
		MoveL Offs(pZeroSquare, -3.0, -16.25, 3.0), v100, z0, tNozzle, \Wobj := wobj3Square;
		WaitRob \InPos;
		SetDO DO5_Program_Feed, 1;
		MoveL Offs(pZeroSquare, -3.0, 16.25, 3.0), v30, z0, tNozzle, \Wobj := wobj3Square;
		WaitRob \InPos;
		SetDO DO5_Program_Feed, 0;
		MoveL Offs(pZeroSquare, 0.0, 16.25, 3.0), v100, z0, tNozzle, \Wobj := wobj3Square;
		WaitRob \InPos;
		SetDO DO5_Program_Feed, 1;
		MoveL Offs(pZeroSquare, 0.0, -16.25, 3.0), v30, z0, tNozzle, \Wobj := wobj3Square;
		WaitRob \InPos;
		SetDO DO5_Program_Feed, 0;
		MoveL Offs(pZeroSquare, 3.0, -16.25, 3.0), v100, z0, tNozzle, \Wobj := wobj3Square;
		WaitRob \InPos;
		SetDO DO5_Program_Feed, 1;
		MoveL Offs(pZeroSquare, 3.0, 16.25, 3.0), v30, z0, tNozzle, \Wobj := wobj3Square;
		WaitRob \InPos;
		SetDO DO5_Program_Feed, 0;
		MoveL Offs(pZeroSquare, 6.0, 16.25, 3.0), v100, z0, tNozzle, \Wobj := wobj3Square;
		WaitRob \InPos;
		SetDO DO5_Program_Feed, 1;
		MoveL Offs(pZeroSquare, 6.0, -16.25, 3.0), v30, z0, tNozzle, \Wobj := wobj3Square;
		WaitRob \InPos;
		SetDO DO5_Program_Feed, 0;
		MoveL Offs(pZeroSquare, 9.0, -16.25, 3.0), v100, z0, tNozzle, \Wobj := wobj3Square;
		WaitRob \InPos;
		SetDO DO5_Program_Feed, 1;
		MoveL Offs(pZeroSquare, 9.0, 16.25, 3.0), v30, z0, tNozzle, \Wobj := wobj3Square;
		WaitRob \InPos;
		SetDO DO5_Program_Feed, 0;
		MoveL Offs(pZeroSquare, 12.0, 16.25, 3.0), v100, z0, tNozzle, \Wobj := wobj3Square;
		WaitRob \InPos;
		SetDO DO5_Program_Feed, 1;
		MoveL Offs(pZeroSquare, 12.0, -16.25, 3.0), v30, z0, tNozzle, \Wobj := wobj3Square;
		WaitRob \InPos;
		SetDO DO5_Program_Feed, 0;
		MoveL Offs(pZeroSquare, 15.0, -16.25, 3.0), v100, z0, tNozzle, \Wobj := wobj3Square;
		WaitRob \InPos;
		SetDO DO5_Program_Feed, 1;
		MoveL Offs(pZeroSquare, 15.0, 16.25, 3.0), v30, z0, tNozzle, \Wobj := wobj3Square;
		WaitRob \InPos;
		SetDO DO6_Between_Layer_Retract, 1;
		SetDO DO5_Program_Feed, 0;
		MoveL Offs(pZeroSquare, 15.0, 16.25, 13.0), v100, z0, tNozzle, \Wobj := wobj3Square;

		! Layer: 11
		! LayerParams(infillAngleDegrees=0.0, pathWidth=3.0, layerHeight=0.3, infillShiftX=0.0, infillShiftY=0.0, numShells=2, infillOverlap=0.0002)
		! T111
		! M6
		TPWRITE "Layer 11 of -1";
		MoveL Offs(pZeroSquare, -17.25, -15.85, 13.3), v100, z0, tNozzle, \Wobj := wobj3Square;
		MoveL Offs(pZeroSquare, -17.25, -15.85, 3.3), v30, z0, tNozzle, \Wobj := wobj3Square;
		WaitRob \InPos;
		SetDO DO6_Between_Layer_Retract, 0;
		WaitRob \InPos;
		SetDO DO5_Program_Feed, 1;
		MoveL Offs(pZeroSquare, -17.25, -17.25, 3.3), v30, z0, tNozzle, \Wobj := wobj3Square;
		MoveL Offs(pZeroSquare, 17.25, -17.25, 3.3), v30, z0, tNozzle, \Wobj := wobj3Square;
		MoveL Offs(pZeroSquare, 17.25, 17.25, 3.3), v30, z0, tNozzle, \Wobj := wobj3Square;
		MoveL Offs(pZeroSquare, -17.25, 17.25, 3.3), v30, z0, tNozzle, \Wobj := wobj3Square;
		MoveL Offs(pZeroSquare, -17.25, -15.85, 3.3), v30, z0, tNozzle, \Wobj := wobj3Square;
		MoveL Offs(pZeroSquare, -17.25, -15.85, 3.3), v30, z0, tNozzle, \Wobj := wobj3Square;
		WaitRob \InPos;
		SetDO DO5_Program_Feed, 0;
		MoveL Offs(pZeroSquare, -16.75, -15.85, 3.3), v100, z0, tNozzle, \Wobj := wobj3Square;
		WaitRob \InPos;
		SetDO DO5_Program_Feed, 1;
		MoveL Offs(pZeroSquare, -16.75, -16.75, 3.3), v30, z0, tNozzle, \Wobj := wobj3Square;
		MoveL Offs(pZeroSquare, 16.75, -16.75, 3.3), v30, z0, tNozzle, \Wobj := wobj3Square;
		MoveL Offs(pZeroSquare, 16.75, 16.75, 3.3), v30, z0, tNozzle, \Wobj := wobj3Square;
		MoveL Offs(pZeroSquare, -16.75, 16.75, 3.3), v30, z0, tNozzle, \Wobj := wobj3Square;
		MoveL Offs(pZeroSquare, -16.75, -15.85, 3.3), v30, z0, tNozzle, \Wobj := wobj3Square;
		MoveL Offs(pZeroSquare, -16.75, -15.85, 3.3), v30, z0, tNozzle, \Wobj := wobj3Square;
		WaitRob \InPos;
		SetDO DO5_Program_Feed, 0;
		MoveL Offs(pZeroSquare, -16.25, -15.0, 3.3), v100, z0, tNozzle, \Wobj := wobj3Square;
		WaitRob \InPos;
		SetDO DO5_Program_Feed, 1;
		MoveL Offs(pZeroSquare, 16.25, -15.0, 3.3), v30, z0, tNozzle, \Wobj := wobj3Square;
		WaitRob \InPos;
		SetDO DO5_Program_Feed, 0;
		MoveL Offs(pZeroSquare, 16.25, -12.0, 3.3), v100, z0, tNozzle, \Wobj := wobj3Square;
		WaitRob \InPos;
		SetDO DO5_Program_Feed, 1;
		MoveL Offs(pZeroSquare, -16.25, -12.0, 3.3), v30, z0, tNozzle, \Wobj := wobj3Square;
		WaitRob \InPos;
		SetDO DO5_Program_Feed, 0;
		MoveL Offs(pZeroSquare, -16.25, -9.0, 3.3), v100, z0, tNozzle, \Wobj := wobj3Square;
		WaitRob \InPos;
		SetDO DO5_Program_Feed, 1;
		MoveL Offs(pZeroSquare, 16.25, -9.0, 3.3), v30, z0, tNozzle, \Wobj := wobj3Square;
		WaitRob \InPos;
		SetDO DO5_Program_Feed, 0;
		MoveL Offs(pZeroSquare, 16.25, -6.0, 3.3), v100, z0, tNozzle, \Wobj := wobj3Square;
		WaitRob \InPos;
		SetDO DO5_Program_Feed, 1;
		MoveL Offs(pZeroSquare, -16.25, -6.0, 3.3), v30, z0, tNozzle, \Wobj := wobj3Square;
		WaitRob \InPos;
		SetDO DO5_Program_Feed, 0;
		MoveL Offs(pZeroSquare, -16.25, -3.0, 3.3), v100, z0, tNozzle, \Wobj := wobj3Square;
		WaitRob \InPos;
		SetDO DO5_Program_Feed, 1;
		MoveL Offs(pZeroSquare, 16.25, -3.0, 3.3), v30, z0, tNozzle, \Wobj := wobj3Square;
		WaitRob \InPos;
		SetDO DO5_Program_Feed, 0;
		MoveL Offs(pZeroSquare, 16.25, 0.0, 3.3), v100, z0, tNozzle, \Wobj := wobj3Square;
		WaitRob \InPos;
		SetDO DO5_Program_Feed, 1;
		MoveL Offs(pZeroSquare, -16.25, 0.0, 3.3), v30, z0, tNozzle, \Wobj := wobj3Square;
		WaitRob \InPos;
		SetDO DO5_Program_Feed, 0;
		MoveL Offs(pZeroSquare, -16.25, 3.0, 3.3), v100, z0, tNozzle, \Wobj := wobj3Square;
		WaitRob \InPos;
		SetDO DO5_Program_Feed, 1;
		MoveL Offs(pZeroSquare, 16.25, 3.0, 3.3), v30, z0, tNozzle, \Wobj := wobj3Square;
		WaitRob \InPos;
		SetDO DO5_Program_Feed, 0;
		MoveL Offs(pZeroSquare, 16.25, 6.0, 3.3), v100, z0, tNozzle, \Wobj := wobj3Square;
		WaitRob \InPos;
		SetDO DO5_Program_Feed, 1;
		MoveL Offs(pZeroSquare, -16.25, 6.0, 3.3), v30, z0, tNozzle, \Wobj := wobj3Square;
		WaitRob \InPos;
		SetDO DO5_Program_Feed, 0;
		MoveL Offs(pZeroSquare, -16.25, 9.0, 3.3), v100, z0, tNozzle, \Wobj := wobj3Square;
		WaitRob \InPos;
		SetDO DO5_Program_Feed, 1;
		MoveL Offs(pZeroSquare, 16.25, 9.0, 3.3), v30, z0, tNozzle, \Wobj := wobj3Square;
		WaitRob \InPos;
		SetDO DO5_Program_Feed, 0;
		MoveL Offs(pZeroSquare, 16.25, 12.0, 3.3), v100, z0, tNozzle, \Wobj := wobj3Square;
		WaitRob \InPos;
		SetDO DO5_Program_Feed, 1;
		MoveL Offs(pZeroSquare, -16.25, 12.0, 3.3), v30, z0, tNozzle, \Wobj := wobj3Square;
		WaitRob \InPos;
		SetDO DO5_Program_Feed, 0;
		MoveL Offs(pZeroSquare, -16.25, 15.0, 3.3), v100, z0, tNozzle, \Wobj := wobj3Square;
		WaitRob \InPos;
		SetDO DO5_Program_Feed, 1;
		MoveL Offs(pZeroSquare, 16.25, 15.0, 3.3), v30, z0, tNozzle, \Wobj := wobj3Square;
		WaitRob \InPos;
		SetDO DO6_Between_Layer_Retract, 1;
		SetDO DO5_Program_Feed, 0;
		MoveL Offs(pZeroSquare, 16.25, 15.0, 13.3), v100, z0, tNozzle, \Wobj := wobj3Square;

		! Layer: 12
		! LayerParams(infillAngleDegrees=90.0, pathWidth=3.0, layerHeight=0.3, infillShiftX=0.0, infillShiftY=0.0, numShells=2, infillOverlap=0.0002)
		! T112
		! M6
		TPWRITE "Layer 12 of -1";
		MoveL Offs(pZeroSquare, -17.25, -15.7, 13.6), v100, z0, tNozzle, \Wobj := wobj3Square;
		MoveL Offs(pZeroSquare, -17.25, -15.7, 3.6), v30, z0, tNozzle, \Wobj := wobj3Square;
		WaitRob \InPos;
		SetDO DO6_Between_Layer_Retract, 0;
		WaitRob \InPos;
		SetDO DO5_Program_Feed, 1;
		MoveL Offs(pZeroSquare, -17.25, -15.7, 3.6), v30, z0, tNozzle, \Wobj := wobj3Square;
		MoveL Offs(pZeroSquare, -17.25, -17.25, 3.6), v30, z0, tNozzle, \Wobj := wobj3Square;
		MoveL Offs(pZeroSquare, 17.25, -17.25, 3.6), v30, z0, tNozzle, \Wobj := wobj3Square;
		MoveL Offs(pZeroSquare, 17.25, 17.25, 3.6), v30, z0, tNozzle, \Wobj := wobj3Square;
		MoveL Offs(pZeroSquare, -17.25, 17.25, 3.6), v30, z0, tNozzle, \Wobj := wobj3Square;
		MoveL Offs(pZeroSquare, -17.25, -15.7, 3.6), v30, z0, tNozzle, \Wobj := wobj3Square;
		WaitRob \InPos;
		SetDO DO5_Program_Feed, 0;
		MoveL Offs(pZeroSquare, -16.75, -15.7, 3.6), v100, z0, tNozzle, \Wobj := wobj3Square;
		WaitRob \InPos;
		SetDO DO5_Program_Feed, 1;
		MoveL Offs(pZeroSquare, -16.75, -16.75, 3.6), v30, z0, tNozzle, \Wobj := wobj3Square;
		MoveL Offs(pZeroSquare, 16.75, -16.75, 3.6), v30, z0, tNozzle, \Wobj := wobj3Square;
		MoveL Offs(pZeroSquare, 16.75, 16.75, 3.6), v30, z0, tNozzle, \Wobj := wobj3Square;
		MoveL Offs(pZeroSquare, -16.75, 16.75, 3.6), v30, z0, tNozzle, \Wobj := wobj3Square;
		MoveL Offs(pZeroSquare, -16.75, -15.7, 3.6), v30, z0, tNozzle, \Wobj := wobj3Square;
		MoveL Offs(pZeroSquare, -16.75, -15.7, 3.6), v30, z0, tNozzle, \Wobj := wobj3Square;
		WaitRob \InPos;
		SetDO DO5_Program_Feed, 0;
		MoveL Offs(pZeroSquare, -15.0, -16.25, 3.6), v100, z0, tNozzle, \Wobj := wobj3Square;
		WaitRob \InPos;
		SetDO DO5_Program_Feed, 1;
		MoveL Offs(pZeroSquare, -15.0, 16.25, 3.6), v30, z0, tNozzle, \Wobj := wobj3Square;
		WaitRob \InPos;
		SetDO DO5_Program_Feed, 0;
		MoveL Offs(pZeroSquare, -12.0, 16.25, 3.6), v100, z0, tNozzle, \Wobj := wobj3Square;
		WaitRob \InPos;
		SetDO DO5_Program_Feed, 1;
		MoveL Offs(pZeroSquare, -12.0, -16.25, 3.6), v30, z0, tNozzle, \Wobj := wobj3Square;
		WaitRob \InPos;
		SetDO DO5_Program_Feed, 0;
		MoveL Offs(pZeroSquare, -9.0, -16.25, 3.6), v100, z0, tNozzle, \Wobj := wobj3Square;
		WaitRob \InPos;
		SetDO DO5_Program_Feed, 1;
		MoveL Offs(pZeroSquare, -9.0, 16.25, 3.6), v30, z0, tNozzle, \Wobj := wobj3Square;
		WaitRob \InPos;
		SetDO DO5_Program_Feed, 0;
		MoveL Offs(pZeroSquare, -6.0, 16.25, 3.6), v100, z0, tNozzle, \Wobj := wobj3Square;
		WaitRob \InPos;
		SetDO DO5_Program_Feed, 1;
		MoveL Offs(pZeroSquare, -6.0, -16.25, 3.6), v30, z0, tNozzle, \Wobj := wobj3Square;
		WaitRob \InPos;
		SetDO DO5_Program_Feed, 0;
		MoveL Offs(pZeroSquare, -3.0, -16.25, 3.6), v100, z0, tNozzle, \Wobj := wobj3Square;
		WaitRob \InPos;
		SetDO DO5_Program_Feed, 1;
		MoveL Offs(pZeroSquare, -3.0, 16.25, 3.6), v30, z0, tNozzle, \Wobj := wobj3Square;
		WaitRob \InPos;
		SetDO DO5_Program_Feed, 0;
		MoveL Offs(pZeroSquare, 0.0, 16.25, 3.6), v100, z0, tNozzle, \Wobj := wobj3Square;
		WaitRob \InPos;
		SetDO DO5_Program_Feed, 1;
		MoveL Offs(pZeroSquare, 0.0, -16.25, 3.6), v30, z0, tNozzle, \Wobj := wobj3Square;
		WaitRob \InPos;
		SetDO DO5_Program_Feed, 0;
		MoveL Offs(pZeroSquare, 3.0, -16.25, 3.6), v100, z0, tNozzle, \Wobj := wobj3Square;
		WaitRob \InPos;
		SetDO DO5_Program_Feed, 1;
		MoveL Offs(pZeroSquare, 3.0, 16.25, 3.6), v30, z0, tNozzle, \Wobj := wobj3Square;
		WaitRob \InPos;
		SetDO DO5_Program_Feed, 0;
		MoveL Offs(pZeroSquare, 6.0, 16.25, 3.6), v100, z0, tNozzle, \Wobj := wobj3Square;
		WaitRob \InPos;
		SetDO DO5_Program_Feed, 1;
		MoveL Offs(pZeroSquare, 6.0, -16.25, 3.6), v30, z0, tNozzle, \Wobj := wobj3Square;
		WaitRob \InPos;
		SetDO DO5_Program_Feed, 0;
		MoveL Offs(pZeroSquare, 9.0, -16.25, 3.6), v100, z0, tNozzle, \Wobj := wobj3Square;
		WaitRob \InPos;
		SetDO DO5_Program_Feed, 1;
		MoveL Offs(pZeroSquare, 9.0, 16.25, 3.6), v30, z0, tNozzle, \Wobj := wobj3Square;
		WaitRob \InPos;
		SetDO DO5_Program_Feed, 0;
		MoveL Offs(pZeroSquare, 12.0, 16.25, 3.6), v100, z0, tNozzle, \Wobj := wobj3Square;
		WaitRob \InPos;
		SetDO DO5_Program_Feed, 1;
		MoveL Offs(pZeroSquare, 12.0, -16.25, 3.6), v30, z0, tNozzle, \Wobj := wobj3Square;
		WaitRob \InPos;
		SetDO DO5_Program_Feed, 0;
		MoveL Offs(pZeroSquare, 15.0, -16.25, 3.6), v100, z0, tNozzle, \Wobj := wobj3Square;
		WaitRob \InPos;
		SetDO DO5_Program_Feed, 1;
		MoveL Offs(pZeroSquare, 15.0, 16.25, 3.6), v30, z0, tNozzle, \Wobj := wobj3Square;
		WaitRob \InPos;
		SetDO DO6_Between_Layer_Retract, 1;
		SetDO DO5_Program_Feed, 0;
		MoveL Offs(pZeroSquare, 15.0, 16.25, 13.6), v100, z0, tNozzle, \Wobj := wobj3Square;

		! Layer: 13
		! LayerParams(infillAngleDegrees=0.0, pathWidth=3.0, layerHeight=0.3, infillShiftX=0.0, infillShiftY=0.0, numShells=2, infillOverlap=0.0002)
		! T113
		! M6
		TPWRITE "Layer 13 of -1";
		MoveL Offs(pZeroSquare, 17.25, 17.25, 13.9), v100, z0, tNozzle, \Wobj := wobj3Square;
		MoveL Offs(pZeroSquare, 17.25, 17.25, 3.9), v30, z0, tNozzle, \Wobj := wobj3Square;
		WaitRob \InPos;
		SetDO DO6_Between_Layer_Retract, 0;
		WaitRob \InPos;
		SetDO DO5_Program_Feed, 1;
		MoveL Offs(pZeroSquare, -17.25, 17.25, 3.9), v30, z0, tNozzle, \Wobj := wobj3Square;
		MoveL Offs(pZeroSquare, -17.25, -15.55, 3.9), v30, z0, tNozzle, \Wobj := wobj3Square;
		MoveL Offs(pZeroSquare, -17.25, -15.55, 3.9), v30, z0, tNozzle, \Wobj := wobj3Square;
		MoveL Offs(pZeroSquare, -17.25, -17.25, 3.9), v30, z0, tNozzle, \Wobj := wobj3Square;
		MoveL Offs(pZeroSquare, 17.25, -17.25, 3.9), v30, z0, tNozzle, \Wobj := wobj3Square;
		MoveL Offs(pZeroSquare, 17.25, 17.25, 3.9), v30, z0, tNozzle, \Wobj := wobj3Square;
		WaitRob \InPos;
		SetDO DO5_Program_Feed, 0;
		MoveL Offs(pZeroSquare, 16.75, 16.75, 3.9), v100, z0, tNozzle, \Wobj := wobj3Square;
		WaitRob \InPos;
		SetDO DO5_Program_Feed, 1;
		MoveL Offs(pZeroSquare, -16.75, 16.75, 3.9), v30, z0, tNozzle, \Wobj := wobj3Square;
		MoveL Offs(pZeroSquare, -16.75, -15.55, 3.9), v30, z0, tNozzle, \Wobj := wobj3Square;
		MoveL Offs(pZeroSquare, -16.75, -15.55, 3.9), v30, z0, tNozzle, \Wobj := wobj3Square;
		MoveL Offs(pZeroSquare, -16.75, -16.75, 3.9), v30, z0, tNozzle, \Wobj := wobj3Square;
		MoveL Offs(pZeroSquare, 16.75, -16.75, 3.9), v30, z0, tNozzle, \Wobj := wobj3Square;
		MoveL Offs(pZeroSquare, 16.75, 16.75, 3.9), v30, z0, tNozzle, \Wobj := wobj3Square;
		WaitRob \InPos;
		SetDO DO5_Program_Feed, 0;
		MoveL Offs(pZeroSquare, 16.25, 15.0, 3.9), v100, z0, tNozzle, \Wobj := wobj3Square;
		WaitRob \InPos;
		SetDO DO5_Program_Feed, 1;
		MoveL Offs(pZeroSquare, -16.25, 15.0, 3.9), v30, z0, tNozzle, \Wobj := wobj3Square;
		WaitRob \InPos;
		SetDO DO5_Program_Feed, 0;
		MoveL Offs(pZeroSquare, -16.25, 12.0, 3.9), v100, z0, tNozzle, \Wobj := wobj3Square;
		WaitRob \InPos;
		SetDO DO5_Program_Feed, 1;
		MoveL Offs(pZeroSquare, 16.25, 12.0, 3.9), v30, z0, tNozzle, \Wobj := wobj3Square;
		WaitRob \InPos;
		SetDO DO5_Program_Feed, 0;
		MoveL Offs(pZeroSquare, 16.25, 9.0, 3.9), v100, z0, tNozzle, \Wobj := wobj3Square;
		WaitRob \InPos;
		SetDO DO5_Program_Feed, 1;
		MoveL Offs(pZeroSquare, -16.25, 9.0, 3.9), v30, z0, tNozzle, \Wobj := wobj3Square;
		WaitRob \InPos;
		SetDO DO5_Program_Feed, 0;
		MoveL Offs(pZeroSquare, -16.25, 6.0, 3.9), v100, z0, tNozzle, \Wobj := wobj3Square;
		WaitRob \InPos;
		SetDO DO5_Program_Feed, 1;
		MoveL Offs(pZeroSquare, 16.25, 6.0, 3.9), v30, z0, tNozzle, \Wobj := wobj3Square;
		WaitRob \InPos;
		SetDO DO5_Program_Feed, 0;
		MoveL Offs(pZeroSquare, 16.25, 3.0, 3.9), v100, z0, tNozzle, \Wobj := wobj3Square;
		WaitRob \InPos;
		SetDO DO5_Program_Feed, 1;
		MoveL Offs(pZeroSquare, -16.25, 3.0, 3.9), v30, z0, tNozzle, \Wobj := wobj3Square;
		WaitRob \InPos;
		SetDO DO5_Program_Feed, 0;
		MoveL Offs(pZeroSquare, -16.25, 0.0, 3.9), v100, z0, tNozzle, \Wobj := wobj3Square;
		WaitRob \InPos;
		SetDO DO5_Program_Feed, 1;
		MoveL Offs(pZeroSquare, 16.25, 0.0, 3.9), v30, z0, tNozzle, \Wobj := wobj3Square;
		WaitRob \InPos;
		SetDO DO5_Program_Feed, 0;
		MoveL Offs(pZeroSquare, 16.25, -3.0, 3.9), v100, z0, tNozzle, \Wobj := wobj3Square;
		WaitRob \InPos;
		SetDO DO5_Program_Feed, 1;
		MoveL Offs(pZeroSquare, -16.25, -3.0, 3.9), v30, z0, tNozzle, \Wobj := wobj3Square;
		WaitRob \InPos;
		SetDO DO5_Program_Feed, 0;
		MoveL Offs(pZeroSquare, -16.25, -6.0, 3.9), v100, z0, tNozzle, \Wobj := wobj3Square;
		WaitRob \InPos;
		SetDO DO5_Program_Feed, 1;
		MoveL Offs(pZeroSquare, 16.25, -6.0, 3.9), v30, z0, tNozzle, \Wobj := wobj3Square;
		WaitRob \InPos;
		SetDO DO5_Program_Feed, 0;
		MoveL Offs(pZeroSquare, 16.25, -9.0, 3.9), v100, z0, tNozzle, \Wobj := wobj3Square;
		WaitRob \InPos;
		SetDO DO5_Program_Feed, 1;
		MoveL Offs(pZeroSquare, -16.25, -9.0, 3.9), v30, z0, tNozzle, \Wobj := wobj3Square;
		WaitRob \InPos;
		SetDO DO5_Program_Feed, 0;
		MoveL Offs(pZeroSquare, -16.25, -12.0, 3.9), v100, z0, tNozzle, \Wobj := wobj3Square;
		WaitRob \InPos;
		SetDO DO5_Program_Feed, 1;
		MoveL Offs(pZeroSquare, 16.25, -12.0, 3.9), v30, z0, tNozzle, \Wobj := wobj3Square;
		WaitRob \InPos;
		SetDO DO5_Program_Feed, 0;
		MoveL Offs(pZeroSquare, 16.25, -15.0, 3.9), v100, z0, tNozzle, \Wobj := wobj3Square;
		WaitRob \InPos;
		SetDO DO5_Program_Feed, 1;
		MoveL Offs(pZeroSquare, -16.25, -15.0, 3.9), v30, z0, tNozzle, \Wobj := wobj3Square;
		WaitRob \InPos;
		SetDO DO6_Between_Layer_Retract, 1;
		SetDO DO5_Program_Feed, 0;
		MoveL Offs(pZeroSquare, -16.25, -15.0, 13.9), v100, z0, tNozzle, \Wobj := wobj3Square;

		! Layer: 14
		! LayerParams(infillAngleDegrees=90.0, pathWidth=3.0, layerHeight=0.3, infillShiftX=0.0, infillShiftY=0.0, numShells=2, infillOverlap=0.0002)
		! T114
		! M6
		TPWRITE "Layer 14 of -1";
		MoveL Offs(pZeroSquare, 17.25, 17.25, 14.2), v100, z0, tNozzle, \Wobj := wobj3Square;
		MoveL Offs(pZeroSquare, 17.25, 17.25, 4.2), v30, z0, tNozzle, \Wobj := wobj3Square;
		WaitRob \InPos;
		SetDO DO6_Between_Layer_Retract, 0;
		WaitRob \InPos;
		SetDO DO5_Program_Feed, 1;
		MoveL Offs(pZeroSquare, -17.25, 17.25, 4.2), v30, z0, tNozzle, \Wobj := wobj3Square;
		MoveL Offs(pZeroSquare, -17.25, -15.4, 4.2), v30, z0, tNozzle, \Wobj := wobj3Square;
		MoveL Offs(pZeroSquare, -17.25, -15.4, 4.2), v30, z0, tNozzle, \Wobj := wobj3Square;
		MoveL Offs(pZeroSquare, -17.25, -17.25, 4.2), v30, z0, tNozzle, \Wobj := wobj3Square;
		MoveL Offs(pZeroSquare, 17.25, -17.25, 4.2), v30, z0, tNozzle, \Wobj := wobj3Square;
		MoveL Offs(pZeroSquare, 17.25, 17.25, 4.2), v30, z0, tNozzle, \Wobj := wobj3Square;
		WaitRob \InPos;
		SetDO DO5_Program_Feed, 0;
		MoveL Offs(pZeroSquare, 16.75, 16.75, 4.2), v100, z0, tNozzle, \Wobj := wobj3Square;
		WaitRob \InPos;
		SetDO DO5_Program_Feed, 1;
		MoveL Offs(pZeroSquare, -16.75, 16.75, 4.2), v30, z0, tNozzle, \Wobj := wobj3Square;
		MoveL Offs(pZeroSquare, -16.75, -15.4, 4.2), v30, z0, tNozzle, \Wobj := wobj3Square;
		MoveL Offs(pZeroSquare, -16.75, -15.4, 4.2), v30, z0, tNozzle, \Wobj := wobj3Square;
		MoveL Offs(pZeroSquare, -16.75, -16.75, 4.2), v30, z0, tNozzle, \Wobj := wobj3Square;
		MoveL Offs(pZeroSquare, 16.75, -16.75, 4.2), v30, z0, tNozzle, \Wobj := wobj3Square;
		MoveL Offs(pZeroSquare, 16.75, 16.75, 4.2), v30, z0, tNozzle, \Wobj := wobj3Square;
		WaitRob \InPos;
		SetDO DO5_Program_Feed, 0;
		MoveL Offs(pZeroSquare, 15.0, 16.25, 4.2), v100, z0, tNozzle, \Wobj := wobj3Square;
		WaitRob \InPos;
		SetDO DO5_Program_Feed, 1;
		MoveL Offs(pZeroSquare, 15.0, -16.25, 4.2), v30, z0, tNozzle, \Wobj := wobj3Square;
		WaitRob \InPos;
		SetDO DO5_Program_Feed, 0;
		MoveL Offs(pZeroSquare, 12.0, -16.25, 4.2), v100, z0, tNozzle, \Wobj := wobj3Square;
		WaitRob \InPos;
		SetDO DO5_Program_Feed, 1;
		MoveL Offs(pZeroSquare, 12.0, 16.25, 4.2), v30, z0, tNozzle, \Wobj := wobj3Square;
		WaitRob \InPos;
		SetDO DO5_Program_Feed, 0;
		MoveL Offs(pZeroSquare, 9.0, 16.25, 4.2), v100, z0, tNozzle, \Wobj := wobj3Square;
		WaitRob \InPos;
		SetDO DO5_Program_Feed, 1;
		MoveL Offs(pZeroSquare, 9.0, -16.25, 4.2), v30, z0, tNozzle, \Wobj := wobj3Square;
		WaitRob \InPos;
		SetDO DO5_Program_Feed, 0;
		MoveL Offs(pZeroSquare, 6.0, -16.25, 4.2), v100, z0, tNozzle, \Wobj := wobj3Square;
		WaitRob \InPos;
		SetDO DO5_Program_Feed, 1;
		MoveL Offs(pZeroSquare, 6.0, 16.25, 4.2), v30, z0, tNozzle, \Wobj := wobj3Square;
		WaitRob \InPos;
		SetDO DO5_Program_Feed, 0;
		MoveL Offs(pZeroSquare, 3.0, 16.25, 4.2), v100, z0, tNozzle, \Wobj := wobj3Square;
		WaitRob \InPos;
		SetDO DO5_Program_Feed, 1;
		MoveL Offs(pZeroSquare, 3.0, -16.25, 4.2), v30, z0, tNozzle, \Wobj := wobj3Square;
		WaitRob \InPos;
		SetDO DO5_Program_Feed, 0;
		MoveL Offs(pZeroSquare, 0.0, -16.25, 4.2), v100, z0, tNozzle, \Wobj := wobj3Square;
		WaitRob \InPos;
		SetDO DO5_Program_Feed, 1;
		MoveL Offs(pZeroSquare, 0.0, 16.25, 4.2), v30, z0, tNozzle, \Wobj := wobj3Square;
		WaitRob \InPos;
		SetDO DO5_Program_Feed, 0;
		MoveL Offs(pZeroSquare, -3.0, 16.25, 4.2), v100, z0, tNozzle, \Wobj := wobj3Square;
		WaitRob \InPos;
		SetDO DO5_Program_Feed, 1;
		MoveL Offs(pZeroSquare, -3.0, -16.25, 4.2), v30, z0, tNozzle, \Wobj := wobj3Square;
		WaitRob \InPos;
		SetDO DO5_Program_Feed, 0;
		MoveL Offs(pZeroSquare, -6.0, -16.25, 4.2), v100, z0, tNozzle, \Wobj := wobj3Square;
		WaitRob \InPos;
		SetDO DO5_Program_Feed, 1;
		MoveL Offs(pZeroSquare, -6.0, 16.25, 4.2), v30, z0, tNozzle, \Wobj := wobj3Square;
		WaitRob \InPos;
		SetDO DO5_Program_Feed, 0;
		MoveL Offs(pZeroSquare, -9.0, 16.25, 4.2), v100, z0, tNozzle, \Wobj := wobj3Square;
		WaitRob \InPos;
		SetDO DO5_Program_Feed, 1;
		MoveL Offs(pZeroSquare, -9.0, -16.25, 4.2), v30, z0, tNozzle, \Wobj := wobj3Square;
		WaitRob \InPos;
		SetDO DO5_Program_Feed, 0;
		MoveL Offs(pZeroSquare, -12.0, -16.25, 4.2), v100, z0, tNozzle, \Wobj := wobj3Square;
		WaitRob \InPos;
		SetDO DO5_Program_Feed, 1;
		MoveL Offs(pZeroSquare, -12.0, 16.25, 4.2), v30, z0, tNozzle, \Wobj := wobj3Square;
		WaitRob \InPos;
		SetDO DO5_Program_Feed, 0;
		MoveL Offs(pZeroSquare, -15.0, 16.25, 4.2), v100, z0, tNozzle, \Wobj := wobj3Square;
		WaitRob \InPos;
		SetDO DO5_Program_Feed, 1;
		MoveL Offs(pZeroSquare, -15.0, -16.25, 4.2), v30, z0, tNozzle, \Wobj := wobj3Square;
		WaitRob \InPos;
		SetDO DO6_Between_Layer_Retract, 1;
		SetDO DO5_Program_Feed, 0;
		MoveL Offs(pZeroSquare, -15.0, -16.25, 14.2), v100, z0, tNozzle, \Wobj := wobj3Square;

		! Layer: 15
		! LayerParams(infillAngleDegrees=0.0, pathWidth=3.0, layerHeight=0.3, infillShiftX=0.0, infillShiftY=0.0, numShells=2, infillOverlap=0.0002)
		! T115
		! M6
		TPWRITE "Layer 15 of -1";
		MoveL Offs(pZeroSquare, -17.25, 17.25, 14.5), v100, z0, tNozzle, \Wobj := wobj3Square;
		MoveL Offs(pZeroSquare, -17.25, 17.25, 4.5), v30, z0, tNozzle, \Wobj := wobj3Square;
		WaitRob \InPos;
		SetDO DO6_Between_Layer_Retract, 0;
		WaitRob \InPos;
		SetDO DO5_Program_Feed, 1;
		MoveL Offs(pZeroSquare, -17.25, -15.25, 4.5), v30, z0, tNozzle, \Wobj := wobj3Square;
		MoveL Offs(pZeroSquare, -17.25, -15.25, 4.5), v30, z0, tNozzle, \Wobj := wobj3Square;
		MoveL Offs(pZeroSquare, -17.25, -17.25, 4.5), v30, z0, tNozzle, \Wobj := wobj3Square;
		MoveL Offs(pZeroSquare, 17.25, -17.25, 4.5), v30, z0, tNozzle, \Wobj := wobj3Square;
		MoveL Offs(pZeroSquare, 17.25, 17.25, 4.5), v30, z0, tNozzle, \Wobj := wobj3Square;
		MoveL Offs(pZeroSquare, -17.25, 17.25, 4.5), v30, z0, tNozzle, \Wobj := wobj3Square;
		WaitRob \InPos;
		SetDO DO5_Program_Feed, 0;
		MoveL Offs(pZeroSquare, -16.75, 16.75, 4.5), v100, z0, tNozzle, \Wobj := wobj3Square;
		WaitRob \InPos;
		SetDO DO5_Program_Feed, 1;
		MoveL Offs(pZeroSquare, -16.75, -15.25, 4.5), v30, z0, tNozzle, \Wobj := wobj3Square;
		MoveL Offs(pZeroSquare, -16.75, -15.25, 4.5), v30, z0, tNozzle, \Wobj := wobj3Square;
		MoveL Offs(pZeroSquare, -16.75, -16.75, 4.5), v30, z0, tNozzle, \Wobj := wobj3Square;
		MoveL Offs(pZeroSquare, 16.75, -16.75, 4.5), v30, z0, tNozzle, \Wobj := wobj3Square;
		MoveL Offs(pZeroSquare, 16.75, 16.75, 4.5), v30, z0, tNozzle, \Wobj := wobj3Square;
		MoveL Offs(pZeroSquare, -16.75, 16.75, 4.5), v30, z0, tNozzle, \Wobj := wobj3Square;
		WaitRob \InPos;
		SetDO DO5_Program_Feed, 0;
		MoveL Offs(pZeroSquare, -16.25, 15.0, 4.5), v100, z0, tNozzle, \Wobj := wobj3Square;
		WaitRob \InPos;
		SetDO DO5_Program_Feed, 1;
		MoveL Offs(pZeroSquare, 16.25, 15.0, 4.5), v30, z0, tNozzle, \Wobj := wobj3Square;
		WaitRob \InPos;
		SetDO DO5_Program_Feed, 0;
		MoveL Offs(pZeroSquare, 16.25, 12.0, 4.5), v100, z0, tNozzle, \Wobj := wobj3Square;
		WaitRob \InPos;
		SetDO DO5_Program_Feed, 1;
		MoveL Offs(pZeroSquare, -16.25, 12.0, 4.5), v30, z0, tNozzle, \Wobj := wobj3Square;
		WaitRob \InPos;
		SetDO DO5_Program_Feed, 0;
		MoveL Offs(pZeroSquare, -16.25, 9.0, 4.5), v100, z0, tNozzle, \Wobj := wobj3Square;
		WaitRob \InPos;
		SetDO DO5_Program_Feed, 1;
		MoveL Offs(pZeroSquare, 16.25, 9.0, 4.5), v30, z0, tNozzle, \Wobj := wobj3Square;
		WaitRob \InPos;
		SetDO DO5_Program_Feed, 0;
		MoveL Offs(pZeroSquare, 16.25, 6.0, 4.5), v100, z0, tNozzle, \Wobj := wobj3Square;
		WaitRob \InPos;
		SetDO DO5_Program_Feed, 1;
		MoveL Offs(pZeroSquare, -16.25, 6.0, 4.5), v30, z0, tNozzle, \Wobj := wobj3Square;
		WaitRob \InPos;
		SetDO DO5_Program_Feed, 0;
		MoveL Offs(pZeroSquare, -16.25, 3.0, 4.5), v100, z0, tNozzle, \Wobj := wobj3Square;
		WaitRob \InPos;
		SetDO DO5_Program_Feed, 1;
		MoveL Offs(pZeroSquare, 16.25, 3.0, 4.5), v30, z0, tNozzle, \Wobj := wobj3Square;
		WaitRob \InPos;
		SetDO DO5_Program_Feed, 0;
		MoveL Offs(pZeroSquare, 16.25, 0.0, 4.5), v100, z0, tNozzle, \Wobj := wobj3Square;
		WaitRob \InPos;
		SetDO DO5_Program_Feed, 1;
		MoveL Offs(pZeroSquare, -16.25, 0.0, 4.5), v30, z0, tNozzle, \Wobj := wobj3Square;
		WaitRob \InPos;
		SetDO DO5_Program_Feed, 0;
		MoveL Offs(pZeroSquare, -16.25, -3.0, 4.5), v100, z0, tNozzle, \Wobj := wobj3Square;
		WaitRob \InPos;
		SetDO DO5_Program_Feed, 1;
		MoveL Offs(pZeroSquare, 16.25, -3.0, 4.5), v30, z0, tNozzle, \Wobj := wobj3Square;
		WaitRob \InPos;
		SetDO DO5_Program_Feed, 0;
		MoveL Offs(pZeroSquare, 16.25, -6.0, 4.5), v100, z0, tNozzle, \Wobj := wobj3Square;
		WaitRob \InPos;
		SetDO DO5_Program_Feed, 1;
		MoveL Offs(pZeroSquare, -16.25, -6.0, 4.5), v30, z0, tNozzle, \Wobj := wobj3Square;
		WaitRob \InPos;
		SetDO DO5_Program_Feed, 0;
		MoveL Offs(pZeroSquare, -16.25, -9.0, 4.5), v100, z0, tNozzle, \Wobj := wobj3Square;
		WaitRob \InPos;
		SetDO DO5_Program_Feed, 1;
		MoveL Offs(pZeroSquare, 16.25, -9.0, 4.5), v30, z0, tNozzle, \Wobj := wobj3Square;
		WaitRob \InPos;
		SetDO DO5_Program_Feed, 0;
		MoveL Offs(pZeroSquare, 16.25, -12.0, 4.5), v100, z0, tNozzle, \Wobj := wobj3Square;
		WaitRob \InPos;
		SetDO DO5_Program_Feed, 1;
		MoveL Offs(pZeroSquare, -16.25, -12.0, 4.5), v30, z0, tNozzle, \Wobj := wobj3Square;
		WaitRob \InPos;
		SetDO DO5_Program_Feed, 0;
		MoveL Offs(pZeroSquare, -16.25, -15.0, 4.5), v100, z0, tNozzle, \Wobj := wobj3Square;
		WaitRob \InPos;
		SetDO DO5_Program_Feed, 1;
		MoveL Offs(pZeroSquare, 16.25, -15.0, 4.5), v30, z0, tNozzle, \Wobj := wobj3Square;
		WaitRob \InPos;
		SetDO DO6_Between_Layer_Retract, 1;
		SetDO DO5_Program_Feed, 0;
		MoveL Offs(pZeroSquare, 16.25, -15.0, 14.5), v100, z0, tNozzle, \Wobj := wobj3Square;

		! Layer: 16
		! LayerParams(infillAngleDegrees=90.0, pathWidth=3.0, layerHeight=0.3, infillShiftX=0.0, infillShiftY=0.0, numShells=2, infillOverlap=0.0002)
		! T116
		! M6
		TPWRITE "Layer 16 of -1";
		MoveL Offs(pZeroSquare, 17.25, 17.25, 14.8), v100, z0, tNozzle, \Wobj := wobj3Square;
		MoveL Offs(pZeroSquare, 17.25, 17.25, 4.8), v30, z0, tNozzle, \Wobj := wobj3Square;
		WaitRob \InPos;
		SetDO DO6_Between_Layer_Retract, 0;
		WaitRob \InPos;
		SetDO DO5_Program_Feed, 1;
		MoveL Offs(pZeroSquare, -17.25, 17.25, 4.8), v30, z0, tNozzle, \Wobj := wobj3Square;
		MoveL Offs(pZeroSquare, -17.25, -15.1, 4.8), v30, z0, tNozzle, \Wobj := wobj3Square;
		MoveL Offs(pZeroSquare, -17.25, -15.1, 4.8), v30, z0, tNozzle, \Wobj := wobj3Square;
		MoveL Offs(pZeroSquare, -17.25, -17.25, 4.8), v30, z0, tNozzle, \Wobj := wobj3Square;
		MoveL Offs(pZeroSquare, 17.25, -17.25, 4.8), v30, z0, tNozzle, \Wobj := wobj3Square;
		MoveL Offs(pZeroSquare, 17.25, 17.25, 4.8), v30, z0, tNozzle, \Wobj := wobj3Square;
		WaitRob \InPos;
		SetDO DO5_Program_Feed, 0;
		MoveL Offs(pZeroSquare, 16.75, 16.75, 4.8), v100, z0, tNozzle, \Wobj := wobj3Square;
		WaitRob \InPos;
		SetDO DO5_Program_Feed, 1;
		MoveL Offs(pZeroSquare, -16.75, 16.75, 4.8), v30, z0, tNozzle, \Wobj := wobj3Square;
		MoveL Offs(pZeroSquare, -16.75, -15.1, 4.8), v30, z0, tNozzle, \Wobj := wobj3Square;
		MoveL Offs(pZeroSquare, -16.75, -15.1, 4.8), v30, z0, tNozzle, \Wobj := wobj3Square;
		MoveL Offs(pZeroSquare, -16.75, -16.75, 4.8), v30, z0, tNozzle, \Wobj := wobj3Square;
		MoveL Offs(pZeroSquare, 16.75, -16.75, 4.8), v30, z0, tNozzle, \Wobj := wobj3Square;
		MoveL Offs(pZeroSquare, 16.75, 16.75, 4.8), v30, z0, tNozzle, \Wobj := wobj3Square;
		WaitRob \InPos;
		SetDO DO5_Program_Feed, 0;
		MoveL Offs(pZeroSquare, 15.0, 16.25, 4.8), v100, z0, tNozzle, \Wobj := wobj3Square;
		WaitRob \InPos;
		SetDO DO5_Program_Feed, 1;
		MoveL Offs(pZeroSquare, 15.0, -16.25, 4.8), v30, z0, tNozzle, \Wobj := wobj3Square;
		WaitRob \InPos;
		SetDO DO5_Program_Feed, 0;
		MoveL Offs(pZeroSquare, 12.0, -16.25, 4.8), v100, z0, tNozzle, \Wobj := wobj3Square;
		WaitRob \InPos;
		SetDO DO5_Program_Feed, 1;
		MoveL Offs(pZeroSquare, 12.0, 16.25, 4.8), v30, z0, tNozzle, \Wobj := wobj3Square;
		WaitRob \InPos;
		SetDO DO5_Program_Feed, 0;
		MoveL Offs(pZeroSquare, 9.0, 16.25, 4.8), v100, z0, tNozzle, \Wobj := wobj3Square;
		WaitRob \InPos;
		SetDO DO5_Program_Feed, 1;
		MoveL Offs(pZeroSquare, 9.0, -16.25, 4.8), v30, z0, tNozzle, \Wobj := wobj3Square;
		WaitRob \InPos;
		SetDO DO5_Program_Feed, 0;
		MoveL Offs(pZeroSquare, 6.0, -16.25, 4.8), v100, z0, tNozzle, \Wobj := wobj3Square;
		WaitRob \InPos;
		SetDO DO5_Program_Feed, 1;
		MoveL Offs(pZeroSquare, 6.0, 16.25, 4.8), v30, z0, tNozzle, \Wobj := wobj3Square;
		WaitRob \InPos;
		SetDO DO5_Program_Feed, 0;
		MoveL Offs(pZeroSquare, 3.0, 16.25, 4.8), v100, z0, tNozzle, \Wobj := wobj3Square;
		WaitRob \InPos;
		SetDO DO5_Program_Feed, 1;
		MoveL Offs(pZeroSquare, 3.0, -16.25, 4.8), v30, z0, tNozzle, \Wobj := wobj3Square;
		WaitRob \InPos;
		SetDO DO5_Program_Feed, 0;
		MoveL Offs(pZeroSquare, 0.0, -16.25, 4.8), v100, z0, tNozzle, \Wobj := wobj3Square;
		WaitRob \InPos;
		SetDO DO5_Program_Feed, 1;
		MoveL Offs(pZeroSquare, 0.0, 16.25, 4.8), v30, z0, tNozzle, \Wobj := wobj3Square;
		WaitRob \InPos;
		SetDO DO5_Program_Feed, 0;
		MoveL Offs(pZeroSquare, -3.0, 16.25, 4.8), v100, z0, tNozzle, \Wobj := wobj3Square;
		WaitRob \InPos;
		SetDO DO5_Program_Feed, 1;
		MoveL Offs(pZeroSquare, -3.0, -16.25, 4.8), v30, z0, tNozzle, \Wobj := wobj3Square;
		WaitRob \InPos;
		SetDO DO5_Program_Feed, 0;
		MoveL Offs(pZeroSquare, -6.0, -16.25, 4.8), v100, z0, tNozzle, \Wobj := wobj3Square;
		WaitRob \InPos;
		SetDO DO5_Program_Feed, 1;
		MoveL Offs(pZeroSquare, -6.0, 16.25, 4.8), v30, z0, tNozzle, \Wobj := wobj3Square;
		WaitRob \InPos;
		SetDO DO5_Program_Feed, 0;
		MoveL Offs(pZeroSquare, -9.0, 16.25, 4.8), v100, z0, tNozzle, \Wobj := wobj3Square;
		WaitRob \InPos;
		SetDO DO5_Program_Feed, 1;
		MoveL Offs(pZeroSquare, -9.0, -16.25, 4.8), v30, z0, tNozzle, \Wobj := wobj3Square;
		WaitRob \InPos;
		SetDO DO5_Program_Feed, 0;
		MoveL Offs(pZeroSquare, -12.0, -16.25, 4.8), v100, z0, tNozzle, \Wobj := wobj3Square;
		WaitRob \InPos;
		SetDO DO5_Program_Feed, 1;
		MoveL Offs(pZeroSquare, -12.0, 16.25, 4.8), v30, z0, tNozzle, \Wobj := wobj3Square;
		WaitRob \InPos;
		SetDO DO5_Program_Feed, 0;
		MoveL Offs(pZeroSquare, -15.0, 16.25, 4.8), v100, z0, tNozzle, \Wobj := wobj3Square;
		WaitRob \InPos;
		SetDO DO5_Program_Feed, 1;
		MoveL Offs(pZeroSquare, -15.0, -16.25, 4.8), v30, z0, tNozzle, \Wobj := wobj3Square;
		WaitRob \InPos;
		SetDO DO6_Between_Layer_Retract, 1;
		SetDO DO5_Program_Feed, 0;
		MoveL Offs(pZeroSquare, -15.0, -16.25, 14.8), v100, z0, tNozzle, \Wobj := wobj3Square;

		! Layer: 17
		! LayerParams(infillAngleDegrees=0.0, pathWidth=3.0, layerHeight=0.3, infillShiftX=0.0, infillShiftY=0.0, numShells=2, infillOverlap=0.0002)
		! T117
		! M6
		TPWRITE "Layer 17 of -1";
		MoveL Offs(pZeroSquare, -17.25, 17.25, 15.1), v100, z0, tNozzle, \Wobj := wobj3Square;
		MoveL Offs(pZeroSquare, -17.25, 17.25, 5.1), v30, z0, tNozzle, \Wobj := wobj3Square;
		WaitRob \InPos;
		SetDO DO6_Between_Layer_Retract, 0;
		WaitRob \InPos;
		SetDO DO5_Program_Feed, 1;
		MoveL Offs(pZeroSquare, -17.25, -14.95, 5.1), v30, z0, tNozzle, \Wobj := wobj3Square;
		MoveL Offs(pZeroSquare, -17.25, -14.95, 5.1), v30, z0, tNozzle, \Wobj := wobj3Square;
		MoveL Offs(pZeroSquare, -17.25, -17.25, 5.1), v30, z0, tNozzle, \Wobj := wobj3Square;
		MoveL Offs(pZeroSquare, 17.25, -17.25, 5.1), v30, z0, tNozzle, \Wobj := wobj3Square;
		MoveL Offs(pZeroSquare, 17.25, 17.25, 5.1), v30, z0, tNozzle, \Wobj := wobj3Square;
		MoveL Offs(pZeroSquare, -17.25, 17.25, 5.1), v30, z0, tNozzle, \Wobj := wobj3Square;
		WaitRob \InPos;
		SetDO DO5_Program_Feed, 0;
		MoveL Offs(pZeroSquare, -16.75, 16.75, 5.1), v100, z0, tNozzle, \Wobj := wobj3Square;
		WaitRob \InPos;
		SetDO DO5_Program_Feed, 1;
		MoveL Offs(pZeroSquare, -16.75, -14.95, 5.1), v30, z0, tNozzle, \Wobj := wobj3Square;
		MoveL Offs(pZeroSquare, -16.75, -14.95, 5.1), v30, z0, tNozzle, \Wobj := wobj3Square;
		MoveL Offs(pZeroSquare, -16.75, -16.75, 5.1), v30, z0, tNozzle, \Wobj := wobj3Square;
		MoveL Offs(pZeroSquare, 16.75, -16.75, 5.1), v30, z0, tNozzle, \Wobj := wobj3Square;
		MoveL Offs(pZeroSquare, 16.75, 16.75, 5.1), v30, z0, tNozzle, \Wobj := wobj3Square;
		MoveL Offs(pZeroSquare, -16.75, 16.75, 5.1), v30, z0, tNozzle, \Wobj := wobj3Square;
		WaitRob \InPos;
		SetDO DO5_Program_Feed, 0;
		MoveL Offs(pZeroSquare, -16.25, 15.0, 5.1), v100, z0, tNozzle, \Wobj := wobj3Square;
		WaitRob \InPos;
		SetDO DO5_Program_Feed, 1;
		MoveL Offs(pZeroSquare, 16.25, 15.0, 5.1), v30, z0, tNozzle, \Wobj := wobj3Square;
		WaitRob \InPos;
		SetDO DO5_Program_Feed, 0;
		MoveL Offs(pZeroSquare, 16.25, 12.0, 5.1), v100, z0, tNozzle, \Wobj := wobj3Square;
		WaitRob \InPos;
		SetDO DO5_Program_Feed, 1;
		MoveL Offs(pZeroSquare, -16.25, 12.0, 5.1), v30, z0, tNozzle, \Wobj := wobj3Square;
		WaitRob \InPos;
		SetDO DO5_Program_Feed, 0;
		MoveL Offs(pZeroSquare, -16.25, 9.0, 5.1), v100, z0, tNozzle, \Wobj := wobj3Square;
		WaitRob \InPos;
		SetDO DO5_Program_Feed, 1;
		MoveL Offs(pZeroSquare, 16.25, 9.0, 5.1), v30, z0, tNozzle, \Wobj := wobj3Square;
		WaitRob \InPos;
		SetDO DO5_Program_Feed, 0;
		MoveL Offs(pZeroSquare, 16.25, 6.0, 5.1), v100, z0, tNozzle, \Wobj := wobj3Square;
		WaitRob \InPos;
		SetDO DO5_Program_Feed, 1;
		MoveL Offs(pZeroSquare, -16.25, 6.0, 5.1), v30, z0, tNozzle, \Wobj := wobj3Square;
		WaitRob \InPos;
		SetDO DO5_Program_Feed, 0;
		MoveL Offs(pZeroSquare, -16.25, 3.0, 5.1), v100, z0, tNozzle, \Wobj := wobj3Square;
		WaitRob \InPos;
		SetDO DO5_Program_Feed, 1;
		MoveL Offs(pZeroSquare, 16.25, 3.0, 5.1), v30, z0, tNozzle, \Wobj := wobj3Square;
		WaitRob \InPos;
		SetDO DO5_Program_Feed, 0;
		MoveL Offs(pZeroSquare, 16.25, 0.0, 5.1), v100, z0, tNozzle, \Wobj := wobj3Square;
		WaitRob \InPos;
		SetDO DO5_Program_Feed, 1;
		MoveL Offs(pZeroSquare, -16.25, 0.0, 5.1), v30, z0, tNozzle, \Wobj := wobj3Square;
		WaitRob \InPos;
		SetDO DO5_Program_Feed, 0;
		MoveL Offs(pZeroSquare, -16.25, -3.0, 5.1), v100, z0, tNozzle, \Wobj := wobj3Square;
		WaitRob \InPos;
		SetDO DO5_Program_Feed, 1;
		MoveL Offs(pZeroSquare, 16.25, -3.0, 5.1), v30, z0, tNozzle, \Wobj := wobj3Square;
		WaitRob \InPos;
		SetDO DO5_Program_Feed, 0;
		MoveL Offs(pZeroSquare, 16.25, -6.0, 5.1), v100, z0, tNozzle, \Wobj := wobj3Square;
		WaitRob \InPos;
		SetDO DO5_Program_Feed, 1;
		MoveL Offs(pZeroSquare, -16.25, -6.0, 5.1), v30, z0, tNozzle, \Wobj := wobj3Square;
		WaitRob \InPos;
		SetDO DO5_Program_Feed, 0;
		MoveL Offs(pZeroSquare, -16.25, -9.0, 5.1), v100, z0, tNozzle, \Wobj := wobj3Square;
		WaitRob \InPos;
		SetDO DO5_Program_Feed, 1;
		MoveL Offs(pZeroSquare, 16.25, -9.0, 5.1), v30, z0, tNozzle, \Wobj := wobj3Square;
		WaitRob \InPos;
		SetDO DO5_Program_Feed, 0;
		MoveL Offs(pZeroSquare, 16.25, -12.0, 5.1), v100, z0, tNozzle, \Wobj := wobj3Square;
		WaitRob \InPos;
		SetDO DO5_Program_Feed, 1;
		MoveL Offs(pZeroSquare, -16.25, -12.0, 5.1), v30, z0, tNozzle, \Wobj := wobj3Square;
		WaitRob \InPos;
		SetDO DO5_Program_Feed, 0;
		MoveL Offs(pZeroSquare, -16.25, -15.0, 5.1), v100, z0, tNozzle, \Wobj := wobj3Square;
		WaitRob \InPos;
		SetDO DO5_Program_Feed, 1;
		MoveL Offs(pZeroSquare, 16.25, -15.0, 5.1), v30, z0, tNozzle, \Wobj := wobj3Square;
		WaitRob \InPos;
		SetDO DO6_Between_Layer_Retract, 1;
		SetDO DO5_Program_Feed, 0;
		MoveL Offs(pZeroSquare, 16.25, -15.0, 15.1), v100, z0, tNozzle, \Wobj := wobj3Square;

		! Layer: 18
		! LayerParams(infillAngleDegrees=90.0, pathWidth=3.0, layerHeight=0.3, infillShiftX=0.0, infillShiftY=0.0, numShells=2, infillOverlap=0.0002)
		! T118
		! M6
		TPWRITE "Layer 18 of -1";
		MoveL Offs(pZeroSquare, -17.25, -17.25, 15.4), v100, z0, tNozzle, \Wobj := wobj3Square;
		MoveL Offs(pZeroSquare, -17.25, -17.25, 5.4), v30, z0, tNozzle, \Wobj := wobj3Square;
		WaitRob \InPos;
		SetDO DO6_Between_Layer_Retract, 0;
		WaitRob \InPos;
		SetDO DO5_Program_Feed, 1;
		MoveL Offs(pZeroSquare, 17.25, -17.25, 5.4), v30, z0, tNozzle, \Wobj := wobj3Square;
		MoveL Offs(pZeroSquare, 17.25, 17.25, 5.4), v30, z0, tNozzle, \Wobj := wobj3Square;
		MoveL Offs(pZeroSquare, -17.25, 17.25, 5.4), v30, z0, tNozzle, \Wobj := wobj3Square;
		MoveL Offs(pZeroSquare, -17.25, -14.8, 5.4), v30, z0, tNozzle, \Wobj := wobj3Square;
		MoveL Offs(pZeroSquare, -17.25, -14.8, 5.4), v30, z0, tNozzle, \Wobj := wobj3Square;
		MoveL Offs(pZeroSquare, -17.25, -17.25, 5.4), v30, z0, tNozzle, \Wobj := wobj3Square;
		WaitRob \InPos;
		SetDO DO5_Program_Feed, 0;
		MoveL Offs(pZeroSquare, -16.75, -16.75, 5.4), v100, z0, tNozzle, \Wobj := wobj3Square;
		WaitRob \InPos;
		SetDO DO5_Program_Feed, 1;
		MoveL Offs(pZeroSquare, 16.75, -16.75, 5.4), v30, z0, tNozzle, \Wobj := wobj3Square;
		MoveL Offs(pZeroSquare, 16.75, 16.75, 5.4), v30, z0, tNozzle, \Wobj := wobj3Square;
		MoveL Offs(pZeroSquare, -16.75, 16.75, 5.4), v30, z0, tNozzle, \Wobj := wobj3Square;
		MoveL Offs(pZeroSquare, -16.75, -14.8, 5.4), v30, z0, tNozzle, \Wobj := wobj3Square;
		MoveL Offs(pZeroSquare, -16.75, -14.8, 5.4), v30, z0, tNozzle, \Wobj := wobj3Square;
		MoveL Offs(pZeroSquare, -16.75, -16.75, 5.4), v30, z0, tNozzle, \Wobj := wobj3Square;
		WaitRob \InPos;
		SetDO DO5_Program_Feed, 0;
		MoveL Offs(pZeroSquare, -15.0, -16.25, 5.4), v100, z0, tNozzle, \Wobj := wobj3Square;
		WaitRob \InPos;
		SetDO DO5_Program_Feed, 1;
		MoveL Offs(pZeroSquare, -15.0, 16.25, 5.4), v30, z0, tNozzle, \Wobj := wobj3Square;
		WaitRob \InPos;
		SetDO DO5_Program_Feed, 0;
		MoveL Offs(pZeroSquare, -12.0, 16.25, 5.4), v100, z0, tNozzle, \Wobj := wobj3Square;
		WaitRob \InPos;
		SetDO DO5_Program_Feed, 1;
		MoveL Offs(pZeroSquare, -12.0, -16.25, 5.4), v30, z0, tNozzle, \Wobj := wobj3Square;
		WaitRob \InPos;
		SetDO DO5_Program_Feed, 0;
		MoveL Offs(pZeroSquare, -9.0, -16.25, 5.4), v100, z0, tNozzle, \Wobj := wobj3Square;
		WaitRob \InPos;
		SetDO DO5_Program_Feed, 1;
		MoveL Offs(pZeroSquare, -9.0, 16.25, 5.4), v30, z0, tNozzle, \Wobj := wobj3Square;
		WaitRob \InPos;
		SetDO DO5_Program_Feed, 0;
		MoveL Offs(pZeroSquare, -6.0, 16.25, 5.4), v100, z0, tNozzle, \Wobj := wobj3Square;
		WaitRob \InPos;
		SetDO DO5_Program_Feed, 1;
		MoveL Offs(pZeroSquare, -6.0, -16.25, 5.4), v30, z0, tNozzle, \Wobj := wobj3Square;
		WaitRob \InPos;
		SetDO DO5_Program_Feed, 0;
		MoveL Offs(pZeroSquare, -3.0, -16.25, 5.4), v100, z0, tNozzle, \Wobj := wobj3Square;
		WaitRob \InPos;
		SetDO DO5_Program_Feed, 1;
		MoveL Offs(pZeroSquare, -3.0, 16.25, 5.4), v30, z0, tNozzle, \Wobj := wobj3Square;
		WaitRob \InPos;
		SetDO DO5_Program_Feed, 0;
		MoveL Offs(pZeroSquare, 0.0, 16.25, 5.4), v100, z0, tNozzle, \Wobj := wobj3Square;
		WaitRob \InPos;
		SetDO DO5_Program_Feed, 1;
		MoveL Offs(pZeroSquare, 0.0, -16.25, 5.4), v30, z0, tNozzle, \Wobj := wobj3Square;
		WaitRob \InPos;
		SetDO DO5_Program_Feed, 0;
		MoveL Offs(pZeroSquare, 3.0, -16.25, 5.4), v100, z0, tNozzle, \Wobj := wobj3Square;
		WaitRob \InPos;
		SetDO DO5_Program_Feed, 1;
		MoveL Offs(pZeroSquare, 3.0, 16.25, 5.4), v30, z0, tNozzle, \Wobj := wobj3Square;
		WaitRob \InPos;
		SetDO DO5_Program_Feed, 0;
		MoveL Offs(pZeroSquare, 6.0, 16.25, 5.4), v100, z0, tNozzle, \Wobj := wobj3Square;
		WaitRob \InPos;
		SetDO DO5_Program_Feed, 1;
		MoveL Offs(pZeroSquare, 6.0, -16.25, 5.4), v30, z0, tNozzle, \Wobj := wobj3Square;
		WaitRob \InPos;
		SetDO DO5_Program_Feed, 0;
		MoveL Offs(pZeroSquare, 9.0, -16.25, 5.4), v100, z0, tNozzle, \Wobj := wobj3Square;
		WaitRob \InPos;
		SetDO DO5_Program_Feed, 1;
		MoveL Offs(pZeroSquare, 9.0, 16.25, 5.4), v30, z0, tNozzle, \Wobj := wobj3Square;
		WaitRob \InPos;
		SetDO DO5_Program_Feed, 0;
		MoveL Offs(pZeroSquare, 12.0, 16.25, 5.4), v100, z0, tNozzle, \Wobj := wobj3Square;
		WaitRob \InPos;
		SetDO DO5_Program_Feed, 1;
		MoveL Offs(pZeroSquare, 12.0, -16.25, 5.4), v30, z0, tNozzle, \Wobj := wobj3Square;
		WaitRob \InPos;
		SetDO DO5_Program_Feed, 0;
		MoveL Offs(pZeroSquare, 15.0, -16.25, 5.4), v100, z0, tNozzle, \Wobj := wobj3Square;
		WaitRob \InPos;
		SetDO DO5_Program_Feed, 1;
		MoveL Offs(pZeroSquare, 15.0, 16.25, 5.4), v30, z0, tNozzle, \Wobj := wobj3Square;
		WaitRob \InPos;
		SetDO DO6_Between_Layer_Retract, 1;
		SetDO DO5_Program_Feed, 0;
		MoveL Offs(pZeroSquare, 15.0, 16.25, 15.4), v100, z0, tNozzle, \Wobj := wobj3Square;

		! Layer: 19
		! LayerParams(infillAngleDegrees=0.0, pathWidth=3.0, layerHeight=0.3, infillShiftX=0.0, infillShiftY=0.0, numShells=2, infillOverlap=0.0002)
		! T119
		! M6
		TPWRITE "Layer 19 of -1";
		MoveL Offs(pZeroSquare, 17.25, 17.25, 15.7), v100, z0, tNozzle, \Wobj := wobj3Square;
		MoveL Offs(pZeroSquare, 17.25, 17.25, 5.7), v30, z0, tNozzle, \Wobj := wobj3Square;
		WaitRob \InPos;
		SetDO DO6_Between_Layer_Retract, 0;
		WaitRob \InPos;
		SetDO DO5_Program_Feed, 1;
		MoveL Offs(pZeroSquare, -17.25, 17.25, 5.7), v30, z0, tNozzle, \Wobj := wobj3Square;
		MoveL Offs(pZeroSquare, -17.25, -14.65, 5.7), v30, z0, tNozzle, \Wobj := wobj3Square;
		MoveL Offs(pZeroSquare, -17.25, -14.65, 5.7), v30, z0, tNozzle, \Wobj := wobj3Square;
		MoveL Offs(pZeroSquare, -17.25, -17.25, 5.7), v30, z0, tNozzle, \Wobj := wobj3Square;
		MoveL Offs(pZeroSquare, 17.25, -17.25, 5.7), v30, z0, tNozzle, \Wobj := wobj3Square;
		MoveL Offs(pZeroSquare, 17.25, 17.25, 5.7), v30, z0, tNozzle, \Wobj := wobj3Square;
		WaitRob \InPos;
		SetDO DO5_Program_Feed, 0;
		MoveL Offs(pZeroSquare, 16.75, 16.75, 5.7), v100, z0, tNozzle, \Wobj := wobj3Square;
		WaitRob \InPos;
		SetDO DO5_Program_Feed, 1;
		MoveL Offs(pZeroSquare, -16.75, 16.75, 5.7), v30, z0, tNozzle, \Wobj := wobj3Square;
		MoveL Offs(pZeroSquare, -16.75, -14.65, 5.7), v30, z0, tNozzle, \Wobj := wobj3Square;
		MoveL Offs(pZeroSquare, -16.75, -14.65, 5.7), v30, z0, tNozzle, \Wobj := wobj3Square;
		MoveL Offs(pZeroSquare, -16.75, -16.75, 5.7), v30, z0, tNozzle, \Wobj := wobj3Square;
		MoveL Offs(pZeroSquare, 16.75, -16.75, 5.7), v30, z0, tNozzle, \Wobj := wobj3Square;
		MoveL Offs(pZeroSquare, 16.75, 16.75, 5.7), v30, z0, tNozzle, \Wobj := wobj3Square;
		WaitRob \InPos;
		SetDO DO5_Program_Feed, 0;
		MoveL Offs(pZeroSquare, 16.25, 15.0, 5.7), v100, z0, tNozzle, \Wobj := wobj3Square;
		WaitRob \InPos;
		SetDO DO5_Program_Feed, 1;
		MoveL Offs(pZeroSquare, -16.25, 15.0, 5.7), v30, z0, tNozzle, \Wobj := wobj3Square;
		WaitRob \InPos;
		SetDO DO5_Program_Feed, 0;
		MoveL Offs(pZeroSquare, -16.25, 12.0, 5.7), v100, z0, tNozzle, \Wobj := wobj3Square;
		WaitRob \InPos;
		SetDO DO5_Program_Feed, 1;
		MoveL Offs(pZeroSquare, 16.25, 12.0, 5.7), v30, z0, tNozzle, \Wobj := wobj3Square;
		WaitRob \InPos;
		SetDO DO5_Program_Feed, 0;
		MoveL Offs(pZeroSquare, 16.25, 9.0, 5.7), v100, z0, tNozzle, \Wobj := wobj3Square;
		WaitRob \InPos;
		SetDO DO5_Program_Feed, 1;
		MoveL Offs(pZeroSquare, -16.25, 9.0, 5.7), v30, z0, tNozzle, \Wobj := wobj3Square;
		WaitRob \InPos;
		SetDO DO5_Program_Feed, 0;
		MoveL Offs(pZeroSquare, -16.25, 6.0, 5.7), v100, z0, tNozzle, \Wobj := wobj3Square;
		WaitRob \InPos;
		SetDO DO5_Program_Feed, 1;
		MoveL Offs(pZeroSquare, 16.25, 6.0, 5.7), v30, z0, tNozzle, \Wobj := wobj3Square;
		WaitRob \InPos;
		SetDO DO5_Program_Feed, 0;
		MoveL Offs(pZeroSquare, 16.25, 3.0, 5.7), v100, z0, tNozzle, \Wobj := wobj3Square;
		WaitRob \InPos;
		SetDO DO5_Program_Feed, 1;
		MoveL Offs(pZeroSquare, -16.25, 3.0, 5.7), v30, z0, tNozzle, \Wobj := wobj3Square;
		WaitRob \InPos;
		SetDO DO5_Program_Feed, 0;
		MoveL Offs(pZeroSquare, -16.25, 0.0, 5.7), v100, z0, tNozzle, \Wobj := wobj3Square;
		WaitRob \InPos;
		SetDO DO5_Program_Feed, 1;
		MoveL Offs(pZeroSquare, 16.25, 0.0, 5.7), v30, z0, tNozzle, \Wobj := wobj3Square;
		WaitRob \InPos;
		SetDO DO5_Program_Feed, 0;
		MoveL Offs(pZeroSquare, 16.25, -3.0, 5.7), v100, z0, tNozzle, \Wobj := wobj3Square;
		WaitRob \InPos;
		SetDO DO5_Program_Feed, 1;
		MoveL Offs(pZeroSquare, -16.25, -3.0, 5.7), v30, z0, tNozzle, \Wobj := wobj3Square;
		WaitRob \InPos;
		SetDO DO5_Program_Feed, 0;
		MoveL Offs(pZeroSquare, -16.25, -6.0, 5.7), v100, z0, tNozzle, \Wobj := wobj3Square;
		WaitRob \InPos;
		SetDO DO5_Program_Feed, 1;
		MoveL Offs(pZeroSquare, 16.25, -6.0, 5.7), v30, z0, tNozzle, \Wobj := wobj3Square;
		WaitRob \InPos;
		SetDO DO5_Program_Feed, 0;
		MoveL Offs(pZeroSquare, 16.25, -9.0, 5.7), v100, z0, tNozzle, \Wobj := wobj3Square;
		WaitRob \InPos;
		SetDO DO5_Program_Feed, 1;
		MoveL Offs(pZeroSquare, -16.25, -9.0, 5.7), v30, z0, tNozzle, \Wobj := wobj3Square;
		WaitRob \InPos;
		SetDO DO5_Program_Feed, 0;
		MoveL Offs(pZeroSquare, -16.25, -12.0, 5.7), v100, z0, tNozzle, \Wobj := wobj3Square;
		WaitRob \InPos;
		SetDO DO5_Program_Feed, 1;
		MoveL Offs(pZeroSquare, 16.25, -12.0, 5.7), v30, z0, tNozzle, \Wobj := wobj3Square;
		WaitRob \InPos;
		SetDO DO5_Program_Feed, 0;
		MoveL Offs(pZeroSquare, 16.25, -15.0, 5.7), v100, z0, tNozzle, \Wobj := wobj3Square;
		WaitRob \InPos;
		SetDO DO5_Program_Feed, 1;
		MoveL Offs(pZeroSquare, -16.25, -15.0, 5.7), v30, z0, tNozzle, \Wobj := wobj3Square;
		WaitRob \InPos;
		SetDO DO6_Between_Layer_Retract, 1;
		SetDO DO5_Program_Feed, 0;
		MoveL Offs(pZeroSquare, -16.25, -15.0, 15.7), v100, z0, tNozzle, \Wobj := wobj3Square;

		! Layer: 20
		! LayerParams(infillAngleDegrees=90.0, pathWidth=3.0, layerHeight=0.3, infillShiftX=0.0, infillShiftY=0.0, numShells=2, infillOverlap=0.0002)
		! T120
		! M6
		TPWRITE "Layer 20 of -1";
		MoveL Offs(pZeroSquare, -17.25, -14.5, 16.0), v100, z0, tNozzle, \Wobj := wobj3Square;
		MoveL Offs(pZeroSquare, -17.25, -14.5, 6.0), v30, z0, tNozzle, \Wobj := wobj3Square;
		WaitRob \InPos;
		SetDO DO6_Between_Layer_Retract, 0;
		WaitRob \InPos;
		SetDO DO5_Program_Feed, 1;
		MoveL Offs(pZeroSquare, -17.25, -17.25, 6.0), v30, z0, tNozzle, \Wobj := wobj3Square;
		MoveL Offs(pZeroSquare, 17.25, -17.25, 6.0), v30, z0, tNozzle, \Wobj := wobj3Square;
		MoveL Offs(pZeroSquare, 17.25, 17.25, 6.0), v30, z0, tNozzle, \Wobj := wobj3Square;
		MoveL Offs(pZeroSquare, -17.25, 17.25, 6.0), v30, z0, tNozzle, \Wobj := wobj3Square;
		MoveL Offs(pZeroSquare, -17.25, -14.5, 6.0), v30, z0, tNozzle, \Wobj := wobj3Square;
		MoveL Offs(pZeroSquare, -17.25, -14.5, 6.0), v30, z0, tNozzle, \Wobj := wobj3Square;
		WaitRob \InPos;
		SetDO DO5_Program_Feed, 0;
		MoveL Offs(pZeroSquare, -16.75, -14.5, 6.0), v100, z0, tNozzle, \Wobj := wobj3Square;
		WaitRob \InPos;
		SetDO DO5_Program_Feed, 1;
		MoveL Offs(pZeroSquare, -16.75, -16.75, 6.0), v30, z0, tNozzle, \Wobj := wobj3Square;
		MoveL Offs(pZeroSquare, 16.75, -16.75, 6.0), v30, z0, tNozzle, \Wobj := wobj3Square;
		MoveL Offs(pZeroSquare, 16.75, 16.75, 6.0), v30, z0, tNozzle, \Wobj := wobj3Square;
		MoveL Offs(pZeroSquare, -16.75, 16.75, 6.0), v30, z0, tNozzle, \Wobj := wobj3Square;
		MoveL Offs(pZeroSquare, -16.75, -14.5, 6.0), v30, z0, tNozzle, \Wobj := wobj3Square;
		MoveL Offs(pZeroSquare, -16.75, -14.5, 6.0), v30, z0, tNozzle, \Wobj := wobj3Square;
		WaitRob \InPos;
		SetDO DO5_Program_Feed, 0;
		MoveL Offs(pZeroSquare, -15.0, -16.25, 6.0), v100, z0, tNozzle, \Wobj := wobj3Square;
		WaitRob \InPos;
		SetDO DO5_Program_Feed, 1;
		MoveL Offs(pZeroSquare, -15.0, 16.25, 6.0), v30, z0, tNozzle, \Wobj := wobj3Square;
		WaitRob \InPos;
		SetDO DO5_Program_Feed, 0;
		MoveL Offs(pZeroSquare, -12.0, 16.25, 6.0), v100, z0, tNozzle, \Wobj := wobj3Square;
		WaitRob \InPos;
		SetDO DO5_Program_Feed, 1;
		MoveL Offs(pZeroSquare, -12.0, -16.25, 6.0), v30, z0, tNozzle, \Wobj := wobj3Square;
		WaitRob \InPos;
		SetDO DO5_Program_Feed, 0;
		MoveL Offs(pZeroSquare, -9.0, -16.25, 6.0), v100, z0, tNozzle, \Wobj := wobj3Square;
		WaitRob \InPos;
		SetDO DO5_Program_Feed, 1;
		MoveL Offs(pZeroSquare, -9.0, 16.25, 6.0), v30, z0, tNozzle, \Wobj := wobj3Square;
		WaitRob \InPos;
		SetDO DO5_Program_Feed, 0;
		MoveL Offs(pZeroSquare, -6.0, 16.25, 6.0), v100, z0, tNozzle, \Wobj := wobj3Square;
		WaitRob \InPos;
		SetDO DO5_Program_Feed, 1;
		MoveL Offs(pZeroSquare, -6.0, -16.25, 6.0), v30, z0, tNozzle, \Wobj := wobj3Square;
		WaitRob \InPos;
		SetDO DO5_Program_Feed, 0;
		MoveL Offs(pZeroSquare, -3.0, -16.25, 6.0), v100, z0, tNozzle, \Wobj := wobj3Square;
		WaitRob \InPos;
		SetDO DO5_Program_Feed, 1;
		MoveL Offs(pZeroSquare, -3.0, 16.25, 6.0), v30, z0, tNozzle, \Wobj := wobj3Square;
		WaitRob \InPos;
		SetDO DO5_Program_Feed, 0;
		MoveL Offs(pZeroSquare, 0.0, 16.25, 6.0), v100, z0, tNozzle, \Wobj := wobj3Square;
		WaitRob \InPos;
		SetDO DO5_Program_Feed, 1;
		MoveL Offs(pZeroSquare, 0.0, -16.25, 6.0), v30, z0, tNozzle, \Wobj := wobj3Square;
		WaitRob \InPos;
		SetDO DO5_Program_Feed, 0;
		MoveL Offs(pZeroSquare, 3.0, -16.25, 6.0), v100, z0, tNozzle, \Wobj := wobj3Square;
		WaitRob \InPos;
		SetDO DO5_Program_Feed, 1;
		MoveL Offs(pZeroSquare, 3.0, 16.25, 6.0), v30, z0, tNozzle, \Wobj := wobj3Square;
		WaitRob \InPos;
		SetDO DO5_Program_Feed, 0;
		MoveL Offs(pZeroSquare, 6.0, 16.25, 6.0), v100, z0, tNozzle, \Wobj := wobj3Square;
		WaitRob \InPos;
		SetDO DO5_Program_Feed, 1;
		MoveL Offs(pZeroSquare, 6.0, -16.25, 6.0), v30, z0, tNozzle, \Wobj := wobj3Square;
		WaitRob \InPos;
		SetDO DO5_Program_Feed, 0;
		MoveL Offs(pZeroSquare, 9.0, -16.25, 6.0), v100, z0, tNozzle, \Wobj := wobj3Square;
		WaitRob \InPos;
		SetDO DO5_Program_Feed, 1;
		MoveL Offs(pZeroSquare, 9.0, 16.25, 6.0), v30, z0, tNozzle, \Wobj := wobj3Square;
		WaitRob \InPos;
		SetDO DO5_Program_Feed, 0;
		MoveL Offs(pZeroSquare, 12.0, 16.25, 6.0), v100, z0, tNozzle, \Wobj := wobj3Square;
		WaitRob \InPos;
		SetDO DO5_Program_Feed, 1;
		MoveL Offs(pZeroSquare, 12.0, -16.25, 6.0), v30, z0, tNozzle, \Wobj := wobj3Square;
		WaitRob \InPos;
		SetDO DO5_Program_Feed, 0;
		MoveL Offs(pZeroSquare, 15.0, -16.25, 6.0), v100, z0, tNozzle, \Wobj := wobj3Square;
		WaitRob \InPos;
		SetDO DO5_Program_Feed, 1;
		MoveL Offs(pZeroSquare, 15.0, 16.25, 6.0), v30, z0, tNozzle, \Wobj := wobj3Square;
		WaitRob \InPos;
		SetDO DO6_Between_Layer_Retract, 1;
		SetDO DO5_Program_Feed, 0;
		MoveL Offs(pZeroSquare, 15.0, 16.25, 16.0), v100, z0, tNozzle, \Wobj := wobj3Square;

		! Layer: 21
		! LayerParams(infillAngleDegrees=0.0, pathWidth=3.0, layerHeight=0.3, infillShiftX=0.0, infillShiftY=0.0, numShells=2, infillOverlap=0.0002)
		! T121
		! M6
		TPWRITE "Layer 21 of -1";
		MoveL Offs(pZeroSquare, -17.25, 17.25, 16.3), v100, z0, tNozzle, \Wobj := wobj3Square;
		MoveL Offs(pZeroSquare, -17.25, 17.25, 6.3), v30, z0, tNozzle, \Wobj := wobj3Square;
		WaitRob \InPos;
		SetDO DO6_Between_Layer_Retract, 0;
		WaitRob \InPos;
		SetDO DO5_Program_Feed, 1;
		MoveL Offs(pZeroSquare, -17.25, -14.35, 6.3), v30, z0, tNozzle, \Wobj := wobj3Square;
		MoveL Offs(pZeroSquare, -17.25, -14.35, 6.3), v30, z0, tNozzle, \Wobj := wobj3Square;
		MoveL Offs(pZeroSquare, -17.25, -17.25, 6.3), v30, z0, tNozzle, \Wobj := wobj3Square;
		MoveL Offs(pZeroSquare, 17.25, -17.25, 6.3), v30, z0, tNozzle, \Wobj := wobj3Square;
		MoveL Offs(pZeroSquare, 17.25, 17.25, 6.3), v30, z0, tNozzle, \Wobj := wobj3Square;
		MoveL Offs(pZeroSquare, -17.25, 17.25, 6.3), v30, z0, tNozzle, \Wobj := wobj3Square;
		WaitRob \InPos;
		SetDO DO5_Program_Feed, 0;
		MoveL Offs(pZeroSquare, -16.75, 16.75, 6.3), v100, z0, tNozzle, \Wobj := wobj3Square;
		WaitRob \InPos;
		SetDO DO5_Program_Feed, 1;
		MoveL Offs(pZeroSquare, -16.75, -14.35, 6.3), v30, z0, tNozzle, \Wobj := wobj3Square;
		MoveL Offs(pZeroSquare, -16.75, -14.35, 6.3), v30, z0, tNozzle, \Wobj := wobj3Square;
		MoveL Offs(pZeroSquare, -16.75, -16.75, 6.3), v30, z0, tNozzle, \Wobj := wobj3Square;
		MoveL Offs(pZeroSquare, 16.75, -16.75, 6.3), v30, z0, tNozzle, \Wobj := wobj3Square;
		MoveL Offs(pZeroSquare, 16.75, 16.75, 6.3), v30, z0, tNozzle, \Wobj := wobj3Square;
		MoveL Offs(pZeroSquare, -16.75, 16.75, 6.3), v30, z0, tNozzle, \Wobj := wobj3Square;
		WaitRob \InPos;
		SetDO DO5_Program_Feed, 0;
		MoveL Offs(pZeroSquare, -16.25, 15.0, 6.3), v100, z0, tNozzle, \Wobj := wobj3Square;
		WaitRob \InPos;
		SetDO DO5_Program_Feed, 1;
		MoveL Offs(pZeroSquare, 16.25, 15.0, 6.3), v30, z0, tNozzle, \Wobj := wobj3Square;
		WaitRob \InPos;
		SetDO DO5_Program_Feed, 0;
		MoveL Offs(pZeroSquare, 16.25, 12.0, 6.3), v100, z0, tNozzle, \Wobj := wobj3Square;
		WaitRob \InPos;
		SetDO DO5_Program_Feed, 1;
		MoveL Offs(pZeroSquare, -16.25, 12.0, 6.3), v30, z0, tNozzle, \Wobj := wobj3Square;
		WaitRob \InPos;
		SetDO DO5_Program_Feed, 0;
		MoveL Offs(pZeroSquare, -16.25, 9.0, 6.3), v100, z0, tNozzle, \Wobj := wobj3Square;
		WaitRob \InPos;
		SetDO DO5_Program_Feed, 1;
		MoveL Offs(pZeroSquare, 16.25, 9.0, 6.3), v30, z0, tNozzle, \Wobj := wobj3Square;
		WaitRob \InPos;
		SetDO DO5_Program_Feed, 0;
		MoveL Offs(pZeroSquare, 16.25, 6.0, 6.3), v100, z0, tNozzle, \Wobj := wobj3Square;
		WaitRob \InPos;
		SetDO DO5_Program_Feed, 1;
		MoveL Offs(pZeroSquare, -16.25, 6.0, 6.3), v30, z0, tNozzle, \Wobj := wobj3Square;
		WaitRob \InPos;
		SetDO DO5_Program_Feed, 0;
		MoveL Offs(pZeroSquare, -16.25, 3.0, 6.3), v100, z0, tNozzle, \Wobj := wobj3Square;
		WaitRob \InPos;
		SetDO DO5_Program_Feed, 1;
		MoveL Offs(pZeroSquare, 16.25, 3.0, 6.3), v30, z0, tNozzle, \Wobj := wobj3Square;
		WaitRob \InPos;
		SetDO DO5_Program_Feed, 0;
		MoveL Offs(pZeroSquare, 16.25, 0.0, 6.3), v100, z0, tNozzle, \Wobj := wobj3Square;
		WaitRob \InPos;
		SetDO DO5_Program_Feed, 1;
		MoveL Offs(pZeroSquare, -16.25, 0.0, 6.3), v30, z0, tNozzle, \Wobj := wobj3Square;
		WaitRob \InPos;
		SetDO DO5_Program_Feed, 0;
		MoveL Offs(pZeroSquare, -16.25, -3.0, 6.3), v100, z0, tNozzle, \Wobj := wobj3Square;
		WaitRob \InPos;
		SetDO DO5_Program_Feed, 1;
		MoveL Offs(pZeroSquare, 16.25, -3.0, 6.3), v30, z0, tNozzle, \Wobj := wobj3Square;
		WaitRob \InPos;
		SetDO DO5_Program_Feed, 0;
		MoveL Offs(pZeroSquare, 16.25, -6.0, 6.3), v100, z0, tNozzle, \Wobj := wobj3Square;
		WaitRob \InPos;
		SetDO DO5_Program_Feed, 1;
		MoveL Offs(pZeroSquare, -16.25, -6.0, 6.3), v30, z0, tNozzle, \Wobj := wobj3Square;
		WaitRob \InPos;
		SetDO DO5_Program_Feed, 0;
		MoveL Offs(pZeroSquare, -16.25, -9.0, 6.3), v100, z0, tNozzle, \Wobj := wobj3Square;
		WaitRob \InPos;
		SetDO DO5_Program_Feed, 1;
		MoveL Offs(pZeroSquare, 16.25, -9.0, 6.3), v30, z0, tNozzle, \Wobj := wobj3Square;
		WaitRob \InPos;
		SetDO DO5_Program_Feed, 0;
		MoveL Offs(pZeroSquare, 16.25, -12.0, 6.3), v100, z0, tNozzle, \Wobj := wobj3Square;
		WaitRob \InPos;
		SetDO DO5_Program_Feed, 1;
		MoveL Offs(pZeroSquare, -16.25, -12.0, 6.3), v30, z0, tNozzle, \Wobj := wobj3Square;
		WaitRob \InPos;
		SetDO DO5_Program_Feed, 0;
		MoveL Offs(pZeroSquare, -16.25, -15.0, 6.3), v100, z0, tNozzle, \Wobj := wobj3Square;
		WaitRob \InPos;
		SetDO DO5_Program_Feed, 1;
		MoveL Offs(pZeroSquare, 16.25, -15.0, 6.3), v30, z0, tNozzle, \Wobj := wobj3Square;
		WaitRob \InPos;
		SetDO DO6_Between_Layer_Retract, 1;
		SetDO DO5_Program_Feed, 0;
		MoveL Offs(pZeroSquare, 16.25, -15.0, 16.3), v100, z0, tNozzle, \Wobj := wobj3Square;

		! Layer: 22
