MODULE MainModule
	PROC main()
		Heat;
		SetDO DO1_Auto_Mode, 1;

		

		! Part number: 1
		! PartParams(extrusionFactor=0.98, printSpeed=30, shiftX=-16.6, shiftY=-14.0, shiftZ=0.0, numLayers=-1, designType=0, brims=0, horizontalExpansion=0.0, randomStartLocation=1)

		! Layer: 1
		! LayerParams(infillAngleDegrees=0.0, pathWidth=3.0, layerHeight=0.3, infillShiftX=0.0, infillShiftY=0.0, numShells=2, infillOverlap=0.0002)
		! T11
		! M6
		TPWRITE "Layer 1 of -1";
		MoveL Offs(pZeroStar, 1.275, -5.458, 10.3), v100, z0, tNozzle, \Wobj := wobj1Star;
		MoveL Offs(pZeroStar, 1.275, -5.458, 0.3), v30, z0, tNozzle, \Wobj := wobj1Star;
		WaitRob \InPos;
		SetDO DO5_Program_Feed, 1;
		MoveL Offs(pZeroStar, 2.164, -5.186, 0.3), v30, z0, tNozzle, \Wobj := wobj1Star;
		MoveL Offs(pZeroStar, 2.167, -5.185, 0.3), v30, z0, tNozzle, \Wobj := wobj1Star;
		MoveL Offs(pZeroStar, 2.187, -5.178, 0.3), v30, z0, tNozzle, \Wobj := wobj1Star;
		MoveL Offs(pZeroStar, 2.207, -5.169, 0.3), v30, z0, tNozzle, \Wobj := wobj1Star;
		MoveL Offs(pZeroStar, 3.036, -4.751, 0.3), v30, z0, tNozzle, \Wobj := wobj1Star;
		MoveL Offs(pZeroStar, 3.04, -4.749, 0.3), v30, z0, tNozzle, \Wobj := wobj1Star;
		MoveL Offs(pZeroStar, 3.058, -4.738, 0.3), v30, z0, tNozzle, \Wobj := wobj1Star;
		MoveL Offs(pZeroStar, 3.076, -4.727, 0.3), v30, z0, tNozzle, \Wobj := wobj1Star;
		MoveL Offs(pZeroStar, 3.823, -4.174, 0.3), v30, z0, tNozzle, \Wobj := wobj1Star;
		MoveL Offs(pZeroStar, 3.826, -4.172, 0.3), v30, z0, tNozzle, \Wobj := wobj1Star;
		MoveL Offs(pZeroStar, 3.842, -4.159, 0.3), v30, z0, tNozzle, \Wobj := wobj1Star;
		MoveL Offs(pZeroStar, 3.858, -4.144, 0.3), v30, z0, tNozzle, \Wobj := wobj1Star;
		MoveL Offs(pZeroStar, 4.5, -3.473, 0.3), v30, z0, tNozzle, \Wobj := wobj1Star;
		MoveL Offs(pZeroStar, 4.503, -3.47, 0.3), v30, z0, tNozzle, \Wobj := wobj1Star;
		MoveL Offs(pZeroStar, 4.517, -3.454, 0.3), v30, z0, tNozzle, \Wobj := wobj1Star;
		MoveL Offs(pZeroStar, 4.53, -3.437, 0.3), v30, z0, tNozzle, \Wobj := wobj1Star;
		MoveL Offs(pZeroStar, 5.05, -2.668, 0.3), v30, z0, tNozzle, \Wobj := wobj1Star;
		MoveL Offs(pZeroStar, 5.052, -2.665, 0.3), v30, z0, tNozzle, \Wobj := wobj1Star;
		MoveL Offs(pZeroStar, 5.063, -2.646, 0.3), v30, z0, tNozzle, \Wobj := wobj1Star;
		MoveL Offs(pZeroStar, 5.073, -2.628, 0.3), v30, z0, tNozzle, \Wobj := wobj1Star;
		MoveL Offs(pZeroStar, 5.455, -1.781, 0.3), v30, z0, tNozzle, \Wobj := wobj1Star;
		MoveL Offs(pZeroStar, 5.457, -1.777, 0.3), v30, z0, tNozzle, \Wobj := wobj1Star;
		MoveL Offs(pZeroStar, 5.465, -1.758, 0.3), v30, z0, tNozzle, \Wobj := wobj1Star;
		MoveL Offs(pZeroStar, 5.471, -1.737, 0.3), v30, z0, tNozzle, \Wobj := wobj1Star;
		MoveL Offs(pZeroStar, 5.705, -0.839, 0.3), v30, z0, tNozzle, \Wobj := wobj1Star;
		MoveL Offs(pZeroStar, 5.706, -0.835, 0.3), v30, z0, tNozzle, \Wobj := wobj1Star;
		MoveL Offs(pZeroStar, 5.711, -0.814, 0.3), v30, z0, tNozzle, \Wobj := wobj1Star;
		MoveL Offs(pZeroStar, 5.713, -0.793, 0.3), v30, z0, tNozzle, \Wobj := wobj1Star;
		MoveL Offs(pZeroStar, 5.792, 0.133, 0.3), v30, z0, tNozzle, \Wobj := wobj1Star;
		MoveL Offs(pZeroStar, 5.793, 0.137, 0.3), v30, z0, tNozzle, \Wobj := wobj1Star;
		MoveL Offs(pZeroStar, 5.793, 0.158, 0.3), v30, z0, tNozzle, \Wobj := wobj1Star;
		MoveL Offs(pZeroStar, 5.793, 0.179, 0.3), v30, z0, tNozzle, \Wobj := wobj1Star;
		MoveL Offs(pZeroStar, 5.714, 1.105, 0.3), v30, z0, tNozzle, \Wobj := wobj1Star;
		MoveL Offs(pZeroStar, 5.713, 1.109, 0.3), v30, z0, tNozzle, \Wobj := wobj1Star;
		MoveL Offs(pZeroStar, 5.711, 1.13, 0.3), v30, z0, tNozzle, \Wobj := wobj1Star;
		MoveL Offs(pZeroStar, 5.706, 1.15, 0.3), v30, z0, tNozzle, \Wobj := wobj1Star;
		MoveL Offs(pZeroStar, 5.472, 2.049, 0.3), v30, z0, tNozzle, \Wobj := wobj1Star;
		MoveL Offs(pZeroStar, 5.471, 2.053, 0.3), v30, z0, tNozzle, \Wobj := wobj1Star;
		MoveL Offs(pZeroStar, 5.465, 2.073, 0.3), v30, z0, tNozzle, \Wobj := wobj1Star;
		MoveL Offs(pZeroStar, 5.457, 2.093, 0.3), v30, z0, tNozzle, \Wobj := wobj1Star;
		MoveL Offs(pZeroStar, 5.075, 2.939, 0.3), v30, z0, tNozzle, \Wobj := wobj1Star;
		MoveL Offs(pZeroStar, 5.073, 2.943, 0.3), v30, z0, tNozzle, \Wobj := wobj1Star;
		MoveL Offs(pZeroStar, 5.063, 2.962, 0.3), v30, z0, tNozzle, \Wobj := wobj1Star;
		MoveL Offs(pZeroStar, 5.052, 2.98, 0.3), v30, z0, tNozzle, \Wobj := wobj1Star;
		MoveL Offs(pZeroStar, 4.532, 3.75, 0.3), v30, z0, tNozzle, \Wobj := wobj1Star;
		MoveL Offs(pZeroStar, 4.53, 3.753, 0.3), v30, z0, tNozzle, \Wobj := wobj1Star;
		MoveL Offs(pZeroStar, 4.517, 3.77, 0.3), v30, z0, tNozzle, \Wobj := wobj1Star;
		MoveL Offs(pZeroStar, 4.503, 3.786, 0.3), v30, z0, tNozzle, \Wobj := wobj1Star;
		MoveL Offs(pZeroStar, 3.86, 4.457, 0.3), v30, z0, tNozzle, \Wobj := wobj1Star;
		MoveL Offs(pZeroStar, 3.858, 4.459, 0.3), v30, z0, tNozzle, \Wobj := wobj1Star;
		MoveL Offs(pZeroStar, 3.842, 4.474, 0.3), v30, z0, tNozzle, \Wobj := wobj1Star;
		MoveL Offs(pZeroStar, 3.826, 4.487, 0.3), v30, z0, tNozzle, \Wobj := wobj1Star;
		MoveL Offs(pZeroStar, 3.079, 5.04, 0.3), v30, z0, tNozzle, \Wobj := wobj1Star;
		MoveL Offs(pZeroStar, 3.076, 5.042, 0.3), v30, z0, tNozzle, \Wobj := wobj1Star;
		MoveL Offs(pZeroStar, 3.058, 5.054, 0.3), v30, z0, tNozzle, \Wobj := wobj1Star;
		MoveL Offs(pZeroStar, 3.04, 5.064, 0.3), v30, z0, tNozzle, \Wobj := wobj1Star;
		MoveL Offs(pZeroStar, 2.21, 5.483, 0.3), v30, z0, tNozzle, \Wobj := wobj1Star;
		MoveL Offs(pZeroStar, 2.207, 5.484, 0.3), v30, z0, tNozzle, \Wobj := wobj1Star;
		MoveL Offs(pZeroStar, 2.187, 5.493, 0.3), v30, z0, tNozzle, \Wobj := wobj1Star;
		MoveL Offs(pZeroStar, 2.167, 5.5, 0.3), v30, z0, tNozzle, \Wobj := wobj1Star;
		MoveL Offs(pZeroStar, 1.279, 5.772, 0.3), v30, z0, tNozzle, \Wobj := wobj1Star;
		MoveL Offs(pZeroStar, 1.275, 5.773, 0.3), v30, z0, tNozzle, \Wobj := wobj1Star;
		MoveL Offs(pZeroStar, 1.255, 5.779, 0.3), v30, z0, tNozzle, \Wobj := wobj1Star;
		MoveL Offs(pZeroStar, 1.234, 5.782, 0.3), v30, z0, tNozzle, \Wobj := wobj1Star;
		MoveL Offs(pZeroStar, 0.313, 5.9, 0.3), v30, z0, tNozzle, \Wobj := wobj1Star;
		MoveL Offs(pZeroStar, 0.309, 5.901, 0.3), v30, z0, tNozzle, \Wobj := wobj1Star;
		MoveL Offs(pZeroStar, 0.288, 5.903, 0.3), v30, z0, tNozzle, \Wobj := wobj1Star;
		MoveL Offs(pZeroStar, 0.266, 5.903, 0.3), v30, z0, tNozzle, \Wobj := wobj1Star;
		MoveL Offs(pZeroStar, -0.662, 5.863, 0.3), v30, z0, tNozzle, \Wobj := wobj1Star;
		MoveL Offs(pZeroStar, -0.666, 5.863, 0.3), v30, z0, tNozzle, \Wobj := wobj1Star;
		MoveL Offs(pZeroStar, -0.687, 5.861, 0.3), v30, z0, tNozzle, \Wobj := wobj1Star;
		MoveL Offs(pZeroStar, -0.708, 5.858, 0.3), v30, z0, tNozzle, \Wobj := wobj1Star;
		MoveL Offs(pZeroStar, -1.616, 5.662, 0.3), v30, z0, tNozzle, \Wobj := wobj1Star;
		MoveL Offs(pZeroStar, -1.62, 5.661, 0.3), v30, z0, tNozzle, \Wobj := wobj1Star;
		MoveL Offs(pZeroStar, -1.64, 5.656, 0.3), v30, z0, tNozzle, \Wobj := wobj1Star;
		MoveL Offs(pZeroStar, -1.66, 5.649, 0.3), v30, z0, tNozzle, \Wobj := wobj1Star;
		MoveL Offs(pZeroStar, -2.522, 5.302, 0.3), v30, z0, tNozzle, \Wobj := wobj1Star;
		MoveL Offs(pZeroStar, -2.526, 5.301, 0.3), v30, z0, tNozzle, \Wobj := wobj1Star;
		MoveL Offs(pZeroStar, -2.545, 5.292, 0.3), v30, z0, tNozzle, \Wobj := wobj1Star;
		MoveL Offs(pZeroStar, -2.564, 5.282, 0.3), v30, z0, tNozzle, \Wobj := wobj1Star;
		MoveL Offs(pZeroStar, -3.355, 4.795, 0.3), v30, z0, tNozzle, \Wobj := wobj1Star;
		MoveL Offs(pZeroStar, -3.358, 4.793, 0.3), v30, z0, tNozzle, \Wobj := wobj1Star;
		MoveL Offs(pZeroStar, -3.376, 4.781, 0.3), v30, z0, tNozzle, \Wobj := wobj1Star;
		MoveL Offs(pZeroStar, -3.392, 4.767, 0.3), v30, z0, tNozzle, \Wobj := wobj1Star;
		MoveL Offs(pZeroStar, -4.089, 4.154, 0.3), v30, z0, tNozzle, \Wobj := wobj1Star;
		MoveL Offs(pZeroStar, -4.092, 4.151, 0.3), v30, z0, tNozzle, \Wobj := wobj1Star;
		MoveL Offs(pZeroStar, -4.108, 4.136, 0.3), v30, z0, tNozzle, \Wobj := wobj1Star;
		MoveL Offs(pZeroStar, -4.122, 4.121, 0.3), v30, z0, tNozzle, \Wobj := wobj1Star;
		MoveL Offs(pZeroStar, -4.705, 3.398, 0.3), v30, z0, tNozzle, \Wobj := wobj1Star;
		MoveL Offs(pZeroStar, -4.708, 3.395, 0.3), v30, z0, tNozzle, \Wobj := wobj1Star;
		MoveL Offs(pZeroStar, -4.72, 3.378, 0.3), v30, z0, tNozzle, \Wobj := wobj1Star;
		MoveL Offs(pZeroStar, -4.732, 3.36, 0.3), v30, z0, tNozzle, \Wobj := wobj1Star;
		MoveL Offs(pZeroStar, -5.185, 2.549, 0.3), v30, z0, tNozzle, \Wobj := wobj1Star;
		MoveL Offs(pZeroStar, -5.187, 2.545, 0.3), v30, z0, tNozzle, \Wobj := wobj1Star;
		MoveL Offs(pZeroStar, -5.196, 2.526, 0.3), v30, z0, tNozzle, \Wobj := wobj1Star;
		MoveL Offs(pZeroStar, -5.204, 2.507, 0.3), v30, z0, tNozzle, \Wobj := wobj1Star;
		MoveL Offs(pZeroStar, -5.513, 1.631, 0.3), v30, z0, tNozzle, \Wobj := wobj1Star;
		MoveL Offs(pZeroStar, -5.515, 1.627, 0.3), v30, z0, tNozzle, \Wobj := wobj1Star;
		MoveL Offs(pZeroStar, -5.521, 1.607, 0.3), v30, z0, tNozzle, \Wobj := wobj1Star;
		MoveL Offs(pZeroStar, -5.525, 1.586, 0.3), v30, z0, tNozzle, \Wobj := wobj1Star;
		MoveL Offs(pZeroStar, -5.682, 0.67, 0.3), v30, z0, tNozzle, \Wobj := wobj1Star;
		MoveL Offs(pZeroStar, -5.683, 0.666, 0.3), v30, z0, tNozzle, \Wobj := wobj1Star;
		MoveL Offs(pZeroStar, -5.686, 0.645, 0.3), v30, z0, tNozzle, \Wobj := wobj1Star;
		MoveL Offs(pZeroStar, -5.687, 0.624, 0.3), v30, z0, tNozzle, \Wobj := wobj1Star;
		MoveL Offs(pZeroStar, -5.687, -0.309, 0.3), v30, z0, tNozzle, \Wobj := wobj1Star;
		MoveL Offs(pZeroStar, -5.686, -0.33, 0.3), v30, z0, tNozzle, \Wobj := wobj1Star;
		MoveL Offs(pZeroStar, -5.683, -0.351, 0.3), v30, z0, tNozzle, \Wobj := wobj1Star;
		MoveL Offs(pZeroStar, -5.526, -1.266, 0.3), v30, z0, tNozzle, \Wobj := wobj1Star;
		MoveL Offs(pZeroStar, -5.525, -1.27, 0.3), v30, z0, tNozzle, \Wobj := wobj1Star;
		MoveL Offs(pZeroStar, -5.521, -1.291, 0.3), v30, z0, tNozzle, \Wobj := wobj1Star;
		MoveL Offs(pZeroStar, -5.515, -1.311, 0.3), v30, z0, tNozzle, \Wobj := wobj1Star;
		MoveL Offs(pZeroStar, -5.205, -2.187, 0.3), v30, z0, tNozzle, \Wobj := wobj1Star;
		MoveL Offs(pZeroStar, -5.204, -2.191, 0.3), v30, z0, tNozzle, \Wobj := wobj1Star;
		MoveL Offs(pZeroStar, -5.196, -2.211, 0.3), v30, z0, tNozzle, \Wobj := wobj1Star;
		MoveL Offs(pZeroStar, -5.187, -2.23, 0.3), v30, z0, tNozzle, \Wobj := wobj1Star;
		MoveL Offs(pZeroStar, -4.734, -3.04, 0.3), v30, z0, tNozzle, \Wobj := wobj1Star;
		MoveL Offs(pZeroStar, -4.732, -3.044, 0.3), v30, z0, tNozzle, \Wobj := wobj1Star;
		MoveL Offs(pZeroStar, -4.72, -3.062, 0.3), v30, z0, tNozzle, \Wobj := wobj1Star;
		MoveL Offs(pZeroStar, -4.708, -3.079, 0.3), v30, z0, tNozzle, \Wobj := wobj1Star;
		MoveL Offs(pZeroStar, -4.124, -3.802, 0.3), v30, z0, tNozzle, \Wobj := wobj1Star;
		MoveL Offs(pZeroStar, -4.122, -3.805, 0.3), v30, z0, tNozzle, \Wobj := wobj1Star;
		MoveL Offs(pZeroStar, -4.108, -3.821, 0.3), v30, z0, tNozzle, \Wobj := wobj1Star;
		MoveL Offs(pZeroStar, -4.092, -3.836, 0.3), v30, z0, tNozzle, \Wobj := wobj1Star;
		MoveL Offs(pZeroStar, -3.395, -4.449, 0.3), v30, z0, tNozzle, \Wobj := wobj1Star;
		MoveL Offs(pZeroStar, -3.392, -4.452, 0.3), v30, z0, tNozzle, \Wobj := wobj1Star;
		MoveL Offs(pZeroStar, -3.376, -4.465, 0.3), v30, z0, tNozzle, \Wobj := wobj1Star;
		MoveL Offs(pZeroStar, -3.358, -4.477, 0.3), v30, z0, tNozzle, \Wobj := wobj1Star;
		MoveL Offs(pZeroStar, -2.567, -4.964, 0.3), v30, z0, tNozzle, \Wobj := wobj1Star;
		MoveL Offs(pZeroStar, -2.564, -4.966, 0.3), v30, z0, tNozzle, \Wobj := wobj1Star;
		MoveL Offs(pZeroStar, -2.545, -4.977, 0.3), v30, z0, tNozzle, \Wobj := wobj1Star;
		MoveL Offs(pZeroStar, -2.526, -4.985, 0.3), v30, z0, tNozzle, \Wobj := wobj1Star;
		MoveL Offs(pZeroStar, -1.664, -5.332, 0.3), v30, z0, tNozzle, \Wobj := wobj1Star;
		MoveL Offs(pZeroStar, -1.66, -5.333, 0.3), v30, z0, tNozzle, \Wobj := wobj1Star;
		MoveL Offs(pZeroStar, -1.64, -5.34, 0.3), v30, z0, tNozzle, \Wobj := wobj1Star;
		MoveL Offs(pZeroStar, -1.62, -5.346, 0.3), v30, z0, tNozzle, \Wobj := wobj1Star;
		MoveL Offs(pZeroStar, -0.712, -5.541, 0.3), v30, z0, tNozzle, \Wobj := wobj1Star;
		MoveL Offs(pZeroStar, -0.708, -5.542, 0.3), v30, z0, tNozzle, \Wobj := wobj1Star;
		MoveL Offs(pZeroStar, -0.687, -5.546, 0.3), v30, z0, tNozzle, \Wobj := wobj1Star;
		MoveL Offs(pZeroStar, -0.666, -5.547, 0.3), v30, z0, tNozzle, \Wobj := wobj1Star;
		MoveL Offs(pZeroStar, 0.262, -5.587, 0.3), v30, z0, tNozzle, \Wobj := wobj1Star;
		MoveL Offs(pZeroStar, 0.266, -5.587, 0.3), v30, z0, tNozzle, \Wobj := wobj1Star;
		MoveL Offs(pZeroStar, 0.288, -5.587, 0.3), v30, z0, tNozzle, \Wobj := wobj1Star;
		MoveL Offs(pZeroStar, 0.309, -5.585, 0.3), v30, z0, tNozzle, \Wobj := wobj1Star;
		MoveL Offs(pZeroStar, 1.23, -5.467, 0.3), v30, z0, tNozzle, \Wobj := wobj1Star;
		MoveL Offs(pZeroStar, 1.234, -5.467, 0.3), v30, z0, tNozzle, \Wobj := wobj1Star;
		MoveL Offs(pZeroStar, 1.255, -5.463, 0.3), v30, z0, tNozzle, \Wobj := wobj1Star;
		MoveL Offs(pZeroStar, 1.275, -5.458, 0.3), v30, z0, tNozzle, \Wobj := wobj1Star;
		WaitRob \InPos;
		SetDO DO5_Program_Feed, 0;
		MoveL Offs(pZeroStar, 0.179, -7.132, 0.3), v100, z0, tNozzle, \Wobj := wobj1Star;
		WaitRob \InPos;
		SetDO DO5_Program_Feed, 1;
		MoveL Offs(pZeroStar, 0.159, -7.12, 0.3), v30, z0, tNozzle, \Wobj := wobj1Star;
		MoveL Offs(pZeroStar, 0.137, -7.11, 0.3), v30, z0, tNozzle, \Wobj := wobj1Star;
		MoveL Offs(pZeroStar, 0.114, -7.102, 0.3), v30, z0, tNozzle, \Wobj := wobj1Star;
		MoveL Offs(pZeroStar, 0.091, -7.097, 0.3), v30, z0, tNozzle, \Wobj := wobj1Star;
		MoveL Offs(pZeroStar, 0.067, -7.093, 0.3), v30, z0, tNozzle, \Wobj := wobj1Star;
		MoveL Offs(pZeroStar, 0.043, -7.092, 0.3), v30, z0, tNozzle, \Wobj := wobj1Star;
		MoveL Offs(pZeroStar, 0.02, -7.093, 0.3), v30, z0, tNozzle, \Wobj := wobj1Star;
		MoveL Offs(pZeroStar, -0.004, -7.097, 0.3), v30, z0, tNozzle, \Wobj := wobj1Star;
		MoveL Offs(pZeroStar, -0.027, -7.102, 0.3), v30, z0, tNozzle, \Wobj := wobj1Star;
		MoveL Offs(pZeroStar, -0.05, -7.11, 0.3), v30, z0, tNozzle, \Wobj := wobj1Star;
		MoveL Offs(pZeroStar, -0.072, -7.12, 0.3), v30, z0, tNozzle, \Wobj := wobj1Star;
		MoveL Offs(pZeroStar, -0.092, -7.132, 0.3), v30, z0, tNozzle, \Wobj := wobj1Star;
		MoveL Offs(pZeroStar, -0.136, -7.161, 0.3), v30, z0, tNozzle, \Wobj := wobj1Star;
		MoveL Offs(pZeroStar, -9.834, -13.438, 0.3), v30, z0, tNozzle, \Wobj := wobj1Star;
		MoveL Offs(pZeroStar, -6.848, -2.224, 0.3), v30, z0, tNozzle, \Wobj := wobj1Star;
		MoveL Offs(pZeroStar, -6.843, -2.201, 0.3), v30, z0, tNozzle, \Wobj := wobj1Star;
		MoveL Offs(pZeroStar, -6.84, -2.177, 0.3), v30, z0, tNozzle, \Wobj := wobj1Star;
		MoveL Offs(pZeroStar, -6.84, -2.153, 0.3), v30, z0, tNozzle, \Wobj := wobj1Star;
		MoveL Offs(pZeroStar, -6.841, -2.129, 0.3), v30, z0, tNozzle, \Wobj := wobj1Star;
		MoveL Offs(pZeroStar, -6.845, -2.106, 0.3), v30, z0, tNozzle, \Wobj := wobj1Star;
		MoveL Offs(pZeroStar, -6.852, -2.083, 0.3), v30, z0, tNozzle, \Wobj := wobj1Star;
		MoveL Offs(pZeroStar, -6.86, -2.06, 0.3), v30, z0, tNozzle, \Wobj := wobj1Star;
		MoveL Offs(pZeroStar, -6.871, -2.039, 0.3), v30, z0, tNozzle, \Wobj := wobj1Star;
		MoveL Offs(pZeroStar, -6.883, -2.018, 0.3), v30, z0, tNozzle, \Wobj := wobj1Star;
		MoveL Offs(pZeroStar, -6.898, -1.999, 0.3), v30, z0, tNozzle, \Wobj := wobj1Star;
		MoveL Offs(pZeroStar, -6.914, -1.982, 0.3), v30, z0, tNozzle, \Wobj := wobj1Star;
		MoveL Offs(pZeroStar, -6.932, -1.966, 0.3), v30, z0, tNozzle, \Wobj := wobj1Star;
		MoveL Offs(pZeroStar, -6.973, -1.933, 0.3), v30, z0, tNozzle, \Wobj := wobj1Star;
		MoveL Offs(pZeroStar, -15.939, 5.351, 0.3), v30, z0, tNozzle, \Wobj := wobj1Star;
		MoveL Offs(pZeroStar, -4.351, 5.976, 0.3), v30, z0, tNozzle, \Wobj := wobj1Star;
		MoveL Offs(pZeroStar, -4.328, 5.978, 0.3), v30, z0, tNozzle, \Wobj := wobj1Star;
		MoveL Offs(pZeroStar, -4.304, 5.983, 0.3), v30, z0, tNozzle, \Wobj := wobj1Star;
		MoveL Offs(pZeroStar, -4.281, 5.99, 0.3), v30, z0, tNozzle, \Wobj := wobj1Star;
		MoveL Offs(pZeroStar, -4.259, 5.999, 0.3), v30, z0, tNozzle, \Wobj := wobj1Star;
		MoveL Offs(pZeroStar, -4.238, 6.01, 0.3), v30, z0, tNozzle, \Wobj := wobj1Star;
		MoveL Offs(pZeroStar, -4.218, 6.023, 0.3), v30, z0, tNozzle, \Wobj := wobj1Star;
		MoveL Offs(pZeroStar, -4.199, 6.038, 0.3), v30, z0, tNozzle, \Wobj := wobj1Star;
		MoveL Offs(pZeroStar, -4.182, 6.055, 0.3), v30, z0, tNozzle, \Wobj := wobj1Star;
		MoveL Offs(pZeroStar, -4.167, 6.073, 0.3), v30, z0, tNozzle, \Wobj := wobj1Star;
		MoveL Offs(pZeroStar, -4.153, 6.093, 0.3), v30, z0, tNozzle, \Wobj := wobj1Star;
		MoveL Offs(pZeroStar, -4.141, 6.114, 0.3), v30, z0, tNozzle, \Wobj := wobj1Star;
		MoveL Offs(pZeroStar, -4.132, 6.135, 0.3), v30, z0, tNozzle, \Wobj := wobj1Star;
		MoveL Offs(pZeroStar, -4.113, 6.184, 0.3), v30, z0, tNozzle, \Wobj := wobj1Star;
		MoveL Offs(pZeroStar, 0.043, 16.963, 0.3), v30, z0, tNozzle, \Wobj := wobj1Star;
		MoveL Offs(pZeroStar, 4.219, 6.135, 0.3), v30, z0, tNozzle, \Wobj := wobj1Star;
		MoveL Offs(pZeroStar, 4.228, 6.114, 0.3), v30, z0, tNozzle, \Wobj := wobj1Star;
		MoveL Offs(pZeroStar, 4.24, 6.093, 0.3), v30, z0, tNozzle, \Wobj := wobj1Star;
		MoveL Offs(pZeroStar, 4.254, 6.073, 0.3), v30, z0, tNozzle, \Wobj := wobj1Star;
		MoveL Offs(pZeroStar, 4.269, 6.055, 0.3), v30, z0, tNozzle, \Wobj := wobj1Star;
		MoveL Offs(pZeroStar, 4.286, 6.038, 0.3), v30, z0, tNozzle, \Wobj := wobj1Star;
		MoveL Offs(pZeroStar, 4.305, 6.023, 0.3), v30, z0, tNozzle, \Wobj := wobj1Star;
		MoveL Offs(pZeroStar, 4.325, 6.01, 0.3), v30, z0, tNozzle, \Wobj := wobj1Star;
		MoveL Offs(pZeroStar, 4.346, 5.999, 0.3), v30, z0, tNozzle, \Wobj := wobj1Star;
		MoveL Offs(pZeroStar, 4.368, 5.99, 0.3), v30, z0, tNozzle, \Wobj := wobj1Star;
		MoveL Offs(pZeroStar, 4.391, 5.983, 0.3), v30, z0, tNozzle, \Wobj := wobj1Star;
		MoveL Offs(pZeroStar, 4.415, 5.978, 0.3), v30, z0, tNozzle, \Wobj := wobj1Star;
		MoveL Offs(pZeroStar, 4.438, 5.976, 0.3), v30, z0, tNozzle, \Wobj := wobj1Star;
		MoveL Offs(pZeroStar, 4.491, 5.973, 0.3), v30, z0, tNozzle, \Wobj := wobj1Star;
		MoveL Offs(pZeroStar, 16.026, 5.351, 0.3), v30, z0, tNozzle, \Wobj := wobj1Star;
		MoveL Offs(pZeroStar, 7.019, -1.966, 0.3), v30, z0, tNozzle, \Wobj := wobj1Star;
		MoveL Offs(pZeroStar, 7.001, -1.982, 0.3), v30, z0, tNozzle, \Wobj := wobj1Star;
		MoveL Offs(pZeroStar, 6.985, -1.999, 0.3), v30, z0, tNozzle, \Wobj := wobj1Star;
		MoveL Offs(pZeroStar, 6.97, -2.018, 0.3), v30, z0, tNozzle, \Wobj := wobj1Star;
		MoveL Offs(pZeroStar, 6.958, -2.039, 0.3), v30, z0, tNozzle, \Wobj := wobj1Star;
		MoveL Offs(pZeroStar, 6.947, -2.06, 0.3), v30, z0, tNozzle, \Wobj := wobj1Star;
		MoveL Offs(pZeroStar, 6.939, -2.083, 0.3), v30, z0, tNozzle, \Wobj := wobj1Star;
		MoveL Offs(pZeroStar, 6.932, -2.106, 0.3), v30, z0, tNozzle, \Wobj := wobj1Star;
		MoveL Offs(pZeroStar, 6.928, -2.129, 0.3), v30, z0, tNozzle, \Wobj := wobj1Star;
		MoveL Offs(pZeroStar, 6.927, -2.153, 0.3), v30, z0, tNozzle, \Wobj := wobj1Star;
		MoveL Offs(pZeroStar, 6.927, -2.177, 0.3), v30, z0, tNozzle, \Wobj := wobj1Star;
		MoveL Offs(pZeroStar, 6.93, -2.201, 0.3), v30, z0, tNozzle, \Wobj := wobj1Star;
		MoveL Offs(pZeroStar, 6.935, -2.224, 0.3), v30, z0, tNozzle, \Wobj := wobj1Star;
		MoveL Offs(pZeroStar, 6.948, -2.275, 0.3), v30, z0, tNozzle, \Wobj := wobj1Star;
		MoveL Offs(pZeroStar, 9.921, -13.438, 0.3), v30, z0, tNozzle, \Wobj := wobj1Star;
		MoveL Offs(pZeroStar, 0.179, -7.132, 0.3), v30, z0, tNozzle, \Wobj := wobj1Star;
		WaitRob \InPos;
		SetDO DO5_Program_Feed, 0;
		MoveL Offs(pZeroStar, 0.431, -6.7, 0.3), v100, z0, tNozzle, \Wobj := wobj1Star;
		WaitRob \InPos;
		SetDO DO5_Program_Feed, 1;
		MoveL Offs(pZeroStar, 0.41, -6.688, 0.3), v30, z0, tNozzle, \Wobj := wobj1Star;
		MoveL Offs(pZeroStar, 0.367, -6.666, 0.3), v30, z0, tNozzle, \Wobj := wobj1Star;
		MoveL Offs(pZeroStar, 0.346, -6.656, 0.3), v30, z0, tNozzle, \Wobj := wobj1Star;
		MoveL Offs(pZeroStar, 0.301, -6.638, 0.3), v30, z0, tNozzle, \Wobj := wobj1Star;
		MoveL Offs(pZeroStar, 0.279, -6.63, 0.3), v30, z0, tNozzle, \Wobj := wobj1Star;
		MoveL Offs(pZeroStar, 0.233, -6.617, 0.3), v30, z0, tNozzle, \Wobj := wobj1Star;
		MoveL Offs(pZeroStar, 0.21, -6.611, 0.3), v30, z0, tNozzle, \Wobj := wobj1Star;
		MoveL Offs(pZeroStar, 0.163, -6.602, 0.3), v30, z0, tNozzle, \Wobj := wobj1Star;
		MoveL Offs(pZeroStar, 0.139, -6.598, 0.3), v30, z0, tNozzle, \Wobj := wobj1Star;
		MoveL Offs(pZeroStar, 0.091, -6.594, 0.3), v30, z0, tNozzle, \Wobj := wobj1Star;
		MoveL Offs(pZeroStar, 0.067, -6.593, 0.3), v30, z0, tNozzle, \Wobj := wobj1Star;
		MoveL Offs(pZeroStar, 0.02, -6.593, 0.3), v30, z0, tNozzle, \Wobj := wobj1Star;
		MoveL Offs(pZeroStar, -0.004, -6.594, 0.3), v30, z0, tNozzle, \Wobj := wobj1Star;
		MoveL Offs(pZeroStar, -0.052, -6.598, 0.3), v30, z0, tNozzle, \Wobj := wobj1Star;
		MoveL Offs(pZeroStar, -0.076, -6.602, 0.3), v30, z0, tNozzle, \Wobj := wobj1Star;
		MoveL Offs(pZeroStar, -0.123, -6.611, 0.3), v30, z0, tNozzle, \Wobj := wobj1Star;
		MoveL Offs(pZeroStar, -0.146, -6.617, 0.3), v30, z0, tNozzle, \Wobj := wobj1Star;
		MoveL Offs(pZeroStar, -0.192, -6.63, 0.3), v30, z0, tNozzle, \Wobj := wobj1Star;
		MoveL Offs(pZeroStar, -0.214, -6.638, 0.3), v30, z0, tNozzle, \Wobj := wobj1Star;
		MoveL Offs(pZeroStar, -0.259, -6.656, 0.3), v30, z0, tNozzle, \Wobj := wobj1Star;
		MoveL Offs(pZeroStar, -0.28, -6.666, 0.3), v30, z0, tNozzle, \Wobj := wobj1Star;
		MoveL Offs(pZeroStar, -0.323, -6.688, 0.3), v30, z0, tNozzle, \Wobj := wobj1Star;
		MoveL Offs(pZeroStar, -0.344, -6.7, 0.3), v30, z0, tNozzle, \Wobj := wobj1Star;
		MoveL Offs(pZeroStar, -0.364, -6.713, 0.3), v30, z0, tNozzle, \Wobj := wobj1Star;
		MoveL Offs(pZeroStar, -0.408, -6.741, 0.3), v30, z0, tNozzle, \Wobj := wobj1Star;
		MoveL Offs(pZeroStar, -9.017, -12.314, 0.3), v30, z0, tNozzle, \Wobj := wobj1Star;
		MoveL Offs(pZeroStar, -6.365, -2.353, 0.3), v30, z0, tNozzle, \Wobj := wobj1Star;
		MoveL Offs(pZeroStar, -6.359, -2.33, 0.3), v30, z0, tNozzle, \Wobj := wobj1Star;
		MoveL Offs(pZeroStar, -6.354, -2.306, 0.3), v30, z0, tNozzle, \Wobj := wobj1Star;
		MoveL Offs(pZeroStar, -6.346, -2.259, 0.3), v30, z0, tNozzle, \Wobj := wobj1Star;
		MoveL Offs(pZeroStar, -6.343, -2.235, 0.3), v30, z0, tNozzle, \Wobj := wobj1Star;
		MoveL Offs(pZeroStar, -6.34, -2.187, 0.3), v30, z0, tNozzle, \Wobj := wobj1Star;
		MoveL Offs(pZeroStar, -6.34, -2.164, 0.3), v30, z0, tNozzle, \Wobj := wobj1Star;
		MoveL Offs(pZeroStar, -6.341, -2.116, 0.3), v30, z0, tNozzle, \Wobj := wobj1Star;
		MoveL Offs(pZeroStar, -6.343, -2.092, 0.3), v30, z0, tNozzle, \Wobj := wobj1Star;
		MoveL Offs(pZeroStar, -6.349, -2.044, 0.3), v30, z0, tNozzle, \Wobj := wobj1Star;
		MoveL Offs(pZeroStar, -6.353, -2.021, 0.3), v30, z0, tNozzle, \Wobj := wobj1Star;
		MoveL Offs(pZeroStar, -6.363, -1.974, 0.3), v30, z0, tNozzle, \Wobj := wobj1Star;
		MoveL Offs(pZeroStar, -6.369, -1.951, 0.3), v30, z0, tNozzle, \Wobj := wobj1Star;
		MoveL Offs(pZeroStar, -6.384, -1.905, 0.3), v30, z0, tNozzle, \Wobj := wobj1Star;
		MoveL Offs(pZeroStar, -6.393, -1.883, 0.3), v30, z0, tNozzle, \Wobj := wobj1Star;
		MoveL Offs(pZeroStar, -6.412, -1.839, 0.3), v30, z0, tNozzle, \Wobj := wobj1Star;
		MoveL Offs(pZeroStar, -6.422, -1.818, 0.3), v30, z0, tNozzle, \Wobj := wobj1Star;
		MoveL Offs(pZeroStar, -6.445, -1.776, 0.3), v30, z0, tNozzle, \Wobj := wobj1Star;
		MoveL Offs(pZeroStar, -6.458, -1.756, 0.3), v30, z0, tNozzle, \Wobj := wobj1Star;
		MoveL Offs(pZeroStar, -6.485, -1.716, 0.3), v30, z0, tNozzle, \Wobj := wobj1Star;
		MoveL Offs(pZeroStar, -6.499, -1.697, 0.3), v30, z0, tNozzle, \Wobj := wobj1Star;
		MoveL Offs(pZeroStar, -6.53, -1.66, 0.3), v30, z0, tNozzle, \Wobj := wobj1Star;
		MoveL Offs(pZeroStar, -6.546, -1.643, 0.3), v30, z0, tNozzle, \Wobj := wobj1Star;
		MoveL Offs(pZeroStar, -6.581, -1.609, 0.3), v30, z0, tNozzle, \Wobj := wobj1Star;
		MoveL Offs(pZeroStar, -6.598, -1.593, 0.3), v30, z0, tNozzle, \Wobj := wobj1Star;
		MoveL Offs(pZeroStar, -6.617, -1.578, 0.3), v30, z0, tNozzle, \Wobj := wobj1Star;
		MoveL Offs(pZeroStar, -6.657, -1.545, 0.3), v30, z0, tNozzle, \Wobj := wobj1Star;
		MoveL Offs(pZeroStar, -14.617, 4.921, 0.3), v30, z0, tNozzle, \Wobj := wobj1Star;
		MoveL Offs(pZeroStar, -4.325, 5.477, 0.3), v30, z0, tNozzle, \Wobj := wobj1Star;
		MoveL Offs(pZeroStar, -4.313, 5.478, 0.3), v30, z0, tNozzle, \Wobj := wobj1Star;
		MoveL Offs(pZeroStar, -4.301, 5.478, 0.3), v30, z0, tNozzle, \Wobj := wobj1Star;
		MoveL Offs(pZeroStar, -4.277, 5.481, 0.3), v30, z0, tNozzle, \Wobj := wobj1Star;
		MoveL Offs(pZeroStar, -4.23, 5.488, 0.3), v30, z0, tNozzle, \Wobj := wobj1Star;
		MoveL Offs(pZeroStar, -4.206, 5.493, 0.3), v30, z0, tNozzle, \Wobj := wobj1Star;
		MoveL Offs(pZeroStar, -4.16, 5.504, 0.3), v30, z0, tNozzle, \Wobj := wobj1Star;
		MoveL Offs(pZeroStar, -4.137, 5.511, 0.3), v30, z0, tNozzle, \Wobj := wobj1Star;
		MoveL Offs(pZeroStar, -4.092, 5.527, 0.3), v30, z0, tNozzle, \Wobj := wobj1Star;
		MoveL Offs(pZeroStar, -4.07, 5.536, 0.3), v30, z0, tNozzle, \Wobj := wobj1Star;
		MoveL Offs(pZeroStar, -4.026, 5.556, 0.3), v30, z0, tNozzle, \Wobj := wobj1Star;
		MoveL Offs(pZeroStar, -4.005, 5.568, 0.3), v30, z0, tNozzle, \Wobj := wobj1Star;
		MoveL Offs(pZeroStar, -3.964, 5.592, 0.3), v30, z0, tNozzle, \Wobj := wobj1Star;
		MoveL Offs(pZeroStar, -3.944, 5.605, 0.3), v30, z0, tNozzle, \Wobj := wobj1Star;
		MoveL Offs(pZeroStar, -3.905, 5.633, 0.3), v30, z0, tNozzle, \Wobj := wobj1Star;
		MoveL Offs(pZeroStar, -3.886, 5.648, 0.3), v30, z0, tNozzle, \Wobj := wobj1Star;
		MoveL Offs(pZeroStar, -3.851, 5.68, 0.3), v30, z0, tNozzle, \Wobj := wobj1Star;
		MoveL Offs(pZeroStar, -3.833, 5.697, 0.3), v30, z0, tNozzle, \Wobj := wobj1Star;
		MoveL Offs(pZeroStar, -3.801, 5.732, 0.3), v30, z0, tNozzle, \Wobj := wobj1Star;
		MoveL Offs(pZeroStar, -3.785, 5.75, 0.3), v30, z0, tNozzle, \Wobj := wobj1Star;
		MoveL Offs(pZeroStar, -3.756, 5.788, 0.3), v30, z0, tNozzle, \Wobj := wobj1Star;
		MoveL Offs(pZeroStar, -3.742, 5.807, 0.3), v30, z0, tNozzle, \Wobj := wobj1Star;
		MoveL Offs(pZeroStar, -3.717, 5.848, 0.3), v30, z0, tNozzle, \Wobj := wobj1Star;
		MoveL Offs(pZeroStar, -3.705, 5.869, 0.3), v30, z0, tNozzle, \Wobj := wobj1Star;
		MoveL Offs(pZeroStar, -3.684, 5.912, 0.3), v30, z0, tNozzle, \Wobj := wobj1Star;
		MoveL Offs(pZeroStar, -3.674, 5.933, 0.3), v30, z0, tNozzle, \Wobj := wobj1Star;
		MoveL Offs(pZeroStar, -3.665, 5.956, 0.3), v30, z0, tNozzle, \Wobj := wobj1Star;
		MoveL Offs(pZeroStar, -3.646, 6.005, 0.3), v30, z0, tNozzle, \Wobj := wobj1Star;
		MoveL Offs(pZeroStar, 0.043, 15.573, 0.3), v30, z0, tNozzle, \Wobj := wobj1Star;
		MoveL Offs(pZeroStar, 3.752, 5.956, 0.3), v30, z0, tNozzle, \Wobj := wobj1Star;
		MoveL Offs(pZeroStar, 3.761, 5.933, 0.3), v30, z0, tNozzle, \Wobj := wobj1Star;
		MoveL Offs(pZeroStar, 3.771, 5.912, 0.3), v30, z0, tNozzle, \Wobj := wobj1Star;
		MoveL Offs(pZeroStar, 3.792, 5.869, 0.3), v30, z0, tNozzle, \Wobj := wobj1Star;
		MoveL Offs(pZeroStar, 3.804, 5.848, 0.3), v30, z0, tNozzle, \Wobj := wobj1Star;
		MoveL Offs(pZeroStar, 3.829, 5.807, 0.3), v30, z0, tNozzle, \Wobj := wobj1Star;
		MoveL Offs(pZeroStar, 3.843, 5.788, 0.3), v30, z0, tNozzle, \Wobj := wobj1Star;
		MoveL Offs(pZeroStar, 3.872, 5.75, 0.3), v30, z0, tNozzle, \Wobj := wobj1Star;
		MoveL Offs(pZeroStar, 3.888, 5.732, 0.3), v30, z0, tNozzle, \Wobj := wobj1Star;
		MoveL Offs(pZeroStar, 3.92, 5.697, 0.3), v30, z0, tNozzle, \Wobj := wobj1Star;
		MoveL Offs(pZeroStar, 3.938, 5.68, 0.3), v30, z0, tNozzle, \Wobj := wobj1Star;
		MoveL Offs(pZeroStar, 3.973, 5.648, 0.3), v30, z0, tNozzle, \Wobj := wobj1Star;
		MoveL Offs(pZeroStar, 3.992, 5.633, 0.3), v30, z0, tNozzle, \Wobj := wobj1Star;
		MoveL Offs(pZeroStar, 4.031, 5.605, 0.3), v30, z0, tNozzle, \Wobj := wobj1Star;
		MoveL Offs(pZeroStar, 4.051, 5.592, 0.3), v30, z0, tNozzle, \Wobj := wobj1Star;
		MoveL Offs(pZeroStar, 4.092, 5.568, 0.3), v30, z0, tNozzle, \Wobj := wobj1Star;
		MoveL Offs(pZeroStar, 4.113, 5.556, 0.3), v30, z0, tNozzle, \Wobj := wobj1Star;
		MoveL Offs(pZeroStar, 4.156, 5.536, 0.3), v30, z0, tNozzle, \Wobj := wobj1Star;
		MoveL Offs(pZeroStar, 4.179, 5.527, 0.3), v30, z0, tNozzle, \Wobj := wobj1Star;
		MoveL Offs(pZeroStar, 4.224, 5.511, 0.3), v30, z0, tNozzle, \Wobj := wobj1Star;
		MoveL Offs(pZeroStar, 4.247, 5.504, 0.3), v30, z0, tNozzle, \Wobj := wobj1Star;
		MoveL Offs(pZeroStar, 4.293, 5.493, 0.3), v30, z0, tNozzle, \Wobj := wobj1Star;
		MoveL Offs(pZeroStar, 4.317, 5.488, 0.3), v30, z0, tNozzle, \Wobj := wobj1Star;
		MoveL Offs(pZeroStar, 4.364, 5.481, 0.3), v30, z0, tNozzle, \Wobj := wobj1Star;
		MoveL Offs(pZeroStar, 4.388, 5.478, 0.3), v30, z0, tNozzle, \Wobj := wobj1Star;
		MoveL Offs(pZeroStar, 4.411, 5.477, 0.3), v30, z0, tNozzle, \Wobj := wobj1Star;
		MoveL Offs(pZeroStar, 4.464, 5.474, 0.3), v30, z0, tNozzle, \Wobj := wobj1Star;
		MoveL Offs(pZeroStar, 14.704, 4.921, 0.3), v30, z0, tNozzle, \Wobj := wobj1Star;
		MoveL Offs(pZeroStar, 6.704, -1.578, 0.3), v30, z0, tNozzle, \Wobj := wobj1Star;
		MoveL Offs(pZeroStar, 6.685, -1.593, 0.3), v30, z0, tNozzle, \Wobj := wobj1Star;
		MoveL Offs(pZeroStar, 6.668, -1.609, 0.3), v30, z0, tNozzle, \Wobj := wobj1Star;
		MoveL Offs(pZeroStar, 6.633, -1.643, 0.3), v30, z0, tNozzle, \Wobj := wobj1Star;
		MoveL Offs(pZeroStar, 6.617, -1.66, 0.3), v30, z0, tNozzle, \Wobj := wobj1Star;
		MoveL Offs(pZeroStar, 6.586, -1.697, 0.3), v30, z0, tNozzle, \Wobj := wobj1Star;
		MoveL Offs(pZeroStar, 6.572, -1.716, 0.3), v30, z0, tNozzle, \Wobj := wobj1Star;
		MoveL Offs(pZeroStar, 6.545, -1.756, 0.3), v30, z0, tNozzle, \Wobj := wobj1Star;
		MoveL Offs(pZeroStar, 6.532, -1.776, 0.3), v30, z0, tNozzle, \Wobj := wobj1Star;
		MoveL Offs(pZeroStar, 6.509, -1.818, 0.3), v30, z0, tNozzle, \Wobj := wobj1Star;
		MoveL Offs(pZeroStar, 6.499, -1.839, 0.3), v30, z0, tNozzle, \Wobj := wobj1Star;
		MoveL Offs(pZeroStar, 6.48, -1.883, 0.3), v30, z0, tNozzle, \Wobj := wobj1Star;
		MoveL Offs(pZeroStar, 6.471, -1.905, 0.3), v30, z0, tNozzle, \Wobj := wobj1Star;
		MoveL Offs(pZeroStar, 6.456, -1.951, 0.3), v30, z0, tNozzle, \Wobj := wobj1Star;
		MoveL Offs(pZeroStar, 6.45, -1.974, 0.3), v30, z0, tNozzle, \Wobj := wobj1Star;
		MoveL Offs(pZeroStar, 6.44, -2.021, 0.3), v30, z0, tNozzle, \Wobj := wobj1Star;
		MoveL Offs(pZeroStar, 6.436, -2.044, 0.3), v30, z0, tNozzle, \Wobj := wobj1Star;
		MoveL Offs(pZeroStar, 6.43, -2.092, 0.3), v30, z0, tNozzle, \Wobj := wobj1Star;
		MoveL Offs(pZeroStar, 6.428, -2.116, 0.3), v30, z0, tNozzle, \Wobj := wobj1Star;
		MoveL Offs(pZeroStar, 6.427, -2.164, 0.3), v30, z0, tNozzle, \Wobj := wobj1Star;
		MoveL Offs(pZeroStar, 6.427, -2.187, 0.3), v30, z0, tNozzle, \Wobj := wobj1Star;
		MoveL Offs(pZeroStar, 6.43, -2.235, 0.3), v30, z0, tNozzle, \Wobj := wobj1Star;
		MoveL Offs(pZeroStar, 6.433, -2.259, 0.3), v30, z0, tNozzle, \Wobj := wobj1Star;
		MoveL Offs(pZeroStar, 6.441, -2.306, 0.3), v30, z0, tNozzle, \Wobj := wobj1Star;
		MoveL Offs(pZeroStar, 6.446, -2.33, 0.3), v30, z0, tNozzle, \Wobj := wobj1Star;
		MoveL Offs(pZeroStar, 6.452, -2.353, 0.3), v30, z0, tNozzle, \Wobj := wobj1Star;
		MoveL Offs(pZeroStar, 6.465, -2.404, 0.3), v30, z0, tNozzle, \Wobj := wobj1Star;
		MoveL Offs(pZeroStar, 9.104, -12.314, 0.3), v30, z0, tNozzle, \Wobj := wobj1Star;
		MoveL Offs(pZeroStar, 0.451, -6.713, 0.3), v30, z0, tNozzle, \Wobj := wobj1Star;
		MoveL Offs(pZeroStar, 0.431, -6.7, 0.3), v30, z0, tNozzle, \Wobj := wobj1Star;
		WaitRob \InPos;
		SetDO DO5_Program_Feed, 0;
		MoveL Offs(pZeroStar, 0.372, -6.081, 0.3), v100, z0, tNozzle, \Wobj := wobj1Star;
		WaitRob \InPos;
		SetDO DO5_Program_Feed, 1;
		MoveL Offs(pZeroStar, 1.294, -5.963, 0.3), v30, z0, tNozzle, \Wobj := wobj1Star;
		MoveL Offs(pZeroStar, 1.297, -5.963, 0.3), v30, z0, tNozzle, \Wobj := wobj1Star;
		MoveL Offs(pZeroStar, 1.318, -5.96, 0.3), v30, z0, tNozzle, \Wobj := wobj1Star;
		MoveL Offs(pZeroStar, 1.339, -5.956, 0.3), v30, z0, tNozzle, \Wobj := wobj1Star;
		MoveL Offs(pZeroStar, 1.381, -5.947, 0.3), v30, z0, tNozzle, \Wobj := wobj1Star;
		MoveL Offs(pZeroStar, 1.401, -5.942, 0.3), v30, z0, tNozzle, \Wobj := wobj1Star;
		MoveL Offs(pZeroStar, 1.422, -5.936, 0.3), v30, z0, tNozzle, \Wobj := wobj1Star;
		MoveL Offs(pZeroStar, 2.31, -5.664, 0.3), v30, z0, tNozzle, \Wobj := wobj1Star;
		MoveL Offs(pZeroStar, 2.314, -5.663, 0.3), v30, z0, tNozzle, \Wobj := wobj1Star;
		MoveL Offs(pZeroStar, 2.334, -5.656, 0.3), v30, z0, tNozzle, \Wobj := wobj1Star;
		MoveL Offs(pZeroStar, 2.354, -5.649, 0.3), v30, z0, tNozzle, \Wobj := wobj1Star;
		MoveL Offs(pZeroStar, 2.393, -5.633, 0.3), v30, z0, tNozzle, \Wobj := wobj1Star;
		MoveL Offs(pZeroStar, 2.413, -5.624, 0.3), v30, z0, tNozzle, \Wobj := wobj1Star;
		MoveL Offs(pZeroStar, 2.432, -5.615, 0.3), v30, z0, tNozzle, \Wobj := wobj1Star;
		MoveL Offs(pZeroStar, 3.261, -5.197, 0.3), v30, z0, tNozzle, \Wobj := wobj1Star;
		MoveL Offs(pZeroStar, 3.265, -5.195, 0.3), v30, z0, tNozzle, \Wobj := wobj1Star;
		MoveL Offs(pZeroStar, 3.284, -5.185, 0.3), v30, z0, tNozzle, \Wobj := wobj1Star;
		MoveL Offs(pZeroStar, 3.302, -5.175, 0.3), v30, z0, tNozzle, \Wobj := wobj1Star;
		MoveL Offs(pZeroStar, 3.338, -5.153, 0.3), v30, z0, tNozzle, \Wobj := wobj1Star;
		MoveL Offs(pZeroStar, 3.356, -5.141, 0.3), v30, z0, tNozzle, \Wobj := wobj1Star;
		MoveL Offs(pZeroStar, 3.373, -5.129, 0.3), v30, z0, tNozzle, \Wobj := wobj1Star;
		MoveL Offs(pZeroStar, 4.12, -4.576, 0.3), v30, z0, tNozzle, \Wobj := wobj1Star;
		MoveL Offs(pZeroStar, 4.123, -4.574, 0.3), v30, z0, tNozzle, \Wobj := wobj1Star;
		MoveL Offs(pZeroStar, 4.14, -4.561, 0.3), v30, z0, tNozzle, \Wobj := wobj1Star;
		MoveL Offs(pZeroStar, 4.156, -4.548, 0.3), v30, z0, tNozzle, \Wobj := wobj1Star;
		MoveL Offs(pZeroStar, 4.188, -4.52, 0.3), v30, z0, tNozzle, \Wobj := wobj1Star;
		MoveL Offs(pZeroStar, 4.204, -4.505, 0.3), v30, z0, tNozzle, \Wobj := wobj1Star;
		MoveL Offs(pZeroStar, 4.219, -4.49, 0.3), v30, z0, tNozzle, \Wobj := wobj1Star;
		MoveL Offs(pZeroStar, 4.864, -3.816, 0.3), v30, z0, tNozzle, \Wobj := wobj1Star;
		MoveL Offs(pZeroStar, 4.879, -3.801, 0.3), v30, z0, tNozzle, \Wobj := wobj1Star;
		MoveL Offs(pZeroStar, 4.893, -3.785, 0.3), v30, z0, tNozzle, \Wobj := wobj1Star;
		MoveL Offs(pZeroStar, 4.919, -3.752, 0.3), v30, z0, tNozzle, \Wobj := wobj1Star;
		MoveL Offs(pZeroStar, 4.932, -3.735, 0.3), v30, z0, tNozzle, \Wobj := wobj1Star;
		MoveL Offs(pZeroStar, 4.944, -3.717, 0.3), v30, z0, tNozzle, \Wobj := wobj1Star;
		MoveL Offs(pZeroStar, 5.464, -2.948, 0.3), v30, z0, tNozzle, \Wobj := wobj1Star;
		MoveL Offs(pZeroStar, 5.466, -2.945, 0.3), v30, z0, tNozzle, \Wobj := wobj1Star;
		MoveL Offs(pZeroStar, 5.478, -2.927, 0.3), v30, z0, tNozzle, \Wobj := wobj1Star;
		MoveL Offs(pZeroStar, 5.489, -2.909, 0.3), v30, z0, tNozzle, \Wobj := wobj1Star;
		MoveL Offs(pZeroStar, 5.51, -2.872, 0.3), v30, z0, tNozzle, \Wobj := wobj1Star;
		MoveL Offs(pZeroStar, 5.519, -2.853, 0.3), v30, z0, tNozzle, \Wobj := wobj1Star;
		MoveL Offs(pZeroStar, 5.528, -2.833, 0.3), v30, z0, tNozzle, \Wobj := wobj1Star;
		MoveL Offs(pZeroStar, 5.913, -1.983, 0.3), v30, z0, tNozzle, \Wobj := wobj1Star;
		MoveL Offs(pZeroStar, 5.921, -1.964, 0.3), v30, z0, tNozzle, \Wobj := wobj1Star;
		MoveL Offs(pZeroStar, 5.929, -1.944, 0.3), v30, z0, tNozzle, \Wobj := wobj1Star;
		MoveL Offs(pZeroStar, 5.943, -1.904, 0.3), v30, z0, tNozzle, \Wobj := wobj1Star;
		MoveL Offs(pZeroStar, 5.949, -1.884, 0.3), v30, z0, tNozzle, \Wobj := wobj1Star;
		MoveL Offs(pZeroStar, 5.955, -1.863, 0.3), v30, z0, tNozzle, \Wobj := wobj1Star;
		MoveL Offs(pZeroStar, 6.189, -0.965, 0.3), v30, z0, tNozzle, \Wobj := wobj1Star;
		MoveL Offs(pZeroStar, 6.19, -0.961, 0.3), v30, z0, tNozzle, \Wobj := wobj1Star;
		MoveL Offs(pZeroStar, 6.195, -0.94, 0.3), v30, z0, tNozzle, \Wobj := wobj1Star;
		MoveL Offs(pZeroStar, 6.2, -0.919, 0.3), v30, z0, tNozzle, \Wobj := wobj1Star;
		MoveL Offs(pZeroStar, 6.207, -0.877, 0.3), v30, z0, tNozzle, \Wobj := wobj1Star;
		MoveL Offs(pZeroStar, 6.209, -0.856, 0.3), v30, z0, tNozzle, \Wobj := wobj1Star;
		MoveL Offs(pZeroStar, 6.212, -0.835, 0.3), v30, z0, tNozzle, \Wobj := wobj1Star;
		MoveL Offs(pZeroStar, 6.291, 0.094, 0.3), v30, z0, tNozzle, \Wobj := wobj1Star;
		MoveL Offs(pZeroStar, 6.292, 0.115, 0.3), v30, z0, tNozzle, \Wobj := wobj1Star;
		MoveL Offs(pZeroStar, 6.293, 0.137, 0.3), v30, z0, tNozzle, \Wobj := wobj1Star;
		MoveL Offs(pZeroStar, 6.293, 0.179, 0.3), v30, z0, tNozzle, \Wobj := wobj1Star;
		MoveL Offs(pZeroStar, 6.292, 0.2, 0.3), v30, z0, tNozzle, \Wobj := wobj1Star;
		MoveL Offs(pZeroStar, 6.291, 0.221, 0.3), v30, z0, tNozzle, \Wobj := wobj1Star;
		MoveL Offs(pZeroStar, 6.212, 1.147, 0.3), v30, z0, tNozzle, \Wobj := wobj1Star;
		MoveL Offs(pZeroStar, 6.212, 1.151, 0.3), v30, z0, tNozzle, \Wobj := wobj1Star;
		MoveL Offs(pZeroStar, 6.209, 1.172, 0.3), v30, z0, tNozzle, \Wobj := wobj1Star;
		MoveL Offs(pZeroStar, 6.207, 1.193, 0.3), v30, z0, tNozzle, \Wobj := wobj1Star;
		MoveL Offs(pZeroStar, 6.2, 1.235, 0.3), v30, z0, tNozzle, \Wobj := wobj1Star;
		MoveL Offs(pZeroStar, 6.195, 1.256, 0.3), v30, z0, tNozzle, \Wobj := wobj1Star;
		MoveL Offs(pZeroStar, 6.19, 1.276, 0.3), v30, z0, tNozzle, \Wobj := wobj1Star;
		MoveL Offs(pZeroStar, 5.955, 2.179, 0.3), v30, z0, tNozzle, \Wobj := wobj1Star;
		MoveL Offs(pZeroStar, 5.949, 2.199, 0.3), v30, z0, tNozzle, \Wobj := wobj1Star;
		MoveL Offs(pZeroStar, 5.943, 2.22, 0.3), v30, z0, tNozzle, \Wobj := wobj1Star;
		MoveL Offs(pZeroStar, 5.929, 2.26, 0.3), v30, z0, tNozzle, \Wobj := wobj1Star;
		MoveL Offs(pZeroStar, 5.921, 2.279, 0.3), v30, z0, tNozzle, \Wobj := wobj1Star;
		MoveL Offs(pZeroStar, 5.913, 2.299, 0.3), v30, z0, tNozzle, \Wobj := wobj1Star;
		MoveL Offs(pZeroStar, 5.53, 3.145, 0.3), v30, z0, tNozzle, \Wobj := wobj1Star;
		MoveL Offs(pZeroStar, 5.528, 3.149, 0.3), v30, z0, tNozzle, \Wobj := wobj1Star;
		MoveL Offs(pZeroStar, 5.519, 3.168, 0.3), v30, z0, tNozzle, \Wobj := wobj1Star;
		MoveL Offs(pZeroStar, 5.51, 3.187, 0.3), v30, z0, tNozzle, \Wobj := wobj1Star;
		MoveL Offs(pZeroStar, 5.489, 3.224, 0.3), v30, z0, tNozzle, \Wobj := wobj1Star;
		MoveL Offs(pZeroStar, 5.478, 3.242, 0.3), v30, z0, tNozzle, \Wobj := wobj1Star;
		MoveL Offs(pZeroStar, 5.466, 3.26, 0.3), v30, z0, tNozzle, \Wobj := wobj1Star;
		MoveL Offs(pZeroStar, 4.944, 4.033, 0.3), v30, z0, tNozzle, \Wobj := wobj1Star;
		MoveL Offs(pZeroStar, 4.932, 4.05, 0.3), v30, z0, tNozzle, \Wobj := wobj1Star;
		MoveL Offs(pZeroStar, 4.919, 4.067, 0.3), v30, z0, tNozzle, \Wobj := wobj1Star;
		MoveL Offs(pZeroStar, 4.893, 4.1, 0.3), v30, z0, tNozzle, \Wobj := wobj1Star;
		MoveL Offs(pZeroStar, 4.879, 4.116, 0.3), v30, z0, tNozzle, \Wobj := wobj1Star;
		MoveL Offs(pZeroStar, 4.864, 4.132, 0.3), v30, z0, tNozzle, \Wobj := wobj1Star;
		MoveL Offs(pZeroStar, 4.219, 4.805, 0.3), v30, z0, tNozzle, \Wobj := wobj1Star;
		MoveL Offs(pZeroStar, 4.204, 4.82, 0.3), v30, z0, tNozzle, \Wobj := wobj1Star;
		MoveL Offs(pZeroStar, 4.188, 4.835, 0.3), v30, z0, tNozzle, \Wobj := wobj1Star;
		MoveL Offs(pZeroStar, 4.156, 4.863, 0.3), v30, z0, tNozzle, \Wobj := wobj1Star;
		MoveL Offs(pZeroStar, 4.14, 4.877, 0.3), v30, z0, tNozzle, \Wobj := wobj1Star;
		MoveL Offs(pZeroStar, 4.123, 4.889, 0.3), v30, z0, tNozzle, \Wobj := wobj1Star;
		MoveL Offs(pZeroStar, 3.373, 5.444, 0.3), v30, z0, tNozzle, \Wobj := wobj1Star;
		MoveL Offs(pZeroStar, 3.356, 5.456, 0.3), v30, z0, tNozzle, \Wobj := wobj1Star;
		MoveL Offs(pZeroStar, 3.338, 5.468, 0.3), v30, z0, tNozzle, \Wobj := wobj1Star;
		MoveL Offs(pZeroStar, 3.302, 5.491, 0.3), v30, z0, tNozzle, \Wobj := wobj1Star;
		MoveL Offs(pZeroStar, 3.284, 5.501, 0.3), v30, z0, tNozzle, \Wobj := wobj1Star;
		MoveL Offs(pZeroStar, 3.265, 5.511, 0.3), v30, z0, tNozzle, \Wobj := wobj1Star;
		MoveL Offs(pZeroStar, 2.435, 5.929, 0.3), v30, z0, tNozzle, \Wobj := wobj1Star;
		MoveL Offs(pZeroStar, 2.432, 5.931, 0.3), v30, z0, tNozzle, \Wobj := wobj1Star;
		MoveL Offs(pZeroStar, 2.413, 5.94, 0.3), v30, z0, tNozzle, \Wobj := wobj1Star;
		MoveL Offs(pZeroStar, 2.393, 5.949, 0.3), v30, z0, tNozzle, \Wobj := wobj1Star;
		MoveL Offs(pZeroStar, 2.354, 5.965, 0.3), v30, z0, tNozzle, \Wobj := wobj1Star;
		MoveL Offs(pZeroStar, 2.334, 5.972, 0.3), v30, z0, tNozzle, \Wobj := wobj1Star;
		MoveL Offs(pZeroStar, 2.314, 5.978, 0.3), v30, z0, tNozzle, \Wobj := wobj1Star;
		MoveL Offs(pZeroStar, 1.422, 6.251, 0.3), v30, z0, tNozzle, \Wobj := wobj1Star;
		MoveL Offs(pZeroStar, 1.401, 6.257, 0.3), v30, z0, tNozzle, \Wobj := wobj1Star;
		MoveL Offs(pZeroStar, 1.381, 6.263, 0.3), v30, z0, tNozzle, \Wobj := wobj1Star;
		MoveL Offs(pZeroStar, 1.339, 6.272, 0.3), v30, z0, tNozzle, \Wobj := wobj1Star;
		MoveL Offs(pZeroStar, 1.318, 6.275, 0.3), v30, z0, tNozzle, \Wobj := wobj1Star;
		MoveL Offs(pZeroStar, 1.297, 6.278, 0.3), v30, z0, tNozzle, \Wobj := wobj1Star;
		MoveL Offs(pZeroStar, 0.376, 6.396, 0.3), v30, z0, tNozzle, \Wobj := wobj1Star;
		MoveL Offs(pZeroStar, 0.372, 6.397, 0.3), v30, z0, tNozzle, \Wobj := wobj1Star;
		MoveL Offs(pZeroStar, 0.351, 6.399, 0.3), v30, z0, tNozzle, \Wobj := wobj1Star;
		MoveL Offs(pZeroStar, 0.33, 6.401, 0.3), v30, z0, tNozzle, \Wobj := wobj1Star;
		MoveL Offs(pZeroStar, 0.288, 6.403, 0.3), v30, z0, tNozzle, \Wobj := wobj1Star;
		MoveL Offs(pZeroStar, 0.266, 6.403, 0.3), v30, z0, tNozzle, \Wobj := wobj1Star;
		MoveL Offs(pZeroStar, 0.245, 6.402, 0.3), v30, z0, tNozzle, \Wobj := wobj1Star;
		MoveL Offs(pZeroStar, -0.687, 6.363, 0.3), v30, z0, tNozzle, \Wobj := wobj1Star;
		MoveL Offs(pZeroStar, -0.708, 6.361, 0.3), v30, z0, tNozzle, \Wobj := wobj1Star;
		MoveL Offs(pZeroStar, -0.729, 6.359, 0.3), v30, z0, tNozzle, \Wobj := wobj1Star;
		MoveL Offs(pZeroStar, -0.771, 6.354, 0.3), v30, z0, tNozzle, \Wobj := wobj1Star;
		MoveL Offs(pZeroStar, -0.792, 6.35, 0.3), v30, z0, tNozzle, \Wobj := wobj1Star;
		MoveL Offs(pZeroStar, -0.813, 6.346, 0.3), v30, z0, tNozzle, \Wobj := wobj1Star;
		MoveL Offs(pZeroStar, -1.721, 6.151, 0.3), v30, z0, tNozzle, \Wobj := wobj1Star;
		MoveL Offs(pZeroStar, -1.725, 6.15, 0.3), v30, z0, tNozzle, \Wobj := wobj1Star;
		MoveL Offs(pZeroStar, -1.746, 6.145, 0.3), v30, z0, tNozzle, \Wobj := wobj1Star;
		MoveL Offs(pZeroStar, -1.766, 6.14, 0.3), v30, z0, tNozzle, \Wobj := wobj1Star;
		MoveL Offs(pZeroStar, -1.807, 6.127, 0.3), v30, z0, tNozzle, \Wobj := wobj1Star;
		MoveL Offs(pZeroStar, -1.827, 6.12, 0.3), v30, z0, tNozzle, \Wobj := wobj1Star;
		MoveL Offs(pZeroStar, -1.847, 6.113, 0.3), v30, z0, tNozzle, \Wobj := wobj1Star;
		MoveL Offs(pZeroStar, -2.712, 5.765, 0.3), v30, z0, tNozzle, \Wobj := wobj1Star;
		MoveL Offs(pZeroStar, -2.732, 5.756, 0.3), v30, z0, tNozzle, \Wobj := wobj1Star;
		MoveL Offs(pZeroStar, -2.751, 5.748, 0.3), v30, z0, tNozzle, \Wobj := wobj1Star;
		MoveL Offs(pZeroStar, -2.789, 5.729, 0.3), v30, z0, tNozzle, \Wobj := wobj1Star;
		MoveL Offs(pZeroStar, -2.808, 5.718, 0.3), v30, z0, tNozzle, \Wobj := wobj1Star;
		MoveL Offs(pZeroStar, -2.826, 5.708, 0.3), v30, z0, tNozzle, \Wobj := wobj1Star;
		MoveL Offs(pZeroStar, -3.617, 5.221, 0.3), v30, z0, tNozzle, \Wobj := wobj1Star;
		MoveL Offs(pZeroStar, -3.62, 5.218, 0.3), v30, z0, tNozzle, \Wobj := wobj1Star;
		MoveL Offs(pZeroStar, -3.638, 5.207, 0.3), v30, z0, tNozzle, \Wobj := wobj1Star;
		MoveL Offs(pZeroStar, -3.656, 5.195, 0.3), v30, z0, tNozzle, \Wobj := wobj1Star;
		MoveL Offs(pZeroStar, -3.69, 5.17, 0.3), v30, z0, tNozzle, \Wobj := wobj1Star;
		MoveL Offs(pZeroStar, -3.706, 5.156, 0.3), v30, z0, tNozzle, \Wobj := wobj1Star;
		MoveL Offs(pZeroStar, -3.722, 5.143, 0.3), v30, z0, tNozzle, \Wobj := wobj1Star;
		MoveL Offs(pZeroStar, -4.42, 4.529, 0.3), v30, z0, tNozzle, \Wobj := wobj1Star;
		MoveL Offs(pZeroStar, -4.423, 4.526, 0.3), v30, z0, tNozzle, \Wobj := wobj1Star;
		MoveL Offs(pZeroStar, -4.438, 4.512, 0.3), v30, z0, tNozzle, \Wobj := wobj1Star;
		MoveL Offs(pZeroStar, -4.454, 4.497, 0.3), v30, z0, tNozzle, \Wobj := wobj1Star;
		MoveL Offs(pZeroStar, -4.483, 4.467, 0.3), v30, z0, tNozzle, \Wobj := wobj1Star;
		MoveL Offs(pZeroStar, -4.497, 4.451, 0.3), v30, z0, tNozzle, \Wobj := wobj1Star;
		MoveL Offs(pZeroStar, -4.511, 4.435, 0.3), v30, z0, tNozzle, \Wobj := wobj1Star;
		MoveL Offs(pZeroStar, -5.094, 3.712, 0.3), v30, z0, tNozzle, \Wobj := wobj1Star;
		MoveL Offs(pZeroStar, -5.097, 3.709, 0.3), v30, z0, tNozzle, \Wobj := wobj1Star;
		MoveL Offs(pZeroStar, -5.11, 3.692, 0.3), v30, z0, tNozzle, \Wobj := wobj1Star;
		MoveL Offs(pZeroStar, -5.122, 3.675, 0.3), v30, z0, tNozzle, \Wobj := wobj1Star;
		MoveL Offs(pZeroStar, -5.146, 3.64, 0.3), v30, z0, tNozzle, \Wobj := wobj1Star;
		MoveL Offs(pZeroStar, -5.157, 3.622, 0.3), v30, z0, tNozzle, \Wobj := wobj1Star;
		MoveL Offs(pZeroStar, -5.168, 3.603, 0.3), v30, z0, tNozzle, \Wobj := wobj1Star;
		MoveL Offs(pZeroStar, -5.621, 2.793, 0.3), v30, z0, tNozzle, \Wobj := wobj1Star;
		MoveL Offs(pZeroStar, -5.623, 2.789, 0.3), v30, z0, tNozzle, \Wobj := wobj1Star;
		MoveL Offs(pZeroStar, -5.633, 2.77, 0.3), v30, z0, tNozzle, \Wobj := wobj1Star;
		MoveL Offs(pZeroStar, -5.643, 2.751, 0.3), v30, z0, tNozzle, \Wobj := wobj1Star;
		MoveL Offs(pZeroStar, -5.66, 2.713, 0.3), v30, z0, tNozzle, \Wobj := wobj1Star;
		MoveL Offs(pZeroStar, -5.668, 2.693, 0.3), v30, z0, tNozzle, \Wobj := wobj1Star;
		MoveL Offs(pZeroStar, -5.675, 2.673, 0.3), v30, z0, tNozzle, \Wobj := wobj1Star;
		MoveL Offs(pZeroStar, -5.986, 1.794, 0.3), v30, z0, tNozzle, \Wobj := wobj1Star;
		MoveL Offs(pZeroStar, -5.993, 1.773, 0.3), v30, z0, tNozzle, \Wobj := wobj1Star;
		MoveL Offs(pZeroStar, -5.999, 1.753, 0.3), v30, z0, tNozzle, \Wobj := wobj1Star;
		MoveL Offs(pZeroStar, -6.01, 1.712, 0.3), v30, z0, tNozzle, \Wobj := wobj1Star;
		MoveL Offs(pZeroStar, -6.014, 1.691, 0.3), v30, z0, tNozzle, \Wobj := wobj1Star;
		MoveL Offs(pZeroStar, -6.018, 1.67, 0.3), v30, z0, tNozzle, \Wobj := wobj1Star;
		MoveL Offs(pZeroStar, -6.175, 0.755, 0.3), v30, z0, tNozzle, \Wobj := wobj1Star;
		MoveL Offs(pZeroStar, -6.176, 0.751, 0.3), v30, z0, tNozzle, \Wobj := wobj1Star;
		MoveL Offs(pZeroStar, -6.179, 0.73, 0.3), v30, z0, tNozzle, \Wobj := wobj1Star;
		MoveL Offs(pZeroStar, -6.182, 0.709, 0.3), v30, z0, tNozzle, \Wobj := wobj1Star;
		MoveL Offs(pZeroStar, -6.185, 0.667, 0.3), v30, z0, tNozzle, \Wobj := wobj1Star;
		MoveL Offs(pZeroStar, -6.186, 0.645, 0.3), v30, z0, tNozzle, \Wobj := wobj1Star;
		MoveL Offs(pZeroStar, -6.187, 0.624, 0.3), v30, z0, tNozzle, \Wobj := wobj1Star;
		MoveL Offs(pZeroStar, -6.187, -0.309, 0.3), v30, z0, tNozzle, \Wobj := wobj1Star;
		MoveL Offs(pZeroStar, -6.186, -0.33, 0.3), v30, z0, tNozzle, \Wobj := wobj1Star;
		MoveL Offs(pZeroStar, -6.185, -0.351, 0.3), v30, z0, tNozzle, \Wobj := wobj1Star;
		MoveL Offs(pZeroStar, -6.182, -0.393, 0.3), v30, z0, tNozzle, \Wobj := wobj1Star;
		MoveL Offs(pZeroStar, -6.179, -0.414, 0.3), v30, z0, tNozzle, \Wobj := wobj1Star;
		MoveL Offs(pZeroStar, -6.176, -0.435, 0.3), v30, z0, tNozzle, \Wobj := wobj1Star;
		MoveL Offs(pZeroStar, -6.018, -1.355, 0.3), v30, z0, tNozzle, \Wobj := wobj1Star;
		MoveL Offs(pZeroStar, -6.014, -1.376, 0.3), v30, z0, tNozzle, \Wobj := wobj1Star;
		MoveL Offs(pZeroStar, -6.01, -1.396, 0.3), v30, z0, tNozzle, \Wobj := wobj1Star;
		MoveL Offs(pZeroStar, -5.999, -1.437, 0.3), v30, z0, tNozzle, \Wobj := wobj1Star;
		MoveL Offs(pZeroStar, -5.993, -1.458, 0.3), v30, z0, tNozzle, \Wobj := wobj1Star;
		MoveL Offs(pZeroStar, -5.986, -1.478, 0.3), v30, z0, tNozzle, \Wobj := wobj1Star;
		MoveL Offs(pZeroStar, -5.677, -2.354, 0.3), v30, z0, tNozzle, \Wobj := wobj1Star;
		MoveL Offs(pZeroStar, -5.675, -2.358, 0.3), v30, z0, tNozzle, \Wobj := wobj1Star;
		MoveL Offs(pZeroStar, -5.668, -2.377, 0.3), v30, z0, tNozzle, \Wobj := wobj1Star;
		MoveL Offs(pZeroStar, -5.66, -2.397, 0.3), v30, z0, tNozzle, \Wobj := wobj1Star;
		MoveL Offs(pZeroStar, -5.643, -2.436, 0.3), v30, z0, tNozzle, \Wobj := wobj1Star;
		MoveL Offs(pZeroStar, -5.633, -2.455, 0.3), v30, z0, tNozzle, \Wobj := wobj1Star;
		MoveL Offs(pZeroStar, -5.623, -2.473, 0.3), v30, z0, tNozzle, \Wobj := wobj1Star;
		MoveL Offs(pZeroStar, -5.168, -3.288, 0.3), v30, z0, tNozzle, \Wobj := wobj1Star;
		MoveL Offs(pZeroStar, -5.157, -3.306, 0.3), v30, z0, tNozzle, \Wobj := wobj1Star;
		MoveL Offs(pZeroStar, -5.146, -3.324, 0.3), v30, z0, tNozzle, \Wobj := wobj1Star;
		MoveL Offs(pZeroStar, -5.122, -3.359, 0.3), v30, z0, tNozzle, \Wobj := wobj1Star;
		MoveL Offs(pZeroStar, -5.11, -3.376, 0.3), v30, z0, tNozzle, \Wobj := wobj1Star;
		MoveL Offs(pZeroStar, -5.097, -3.393, 0.3), v30, z0, tNozzle, \Wobj := wobj1Star;
		MoveL Offs(pZeroStar, -4.513, -4.116, 0.3), v30, z0, tNozzle, \Wobj := wobj1Star;
		MoveL Offs(pZeroStar, -4.511, -4.119, 0.3), v30, z0, tNozzle, \Wobj := wobj1Star;
		MoveL Offs(pZeroStar, -4.497, -4.135, 0.3), v30, z0, tNozzle, \Wobj := wobj1Star;
		MoveL Offs(pZeroStar, -4.483, -4.151, 0.3), v30, z0, tNozzle, \Wobj := wobj1Star;
		MoveL Offs(pZeroStar, -4.454, -4.182, 0.3), v30, z0, tNozzle, \Wobj := wobj1Star;
		MoveL Offs(pZeroStar, -4.438, -4.197, 0.3), v30, z0, tNozzle, \Wobj := wobj1Star;
		MoveL Offs(pZeroStar, -4.423, -4.211, 0.3), v30, z0, tNozzle, \Wobj := wobj1Star;
		MoveL Offs(pZeroStar, -3.726, -4.825, 0.3), v30, z0, tNozzle, \Wobj := wobj1Star;
		MoveL Offs(pZeroStar, -3.723, -4.827, 0.3), v30, z0, tNozzle, \Wobj := wobj1Star;
		MoveL Offs(pZeroStar, -3.706, -4.841, 0.3), v30, z0, tNozzle, \Wobj := wobj1Star;
		MoveL Offs(pZeroStar, -3.69, -4.854, 0.3), v30, z0, tNozzle, \Wobj := wobj1Star;
		MoveL Offs(pZeroStar, -3.656, -4.879, 0.3), v30, z0, tNozzle, \Wobj := wobj1Star;
		MoveL Offs(pZeroStar, -3.638, -4.891, 0.3), v30, z0, tNozzle, \Wobj := wobj1Star;
		MoveL Offs(pZeroStar, -3.62, -4.903, 0.3), v30, z0, tNozzle, \Wobj := wobj1Star;
		MoveL Offs(pZeroStar, -2.829, -5.39, 0.3), v30, z0, tNozzle, \Wobj := wobj1Star;
		MoveL Offs(pZeroStar, -2.826, -5.392, 0.3), v30, z0, tNozzle, \Wobj := wobj1Star;
		MoveL Offs(pZeroStar, -2.808, -5.403, 0.3), v30, z0, tNozzle, \Wobj := wobj1Star;
		MoveL Offs(pZeroStar, -2.789, -5.413, 0.3), v30, z0, tNozzle, \Wobj := wobj1Star;
		MoveL Offs(pZeroStar, -2.751, -5.432, 0.3), v30, z0, tNozzle, \Wobj := wobj1Star;
		MoveL Offs(pZeroStar, -2.732, -5.441, 0.3), v30, z0, tNozzle, \Wobj := wobj1Star;
		MoveL Offs(pZeroStar, -2.712, -5.449, 0.3), v30, z0, tNozzle, \Wobj := wobj1Star;
		MoveL Offs(pZeroStar, -1.847, -5.797, 0.3), v30, z0, tNozzle, \Wobj := wobj1Star;
		MoveL Offs(pZeroStar, -1.827, -5.805, 0.3), v30, z0, tNozzle, \Wobj := wobj1Star;
		MoveL Offs(pZeroStar, -1.807, -5.812, 0.3), v30, z0, tNozzle, \Wobj := wobj1Star;
		MoveL Offs(pZeroStar, -1.766, -5.824, 0.3), v30, z0, tNozzle, \Wobj := wobj1Star;
		MoveL Offs(pZeroStar, -1.746, -5.829, 0.3), v30, z0, tNozzle, \Wobj := wobj1Star;
		MoveL Offs(pZeroStar, -1.725, -5.834, 0.3), v30, z0, tNozzle, \Wobj := wobj1Star;
		MoveL Offs(pZeroStar, -0.813, -6.031, 0.3), v30, z0, tNozzle, \Wobj := wobj1Star;
		MoveL Offs(pZeroStar, -0.792, -6.035, 0.3), v30, z0, tNozzle, \Wobj := wobj1Star;
		MoveL Offs(pZeroStar, -0.771, -6.038, 0.3), v30, z0, tNozzle, \Wobj := wobj1Star;
		MoveL Offs(pZeroStar, -0.729, -6.044, 0.3), v30, z0, tNozzle, \Wobj := wobj1Star;
		MoveL Offs(pZeroStar, -0.708, -6.046, 0.3), v30, z0, tNozzle, \Wobj := wobj1Star;
		MoveL Offs(pZeroStar, -0.687, -6.047, 0.3), v30, z0, tNozzle, \Wobj := wobj1Star;
		MoveL Offs(pZeroStar, 0.241, -6.086, 0.3), v30, z0, tNozzle, \Wobj := wobj1Star;
		MoveL Offs(pZeroStar, 0.245, -6.087, 0.3), v30, z0, tNozzle, \Wobj := wobj1Star;
		MoveL Offs(pZeroStar, 0.266, -6.087, 0.3), v30, z0, tNozzle, \Wobj := wobj1Star;
		MoveL Offs(pZeroStar, 0.288, -6.087, 0.3), v30, z0, tNozzle, \Wobj := wobj1Star;
		MoveL Offs(pZeroStar, 0.33, -6.085, 0.3), v30, z0, tNozzle, \Wobj := wobj1Star;
		MoveL Offs(pZeroStar, 0.351, -6.083, 0.3), v30, z0, tNozzle, \Wobj := wobj1Star;
		MoveL Offs(pZeroStar, 0.372, -6.081, 0.3), v30, z0, tNozzle, \Wobj := wobj1Star;
		WaitRob \InPos;
		SetDO DO6_Between_Layer_Retract, 1;
		SetDO DO5_Program_Feed, 0;
		MoveL Offs(pZeroStar, 0.372, -6.081, 10.3), v100, z0, tNozzle, \Wobj := wobj1Star;

		! Layer: 2
		! LayerParams(infillAngleDegrees=0.0, pathWidth=3.0, layerHeight=0.3, infillShiftX=0.0, infillShiftY=0.0, numShells=2, infillOverlap=0.0002)
		! T12
		! M6
		TPWRITE "Layer 2 of -1";
		MoveL Offs(pZeroStar, 4.228, 6.114, 10.6), v100, z0, tNozzle, \Wobj := wobj1Star;
		MoveL Offs(pZeroStar, 4.228, 6.114, 0.6), v30, z0, tNozzle, \Wobj := wobj1Star;
		WaitRob \InPos;
		SetDO DO6_Between_Layer_Retract, 0;
		WaitRob \InPos;
		SetDO DO5_Program_Feed, 1;
		MoveL Offs(pZeroStar, 4.24, 6.093, 0.6), v30, z0, tNozzle, \Wobj := wobj1Star;
		MoveL Offs(pZeroStar, 4.254, 6.073, 0.6), v30, z0, tNozzle, \Wobj := wobj1Star;
		MoveL Offs(pZeroStar, 4.269, 6.055, 0.6), v30, z0, tNozzle, \Wobj := wobj1Star;
		MoveL Offs(pZeroStar, 4.286, 6.038, 0.6), v30, z0, tNozzle, \Wobj := wobj1Star;
		MoveL Offs(pZeroStar, 4.305, 6.023, 0.6), v30, z0, tNozzle, \Wobj := wobj1Star;
		MoveL Offs(pZeroStar, 4.325, 6.01, 0.6), v30, z0, tNozzle, \Wobj := wobj1Star;
		MoveL Offs(pZeroStar, 4.346, 5.999, 0.6), v30, z0, tNozzle, \Wobj := wobj1Star;
		MoveL Offs(pZeroStar, 4.368, 5.99, 0.6), v30, z0, tNozzle, \Wobj := wobj1Star;
		MoveL Offs(pZeroStar, 4.391, 5.983, 0.6), v30, z0, tNozzle, \Wobj := wobj1Star;
		MoveL Offs(pZeroStar, 4.415, 5.978, 0.6), v30, z0, tNozzle, \Wobj := wobj1Star;
		MoveL Offs(pZeroStar, 4.438, 5.976, 0.6), v30, z0, tNozzle, \Wobj := wobj1Star;
		MoveL Offs(pZeroStar, 4.543, 5.97, 0.6), v30, z0, tNozzle, \Wobj := wobj1Star;
		MoveL Offs(pZeroStar, 16.026, 5.351, 0.6), v30, z0, tNozzle, \Wobj := wobj1Star;
		MoveL Offs(pZeroStar, 7.019, -1.966, 0.6), v30, z0, tNozzle, \Wobj := wobj1Star;
		MoveL Offs(pZeroStar, 7.001, -1.982, 0.6), v30, z0, tNozzle, \Wobj := wobj1Star;
		MoveL Offs(pZeroStar, 6.985, -1.999, 0.6), v30, z0, tNozzle, \Wobj := wobj1Star;
		MoveL Offs(pZeroStar, 6.97, -2.018, 0.6), v30, z0, tNozzle, \Wobj := wobj1Star;
		MoveL Offs(pZeroStar, 6.958, -2.039, 0.6), v30, z0, tNozzle, \Wobj := wobj1Star;
		MoveL Offs(pZeroStar, 6.947, -2.06, 0.6), v30, z0, tNozzle, \Wobj := wobj1Star;
		MoveL Offs(pZeroStar, 6.939, -2.083, 0.6), v30, z0, tNozzle, \Wobj := wobj1Star;
		MoveL Offs(pZeroStar, 6.932, -2.106, 0.6), v30, z0, tNozzle, \Wobj := wobj1Star;
		MoveL Offs(pZeroStar, 6.928, -2.129, 0.6), v30, z0, tNozzle, \Wobj := wobj1Star;
		MoveL Offs(pZeroStar, 6.927, -2.153, 0.6), v30, z0, tNozzle, \Wobj := wobj1Star;
		MoveL Offs(pZeroStar, 6.927, -2.177, 0.6), v30, z0, tNozzle, \Wobj := wobj1Star;
		MoveL Offs(pZeroStar, 6.93, -2.201, 0.6), v30, z0, tNozzle, \Wobj := wobj1Star;
		MoveL Offs(pZeroStar, 6.935, -2.224, 0.6), v30, z0, tNozzle, \Wobj := wobj1Star;
		MoveL Offs(pZeroStar, 6.962, -2.326, 0.6), v30, z0, tNozzle, \Wobj := wobj1Star;
		MoveL Offs(pZeroStar, 9.921, -13.438, 0.6), v30, z0, tNozzle, \Wobj := wobj1Star;
		MoveL Offs(pZeroStar, 0.179, -7.132, 0.6), v30, z0, tNozzle, \Wobj := wobj1Star;
		MoveL Offs(pZeroStar, 0.159, -7.12, 0.6), v30, z0, tNozzle, \Wobj := wobj1Star;
		MoveL Offs(pZeroStar, 0.137, -7.11, 0.6), v30, z0, tNozzle, \Wobj := wobj1Star;
		MoveL Offs(pZeroStar, 0.114, -7.102, 0.6), v30, z0, tNozzle, \Wobj := wobj1Star;
		MoveL Offs(pZeroStar, 0.091, -7.097, 0.6), v30, z0, tNozzle, \Wobj := wobj1Star;
		MoveL Offs(pZeroStar, 0.067, -7.093, 0.6), v30, z0, tNozzle, \Wobj := wobj1Star;
		MoveL Offs(pZeroStar, 0.043, -7.092, 0.6), v30, z0, tNozzle, \Wobj := wobj1Star;
		MoveL Offs(pZeroStar, 0.02, -7.093, 0.6), v30, z0, tNozzle, \Wobj := wobj1Star;
		MoveL Offs(pZeroStar, -0.004, -7.097, 0.6), v30, z0, tNozzle, \Wobj := wobj1Star;
		MoveL Offs(pZeroStar, -0.027, -7.102, 0.6), v30, z0, tNozzle, \Wobj := wobj1Star;
		MoveL Offs(pZeroStar, -0.05, -7.11, 0.6), v30, z0, tNozzle, \Wobj := wobj1Star;
		MoveL Offs(pZeroStar, -0.072, -7.12, 0.6), v30, z0, tNozzle, \Wobj := wobj1Star;
		MoveL Offs(pZeroStar, -0.092, -7.132, 0.6), v30, z0, tNozzle, \Wobj := wobj1Star;
		MoveL Offs(pZeroStar, -0.181, -7.189, 0.6), v30, z0, tNozzle, \Wobj := wobj1Star;
		MoveL Offs(pZeroStar, -9.834, -13.438, 0.6), v30, z0, tNozzle, \Wobj := wobj1Star;
		MoveL Offs(pZeroStar, -6.848, -2.224, 0.6), v30, z0, tNozzle, \Wobj := wobj1Star;
		MoveL Offs(pZeroStar, -6.843, -2.201, 0.6), v30, z0, tNozzle, \Wobj := wobj1Star;
		MoveL Offs(pZeroStar, -6.84, -2.177, 0.6), v30, z0, tNozzle, \Wobj := wobj1Star;
		MoveL Offs(pZeroStar, -6.84, -2.153, 0.6), v30, z0, tNozzle, \Wobj := wobj1Star;
		MoveL Offs(pZeroStar, -6.841, -2.129, 0.6), v30, z0, tNozzle, \Wobj := wobj1Star;
		MoveL Offs(pZeroStar, -6.845, -2.106, 0.6), v30, z0, tNozzle, \Wobj := wobj1Star;
		MoveL Offs(pZeroStar, -6.852, -2.083, 0.6), v30, z0, tNozzle, \Wobj := wobj1Star;
		MoveL Offs(pZeroStar, -6.86, -2.06, 0.6), v30, z0, tNozzle, \Wobj := wobj1Star;
		MoveL Offs(pZeroStar, -6.871, -2.039, 0.6), v30, z0, tNozzle, \Wobj := wobj1Star;
		MoveL Offs(pZeroStar, -6.883, -2.018, 0.6), v30, z0, tNozzle, \Wobj := wobj1Star;
		MoveL Offs(pZeroStar, -6.898, -1.999, 0.6), v30, z0, tNozzle, \Wobj := wobj1Star;
		MoveL Offs(pZeroStar, -6.914, -1.982, 0.6), v30, z0, tNozzle, \Wobj := wobj1Star;
		MoveL Offs(pZeroStar, -6.932, -1.966, 0.6), v30, z0, tNozzle, \Wobj := wobj1Star;
		MoveL Offs(pZeroStar, -7.013, -1.9, 0.6), v30, z0, tNozzle, \Wobj := wobj1Star;
		MoveL Offs(pZeroStar, -15.939, 5.351, 0.6), v30, z0, tNozzle, \Wobj := wobj1Star;
		MoveL Offs(pZeroStar, -4.351, 5.976, 0.6), v30, z0, tNozzle, \Wobj := wobj1Star;
		MoveL Offs(pZeroStar, -4.328, 5.978, 0.6), v30, z0, tNozzle, \Wobj := wobj1Star;
		MoveL Offs(pZeroStar, -4.304, 5.983, 0.6), v30, z0, tNozzle, \Wobj := wobj1Star;
		MoveL Offs(pZeroStar, -4.281, 5.99, 0.6), v30, z0, tNozzle, \Wobj := wobj1Star;
		MoveL Offs(pZeroStar, -4.259, 5.999, 0.6), v30, z0, tNozzle, \Wobj := wobj1Star;
		MoveL Offs(pZeroStar, -4.238, 6.01, 0.6), v30, z0, tNozzle, \Wobj := wobj1Star;
		MoveL Offs(pZeroStar, -4.218, 6.023, 0.6), v30, z0, tNozzle, \Wobj := wobj1Star;
		MoveL Offs(pZeroStar, -4.199, 6.038, 0.6), v30, z0, tNozzle, \Wobj := wobj1Star;
		MoveL Offs(pZeroStar, -4.182, 6.055, 0.6), v30, z0, tNozzle, \Wobj := wobj1Star;
		MoveL Offs(pZeroStar, -4.167, 6.073, 0.6), v30, z0, tNozzle, \Wobj := wobj1Star;
		MoveL Offs(pZeroStar, -4.153, 6.093, 0.6), v30, z0, tNozzle, \Wobj := wobj1Star;
		MoveL Offs(pZeroStar, -4.141, 6.114, 0.6), v30, z0, tNozzle, \Wobj := wobj1Star;
		MoveL Offs(pZeroStar, -4.132, 6.135, 0.6), v30, z0, tNozzle, \Wobj := wobj1Star;
		MoveL Offs(pZeroStar, -4.094, 6.233, 0.6), v30, z0, tNozzle, \Wobj := wobj1Star;
		MoveL Offs(pZeroStar, 0.043, 16.963, 0.6), v30, z0, tNozzle, \Wobj := wobj1Star;
		MoveL Offs(pZeroStar, 4.219, 6.135, 0.6), v30, z0, tNozzle, \Wobj := wobj1Star;
		MoveL Offs(pZeroStar, 4.228, 6.114, 0.6), v30, z0, tNozzle, \Wobj := wobj1Star;
		WaitRob \InPos;
		SetDO DO5_Program_Feed, 0;
		MoveL Offs(pZeroStar, 3.082, 5.037, 0.6), v100, z0, tNozzle, \Wobj := wobj1Star;
		WaitRob \InPos;
		SetDO DO5_Program_Feed, 1;
		MoveL Offs(pZeroStar, 3.076, 5.042, 0.6), v30, z0, tNozzle, \Wobj := wobj1Star;
		MoveL Offs(pZeroStar, 3.058, 5.054, 0.6), v30, z0, tNozzle, \Wobj := wobj1Star;
		MoveL Offs(pZeroStar, 3.04, 5.064, 0.6), v30, z0, tNozzle, \Wobj := wobj1Star;
		MoveL Offs(pZeroStar, 2.214, 5.481, 0.6), v30, z0, tNozzle, \Wobj := wobj1Star;
		MoveL Offs(pZeroStar, 2.207, 5.484, 0.6), v30, z0, tNozzle, \Wobj := wobj1Star;
		MoveL Offs(pZeroStar, 2.187, 5.493, 0.6), v30, z0, tNozzle, \Wobj := wobj1Star;
		MoveL Offs(pZeroStar, 2.167, 5.5, 0.6), v30, z0, tNozzle, \Wobj := wobj1Star;
		MoveL Offs(pZeroStar, 1.283, 5.771, 0.6), v30, z0, tNozzle, \Wobj := wobj1Star;
		MoveL Offs(pZeroStar, 1.275, 5.773, 0.6), v30, z0, tNozzle, \Wobj := wobj1Star;
		MoveL Offs(pZeroStar, 1.255, 5.779, 0.6), v30, z0, tNozzle, \Wobj := wobj1Star;
		MoveL Offs(pZeroStar, 1.234, 5.782, 0.6), v30, z0, tNozzle, \Wobj := wobj1Star;
		MoveL Offs(pZeroStar, 0.317, 5.9, 0.6), v30, z0, tNozzle, \Wobj := wobj1Star;
		MoveL Offs(pZeroStar, 0.309, 5.901, 0.6), v30, z0, tNozzle, \Wobj := wobj1Star;
		MoveL Offs(pZeroStar, 0.288, 5.903, 0.6), v30, z0, tNozzle, \Wobj := wobj1Star;
		MoveL Offs(pZeroStar, 0.266, 5.903, 0.6), v30, z0, tNozzle, \Wobj := wobj1Star;
		MoveL Offs(pZeroStar, -0.658, 5.863, 0.6), v30, z0, tNozzle, \Wobj := wobj1Star;
		MoveL Offs(pZeroStar, -0.666, 5.863, 0.6), v30, z0, tNozzle, \Wobj := wobj1Star;
		MoveL Offs(pZeroStar, -0.687, 5.861, 0.6), v30, z0, tNozzle, \Wobj := wobj1Star;
		MoveL Offs(pZeroStar, -0.708, 5.858, 0.6), v30, z0, tNozzle, \Wobj := wobj1Star;
		MoveL Offs(pZeroStar, -1.612, 5.663, 0.6), v30, z0, tNozzle, \Wobj := wobj1Star;
		MoveL Offs(pZeroStar, -1.62, 5.661, 0.6), v30, z0, tNozzle, \Wobj := wobj1Star;
		MoveL Offs(pZeroStar, -1.64, 5.656, 0.6), v30, z0, tNozzle, \Wobj := wobj1Star;
		MoveL Offs(pZeroStar, -1.66, 5.649, 0.6), v30, z0, tNozzle, \Wobj := wobj1Star;
		MoveL Offs(pZeroStar, -2.518, 5.304, 0.6), v30, z0, tNozzle, \Wobj := wobj1Star;
		MoveL Offs(pZeroStar, -2.526, 5.301, 0.6), v30, z0, tNozzle, \Wobj := wobj1Star;
		MoveL Offs(pZeroStar, -2.545, 5.292, 0.6), v30, z0, tNozzle, \Wobj := wobj1Star;
		MoveL Offs(pZeroStar, -2.564, 5.282, 0.6), v30, z0, tNozzle, \Wobj := wobj1Star;
		MoveL Offs(pZeroStar, -3.351, 4.797, 0.6), v30, z0, tNozzle, \Wobj := wobj1Star;
		MoveL Offs(pZeroStar, -3.358, 4.793, 0.6), v30, z0, tNozzle, \Wobj := wobj1Star;
		MoveL Offs(pZeroStar, -3.376, 4.781, 0.6), v30, z0, tNozzle, \Wobj := wobj1Star;
		MoveL Offs(pZeroStar, -3.392, 4.767, 0.6), v30, z0, tNozzle, \Wobj := wobj1Star;
		MoveL Offs(pZeroStar, -4.086, 4.156, 0.6), v30, z0, tNozzle, \Wobj := wobj1Star;
		MoveL Offs(pZeroStar, -4.092, 4.151, 0.6), v30, z0, tNozzle, \Wobj := wobj1Star;
		MoveL Offs(pZeroStar, -4.108, 4.136, 0.6), v30, z0, tNozzle, \Wobj := wobj1Star;
		MoveL Offs(pZeroStar, -4.122, 4.121, 0.6), v30, z0, tNozzle, \Wobj := wobj1Star;
		MoveL Offs(pZeroStar, -4.703, 3.401, 0.6), v30, z0, tNozzle, \Wobj := wobj1Star;
		MoveL Offs(pZeroStar, -4.708, 3.395, 0.6), v30, z0, tNozzle, \Wobj := wobj1Star;
		MoveL Offs(pZeroStar, -4.72, 3.378, 0.6), v30, z0, tNozzle, \Wobj := wobj1Star;
		MoveL Offs(pZeroStar, -4.732, 3.36, 0.6), v30, z0, tNozzle, \Wobj := wobj1Star;
		MoveL Offs(pZeroStar, -5.183, 2.552, 0.6), v30, z0, tNozzle, \Wobj := wobj1Star;
		MoveL Offs(pZeroStar, -5.187, 2.545, 0.6), v30, z0, tNozzle, \Wobj := wobj1Star;
		MoveL Offs(pZeroStar, -5.196, 2.526, 0.6), v30, z0, tNozzle, \Wobj := wobj1Star;
		MoveL Offs(pZeroStar, -5.204, 2.507, 0.6), v30, z0, tNozzle, \Wobj := wobj1Star;
		MoveL Offs(pZeroStar, -5.512, 1.635, 0.6), v30, z0, tNozzle, \Wobj := wobj1Star;
		MoveL Offs(pZeroStar, -5.515, 1.627, 0.6), v30, z0, tNozzle, \Wobj := wobj1Star;
		MoveL Offs(pZeroStar, -5.521, 1.607, 0.6), v30, z0, tNozzle, \Wobj := wobj1Star;
		MoveL Offs(pZeroStar, -5.525, 1.586, 0.6), v30, z0, tNozzle, \Wobj := wobj1Star;
		MoveL Offs(pZeroStar, -5.682, 0.674, 0.6), v30, z0, tNozzle, \Wobj := wobj1Star;
		MoveL Offs(pZeroStar, -5.683, 0.666, 0.6), v30, z0, tNozzle, \Wobj := wobj1Star;
		MoveL Offs(pZeroStar, -5.686, 0.645, 0.6), v30, z0, tNozzle, \Wobj := wobj1Star;
		MoveL Offs(pZeroStar, -5.687, 0.624, 0.6), v30, z0, tNozzle, \Wobj := wobj1Star;
		MoveL Offs(pZeroStar, -5.687, -0.309, 0.6), v30, z0, tNozzle, \Wobj := wobj1Star;
		MoveL Offs(pZeroStar, -5.686, -0.33, 0.6), v30, z0, tNozzle, \Wobj := wobj1Star;
		MoveL Offs(pZeroStar, -5.683, -0.351, 0.6), v30, z0, tNozzle, \Wobj := wobj1Star;
		MoveL Offs(pZeroStar, -5.527, -1.262, 0.6), v30, z0, tNozzle, \Wobj := wobj1Star;
		MoveL Offs(pZeroStar, -5.525, -1.27, 0.6), v30, z0, tNozzle, \Wobj := wobj1Star;
		MoveL Offs(pZeroStar, -5.521, -1.291, 0.6), v30, z0, tNozzle, \Wobj := wobj1Star;
		MoveL Offs(pZeroStar, -5.515, -1.311, 0.6), v30, z0, tNozzle, \Wobj := wobj1Star;
		MoveL Offs(pZeroStar, -5.207, -2.183, 0.6), v30, z0, tNozzle, \Wobj := wobj1Star;
		MoveL Offs(pZeroStar, -5.204, -2.191, 0.6), v30, z0, tNozzle, \Wobj := wobj1Star;
		MoveL Offs(pZeroStar, -5.196, -2.211, 0.6), v30, z0, tNozzle, \Wobj := wobj1Star;
		MoveL Offs(pZeroStar, -5.187, -2.23, 0.6), v30, z0, tNozzle, \Wobj := wobj1Star;
		MoveL Offs(pZeroStar, -4.735, -3.037, 0.6), v30, z0, tNozzle, \Wobj := wobj1Star;
		MoveL Offs(pZeroStar, -4.732, -3.044, 0.6), v30, z0, tNozzle, \Wobj := wobj1Star;
		MoveL Offs(pZeroStar, -4.72, -3.062, 0.6), v30, z0, tNozzle, \Wobj := wobj1Star;
		MoveL Offs(pZeroStar, -4.708, -3.079, 0.6), v30, z0, tNozzle, \Wobj := wobj1Star;
		MoveL Offs(pZeroStar, -4.127, -3.799, 0.6), v30, z0, tNozzle, \Wobj := wobj1Star;
		MoveL Offs(pZeroStar, -4.122, -3.805, 0.6), v30, z0, tNozzle, \Wobj := wobj1Star;
		MoveL Offs(pZeroStar, -4.108, -3.821, 0.6), v30, z0, tNozzle, \Wobj := wobj1Star;
		MoveL Offs(pZeroStar, -4.092, -3.836, 0.6), v30, z0, tNozzle, \Wobj := wobj1Star;
		MoveL Offs(pZeroStar, -3.398, -4.447, 0.6), v30, z0, tNozzle, \Wobj := wobj1Star;
		MoveL Offs(pZeroStar, -3.392, -4.452, 0.6), v30, z0, tNozzle, \Wobj := wobj1Star;
		MoveL Offs(pZeroStar, -3.376, -4.465, 0.6), v30, z0, tNozzle, \Wobj := wobj1Star;
		MoveL Offs(pZeroStar, -3.358, -4.477, 0.6), v30, z0, tNozzle, \Wobj := wobj1Star;
		MoveL Offs(pZeroStar, -2.571, -4.962, 0.6), v30, z0, tNozzle, \Wobj := wobj1Star;
		MoveL Offs(pZeroStar, -2.564, -4.966, 0.6), v30, z0, tNozzle, \Wobj := wobj1Star;
		MoveL Offs(pZeroStar, -2.545, -4.977, 0.6), v30, z0, tNozzle, \Wobj := wobj1Star;
		MoveL Offs(pZeroStar, -2.526, -4.985, 0.6), v30, z0, tNozzle, \Wobj := wobj1Star;
		MoveL Offs(pZeroStar, -1.668, -5.33, 0.6), v30, z0, tNozzle, \Wobj := wobj1Star;
		MoveL Offs(pZeroStar, -1.66, -5.333, 0.6), v30, z0, tNozzle, \Wobj := wobj1Star;
		MoveL Offs(pZeroStar, -1.64, -5.34, 0.6), v30, z0, tNozzle, \Wobj := wobj1Star;
		MoveL Offs(pZeroStar, -1.62, -5.346, 0.6), v30, z0, tNozzle, \Wobj := wobj1Star;
		MoveL Offs(pZeroStar, -0.716, -5.54, 0.6), v30, z0, tNozzle, \Wobj := wobj1Star;
		MoveL Offs(pZeroStar, -0.708, -5.542, 0.6), v30, z0, tNozzle, \Wobj := wobj1Star;
		MoveL Offs(pZeroStar, -0.687, -5.546, 0.6), v30, z0, tNozzle, \Wobj := wobj1Star;
		MoveL Offs(pZeroStar, -0.666, -5.547, 0.6), v30, z0, tNozzle, \Wobj := wobj1Star;
		MoveL Offs(pZeroStar, 0.258, -5.587, 0.6), v30, z0, tNozzle, \Wobj := wobj1Star;
		MoveL Offs(pZeroStar, 0.266, -5.587, 0.6), v30, z0, tNozzle, \Wobj := wobj1Star;
		MoveL Offs(pZeroStar, 0.288, -5.587, 0.6), v30, z0, tNozzle, \Wobj := wobj1Star;
		MoveL Offs(pZeroStar, 0.309, -5.585, 0.6), v30, z0, tNozzle, \Wobj := wobj1Star;
		MoveL Offs(pZeroStar, 1.226, -5.468, 0.6), v30, z0, tNozzle, \Wobj := wobj1Star;
		MoveL Offs(pZeroStar, 1.234, -5.467, 0.6), v30, z0, tNozzle, \Wobj := wobj1Star;
		MoveL Offs(pZeroStar, 1.255, -5.463, 0.6), v30, z0, tNozzle, \Wobj := wobj1Star;
		MoveL Offs(pZeroStar, 1.275, -5.458, 0.6), v30, z0, tNozzle, \Wobj := wobj1Star;
		MoveL Offs(pZeroStar, 2.16, -5.187, 0.6), v30, z0, tNozzle, \Wobj := wobj1Star;
		MoveL Offs(pZeroStar, 2.167, -5.185, 0.6), v30, z0, tNozzle, \Wobj := wobj1Star;
		MoveL Offs(pZeroStar, 2.187, -5.178, 0.6), v30, z0, tNozzle, \Wobj := wobj1Star;
		MoveL Offs(pZeroStar, 2.207, -5.169, 0.6), v30, z0, tNozzle, \Wobj := wobj1Star;
		MoveL Offs(pZeroStar, 3.033, -4.752, 0.6), v30, z0, tNozzle, \Wobj := wobj1Star;
		MoveL Offs(pZeroStar, 3.04, -4.749, 0.6), v30, z0, tNozzle, \Wobj := wobj1Star;
		MoveL Offs(pZeroStar, 3.058, -4.738, 0.6), v30, z0, tNozzle, \Wobj := wobj1Star;
		MoveL Offs(pZeroStar, 3.076, -4.727, 0.6), v30, z0, tNozzle, \Wobj := wobj1Star;
		MoveL Offs(pZeroStar, 3.819, -4.177, 0.6), v30, z0, tNozzle, \Wobj := wobj1Star;
		MoveL Offs(pZeroStar, 3.826, -4.172, 0.6), v30, z0, tNozzle, \Wobj := wobj1Star;
		MoveL Offs(pZeroStar, 3.842, -4.159, 0.6), v30, z0, tNozzle, \Wobj := wobj1Star;
		MoveL Offs(pZeroStar, 3.858, -4.144, 0.6), v30, z0, tNozzle, \Wobj := wobj1Star;
		MoveL Offs(pZeroStar, 4.498, -3.476, 0.6), v30, z0, tNozzle, \Wobj := wobj1Star;
		MoveL Offs(pZeroStar, 4.503, -3.47, 0.6), v30, z0, tNozzle, \Wobj := wobj1Star;
		MoveL Offs(pZeroStar, 4.517, -3.454, 0.6), v30, z0, tNozzle, \Wobj := wobj1Star;
		MoveL Offs(pZeroStar, 4.53, -3.437, 0.6), v30, z0, tNozzle, \Wobj := wobj1Star;
		MoveL Offs(pZeroStar, 5.048, -2.671, 0.6), v30, z0, tNozzle, \Wobj := wobj1Star;
		MoveL Offs(pZeroStar, 5.052, -2.665, 0.6), v30, z0, tNozzle, \Wobj := wobj1Star;
		MoveL Offs(pZeroStar, 5.063, -2.646, 0.6), v30, z0, tNozzle, \Wobj := wobj1Star;
		MoveL Offs(pZeroStar, 5.073, -2.628, 0.6), v30, z0, tNozzle, \Wobj := wobj1Star;
		MoveL Offs(pZeroStar, 5.454, -1.785, 0.6), v30, z0, tNozzle, \Wobj := wobj1Star;
		MoveL Offs(pZeroStar, 5.457, -1.777, 0.6), v30, z0, tNozzle, \Wobj := wobj1Star;
		MoveL Offs(pZeroStar, 5.465, -1.758, 0.6), v30, z0, tNozzle, \Wobj := wobj1Star;
		MoveL Offs(pZeroStar, 5.471, -1.737, 0.6), v30, z0, tNozzle, \Wobj := wobj1Star;
		MoveL Offs(pZeroStar, 5.704, -0.842, 0.6), v30, z0, tNozzle, \Wobj := wobj1Star;
		MoveL Offs(pZeroStar, 5.706, -0.835, 0.6), v30, z0, tNozzle, \Wobj := wobj1Star;
		MoveL Offs(pZeroStar, 5.711, -0.814, 0.6), v30, z0, tNozzle, \Wobj := wobj1Star;
		MoveL Offs(pZeroStar, 5.713, -0.793, 0.6), v30, z0, tNozzle, \Wobj := wobj1Star;
		MoveL Offs(pZeroStar, 5.792, 0.129, 0.6), v30, z0, tNozzle, \Wobj := wobj1Star;
		MoveL Offs(pZeroStar, 5.793, 0.137, 0.6), v30, z0, tNozzle, \Wobj := wobj1Star;
		MoveL Offs(pZeroStar, 5.793, 0.158, 0.6), v30, z0, tNozzle, \Wobj := wobj1Star;
		MoveL Offs(pZeroStar, 5.793, 0.179, 0.6), v30, z0, tNozzle, \Wobj := wobj1Star;
		MoveL Offs(pZeroStar, 5.714, 1.101, 0.6), v30, z0, tNozzle, \Wobj := wobj1Star;
		MoveL Offs(pZeroStar, 5.713, 1.109, 0.6), v30, z0, tNozzle, \Wobj := wobj1Star;
		MoveL Offs(pZeroStar, 5.711, 1.13, 0.6), v30, z0, tNozzle, \Wobj := wobj1Star;
		MoveL Offs(pZeroStar, 5.706, 1.15, 0.6), v30, z0, tNozzle, \Wobj := wobj1Star;
		MoveL Offs(pZeroStar, 5.473, 2.045, 0.6), v30, z0, tNozzle, \Wobj := wobj1Star;
		MoveL Offs(pZeroStar, 5.471, 2.053, 0.6), v30, z0, tNozzle, \Wobj := wobj1Star;
		MoveL Offs(pZeroStar, 5.465, 2.073, 0.6), v30, z0, tNozzle, \Wobj := wobj1Star;
		MoveL Offs(pZeroStar, 5.457, 2.093, 0.6), v30, z0, tNozzle, \Wobj := wobj1Star;
		MoveL Offs(pZeroStar, 5.076, 2.936, 0.6), v30, z0, tNozzle, \Wobj := wobj1Star;
		MoveL Offs(pZeroStar, 5.073, 2.943, 0.6), v30, z0, tNozzle, \Wobj := wobj1Star;
		MoveL Offs(pZeroStar, 5.063, 2.962, 0.6), v30, z0, tNozzle, \Wobj := wobj1Star;
		MoveL Offs(pZeroStar, 5.052, 2.98, 0.6), v30, z0, tNozzle, \Wobj := wobj1Star;
		MoveL Offs(pZeroStar, 4.534, 3.746, 0.6), v30, z0, tNozzle, \Wobj := wobj1Star;
		MoveL Offs(pZeroStar, 4.53, 3.753, 0.6), v30, z0, tNozzle, \Wobj := wobj1Star;
		MoveL Offs(pZeroStar, 4.517, 3.77, 0.6), v30, z0, tNozzle, \Wobj := wobj1Star;
		MoveL Offs(pZeroStar, 4.503, 3.786, 0.6), v30, z0, tNozzle, \Wobj := wobj1Star;
		MoveL Offs(pZeroStar, 3.863, 4.454, 0.6), v30, z0, tNozzle, \Wobj := wobj1Star;
		MoveL Offs(pZeroStar, 3.858, 4.459, 0.6), v30, z0, tNozzle, \Wobj := wobj1Star;
		MoveL Offs(pZeroStar, 3.842, 4.474, 0.6), v30, z0, tNozzle, \Wobj := wobj1Star;
		MoveL Offs(pZeroStar, 3.826, 4.487, 0.6), v30, z0, tNozzle, \Wobj := wobj1Star;
		MoveL Offs(pZeroStar, 3.082, 5.037, 0.6), v30, z0, tNozzle, \Wobj := wobj1Star;
		WaitRob \InPos;
		SetDO DO5_Program_Feed, 0;
		MoveL Offs(pZeroStar, 3.38, 5.439, 0.6), v100, z0, tNozzle, \Wobj := wobj1Star;
		WaitRob \InPos;
		SetDO DO5_Program_Feed, 1;
		MoveL Offs(pZeroStar, 3.373, 5.444, 0.6), v30, z0, tNozzle, \Wobj := wobj1Star;
		MoveL Offs(pZeroStar, 3.356, 5.456, 0.6), v30, z0, tNozzle, \Wobj := wobj1Star;
		MoveL Offs(pZeroStar, 3.338, 5.468, 0.6), v30, z0, tNozzle, \Wobj := wobj1Star;
		MoveL Offs(pZeroStar, 3.302, 5.491, 0.6), v30, z0, tNozzle, \Wobj := wobj1Star;
		MoveL Offs(pZeroStar, 3.284, 5.501, 0.6), v30, z0, tNozzle, \Wobj := wobj1Star;
		MoveL Offs(pZeroStar, 3.265, 5.511, 0.6), v30, z0, tNozzle, \Wobj := wobj1Star;
		MoveL Offs(pZeroStar, 2.439, 5.927, 0.6), v30, z0, tNozzle, \Wobj := wobj1Star;
		MoveL Offs(pZeroStar, 2.432, 5.931, 0.6), v30, z0, tNozzle, \Wobj := wobj1Star;
		MoveL Offs(pZeroStar, 2.413, 5.94, 0.6), v30, z0, tNozzle, \Wobj := wobj1Star;
		MoveL Offs(pZeroStar, 2.393, 5.949, 0.6), v30, z0, tNozzle, \Wobj := wobj1Star;
		MoveL Offs(pZeroStar, 2.354, 5.965, 0.6), v30, z0, tNozzle, \Wobj := wobj1Star;
		MoveL Offs(pZeroStar, 2.334, 5.972, 0.6), v30, z0, tNozzle, \Wobj := wobj1Star;
		MoveL Offs(pZeroStar, 2.314, 5.978, 0.6), v30, z0, tNozzle, \Wobj := wobj1Star;
		MoveL Offs(pZeroStar, 1.429, 6.249, 0.6), v30, z0, tNozzle, \Wobj := wobj1Star;
		MoveL Offs(pZeroStar, 1.422, 6.251, 0.6), v30, z0, tNozzle, \Wobj := wobj1Star;
		MoveL Offs(pZeroStar, 1.401, 6.257, 0.6), v30, z0, tNozzle, \Wobj := wobj1Star;
		MoveL Offs(pZeroStar, 1.381, 6.263, 0.6), v30, z0, tNozzle, \Wobj := wobj1Star;
		MoveL Offs(pZeroStar, 1.339, 6.272, 0.6), v30, z0, tNozzle, \Wobj := wobj1Star;
		MoveL Offs(pZeroStar, 1.318, 6.275, 0.6), v30, z0, tNozzle, \Wobj := wobj1Star;
		MoveL Offs(pZeroStar, 1.297, 6.278, 0.6), v30, z0, tNozzle, \Wobj := wobj1Star;
		MoveL Offs(pZeroStar, 0.38, 6.396, 0.6), v30, z0, tNozzle, \Wobj := wobj1Star;
		MoveL Offs(pZeroStar, 0.372, 6.397, 0.6), v30, z0, tNozzle, \Wobj := wobj1Star;
		MoveL Offs(pZeroStar, 0.351, 6.399, 0.6), v30, z0, tNozzle, \Wobj := wobj1Star;
		MoveL Offs(pZeroStar, 0.33, 6.401, 0.6), v30, z0, tNozzle, \Wobj := wobj1Star;
		MoveL Offs(pZeroStar, 0.288, 6.403, 0.6), v30, z0, tNozzle, \Wobj := wobj1Star;
		MoveL Offs(pZeroStar, 0.266, 6.403, 0.6), v30, z0, tNozzle, \Wobj := wobj1Star;
		MoveL Offs(pZeroStar, 0.245, 6.402, 0.6), v30, z0, tNozzle, \Wobj := wobj1Star;
		MoveL Offs(pZeroStar, -0.679, 6.363, 0.6), v30, z0, tNozzle, \Wobj := wobj1Star;
		MoveL Offs(pZeroStar, -0.687, 6.363, 0.6), v30, z0, tNozzle, \Wobj := wobj1Star;
		MoveL Offs(pZeroStar, -0.708, 6.361, 0.6), v30, z0, tNozzle, \Wobj := wobj1Star;
		MoveL Offs(pZeroStar, -0.729, 6.359, 0.6), v30, z0, tNozzle, \Wobj := wobj1Star;
		MoveL Offs(pZeroStar, -0.771, 6.354, 0.6), v30, z0, tNozzle, \Wobj := wobj1Star;
		MoveL Offs(pZeroStar, -0.792, 6.35, 0.6), v30, z0, tNozzle, \Wobj := wobj1Star;
		MoveL Offs(pZeroStar, -0.813, 6.346, 0.6), v30, z0, tNozzle, \Wobj := wobj1Star;
		MoveL Offs(pZeroStar, -1.717, 6.152, 0.6), v30, z0, tNozzle, \Wobj := wobj1Star;
		MoveL Offs(pZeroStar, -1.725, 6.15, 0.6), v30, z0, tNozzle, \Wobj := wobj1Star;
		MoveL Offs(pZeroStar, -1.746, 6.145, 0.6), v30, z0, tNozzle, \Wobj := wobj1Star;
		MoveL Offs(pZeroStar, -1.766, 6.14, 0.6), v30, z0, tNozzle, \Wobj := wobj1Star;
		MoveL Offs(pZeroStar, -1.807, 6.127, 0.6), v30, z0, tNozzle, \Wobj := wobj1Star;
		MoveL Offs(pZeroStar, -1.827, 6.12, 0.6), v30, z0, tNozzle, \Wobj := wobj1Star;
		MoveL Offs(pZeroStar, -1.847, 6.113, 0.6), v30, z0, tNozzle, \Wobj := wobj1Star;
		MoveL Offs(pZeroStar, -2.705, 5.768, 0.6), v30, z0, tNozzle, \Wobj := wobj1Star;
		MoveL Offs(pZeroStar, -2.712, 5.765, 0.6), v30, z0, tNozzle, \Wobj := wobj1Star;
		MoveL Offs(pZeroStar, -2.732, 5.756, 0.6), v30, z0, tNozzle, \Wobj := wobj1Star;
		MoveL Offs(pZeroStar, -2.751, 5.748, 0.6), v30, z0, tNozzle, \Wobj := wobj1Star;
		MoveL Offs(pZeroStar, -2.789, 5.729, 0.6), v30, z0, tNozzle, \Wobj := wobj1Star;
		MoveL Offs(pZeroStar, -2.808, 5.718, 0.6), v30, z0, tNozzle, \Wobj := wobj1Star;
		MoveL Offs(pZeroStar, -2.826, 5.708, 0.6), v30, z0, tNozzle, \Wobj := wobj1Star;
		MoveL Offs(pZeroStar, -3.613, 5.223, 0.6), v30, z0, tNozzle, \Wobj := wobj1Star;
		MoveL Offs(pZeroStar, -3.62, 5.218, 0.6), v30, z0, tNozzle, \Wobj := wobj1Star;
		MoveL Offs(pZeroStar, -3.638, 5.207, 0.6), v30, z0, tNozzle, \Wobj := wobj1Star;
		MoveL Offs(pZeroStar, -3.656, 5.195, 0.6), v30, z0, tNozzle, \Wobj := wobj1Star;
		MoveL Offs(pZeroStar, -3.69, 5.17, 0.6), v30, z0, tNozzle, \Wobj := wobj1Star;
		MoveL Offs(pZeroStar, -3.706, 5.156, 0.6), v30, z0, tNozzle, \Wobj := wobj1Star;
		MoveL Offs(pZeroStar, -3.722, 5.143, 0.6), v30, z0, tNozzle, \Wobj := wobj1Star;
		MoveL Offs(pZeroStar, -4.417, 4.532, 0.6), v30, z0, tNozzle, \Wobj := wobj1Star;
		MoveL Offs(pZeroStar, -4.423, 4.526, 0.6), v30, z0, tNozzle, \Wobj := wobj1Star;
		MoveL Offs(pZeroStar, -4.438, 4.512, 0.6), v30, z0, tNozzle, \Wobj := wobj1Star;
		MoveL Offs(pZeroStar, -4.454, 4.497, 0.6), v30, z0, tNozzle, \Wobj := wobj1Star;
		MoveL Offs(pZeroStar, -4.483, 4.467, 0.6), v30, z0, tNozzle, \Wobj := wobj1Star;
		MoveL Offs(pZeroStar, -4.497, 4.451, 0.6), v30, z0, tNozzle, \Wobj := wobj1Star;
		MoveL Offs(pZeroStar, -4.511, 4.435, 0.6), v30, z0, tNozzle, \Wobj := wobj1Star;
		MoveL Offs(pZeroStar, -5.092, 3.715, 0.6), v30, z0, tNozzle, \Wobj := wobj1Star;
		MoveL Offs(pZeroStar, -5.097, 3.709, 0.6), v30, z0, tNozzle, \Wobj := wobj1Star;
		MoveL Offs(pZeroStar, -5.11, 3.692, 0.6), v30, z0, tNozzle, \Wobj := wobj1Star;
		MoveL Offs(pZeroStar, -5.122, 3.675, 0.6), v30, z0, tNozzle, \Wobj := wobj1Star;
		MoveL Offs(pZeroStar, -5.146, 3.64, 0.6), v30, z0, tNozzle, \Wobj := wobj1Star;
		MoveL Offs(pZeroStar, -5.157, 3.622, 0.6), v30, z0, tNozzle, \Wobj := wobj1Star;
		MoveL Offs(pZeroStar, -5.168, 3.603, 0.6), v30, z0, tNozzle, \Wobj := wobj1Star;
		MoveL Offs(pZeroStar, -5.619, 2.796, 0.6), v30, z0, tNozzle, \Wobj := wobj1Star;
		MoveL Offs(pZeroStar, -5.623, 2.789, 0.6), v30, z0, tNozzle, \Wobj := wobj1Star;
		MoveL Offs(pZeroStar, -5.633, 2.77, 0.6), v30, z0, tNozzle, \Wobj := wobj1Star;
		MoveL Offs(pZeroStar, -5.643, 2.751, 0.6), v30, z0, tNozzle, \Wobj := wobj1Star;
		MoveL Offs(pZeroStar, -5.66, 2.713, 0.6), v30, z0, tNozzle, \Wobj := wobj1Star;
		MoveL Offs(pZeroStar, -5.668, 2.693, 0.6), v30, z0, tNozzle, \Wobj := wobj1Star;
		MoveL Offs(pZeroStar, -5.675, 2.673, 0.6), v30, z0, tNozzle, \Wobj := wobj1Star;
		MoveL Offs(pZeroStar, -5.984, 1.801, 0.6), v30, z0, tNozzle, \Wobj := wobj1Star;
		MoveL Offs(pZeroStar, -5.986, 1.794, 0.6), v30, z0, tNozzle, \Wobj := wobj1Star;
		MoveL Offs(pZeroStar, -5.993, 1.773, 0.6), v30, z0, tNozzle, \Wobj := wobj1Star;
		MoveL Offs(pZeroStar, -5.999, 1.753, 0.6), v30, z0, tNozzle, \Wobj := wobj1Star;
		MoveL Offs(pZeroStar, -6.01, 1.712, 0.6), v30, z0, tNozzle, \Wobj := wobj1Star;
		MoveL Offs(pZeroStar, -6.014, 1.691, 0.6), v30, z0, tNozzle, \Wobj := wobj1Star;
		MoveL Offs(pZeroStar, -6.018, 1.67, 0.6), v30, z0, tNozzle, \Wobj := wobj1Star;
		MoveL Offs(pZeroStar, -6.175, 0.759, 0.6), v30, z0, tNozzle, \Wobj := wobj1Star;
		MoveL Offs(pZeroStar, -6.176, 0.751, 0.6), v30, z0, tNozzle, \Wobj := wobj1Star;
		MoveL Offs(pZeroStar, -6.179, 0.73, 0.6), v30, z0, tNozzle, \Wobj := wobj1Star;
		MoveL Offs(pZeroStar, -6.182, 0.709, 0.6), v30, z0, tNozzle, \Wobj := wobj1Star;
		MoveL Offs(pZeroStar, -6.185, 0.667, 0.6), v30, z0, tNozzle, \Wobj := wobj1Star;
		MoveL Offs(pZeroStar, -6.186, 0.645, 0.6), v30, z0, tNozzle, \Wobj := wobj1Star;
		MoveL Offs(pZeroStar, -6.187, 0.624, 0.6), v30, z0, tNozzle, \Wobj := wobj1Star;
		MoveL Offs(pZeroStar, -6.187, -0.309, 0.6), v30, z0, tNozzle, \Wobj := wobj1Star;
		MoveL Offs(pZeroStar, -6.186, -0.33, 0.6), v30, z0, tNozzle, \Wobj := wobj1Star;
		MoveL Offs(pZeroStar, -6.185, -0.351, 0.6), v30, z0, tNozzle, \Wobj := wobj1Star;
		MoveL Offs(pZeroStar, -6.182, -0.393, 0.6), v30, z0, tNozzle, \Wobj := wobj1Star;
		MoveL Offs(pZeroStar, -6.179, -0.414, 0.6), v30, z0, tNozzle, \Wobj := wobj1Star;
		MoveL Offs(pZeroStar, -6.176, -0.435, 0.6), v30, z0, tNozzle, \Wobj := wobj1Star;
		MoveL Offs(pZeroStar, -6.02, -1.347, 0.6), v30, z0, tNozzle, \Wobj := wobj1Star;
		MoveL Offs(pZeroStar, -6.018, -1.355, 0.6), v30, z0, tNozzle, \Wobj := wobj1Star;
		MoveL Offs(pZeroStar, -6.014, -1.376, 0.6), v30, z0, tNozzle, \Wobj := wobj1Star;
		MoveL Offs(pZeroStar, -6.01, -1.396, 0.6), v30, z0, tNozzle, \Wobj := wobj1Star;
		MoveL Offs(pZeroStar, -5.999, -1.437, 0.6), v30, z0, tNozzle, \Wobj := wobj1Star;
		MoveL Offs(pZeroStar, -5.993, -1.458, 0.6), v30, z0, tNozzle, \Wobj := wobj1Star;
		MoveL Offs(pZeroStar, -5.986, -1.478, 0.6), v30, z0, tNozzle, \Wobj := wobj1Star;
		MoveL Offs(pZeroStar, -5.678, -2.35, 0.6), v30, z0, tNozzle, \Wobj := wobj1Star;
		MoveL Offs(pZeroStar, -5.675, -2.358, 0.6), v30, z0, tNozzle, \Wobj := wobj1Star;
		MoveL Offs(pZeroStar, -5.668, -2.377, 0.6), v30, z0, tNozzle, \Wobj := wobj1Star;
		MoveL Offs(pZeroStar, -5.66, -2.397, 0.6), v30, z0, tNozzle, \Wobj := wobj1Star;
		MoveL Offs(pZeroStar, -5.643, -2.436, 0.6), v30, z0, tNozzle, \Wobj := wobj1Star;
		MoveL Offs(pZeroStar, -5.633, -2.455, 0.6), v30, z0, tNozzle, \Wobj := wobj1Star;
		MoveL Offs(pZeroStar, -5.623, -2.473, 0.6), v30, z0, tNozzle, \Wobj := wobj1Star;
		MoveL Offs(pZeroStar, -5.172, -3.281, 0.6), v30, z0, tNozzle, \Wobj := wobj1Star;
		MoveL Offs(pZeroStar, -5.168, -3.288, 0.6), v30, z0, tNozzle, \Wobj := wobj1Star;
		MoveL Offs(pZeroStar, -5.157, -3.306, 0.6), v30, z0, tNozzle, \Wobj := wobj1Star;
		MoveL Offs(pZeroStar, -5.146, -3.324, 0.6), v30, z0, tNozzle, \Wobj := wobj1Star;
		MoveL Offs(pZeroStar, -5.122, -3.359, 0.6), v30, z0, tNozzle, \Wobj := wobj1Star;
		MoveL Offs(pZeroStar, -5.11, -3.376, 0.6), v30, z0, tNozzle, \Wobj := wobj1Star;
		MoveL Offs(pZeroStar, -5.097, -3.393, 0.6), v30, z0, tNozzle, \Wobj := wobj1Star;
		MoveL Offs(pZeroStar, -4.516, -4.113, 0.6), v30, z0, tNozzle, \Wobj := wobj1Star;
		MoveL Offs(pZeroStar, -4.511, -4.119, 0.6), v30, z0, tNozzle, \Wobj := wobj1Star;
		MoveL Offs(pZeroStar, -4.497, -4.135, 0.6), v30, z0, tNozzle, \Wobj := wobj1Star;
		MoveL Offs(pZeroStar, -4.483, -4.151, 0.6), v30, z0, tNozzle, \Wobj := wobj1Star;
		MoveL Offs(pZeroStar, -4.454, -4.182, 0.6), v30, z0, tNozzle, \Wobj := wobj1Star;
		MoveL Offs(pZeroStar, -4.438, -4.197, 0.6), v30, z0, tNozzle, \Wobj := wobj1Star;
		MoveL Offs(pZeroStar, -4.423, -4.211, 0.6), v30, z0, tNozzle, \Wobj := wobj1Star;
		MoveL Offs(pZeroStar, -3.729, -4.822, 0.6), v30, z0, tNozzle, \Wobj := wobj1Star;
		MoveL Offs(pZeroStar, -3.723, -4.827, 0.6), v30, z0, tNozzle, \Wobj := wobj1Star;
		MoveL Offs(pZeroStar, -3.706, -4.841, 0.6), v30, z0, tNozzle, \Wobj := wobj1Star;
		MoveL Offs(pZeroStar, -3.69, -4.854, 0.6), v30, z0, tNozzle, \Wobj := wobj1Star;
		MoveL Offs(pZeroStar, -3.656, -4.879, 0.6), v30, z0, tNozzle, \Wobj := wobj1Star;
		MoveL Offs(pZeroStar, -3.638, -4.891, 0.6), v30, z0, tNozzle, \Wobj := wobj1Star;
		MoveL Offs(pZeroStar, -3.62, -4.903, 0.6), v30, z0, tNozzle, \Wobj := wobj1Star;
		MoveL Offs(pZeroStar, -2.833, -5.388, 0.6), v30, z0, tNozzle, \Wobj := wobj1Star;
		MoveL Offs(pZeroStar, -2.826, -5.392, 0.6), v30, z0, tNozzle, \Wobj := wobj1Star;
		MoveL Offs(pZeroStar, -2.808, -5.403, 0.6), v30, z0, tNozzle, \Wobj := wobj1Star;
		MoveL Offs(pZeroStar, -2.789, -5.413, 0.6), v30, z0, tNozzle, \Wobj := wobj1Star;
		MoveL Offs(pZeroStar, -2.751, -5.432, 0.6), v30, z0, tNozzle, \Wobj := wobj1Star;
		MoveL Offs(pZeroStar, -2.732, -5.441, 0.6), v30, z0, tNozzle, \Wobj := wobj1Star;
		MoveL Offs(pZeroStar, -2.712, -5.449, 0.6), v30, z0, tNozzle, \Wobj := wobj1Star;
		MoveL Offs(pZeroStar, -1.854, -5.794, 0.6), v30, z0, tNozzle, \Wobj := wobj1Star;
		MoveL Offs(pZeroStar, -1.847, -5.797, 0.6), v30, z0, tNozzle, \Wobj := wobj1Star;
		MoveL Offs(pZeroStar, -1.827, -5.805, 0.6), v30, z0, tNozzle, \Wobj := wobj1Star;
		MoveL Offs(pZeroStar, -1.807, -5.812, 0.6), v30, z0, tNozzle, \Wobj := wobj1Star;
		MoveL Offs(pZeroStar, -1.766, -5.824, 0.6), v30, z0, tNozzle, \Wobj := wobj1Star;
		MoveL Offs(pZeroStar, -1.746, -5.829, 0.6), v30, z0, tNozzle, \Wobj := wobj1Star;
		MoveL Offs(pZeroStar, -1.725, -5.834, 0.6), v30, z0, tNozzle, \Wobj := wobj1Star;
		MoveL Offs(pZeroStar, -0.821, -6.029, 0.6), v30, z0, tNozzle, \Wobj := wobj1Star;
		MoveL Offs(pZeroStar, -0.813, -6.031, 0.6), v30, z0, tNozzle, \Wobj := wobj1Star;
		MoveL Offs(pZeroStar, -0.792, -6.035, 0.6), v30, z0, tNozzle, \Wobj := wobj1Star;
		MoveL Offs(pZeroStar, -0.771, -6.038, 0.6), v30, z0, tNozzle, \Wobj := wobj1Star;
		MoveL Offs(pZeroStar, -0.729, -6.044, 0.6), v30, z0, tNozzle, \Wobj := wobj1Star;
		MoveL Offs(pZeroStar, -0.708, -6.046, 0.6), v30, z0, tNozzle, \Wobj := wobj1Star;
		MoveL Offs(pZeroStar, -0.687, -6.047, 0.6), v30, z0, tNozzle, \Wobj := wobj1Star;
		MoveL Offs(pZeroStar, 0.237, -6.086, 0.6), v30, z0, tNozzle, \Wobj := wobj1Star;
		MoveL Offs(pZeroStar, 0.245, -6.087, 0.6), v30, z0, tNozzle, \Wobj := wobj1Star;
		MoveL Offs(pZeroStar, 0.266, -6.087, 0.6), v30, z0, tNozzle, \Wobj := wobj1Star;
		MoveL Offs(pZeroStar, 0.288, -6.087, 0.6), v30, z0, tNozzle, \Wobj := wobj1Star;
		MoveL Offs(pZeroStar, 0.33, -6.085, 0.6), v30, z0, tNozzle, \Wobj := wobj1Star;
		MoveL Offs(pZeroStar, 0.351, -6.083, 0.6), v30, z0, tNozzle, \Wobj := wobj1Star;
		MoveL Offs(pZeroStar, 0.372, -6.081, 0.6), v30, z0, tNozzle, \Wobj := wobj1Star;
		MoveL Offs(pZeroStar, 1.29, -5.964, 0.6), v30, z0, tNozzle, \Wobj := wobj1Star;
		MoveL Offs(pZeroStar, 1.297, -5.963, 0.6), v30, z0, tNozzle, \Wobj := wobj1Star;
		MoveL Offs(pZeroStar, 1.318, -5.96, 0.6), v30, z0, tNozzle, \Wobj := wobj1Star;
		MoveL Offs(pZeroStar, 1.339, -5.956, 0.6), v30, z0, tNozzle, \Wobj := wobj1Star;
		MoveL Offs(pZeroStar, 1.381, -5.947, 0.6), v30, z0, tNozzle, \Wobj := wobj1Star;
		MoveL Offs(pZeroStar, 1.401, -5.942, 0.6), v30, z0, tNozzle, \Wobj := wobj1Star;
		MoveL Offs(pZeroStar, 1.422, -5.936, 0.6), v30, z0, tNozzle, \Wobj := wobj1Star;
		MoveL Offs(pZeroStar, 2.306, -5.665, 0.6), v30, z0, tNozzle, \Wobj := wobj1Star;
		MoveL Offs(pZeroStar, 2.314, -5.663, 0.6), v30, z0, tNozzle, \Wobj := wobj1Star;
		MoveL Offs(pZeroStar, 2.334, -5.656, 0.6), v30, z0, tNozzle, \Wobj := wobj1Star;
		MoveL Offs(pZeroStar, 2.354, -5.649, 0.6), v30, z0, tNozzle, \Wobj := wobj1Star;
		MoveL Offs(pZeroStar, 2.393, -5.633, 0.6), v30, z0, tNozzle, \Wobj := wobj1Star;
		MoveL Offs(pZeroStar, 2.413, -5.624, 0.6), v30, z0, tNozzle, \Wobj := wobj1Star;
		MoveL Offs(pZeroStar, 2.432, -5.615, 0.6), v30, z0, tNozzle, \Wobj := wobj1Star;
		MoveL Offs(pZeroStar, 3.258, -5.199, 0.6), v30, z0, tNozzle, \Wobj := wobj1Star;
		MoveL Offs(pZeroStar, 3.265, -5.195, 0.6), v30, z0, tNozzle, \Wobj := wobj1Star;
		MoveL Offs(pZeroStar, 3.284, -5.185, 0.6), v30, z0, tNozzle, \Wobj := wobj1Star;
		MoveL Offs(pZeroStar, 3.302, -5.175, 0.6), v30, z0, tNozzle, \Wobj := wobj1Star;
		MoveL Offs(pZeroStar, 3.338, -5.153, 0.6), v30, z0, tNozzle, \Wobj := wobj1Star;
		MoveL Offs(pZeroStar, 3.356, -5.141, 0.6), v30, z0, tNozzle, \Wobj := wobj1Star;
		MoveL Offs(pZeroStar, 3.373, -5.129, 0.6), v30, z0, tNozzle, \Wobj := wobj1Star;
		MoveL Offs(pZeroStar, 4.117, -4.579, 0.6), v30, z0, tNozzle, \Wobj := wobj1Star;
		MoveL Offs(pZeroStar, 4.123, -4.574, 0.6), v30, z0, tNozzle, \Wobj := wobj1Star;
		MoveL Offs(pZeroStar, 4.14, -4.561, 0.6), v30, z0, tNozzle, \Wobj := wobj1Star;
		MoveL Offs(pZeroStar, 4.156, -4.548, 0.6), v30, z0, tNozzle, \Wobj := wobj1Star;
		MoveL Offs(pZeroStar, 4.188, -4.52, 0.6), v30, z0, tNozzle, \Wobj := wobj1Star;
		MoveL Offs(pZeroStar, 4.204, -4.505, 0.6), v30, z0, tNozzle, \Wobj := wobj1Star;
		MoveL Offs(pZeroStar, 4.219, -4.49, 0.6), v30, z0, tNozzle, \Wobj := wobj1Star;
		MoveL Offs(pZeroStar, 4.859, -3.822, 0.6), v30, z0, tNozzle, \Wobj := wobj1Star;
		MoveL Offs(pZeroStar, 4.864, -3.816, 0.6), v30, z0, tNozzle, \Wobj := wobj1Star;
		MoveL Offs(pZeroStar, 4.879, -3.801, 0.6), v30, z0, tNozzle, \Wobj := wobj1Star;
		MoveL Offs(pZeroStar, 4.893, -3.785, 0.6), v30, z0, tNozzle, \Wobj := wobj1Star;
		MoveL Offs(pZeroStar, 4.919, -3.752, 0.6), v30, z0, tNozzle, \Wobj := wobj1Star;
		MoveL Offs(pZeroStar, 4.932, -3.735, 0.6), v30, z0, tNozzle, \Wobj := wobj1Star;
		MoveL Offs(pZeroStar, 4.944, -3.717, 0.6), v30, z0, tNozzle, \Wobj := wobj1Star;
		MoveL Offs(pZeroStar, 5.462, -2.951, 0.6), v30, z0, tNozzle, \Wobj := wobj1Star;
		MoveL Offs(pZeroStar, 5.466, -2.945, 0.6), v30, z0, tNozzle, \Wobj := wobj1Star;
		MoveL Offs(pZeroStar, 5.478, -2.927, 0.6), v30, z0, tNozzle, \Wobj := wobj1Star;
		MoveL Offs(pZeroStar, 5.489, -2.909, 0.6), v30, z0, tNozzle, \Wobj := wobj1Star;
		MoveL Offs(pZeroStar, 5.51, -2.872, 0.6), v30, z0, tNozzle, \Wobj := wobj1Star;
		MoveL Offs(pZeroStar, 5.519, -2.853, 0.6), v30, z0, tNozzle, \Wobj := wobj1Star;
		MoveL Offs(pZeroStar, 5.528, -2.833, 0.6), v30, z0, tNozzle, \Wobj := wobj1Star;
		MoveL Offs(pZeroStar, 5.909, -1.991, 0.6), v30, z0, tNozzle, \Wobj := wobj1Star;
		MoveL Offs(pZeroStar, 5.913, -1.983, 0.6), v30, z0, tNozzle, \Wobj := wobj1Star;
		MoveL Offs(pZeroStar, 5.921, -1.964, 0.6), v30, z0, tNozzle, \Wobj := wobj1Star;
		MoveL Offs(pZeroStar, 5.929, -1.944, 0.6), v30, z0, tNozzle, \Wobj := wobj1Star;
		MoveL Offs(pZeroStar, 5.943, -1.904, 0.6), v30, z0, tNozzle, \Wobj := wobj1Star;
		MoveL Offs(pZeroStar, 5.949, -1.884, 0.6), v30, z0, tNozzle, \Wobj := wobj1Star;
		MoveL Offs(pZeroStar, 5.955, -1.863, 0.6), v30, z0, tNozzle, \Wobj := wobj1Star;
		MoveL Offs(pZeroStar, 6.188, -0.968, 0.6), v30, z0, tNozzle, \Wobj := wobj1Star;
		MoveL Offs(pZeroStar, 6.19, -0.961, 0.6), v30, z0, tNozzle, \Wobj := wobj1Star;
		MoveL Offs(pZeroStar, 6.195, -0.94, 0.6), v30, z0, tNozzle, \Wobj := wobj1Star;
		MoveL Offs(pZeroStar, 6.2, -0.919, 0.6), v30, z0, tNozzle, \Wobj := wobj1Star;
		MoveL Offs(pZeroStar, 6.207, -0.877, 0.6), v30, z0, tNozzle, \Wobj := wobj1Star;
		MoveL Offs(pZeroStar, 6.209, -0.856, 0.6), v30, z0, tNozzle, \Wobj := wobj1Star;
		MoveL Offs(pZeroStar, 6.212, -0.835, 0.6), v30, z0, tNozzle, \Wobj := wobj1Star;
		MoveL Offs(pZeroStar, 6.29, 0.086, 0.6), v30, z0, tNozzle, \Wobj := wobj1Star;
		MoveL Offs(pZeroStar, 6.291, 0.094, 0.6), v30, z0, tNozzle, \Wobj := wobj1Star;
		MoveL Offs(pZeroStar, 6.292, 0.115, 0.6), v30, z0, tNozzle, \Wobj := wobj1Star;
		MoveL Offs(pZeroStar, 6.293, 0.137, 0.6), v30, z0, tNozzle, \Wobj := wobj1Star;
		MoveL Offs(pZeroStar, 6.293, 0.179, 0.6), v30, z0, tNozzle, \Wobj := wobj1Star;
		MoveL Offs(pZeroStar, 6.292, 0.2, 0.6), v30, z0, tNozzle, \Wobj := wobj1Star;
		MoveL Offs(pZeroStar, 6.291, 0.221, 0.6), v30, z0, tNozzle, \Wobj := wobj1Star;
		MoveL Offs(pZeroStar, 6.212, 1.143, 0.6), v30, z0, tNozzle, \Wobj := wobj1Star;
		MoveL Offs(pZeroStar, 6.212, 1.151, 0.6), v30, z0, tNozzle, \Wobj := wobj1Star;
		MoveL Offs(pZeroStar, 6.209, 1.172, 0.6), v30, z0, tNozzle, \Wobj := wobj1Star;
		MoveL Offs(pZeroStar, 6.207, 1.193, 0.6), v30, z0, tNozzle, \Wobj := wobj1Star;
		MoveL Offs(pZeroStar, 6.2, 1.235, 0.6), v30, z0, tNozzle, \Wobj := wobj1Star;
		MoveL Offs(pZeroStar, 6.195, 1.256, 0.6), v30, z0, tNozzle, \Wobj := wobj1Star;
		MoveL Offs(pZeroStar, 6.19, 1.276, 0.6), v30, z0, tNozzle, \Wobj := wobj1Star;
		MoveL Offs(pZeroStar, 5.957, 2.171, 0.6), v30, z0, tNozzle, \Wobj := wobj1Star;
		MoveL Offs(pZeroStar, 5.955, 2.179, 0.6), v30, z0, tNozzle, \Wobj := wobj1Star;
		MoveL Offs(pZeroStar, 5.949, 2.199, 0.6), v30, z0, tNozzle, \Wobj := wobj1Star;
		MoveL Offs(pZeroStar, 5.943, 2.22, 0.6), v30, z0, tNozzle, \Wobj := wobj1Star;
		MoveL Offs(pZeroStar, 5.929, 2.26, 0.6), v30, z0, tNozzle, \Wobj := wobj1Star;
		MoveL Offs(pZeroStar, 5.921, 2.279, 0.6), v30, z0, tNozzle, \Wobj := wobj1Star;
		MoveL Offs(pZeroStar, 5.913, 2.299, 0.6), v30, z0, tNozzle, \Wobj := wobj1Star;
		MoveL Offs(pZeroStar, 5.532, 3.142, 0.6), v30, z0, tNozzle, \Wobj := wobj1Star;
		MoveL Offs(pZeroStar, 5.528, 3.149, 0.6), v30, z0, tNozzle, \Wobj := wobj1Star;
		MoveL Offs(pZeroStar, 5.519, 3.168, 0.6), v30, z0, tNozzle, \Wobj := wobj1Star;
		MoveL Offs(pZeroStar, 5.51, 3.187, 0.6), v30, z0, tNozzle, \Wobj := wobj1Star;
		MoveL Offs(pZeroStar, 5.489, 3.224, 0.6), v30, z0, tNozzle, \Wobj := wobj1Star;
		MoveL Offs(pZeroStar, 5.478, 3.242, 0.6), v30, z0, tNozzle, \Wobj := wobj1Star;
		MoveL Offs(pZeroStar, 5.466, 3.26, 0.6), v30, z0, tNozzle, \Wobj := wobj1Star;
		MoveL Offs(pZeroStar, 4.949, 4.026, 0.6), v30, z0, tNozzle, \Wobj := wobj1Star;
		MoveL Offs(pZeroStar, 4.944, 4.033, 0.6), v30, z0, tNozzle, \Wobj := wobj1Star;
		MoveL Offs(pZeroStar, 4.932, 4.05, 0.6), v30, z0, tNozzle, \Wobj := wobj1Star;
		MoveL Offs(pZeroStar, 4.919, 4.067, 0.6), v30, z0, tNozzle, \Wobj := wobj1Star;
		MoveL Offs(pZeroStar, 4.893, 4.1, 0.6), v30, z0, tNozzle, \Wobj := wobj1Star;
		MoveL Offs(pZeroStar, 4.879, 4.116, 0.6), v30, z0, tNozzle, \Wobj := wobj1Star;
		MoveL Offs(pZeroStar, 4.864, 4.132, 0.6), v30, z0, tNozzle, \Wobj := wobj1Star;
		MoveL Offs(pZeroStar, 4.224, 4.8, 0.6), v30, z0, tNozzle, \Wobj := wobj1Star;
		MoveL Offs(pZeroStar, 4.219, 4.805, 0.6), v30, z0, tNozzle, \Wobj := wobj1Star;
		MoveL Offs(pZeroStar, 4.204, 4.82, 0.6), v30, z0, tNozzle, \Wobj := wobj1Star;
		MoveL Offs(pZeroStar, 4.188, 4.835, 0.6), v30, z0, tNozzle, \Wobj := wobj1Star;
		MoveL Offs(pZeroStar, 4.156, 4.863, 0.6), v30, z0, tNozzle, \Wobj := wobj1Star;
		MoveL Offs(pZeroStar, 4.14, 4.877, 0.6), v30, z0, tNozzle, \Wobj := wobj1Star;
		MoveL Offs(pZeroStar, 4.123, 4.889, 0.6), v30, z0, tNozzle, \Wobj := wobj1Star;
		MoveL Offs(pZeroStar, 3.38, 5.439, 0.6), v30, z0, tNozzle, \Wobj := wobj1Star;
		WaitRob \InPos;
		SetDO DO5_Program_Feed, 0;
		MoveL Offs(pZeroStar, 3.843, 5.788, 0.6), v100, z0, tNozzle, \Wobj := wobj1Star;
		WaitRob \InPos;
		SetDO DO5_Program_Feed, 1;
		MoveL Offs(pZeroStar, 3.872, 5.75, 0.6), v30, z0, tNozzle, \Wobj := wobj1Star;
		MoveL Offs(pZeroStar, 3.888, 5.732, 0.6), v30, z0, tNozzle, \Wobj := wobj1Star;
		MoveL Offs(pZeroStar, 3.92, 5.697, 0.6), v30, z0, tNozzle, \Wobj := wobj1Star;
		MoveL Offs(pZeroStar, 3.938, 5.68, 0.6), v30, z0, tNozzle, \Wobj := wobj1Star;
		MoveL Offs(pZeroStar, 3.973, 5.648, 0.6), v30, z0, tNozzle, \Wobj := wobj1Star;
		MoveL Offs(pZeroStar, 3.992, 5.633, 0.6), v30, z0, tNozzle, \Wobj := wobj1Star;
		MoveL Offs(pZeroStar, 4.031, 5.605, 0.6), v30, z0, tNozzle, \Wobj := wobj1Star;
		MoveL Offs(pZeroStar, 4.051, 5.592, 0.6), v30, z0, tNozzle, \Wobj := wobj1Star;
		MoveL Offs(pZeroStar, 4.092, 5.568, 0.6), v30, z0, tNozzle, \Wobj := wobj1Star;
		MoveL Offs(pZeroStar, 4.113, 5.556, 0.6), v30, z0, tNozzle, \Wobj := wobj1Star;
		MoveL Offs(pZeroStar, 4.156, 5.536, 0.6), v30, z0, tNozzle, \Wobj := wobj1Star;
		MoveL Offs(pZeroStar, 4.179, 5.527, 0.6), v30, z0, tNozzle, \Wobj := wobj1Star;
		MoveL Offs(pZeroStar, 4.224, 5.511, 0.6), v30, z0, tNozzle, \Wobj := wobj1Star;
		MoveL Offs(pZeroStar, 4.247, 5.504, 0.6), v30, z0, tNozzle, \Wobj := wobj1Star;
		MoveL Offs(pZeroStar, 4.293, 5.493, 0.6), v30, z0, tNozzle, \Wobj := wobj1Star;
		MoveL Offs(pZeroStar, 4.317, 5.488, 0.6), v30, z0, tNozzle, \Wobj := wobj1Star;
		MoveL Offs(pZeroStar, 4.364, 5.481, 0.6), v30, z0, tNozzle, \Wobj := wobj1Star;
		MoveL Offs(pZeroStar, 4.388, 5.478, 0.6), v30, z0, tNozzle, \Wobj := wobj1Star;
		MoveL Offs(pZeroStar, 4.411, 5.477, 0.6), v30, z0, tNozzle, \Wobj := wobj1Star;
		MoveL Offs(pZeroStar, 4.516, 5.471, 0.6), v30, z0, tNozzle, \Wobj := wobj1Star;
		MoveL Offs(pZeroStar, 14.704, 4.921, 0.6), v30, z0, tNozzle, \Wobj := wobj1Star;
		MoveL Offs(pZeroStar, 6.704, -1.578, 0.6), v30, z0, tNozzle, \Wobj := wobj1Star;
		MoveL Offs(pZeroStar, 6.685, -1.593, 0.6), v30, z0, tNozzle, \Wobj := wobj1Star;
		MoveL Offs(pZeroStar, 6.668, -1.609, 0.6), v30, z0, tNozzle, \Wobj := wobj1Star;
		MoveL Offs(pZeroStar, 6.633, -1.643, 0.6), v30, z0, tNozzle, \Wobj := wobj1Star;
		MoveL Offs(pZeroStar, 6.617, -1.66, 0.6), v30, z0, tNozzle, \Wobj := wobj1Star;
		MoveL Offs(pZeroStar, 6.586, -1.697, 0.6), v30, z0, tNozzle, \Wobj := wobj1Star;
		MoveL Offs(pZeroStar, 6.572, -1.716, 0.6), v30, z0, tNozzle, \Wobj := wobj1Star;
		MoveL Offs(pZeroStar, 6.545, -1.756, 0.6), v30, z0, tNozzle, \Wobj := wobj1Star;
		MoveL Offs(pZeroStar, 6.532, -1.776, 0.6), v30, z0, tNozzle, \Wobj := wobj1Star;
		MoveL Offs(pZeroStar, 6.509, -1.818, 0.6), v30, z0, tNozzle, \Wobj := wobj1Star;
		MoveL Offs(pZeroStar, 6.499, -1.839, 0.6), v30, z0, tNozzle, \Wobj := wobj1Star;
		MoveL Offs(pZeroStar, 6.48, -1.883, 0.6), v30, z0, tNozzle, \Wobj := wobj1Star;
		MoveL Offs(pZeroStar, 6.471, -1.905, 0.6), v30, z0, tNozzle, \Wobj := wobj1Star;
		MoveL Offs(pZeroStar, 6.456, -1.951, 0.6), v30, z0, tNozzle, \Wobj := wobj1Star;
		MoveL Offs(pZeroStar, 6.45, -1.974, 0.6), v30, z0, tNozzle, \Wobj := wobj1Star;
		MoveL Offs(pZeroStar, 6.44, -2.021, 0.6), v30, z0, tNozzle, \Wobj := wobj1Star;
		MoveL Offs(pZeroStar, 6.436, -2.044, 0.6), v30, z0, tNozzle, \Wobj := wobj1Star;
		MoveL Offs(pZeroStar, 6.43, -2.092, 0.6), v30, z0, tNozzle, \Wobj := wobj1Star;
		MoveL Offs(pZeroStar, 6.428, -2.116, 0.6), v30, z0, tNozzle, \Wobj := wobj1Star;
		MoveL Offs(pZeroStar, 6.427, -2.164, 0.6), v30, z0, tNozzle, \Wobj := wobj1Star;
		MoveL Offs(pZeroStar, 6.427, -2.187, 0.6), v30, z0, tNozzle, \Wobj := wobj1Star;
		MoveL Offs(pZeroStar, 6.43, -2.235, 0.6), v30, z0, tNozzle, \Wobj := wobj1Star;
		MoveL Offs(pZeroStar, 6.433, -2.259, 0.6), v30, z0, tNozzle, \Wobj := wobj1Star;
		MoveL Offs(pZeroStar, 6.441, -2.306, 0.6), v30, z0, tNozzle, \Wobj := wobj1Star;
		MoveL Offs(pZeroStar, 6.446, -2.33, 0.6), v30, z0, tNozzle, \Wobj := wobj1Star;
		MoveL Offs(pZeroStar, 6.452, -2.353, 0.6), v30, z0, tNozzle, \Wobj := wobj1Star;
		MoveL Offs(pZeroStar, 6.479, -2.454, 0.6), v30, z0, tNozzle, \Wobj := wobj1Star;
		MoveL Offs(pZeroStar, 9.104, -12.314, 0.6), v30, z0, tNozzle, \Wobj := wobj1Star;
		MoveL Offs(pZeroStar, 0.451, -6.713, 0.6), v30, z0, tNozzle, \Wobj := wobj1Star;
		MoveL Offs(pZeroStar, 0.431, -6.7, 0.6), v30, z0, tNozzle, \Wobj := wobj1Star;
		MoveL Offs(pZeroStar, 0.41, -6.688, 0.6), v30, z0, tNozzle, \Wobj := wobj1Star;
		MoveL Offs(pZeroStar, 0.367, -6.666, 0.6), v30, z0, tNozzle, \Wobj := wobj1Star;
		MoveL Offs(pZeroStar, 0.346, -6.656, 0.6), v30, z0, tNozzle, \Wobj := wobj1Star;
		MoveL Offs(pZeroStar, 0.301, -6.638, 0.6), v30, z0, tNozzle, \Wobj := wobj1Star;
		MoveL Offs(pZeroStar, 0.279, -6.63, 0.6), v30, z0, tNozzle, \Wobj := wobj1Star;
		MoveL Offs(pZeroStar, 0.233, -6.617, 0.6), v30, z0, tNozzle, \Wobj := wobj1Star;
		MoveL Offs(pZeroStar, 0.21, -6.611, 0.6), v30, z0, tNozzle, \Wobj := wobj1Star;
		MoveL Offs(pZeroStar, 0.163, -6.602, 0.6), v30, z0, tNozzle, \Wobj := wobj1Star;
		MoveL Offs(pZeroStar, 0.139, -6.598, 0.6), v30, z0, tNozzle, \Wobj := wobj1Star;
		MoveL Offs(pZeroStar, 0.091, -6.594, 0.6), v30, z0, tNozzle, \Wobj := wobj1Star;
		MoveL Offs(pZeroStar, 0.067, -6.593, 0.6), v30, z0, tNozzle, \Wobj := wobj1Star;
		MoveL Offs(pZeroStar, 0.02, -6.593, 0.6), v30, z0, tNozzle, \Wobj := wobj1Star;
		MoveL Offs(pZeroStar, -0.004, -6.594, 0.6), v30, z0, tNozzle, \Wobj := wobj1Star;
		MoveL Offs(pZeroStar, -0.052, -6.598, 0.6), v30, z0, tNozzle, \Wobj := wobj1Star;
		MoveL Offs(pZeroStar, -0.076, -6.602, 0.6), v30, z0, tNozzle, \Wobj := wobj1Star;
		MoveL Offs(pZeroStar, -0.123, -6.611, 0.6), v30, z0, tNozzle, \Wobj := wobj1Star;
		MoveL Offs(pZeroStar, -0.146, -6.617, 0.6), v30, z0, tNozzle, \Wobj := wobj1Star;
		MoveL Offs(pZeroStar, -0.192, -6.63, 0.6), v30, z0, tNozzle, \Wobj := wobj1Star;
		MoveL Offs(pZeroStar, -0.214, -6.638, 0.6), v30, z0, tNozzle, \Wobj := wobj1Star;
		MoveL Offs(pZeroStar, -0.259, -6.656, 0.6), v30, z0, tNozzle, \Wobj := wobj1Star;
		MoveL Offs(pZeroStar, -0.28, -6.666, 0.6), v30, z0, tNozzle, \Wobj := wobj1Star;
		MoveL Offs(pZeroStar, -0.323, -6.688, 0.6), v30, z0, tNozzle, \Wobj := wobj1Star;
		MoveL Offs(pZeroStar, -0.344, -6.7, 0.6), v30, z0, tNozzle, \Wobj := wobj1Star;
		MoveL Offs(pZeroStar, -0.364, -6.713, 0.6), v30, z0, tNozzle, \Wobj := wobj1Star;
		MoveL Offs(pZeroStar, -0.452, -6.77, 0.6), v30, z0, tNozzle, \Wobj := wobj1Star;
		MoveL Offs(pZeroStar, -9.017, -12.314, 0.6), v30, z0, tNozzle, \Wobj := wobj1Star;
		MoveL Offs(pZeroStar, -6.365, -2.353, 0.6), v30, z0, tNozzle, \Wobj := wobj1Star;
		MoveL Offs(pZeroStar, -6.359, -2.33, 0.6), v30, z0, tNozzle, \Wobj := wobj1Star;
		MoveL Offs(pZeroStar, -6.354, -2.306, 0.6), v30, z0, tNozzle, \Wobj := wobj1Star;
		MoveL Offs(pZeroStar, -6.346, -2.259, 0.6), v30, z0, tNozzle, \Wobj := wobj1Star;
		MoveL Offs(pZeroStar, -6.343, -2.235, 0.6), v30, z0, tNozzle, \Wobj := wobj1Star;
		MoveL Offs(pZeroStar, -6.34, -2.187, 0.6), v30, z0, tNozzle, \Wobj := wobj1Star;
		MoveL Offs(pZeroStar, -6.34, -2.164, 0.6), v30, z0, tNozzle, \Wobj := wobj1Star;
		MoveL Offs(pZeroStar, -6.341, -2.116, 0.6), v30, z0, tNozzle, \Wobj := wobj1Star;
		MoveL Offs(pZeroStar, -6.343, -2.092, 0.6), v30, z0, tNozzle, \Wobj := wobj1Star;
		MoveL Offs(pZeroStar, -6.349, -2.044, 0.6), v30, z0, tNozzle, \Wobj := wobj1Star;
		MoveL Offs(pZeroStar, -6.353, -2.021, 0.6), v30, z0, tNozzle, \Wobj := wobj1Star;
		MoveL Offs(pZeroStar, -6.363, -1.974, 0.6), v30, z0, tNozzle, \Wobj := wobj1Star;
		MoveL Offs(pZeroStar, -6.369, -1.951, 0.6), v30, z0, tNozzle, \Wobj := wobj1Star;
		MoveL Offs(pZeroStar, -6.384, -1.905, 0.6), v30, z0, tNozzle, \Wobj := wobj1Star;
		MoveL Offs(pZeroStar, -6.393, -1.883, 0.6), v30, z0, tNozzle, \Wobj := wobj1Star;
		MoveL Offs(pZeroStar, -6.412, -1.839, 0.6), v30, z0, tNozzle, \Wobj := wobj1Star;
