MODULE MainModule
	PROC main()
		Heat;
		SetDO DO1_Auto_Mode, 1;

		

		! Part number: 1
		! PartParams(extrusionFactor=0.98, printSpeed=30, shiftX=-17.5, shiftY=-17.5, shiftZ=0.0, numLayers=-1, designType=0, brims=0, horizontalExpansion=0.0, randomStartLocation=1)

		! Layer: 1
		! LayerParams(infillAngleDegrees=45.0, pathWidth=3.0, layerHeight=0.3, infillShiftX=0.0, infillShiftY=0.0, numShells=2, infillOverlap=0.0002)
		! T11
		! M6
		TPWRITE "Layer 1 of -1";
		MoveL Offs(pZero, -13.381, -10.927, 10.3), v100, z0, tNozzle, \Wobj := wobjPlatform;
		MoveL Offs(pZero, -13.381, -10.927, 0.3), v30, z0, tNozzle, \Wobj := wobjPlatform;
		WaitRob \InPos;
		SetDO DO5_Program_Feed, 1;
		MoveL Offs(pZero, -11.774, -12.647, 0.3), v30, z0, tNozzle, \Wobj := wobjPlatform;
		MoveL Offs(pZero, -9.947, -14.133, 0.3), v30, z0, tNozzle, \Wobj := wobjPlatform;
		MoveL Offs(pZero, -7.936, -15.356, 0.3), v30, z0, tNozzle, \Wobj := wobjPlatform;
		MoveL Offs(pZero, -5.776, -16.294, 0.3), v30, z0, tNozzle, \Wobj := wobjPlatform;
		MoveL Offs(pZero, -3.509, -16.929, 0.3), v30, z0, tNozzle, \Wobj := wobjPlatform;
		MoveL Offs(pZero, -1.177, -17.25, 0.3), v30, z0, tNozzle, \Wobj := wobjPlatform;
		MoveL Offs(pZero, 1.177, -17.25, 0.3), v30, z0, tNozzle, \Wobj := wobjPlatform;
		MoveL Offs(pZero, 3.509, -16.929, 0.3), v30, z0, tNozzle, \Wobj := wobjPlatform;
		MoveL Offs(pZero, 5.776, -16.294, 0.3), v30, z0, tNozzle, \Wobj := wobjPlatform;
		MoveL Offs(pZero, 7.936, -15.356, 0.3), v30, z0, tNozzle, \Wobj := wobjPlatform;
		MoveL Offs(pZero, 9.947, -14.133, 0.3), v30, z0, tNozzle, \Wobj := wobjPlatform;
		MoveL Offs(pZero, 11.774, -12.647, 0.3), v30, z0, tNozzle, \Wobj := wobjPlatform;
		MoveL Offs(pZero, 13.381, -10.927, 0.3), v30, z0, tNozzle, \Wobj := wobjPlatform;
		MoveL Offs(pZero, 14.738, -9.003, 0.3), v30, z0, tNozzle, \Wobj := wobjPlatform;
		MoveL Offs(pZero, 15.821, -6.913, 0.3), v30, z0, tNozzle, \Wobj := wobjPlatform;
		MoveL Offs(pZero, 16.61, -4.695, 0.3), v30, z0, tNozzle, \Wobj := wobjPlatform;
		MoveL Offs(pZero, 17.089, -2.39, 0.3), v30, z0, tNozzle, \Wobj := wobjPlatform;
		MoveL Offs(pZero, 17.249, -0.041, 0.3), v30, z0, tNozzle, \Wobj := wobjPlatform;
		MoveL Offs(pZero, 17.089, 2.308, 0.3), v30, z0, tNozzle, \Wobj := wobjPlatform;
		MoveL Offs(pZero, 16.61, 4.613, 0.3), v30, z0, tNozzle, \Wobj := wobjPlatform;
		MoveL Offs(pZero, 15.821, 6.831, 0.3), v30, z0, tNozzle, \Wobj := wobjPlatform;
		MoveL Offs(pZero, 14.738, 8.922, 0.3), v30, z0, tNozzle, \Wobj := wobjPlatform;
		MoveL Offs(pZero, 13.381, 10.845, 0.3), v30, z0, tNozzle, \Wobj := wobjPlatform;
		MoveL Offs(pZero, 11.774, 12.566, 0.3), v30, z0, tNozzle, \Wobj := wobjPlatform;
		MoveL Offs(pZero, 9.947, 14.051, 0.3), v30, z0, tNozzle, \Wobj := wobjPlatform;
		MoveL Offs(pZero, 7.936, 15.275, 0.3), v30, z0, tNozzle, \Wobj := wobjPlatform;
		MoveL Offs(pZero, 5.776, 16.213, 0.3), v30, z0, tNozzle, \Wobj := wobjPlatform;
		MoveL Offs(pZero, 3.509, 16.848, 0.3), v30, z0, tNozzle, \Wobj := wobjPlatform;
		MoveL Offs(pZero, 1.177, 17.168, 0.3), v30, z0, tNozzle, \Wobj := wobjPlatform;
		MoveL Offs(pZero, -1.177, 17.168, 0.3), v30, z0, tNozzle, \Wobj := wobjPlatform;
		MoveL Offs(pZero, -3.509, 16.848, 0.3), v30, z0, tNozzle, \Wobj := wobjPlatform;
		MoveL Offs(pZero, -5.776, 16.213, 0.3), v30, z0, tNozzle, \Wobj := wobjPlatform;
		MoveL Offs(pZero, -7.936, 15.275, 0.3), v30, z0, tNozzle, \Wobj := wobjPlatform;
		MoveL Offs(pZero, -9.947, 14.051, 0.3), v30, z0, tNozzle, \Wobj := wobjPlatform;
		MoveL Offs(pZero, -11.774, 12.566, 0.3), v30, z0, tNozzle, \Wobj := wobjPlatform;
		MoveL Offs(pZero, -13.381, 10.845, 0.3), v30, z0, tNozzle, \Wobj := wobjPlatform;
		MoveL Offs(pZero, -14.738, 8.922, 0.3), v30, z0, tNozzle, \Wobj := wobjPlatform;
		MoveL Offs(pZero, -15.821, 6.831, 0.3), v30, z0, tNozzle, \Wobj := wobjPlatform;
		MoveL Offs(pZero, -16.61, 4.613, 0.3), v30, z0, tNozzle, \Wobj := wobjPlatform;
		MoveL Offs(pZero, -17.089, 2.308, 0.3), v30, z0, tNozzle, \Wobj := wobjPlatform;
		MoveL Offs(pZero, -17.249, -0.041, 0.3), v30, z0, tNozzle, \Wobj := wobjPlatform;
		MoveL Offs(pZero, -17.089, -2.39, 0.3), v30, z0, tNozzle, \Wobj := wobjPlatform;
		MoveL Offs(pZero, -16.61, -4.695, 0.3), v30, z0, tNozzle, \Wobj := wobjPlatform;
		MoveL Offs(pZero, -15.821, -6.913, 0.3), v30, z0, tNozzle, \Wobj := wobjPlatform;
		MoveL Offs(pZero, -14.738, -9.003, 0.3), v30, z0, tNozzle, \Wobj := wobjPlatform;
		MoveL Offs(pZero, -13.381, -10.927, 0.3), v30, z0, tNozzle, \Wobj := wobjPlatform;
		WaitRob \InPos;
		SetDO DO5_Program_Feed, 0;
		MoveL Offs(pZero, -12.992, -10.61, 0.3), v100, z0, tNozzle, \Wobj := wobjPlatform;
		WaitRob \InPos;
		SetDO DO5_Program_Feed, 1;
		MoveL Offs(pZero, -11.432, -12.281, 0.3), v30, z0, tNozzle, \Wobj := wobjPlatform;
		MoveL Offs(pZero, -9.658, -13.724, 0.3), v30, z0, tNozzle, \Wobj := wobjPlatform;
		MoveL Offs(pZero, -7.705, -14.911, 0.3), v30, z0, tNozzle, \Wobj := wobjPlatform;
		MoveL Offs(pZero, -5.609, -15.822, 0.3), v30, z0, tNozzle, \Wobj := wobjPlatform;
		MoveL Offs(pZero, -3.408, -16.439, 0.3), v30, z0, tNozzle, \Wobj := wobjPlatform;
		MoveL Offs(pZero, -1.143, -16.75, 0.3), v30, z0, tNozzle, \Wobj := wobjPlatform;
		MoveL Offs(pZero, 1.143, -16.75, 0.3), v30, z0, tNozzle, \Wobj := wobjPlatform;
		MoveL Offs(pZero, 3.408, -16.439, 0.3), v30, z0, tNozzle, \Wobj := wobjPlatform;
		MoveL Offs(pZero, 5.609, -15.822, 0.3), v30, z0, tNozzle, \Wobj := wobjPlatform;
		MoveL Offs(pZero, 7.705, -14.911, 0.3), v30, z0, tNozzle, \Wobj := wobjPlatform;
		MoveL Offs(pZero, 9.658, -13.724, 0.3), v30, z0, tNozzle, \Wobj := wobjPlatform;
		MoveL Offs(pZero, 11.432, -12.281, 0.3), v30, z0, tNozzle, \Wobj := wobjPlatform;
		MoveL Offs(pZero, 12.992, -10.61, 0.3), v30, z0, tNozzle, \Wobj := wobjPlatform;
		MoveL Offs(pZero, 14.31, -8.743, 0.3), v30, z0, tNozzle, \Wobj := wobjPlatform;
		MoveL Offs(pZero, 15.362, -6.713, 0.3), v30, z0, tNozzle, \Wobj := wobjPlatform;
		MoveL Offs(pZero, 16.127, -4.559, 0.3), v30, z0, tNozzle, \Wobj := wobjPlatform;
		MoveL Offs(pZero, 16.592, -2.321, 0.3), v30, z0, tNozzle, \Wobj := wobjPlatform;
		MoveL Offs(pZero, 16.748, -0.041, 0.3), v30, z0, tNozzle, \Wobj := wobjPlatform;
		MoveL Offs(pZero, 16.592, 2.24, 0.3), v30, z0, tNozzle, \Wobj := wobjPlatform;
		MoveL Offs(pZero, 16.127, 4.478, 0.3), v30, z0, tNozzle, \Wobj := wobjPlatform;
		MoveL Offs(pZero, 15.362, 6.632, 0.3), v30, z0, tNozzle, \Wobj := wobjPlatform;
		MoveL Offs(pZero, 14.31, 8.661, 0.3), v30, z0, tNozzle, \Wobj := wobjPlatform;
		MoveL Offs(pZero, 12.992, 10.529, 0.3), v30, z0, tNozzle, \Wobj := wobjPlatform;
		MoveL Offs(pZero, 11.432, 12.199, 0.3), v30, z0, tNozzle, \Wobj := wobjPlatform;
		MoveL Offs(pZero, 9.658, 13.642, 0.3), v30, z0, tNozzle, \Wobj := wobjPlatform;
		MoveL Offs(pZero, 7.705, 14.83, 0.3), v30, z0, tNozzle, \Wobj := wobjPlatform;
		MoveL Offs(pZero, 5.609, 15.74, 0.3), v30, z0, tNozzle, \Wobj := wobjPlatform;
		MoveL Offs(pZero, 3.408, 16.357, 0.3), v30, z0, tNozzle, \Wobj := wobjPlatform;
		MoveL Offs(pZero, 1.143, 16.668, 0.3), v30, z0, tNozzle, \Wobj := wobjPlatform;
		MoveL Offs(pZero, -1.143, 16.668, 0.3), v30, z0, tNozzle, \Wobj := wobjPlatform;
		MoveL Offs(pZero, -3.408, 16.357, 0.3), v30, z0, tNozzle, \Wobj := wobjPlatform;
		MoveL Offs(pZero, -5.609, 15.74, 0.3), v30, z0, tNozzle, \Wobj := wobjPlatform;
		MoveL Offs(pZero, -7.705, 14.83, 0.3), v30, z0, tNozzle, \Wobj := wobjPlatform;
		MoveL Offs(pZero, -9.658, 13.642, 0.3), v30, z0, tNozzle, \Wobj := wobjPlatform;
		MoveL Offs(pZero, -11.432, 12.199, 0.3), v30, z0, tNozzle, \Wobj := wobjPlatform;
		MoveL Offs(pZero, -12.992, 10.529, 0.3), v30, z0, tNozzle, \Wobj := wobjPlatform;
		MoveL Offs(pZero, -14.31, 8.661, 0.3), v30, z0, tNozzle, \Wobj := wobjPlatform;
		MoveL Offs(pZero, -15.362, 6.632, 0.3), v30, z0, tNozzle, \Wobj := wobjPlatform;
		MoveL Offs(pZero, -16.127, 4.478, 0.3), v30, z0, tNozzle, \Wobj := wobjPlatform;
		MoveL Offs(pZero, -16.592, 2.24, 0.3), v30, z0, tNozzle, \Wobj := wobjPlatform;
		MoveL Offs(pZero, -16.748, -0.041, 0.3), v30, z0, tNozzle, \Wobj := wobjPlatform;
		MoveL Offs(pZero, -16.592, -2.321, 0.3), v30, z0, tNozzle, \Wobj := wobjPlatform;
		MoveL Offs(pZero, -16.127, -4.559, 0.3), v30, z0, tNozzle, \Wobj := wobjPlatform;
		MoveL Offs(pZero, -15.362, -6.713, 0.3), v30, z0, tNozzle, \Wobj := wobjPlatform;
		MoveL Offs(pZero, -14.31, -8.743, 0.3), v30, z0, tNozzle, \Wobj := wobjPlatform;
		MoveL Offs(pZero, -12.992, -10.61, 0.3), v30, z0, tNozzle, \Wobj := wobjPlatform;
		WaitRob \InPos;
		SetDO DO5_Program_Feed, 0;
		MoveL Offs(pZero, -13.386, -9.185, 0.3), v100, z0, tNozzle, \Wobj := wobjPlatform;
		WaitRob \InPos;
		SetDO DO5_Program_Feed, 1;
		MoveL Offs(pZero, 9.159, 13.361, 0.3), v30, z0, tNozzle, \Wobj := wobjPlatform;
		WaitRob \InPos;
		SetDO DO5_Program_Feed, 0;
		MoveL Offs(pZero, 11.468, 11.428, 0.3), v100, z0, tNozzle, \Wobj := wobjPlatform;
		WaitRob \InPos;
		SetDO DO5_Program_Feed, 1;
		MoveL Offs(pZero, -11.468, -11.509, 0.3), v30, z0, tNozzle, \Wobj := wobjPlatform;
		WaitRob \InPos;
		SetDO DO5_Program_Feed, 0;
		MoveL Offs(pZero, -9.159, -13.442, 0.3), v100, z0, tNozzle, \Wobj := wobjPlatform;
		WaitRob \InPos;
		SetDO DO5_Program_Feed, 1;
		MoveL Offs(pZero, 13.386, 9.103, 0.3), v30, z0, tNozzle, \Wobj := wobjPlatform;
		WaitRob \InPos;
		SetDO DO5_Program_Feed, 0;
		MoveL Offs(pZero, 14.917, 6.391, 0.3), v100, z0, tNozzle, \Wobj := wobjPlatform;
		WaitRob \InPos;
		SetDO DO5_Program_Feed, 1;
		MoveL Offs(pZero, -6.405, -14.931, 0.3), v30, z0, tNozzle, \Wobj := wobjPlatform;
		WaitRob \InPos;
		SetDO DO5_Program_Feed, 0;
		MoveL Offs(pZero, -3.195, -15.963, 0.3), v100, z0, tNozzle, \Wobj := wobjPlatform;
		WaitRob \InPos;
		SetDO DO5_Program_Feed, 1;
		MoveL Offs(pZero, 15.897, 3.128, 0.3), v30, z0, tNozzle, \Wobj := wobjPlatform;
		WaitRob \InPos;
		SetDO DO5_Program_Feed, 0;
		MoveL Offs(pZero, 16.194, -0.817, 0.3), v100, z0, tNozzle, \Wobj := wobjPlatform;
		WaitRob \InPos;
		SetDO DO5_Program_Feed, 1;
		MoveL Offs(pZero, 0.761, -16.25, 0.3), v30, z0, tNozzle, \Wobj := wobjPlatform;
		WaitRob \InPos;
		SetDO DO5_Program_Feed, 0;
		MoveL Offs(pZero, 6.26, -14.994, 0.3), v100, z0, tNozzle, \Wobj := wobjPlatform;
		WaitRob \InPos;
		SetDO DO5_Program_Feed, 1;
		MoveL Offs(pZero, 14.991, -6.263, 0.3), v30, z0, tNozzle, \Wobj := wobjPlatform;
		WaitRob \InPos;
		SetDO DO6_Between_Layer_Retract, 1;
		SetDO DO5_Program_Feed, 0;
		MoveL Offs(pZero, 14.991, -6.263, 10.3), v100, z0, tNozzle, \Wobj := wobjPlatform;
		MoveL Offs(pZero, 6.405, 14.85, 10.3), v100, z0, tNozzle, \Wobj := wobjPlatform;
		WaitRob \InPos;
		SetDO DO6_Between_Layer_Retract, 0;
		MoveL Offs(pZero, 6.405, 14.85, 0.3), v30, z0, tNozzle, \Wobj := wobjPlatform;
		WaitRob \InPos;
		SetDO DO5_Program_Feed, 1;
		MoveL Offs(pZero, -14.917, -6.472, 0.3), v30, z0, tNozzle, \Wobj := wobjPlatform;
		WaitRob \InPos;
		SetDO DO5_Program_Feed, 0;
		MoveL Offs(pZero, -15.897, -3.21, 0.3), v100, z0, tNozzle, \Wobj := wobjPlatform;
		WaitRob \InPos;
		SetDO DO5_Program_Feed, 1;
		MoveL Offs(pZero, 3.195, 15.882, 0.3), v30, z0, tNozzle, \Wobj := wobjPlatform;
		WaitRob \InPos;
		SetDO DO5_Program_Feed, 0;
		MoveL Offs(pZero, -0.761, 16.169, 0.3), v100, z0, tNozzle, \Wobj := wobjPlatform;
		WaitRob \InPos;
		SetDO DO5_Program_Feed, 1;
		MoveL Offs(pZero, -16.194, 0.736, 0.3), v30, z0, tNozzle, \Wobj := wobjPlatform;
		WaitRob \InPos;
		SetDO DO5_Program_Feed, 0;
		MoveL Offs(pZero, -14.991, 6.181, 0.3), v100, z0, tNozzle, \Wobj := wobjPlatform;
		WaitRob \InPos;
		SetDO DO5_Program_Feed, 1;
		MoveL Offs(pZero, -6.26, 14.913, 0.3), v30, z0, tNozzle, \Wobj := wobjPlatform;
		WaitRob \InPos;
		SetDO DO6_Between_Layer_Retract, 1;
		SetDO DO5_Program_Feed, 0;
		MoveL Offs(pZero, -6.26, 14.913, 10.3), v100, z0, tNozzle, \Wobj := wobjPlatform;

		! Layer: 2
		! LayerParams(infillAngleDegrees=-45.0, pathWidth=3.0, layerHeight=0.3, infillShiftX=0.0, infillShiftY=0.0, numShells=2, infillOverlap=0.0002)
		! T12
		! M6
		TPWRITE "Layer 2 of -1";
		MoveL Offs(pZero, 5.78, 16.211, 10.6), v100, z0, tNozzle, \Wobj := wobjPlatform;
		MoveL Offs(pZero, 5.78, 16.211, 0.6), v30, z0, tNozzle, \Wobj := wobjPlatform;
		WaitRob \InPos;
		SetDO DO6_Between_Layer_Retract, 0;
		WaitRob \InPos;
		SetDO DO5_Program_Feed, 1;
		MoveL Offs(pZero, 5.776, 16.213, 0.6), v30, z0, tNozzle, \Wobj := wobjPlatform;
		MoveL Offs(pZero, 3.513, 16.847, 0.6), v30, z0, tNozzle, \Wobj := wobjPlatform;
		MoveL Offs(pZero, 3.509, 16.848, 0.6), v30, z0, tNozzle, \Wobj := wobjPlatform;
		MoveL Offs(pZero, 1.18, 17.168, 0.6), v30, z0, tNozzle, \Wobj := wobjPlatform;
		MoveL Offs(pZero, 1.177, 17.168, 0.6), v30, z0, tNozzle, \Wobj := wobjPlatform;
		MoveL Offs(pZero, -1.177, 17.168, 0.6), v30, z0, tNozzle, \Wobj := wobjPlatform;
		MoveL Offs(pZero, -3.506, 16.848, 0.6), v30, z0, tNozzle, \Wobj := wobjPlatform;
		MoveL Offs(pZero, -3.509, 16.848, 0.6), v30, z0, tNozzle, \Wobj := wobjPlatform;
		MoveL Offs(pZero, -5.773, 16.214, 0.6), v30, z0, tNozzle, \Wobj := wobjPlatform;
		MoveL Offs(pZero, -5.776, 16.213, 0.6), v30, z0, tNozzle, \Wobj := wobjPlatform;
		MoveL Offs(pZero, -7.933, 15.276, 0.6), v30, z0, tNozzle, \Wobj := wobjPlatform;
		MoveL Offs(pZero, -7.936, 15.275, 0.6), v30, z0, tNozzle, \Wobj := wobjPlatform;
		MoveL Offs(pZero, -9.945, 14.053, 0.6), v30, z0, tNozzle, \Wobj := wobjPlatform;
		MoveL Offs(pZero, -9.947, 14.051, 0.6), v30, z0, tNozzle, \Wobj := wobjPlatform;
		MoveL Offs(pZero, -11.771, 12.568, 0.6), v30, z0, tNozzle, \Wobj := wobjPlatform;
		MoveL Offs(pZero, -11.774, 12.566, 0.6), v30, z0, tNozzle, \Wobj := wobjPlatform;
		MoveL Offs(pZero, -13.378, 10.848, 0.6), v30, z0, tNozzle, \Wobj := wobjPlatform;
		MoveL Offs(pZero, -13.381, 10.845, 0.6), v30, z0, tNozzle, \Wobj := wobjPlatform;
		MoveL Offs(pZero, -14.736, 8.924, 0.6), v30, z0, tNozzle, \Wobj := wobjPlatform;
		MoveL Offs(pZero, -14.738, 8.922, 0.6), v30, z0, tNozzle, \Wobj := wobjPlatform;
		MoveL Offs(pZero, -15.82, 6.834, 0.6), v30, z0, tNozzle, \Wobj := wobjPlatform;
		MoveL Offs(pZero, -15.821, 6.831, 0.6), v30, z0, tNozzle, \Wobj := wobjPlatform;
		MoveL Offs(pZero, -16.609, 4.616, 0.6), v30, z0, tNozzle, \Wobj := wobjPlatform;
		MoveL Offs(pZero, -16.61, 4.613, 0.6), v30, z0, tNozzle, \Wobj := wobjPlatform;
		MoveL Offs(pZero, -17.088, 2.311, 0.6), v30, z0, tNozzle, \Wobj := wobjPlatform;
		MoveL Offs(pZero, -17.089, 2.308, 0.6), v30, z0, tNozzle, \Wobj := wobjPlatform;
		MoveL Offs(pZero, -17.249, -0.037, 0.6), v30, z0, tNozzle, \Wobj := wobjPlatform;
		MoveL Offs(pZero, -17.249, -0.041, 0.6), v30, z0, tNozzle, \Wobj := wobjPlatform;
		MoveL Offs(pZero, -17.089, -2.386, 0.6), v30, z0, tNozzle, \Wobj := wobjPlatform;
		MoveL Offs(pZero, -17.089, -2.39, 0.6), v30, z0, tNozzle, \Wobj := wobjPlatform;
		MoveL Offs(pZero, -16.61, -4.691, 0.6), v30, z0, tNozzle, \Wobj := wobjPlatform;
		MoveL Offs(pZero, -16.61, -4.695, 0.6), v30, z0, tNozzle, \Wobj := wobjPlatform;
		MoveL Offs(pZero, -15.822, -6.91, 0.6), v30, z0, tNozzle, \Wobj := wobjPlatform;
		MoveL Offs(pZero, -15.821, -6.913, 0.6), v30, z0, tNozzle, \Wobj := wobjPlatform;
		MoveL Offs(pZero, -14.74, -9.0, 0.6), v30, z0, tNozzle, \Wobj := wobjPlatform;
		MoveL Offs(pZero, -14.738, -9.003, 0.6), v30, z0, tNozzle, \Wobj := wobjPlatform;
		MoveL Offs(pZero, -13.383, -10.924, 0.6), v30, z0, tNozzle, \Wobj := wobjPlatform;
		MoveL Offs(pZero, -13.381, -10.927, 0.6), v30, z0, tNozzle, \Wobj := wobjPlatform;
		MoveL Offs(pZero, -11.776, -12.645, 0.6), v30, z0, tNozzle, \Wobj := wobjPlatform;
		MoveL Offs(pZero, -11.774, -12.647, 0.6), v30, z0, tNozzle, \Wobj := wobjPlatform;
		MoveL Offs(pZero, -9.95, -14.131, 0.6), v30, z0, tNozzle, \Wobj := wobjPlatform;
		MoveL Offs(pZero, -9.947, -14.133, 0.6), v30, z0, tNozzle, \Wobj := wobjPlatform;
		MoveL Offs(pZero, -7.939, -15.355, 0.6), v30, z0, tNozzle, \Wobj := wobjPlatform;
		MoveL Offs(pZero, -7.936, -15.356, 0.6), v30, z0, tNozzle, \Wobj := wobjPlatform;
		MoveL Offs(pZero, -5.78, -16.293, 0.6), v30, z0, tNozzle, \Wobj := wobjPlatform;
		MoveL Offs(pZero, -5.776, -16.294, 0.6), v30, z0, tNozzle, \Wobj := wobjPlatform;
		MoveL Offs(pZero, -3.513, -16.929, 0.6), v30, z0, tNozzle, \Wobj := wobjPlatform;
		MoveL Offs(pZero, -3.509, -16.929, 0.6), v30, z0, tNozzle, \Wobj := wobjPlatform;
		MoveL Offs(pZero, -1.18, -17.25, 0.6), v30, z0, tNozzle, \Wobj := wobjPlatform;
		MoveL Offs(pZero, -1.177, -17.25, 0.6), v30, z0, tNozzle, \Wobj := wobjPlatform;
		MoveL Offs(pZero, 1.177, -17.25, 0.6), v30, z0, tNozzle, \Wobj := wobjPlatform;
		MoveL Offs(pZero, 3.506, -16.93, 0.6), v30, z0, tNozzle, \Wobj := wobjPlatform;
		MoveL Offs(pZero, 3.509, -16.929, 0.6), v30, z0, tNozzle, \Wobj := wobjPlatform;
		MoveL Offs(pZero, 5.773, -16.295, 0.6), v30, z0, tNozzle, \Wobj := wobjPlatform;
		MoveL Offs(pZero, 5.776, -16.294, 0.6), v30, z0, tNozzle, \Wobj := wobjPlatform;
		MoveL Offs(pZero, 7.933, -15.358, 0.6), v30, z0, tNozzle, \Wobj := wobjPlatform;
		MoveL Offs(pZero, 7.936, -15.356, 0.6), v30, z0, tNozzle, \Wobj := wobjPlatform;
		MoveL Offs(pZero, 9.945, -14.135, 0.6), v30, z0, tNozzle, \Wobj := wobjPlatform;
		MoveL Offs(pZero, 9.947, -14.133, 0.6), v30, z0, tNozzle, \Wobj := wobjPlatform;
		MoveL Offs(pZero, 11.771, -12.649, 0.6), v30, z0, tNozzle, \Wobj := wobjPlatform;
		MoveL Offs(pZero, 11.774, -12.647, 0.6), v30, z0, tNozzle, \Wobj := wobjPlatform;
		MoveL Offs(pZero, 13.378, -10.929, 0.6), v30, z0, tNozzle, \Wobj := wobjPlatform;
		MoveL Offs(pZero, 13.381, -10.927, 0.6), v30, z0, tNozzle, \Wobj := wobjPlatform;
		MoveL Offs(pZero, 14.736, -9.006, 0.6), v30, z0, tNozzle, \Wobj := wobjPlatform;
		MoveL Offs(pZero, 14.738, -9.003, 0.6), v30, z0, tNozzle, \Wobj := wobjPlatform;
		MoveL Offs(pZero, 15.82, -6.916, 0.6), v30, z0, tNozzle, \Wobj := wobjPlatform;
		MoveL Offs(pZero, 15.821, -6.913, 0.6), v30, z0, tNozzle, \Wobj := wobjPlatform;
		MoveL Offs(pZero, 16.609, -4.698, 0.6), v30, z0, tNozzle, \Wobj := wobjPlatform;
		MoveL Offs(pZero, 16.61, -4.695, 0.6), v30, z0, tNozzle, \Wobj := wobjPlatform;
		MoveL Offs(pZero, 17.088, -2.393, 0.6), v30, z0, tNozzle, \Wobj := wobjPlatform;
		MoveL Offs(pZero, 17.089, -2.39, 0.6), v30, z0, tNozzle, \Wobj := wobjPlatform;
		MoveL Offs(pZero, 17.249, -0.044, 0.6), v30, z0, tNozzle, \Wobj := wobjPlatform;
		MoveL Offs(pZero, 17.249, -0.041, 0.6), v30, z0, tNozzle, \Wobj := wobjPlatform;
		MoveL Offs(pZero, 17.089, 2.305, 0.6), v30, z0, tNozzle, \Wobj := wobjPlatform;
		MoveL Offs(pZero, 17.089, 2.308, 0.6), v30, z0, tNozzle, \Wobj := wobjPlatform;
		MoveL Offs(pZero, 16.61, 4.61, 0.6), v30, z0, tNozzle, \Wobj := wobjPlatform;
		MoveL Offs(pZero, 16.61, 4.613, 0.6), v30, z0, tNozzle, \Wobj := wobjPlatform;
		MoveL Offs(pZero, 15.822, 6.828, 0.6), v30, z0, tNozzle, \Wobj := wobjPlatform;
		MoveL Offs(pZero, 15.821, 6.831, 0.6), v30, z0, tNozzle, \Wobj := wobjPlatform;
		MoveL Offs(pZero, 14.74, 8.919, 0.6), v30, z0, tNozzle, \Wobj := wobjPlatform;
		MoveL Offs(pZero, 14.738, 8.922, 0.6), v30, z0, tNozzle, \Wobj := wobjPlatform;
		MoveL Offs(pZero, 13.383, 10.842, 0.6), v30, z0, tNozzle, \Wobj := wobjPlatform;
		MoveL Offs(pZero, 13.381, 10.845, 0.6), v30, z0, tNozzle, \Wobj := wobjPlatform;
		MoveL Offs(pZero, 11.776, 12.563, 0.6), v30, z0, tNozzle, \Wobj := wobjPlatform;
		MoveL Offs(pZero, 11.774, 12.566, 0.6), v30, z0, tNozzle, \Wobj := wobjPlatform;
		MoveL Offs(pZero, 9.95, 14.049, 0.6), v30, z0, tNozzle, \Wobj := wobjPlatform;
		MoveL Offs(pZero, 9.947, 14.051, 0.6), v30, z0, tNozzle, \Wobj := wobjPlatform;
		MoveL Offs(pZero, 7.939, 15.273, 0.6), v30, z0, tNozzle, \Wobj := wobjPlatform;
		MoveL Offs(pZero, 7.936, 15.275, 0.6), v30, z0, tNozzle, \Wobj := wobjPlatform;
		MoveL Offs(pZero, 5.78, 16.211, 0.6), v30, z0, tNozzle, \Wobj := wobjPlatform;
		WaitRob \InPos;
		SetDO DO5_Program_Feed, 0;
		MoveL Offs(pZero, 5.612, 15.739, 0.6), v100, z0, tNozzle, \Wobj := wobjPlatform;
		WaitRob \InPos;
		SetDO DO5_Program_Feed, 1;
		MoveL Offs(pZero, 3.411, 16.356, 0.6), v30, z0, tNozzle, \Wobj := wobjPlatform;
		MoveL Offs(pZero, 1.146, 16.668, 0.6), v30, z0, tNozzle, \Wobj := wobjPlatform;
		MoveL Offs(pZero, -1.143, 16.668, 0.6), v30, z0, tNozzle, \Wobj := wobjPlatform;
		MoveL Offs(pZero, -3.404, 16.358, 0.6), v30, z0, tNozzle, \Wobj := wobjPlatform;
		MoveL Offs(pZero, -5.605, 15.741, 0.6), v30, z0, tNozzle, \Wobj := wobjPlatform;
		MoveL Offs(pZero, -7.702, 14.831, 0.6), v30, z0, tNozzle, \Wobj := wobjPlatform;
		MoveL Offs(pZero, -9.656, 13.644, 0.6), v30, z0, tNozzle, \Wobj := wobjPlatform;
		MoveL Offs(pZero, -11.429, 12.201, 0.6), v30, z0, tNozzle, \Wobj := wobjPlatform;
		MoveL Offs(pZero, -12.99, 10.531, 0.6), v30, z0, tNozzle, \Wobj := wobjPlatform;
		MoveL Offs(pZero, -14.308, 8.664, 0.6), v30, z0, tNozzle, \Wobj := wobjPlatform;
		MoveL Offs(pZero, -15.36, 6.635, 0.6), v30, z0, tNozzle, \Wobj := wobjPlatform;
		MoveL Offs(pZero, -16.126, 4.481, 0.6), v30, z0, tNozzle, \Wobj := wobjPlatform;
		MoveL Offs(pZero, -16.592, 2.243, 0.6), v30, z0, tNozzle, \Wobj := wobjPlatform;
		MoveL Offs(pZero, -16.748, -0.041, 0.6), v30, z0, tNozzle, \Wobj := wobjPlatform;
		MoveL Offs(pZero, -16.592, -2.318, 0.6), v30, z0, tNozzle, \Wobj := wobjPlatform;
		MoveL Offs(pZero, -16.128, -4.556, 0.6), v30, z0, tNozzle, \Wobj := wobjPlatform;
		MoveL Offs(pZero, -15.363, -6.71, 0.6), v30, z0, tNozzle, \Wobj := wobjPlatform;
		MoveL Offs(pZero, -14.312, -8.74, 0.6), v30, z0, tNozzle, \Wobj := wobjPlatform;
		MoveL Offs(pZero, -12.994, -10.608, 0.6), v30, z0, tNozzle, \Wobj := wobjPlatform;
		MoveL Offs(pZero, -11.434, -12.279, 0.6), v30, z0, tNozzle, \Wobj := wobjPlatform;
		MoveL Offs(pZero, -9.661, -13.722, 0.6), v30, z0, tNozzle, \Wobj := wobjPlatform;
		MoveL Offs(pZero, -7.708, -14.91, 0.6), v30, z0, tNozzle, \Wobj := wobjPlatform;
		MoveL Offs(pZero, -5.612, -15.821, 0.6), v30, z0, tNozzle, \Wobj := wobjPlatform;
		MoveL Offs(pZero, -3.411, -16.438, 0.6), v30, z0, tNozzle, \Wobj := wobjPlatform;
		MoveL Offs(pZero, -1.146, -16.75, 0.6), v30, z0, tNozzle, \Wobj := wobjPlatform;
		MoveL Offs(pZero, 1.143, -16.75, 0.6), v30, z0, tNozzle, \Wobj := wobjPlatform;
		MoveL Offs(pZero, 3.404, -16.439, 0.6), v30, z0, tNozzle, \Wobj := wobjPlatform;
		MoveL Offs(pZero, 5.605, -15.823, 0.6), v30, z0, tNozzle, \Wobj := wobjPlatform;
		MoveL Offs(pZero, 7.702, -14.913, 0.6), v30, z0, tNozzle, \Wobj := wobjPlatform;
		MoveL Offs(pZero, 9.656, -13.725, 0.6), v30, z0, tNozzle, \Wobj := wobjPlatform;
		MoveL Offs(pZero, 11.429, -12.283, 0.6), v30, z0, tNozzle, \Wobj := wobjPlatform;
		MoveL Offs(pZero, 12.99, -10.613, 0.6), v30, z0, tNozzle, \Wobj := wobjPlatform;
		MoveL Offs(pZero, 14.308, -8.746, 0.6), v30, z0, tNozzle, \Wobj := wobjPlatform;
		MoveL Offs(pZero, 15.36, -6.716, 0.6), v30, z0, tNozzle, \Wobj := wobjPlatform;
		MoveL Offs(pZero, 16.126, -4.563, 0.6), v30, z0, tNozzle, \Wobj := wobjPlatform;
		MoveL Offs(pZero, 16.592, -2.325, 0.6), v30, z0, tNozzle, \Wobj := wobjPlatform;
		MoveL Offs(pZero, 16.748, -0.044, 0.6), v30, z0, tNozzle, \Wobj := wobjPlatform;
		MoveL Offs(pZero, 16.592, 2.236, 0.6), v30, z0, tNozzle, \Wobj := wobjPlatform;
		MoveL Offs(pZero, 16.128, 4.475, 0.6), v30, z0, tNozzle, \Wobj := wobjPlatform;
		MoveL Offs(pZero, 15.363, 6.629, 0.6), v30, z0, tNozzle, \Wobj := wobjPlatform;
		MoveL Offs(pZero, 14.312, 8.658, 0.6), v30, z0, tNozzle, \Wobj := wobjPlatform;
		MoveL Offs(pZero, 12.994, 10.526, 0.6), v30, z0, tNozzle, \Wobj := wobjPlatform;
		MoveL Offs(pZero, 11.434, 12.197, 0.6), v30, z0, tNozzle, \Wobj := wobjPlatform;
		MoveL Offs(pZero, 9.661, 13.64, 0.6), v30, z0, tNozzle, \Wobj := wobjPlatform;
		MoveL Offs(pZero, 7.708, 14.828, 0.6), v30, z0, tNozzle, \Wobj := wobjPlatform;
		MoveL Offs(pZero, 5.612, 15.739, 0.6), v30, z0, tNozzle, \Wobj := wobjPlatform;
		WaitRob \InPos;
		SetDO DO5_Program_Feed, 0;
		MoveL Offs(pZero, 6.26, 14.912, 0.6), v100, z0, tNozzle, \Wobj := wobjPlatform;
		WaitRob \InPos;
		SetDO DO5_Program_Feed, 1;
		MoveL Offs(pZero, 14.991, 6.181, 0.6), v30, z0, tNozzle, \Wobj := wobjPlatform;
		WaitRob \InPos;
		SetDO DO5_Program_Feed, 0;
		MoveL Offs(pZero, 16.194, 0.736, 0.6), v100, z0, tNozzle, \Wobj := wobjPlatform;
		WaitRob \InPos;
		SetDO DO5_Program_Feed, 1;
		MoveL Offs(pZero, 0.761, 16.168, 0.6), v30, z0, tNozzle, \Wobj := wobjPlatform;
		WaitRob \InPos;
		SetDO DO5_Program_Feed, 0;
		MoveL Offs(pZero, -3.195, 15.882, 0.6), v100, z0, tNozzle, \Wobj := wobjPlatform;
		WaitRob \InPos;
		SetDO DO5_Program_Feed, 1;
		MoveL Offs(pZero, 15.897, -3.21, 0.6), v30, z0, tNozzle, \Wobj := wobjPlatform;
		WaitRob \InPos;
		SetDO DO5_Program_Feed, 0;
		MoveL Offs(pZero, 14.917, -6.472, 0.6), v100, z0, tNozzle, \Wobj := wobjPlatform;
		WaitRob \InPos;
		SetDO DO5_Program_Feed, 1;
		MoveL Offs(pZero, -6.405, 14.849, 0.6), v30, z0, tNozzle, \Wobj := wobjPlatform;
		WaitRob \InPos;
		SetDO DO5_Program_Feed, 0;
		MoveL Offs(pZero, -9.159, 13.361, 0.6), v100, z0, tNozzle, \Wobj := wobjPlatform;
		WaitRob \InPos;
		SetDO DO5_Program_Feed, 1;
		MoveL Offs(pZero, 13.386, -9.185, 0.6), v30, z0, tNozzle, \Wobj := wobjPlatform;
		WaitRob \InPos;
		SetDO DO5_Program_Feed, 0;
		MoveL Offs(pZero, 11.468, -11.509, 0.6), v100, z0, tNozzle, \Wobj := wobjPlatform;
		WaitRob \InPos;
		SetDO DO5_Program_Feed, 1;
		MoveL Offs(pZero, -11.468, 11.427, 0.6), v30, z0, tNozzle, \Wobj := wobjPlatform;
		WaitRob \InPos;
		SetDO DO5_Program_Feed, 0;
		MoveL Offs(pZero, -13.386, 9.103, 0.6), v100, z0, tNozzle, \Wobj := wobjPlatform;
		WaitRob \InPos;
		SetDO DO5_Program_Feed, 1;
		MoveL Offs(pZero, 9.159, -13.442, 0.6), v30, z0, tNozzle, \Wobj := wobjPlatform;
		WaitRob \InPos;
		SetDO DO5_Program_Feed, 0;
		MoveL Offs(pZero, 6.405, -14.931, 0.6), v100, z0, tNozzle, \Wobj := wobjPlatform;
		WaitRob \InPos;
		SetDO DO5_Program_Feed, 1;
		MoveL Offs(pZero, -14.917, 6.39, 0.6), v30, z0, tNozzle, \Wobj := wobjPlatform;
		WaitRob \InPos;
		SetDO DO5_Program_Feed, 0;
		MoveL Offs(pZero, -15.897, 3.128, 0.6), v100, z0, tNozzle, \Wobj := wobjPlatform;
		WaitRob \InPos;
		SetDO DO5_Program_Feed, 1;
		MoveL Offs(pZero, 3.195, -15.963, 0.6), v30, z0, tNozzle, \Wobj := wobjPlatform;
		WaitRob \InPos;
		SetDO DO5_Program_Feed, 0;
		MoveL Offs(pZero, -0.762, -16.25, 0.6), v100, z0, tNozzle, \Wobj := wobjPlatform;
		WaitRob \InPos;
		SetDO DO5_Program_Feed, 1;
		MoveL Offs(pZero, -16.194, -0.817, 0.6), v30, z0, tNozzle, \Wobj := wobjPlatform;
		WaitRob \InPos;
		SetDO DO5_Program_Feed, 0;
		MoveL Offs(pZero, -14.991, -6.263, 0.6), v100, z0, tNozzle, \Wobj := wobjPlatform;
		WaitRob \InPos;
		SetDO DO5_Program_Feed, 1;
		MoveL Offs(pZero, -6.26, -14.994, 0.6), v30, z0, tNozzle, \Wobj := wobjPlatform;
		WaitRob \InPos;
		SetDO DO6_Between_Layer_Retract, 1;
		SetDO DO5_Program_Feed, 0;
		MoveL Offs(pZero, -6.26, -14.994, 10.6), v100, z0, tNozzle, \Wobj := wobjPlatform;

		! Layer: 3
		! LayerParams(infillAngleDegrees=45.0, pathWidth=3.0, layerHeight=0.3, infillShiftX=0.0, infillShiftY=0.0, numShells=2, infillOverlap=0.0002)
		! T13
		! M6
		TPWRITE "Layer 3 of -1";
		MoveL Offs(pZero, 9.947, 14.051, 10.9), v100, z0, tNozzle, \Wobj := wobjPlatform;
		MoveL Offs(pZero, 9.947, 14.051, 0.9), v30, z0, tNozzle, \Wobj := wobjPlatform;
		WaitRob \InPos;
		SetDO DO6_Between_Layer_Retract, 0;
		WaitRob \InPos;
		SetDO DO5_Program_Feed, 1;
		MoveL Offs(pZero, 7.947, 15.268, 0.9), v30, z0, tNozzle, \Wobj := wobjPlatform;
		MoveL Offs(pZero, 7.936, 15.275, 0.9), v30, z0, tNozzle, \Wobj := wobjPlatform;
		MoveL Offs(pZero, 5.789, 16.207, 0.9), v30, z0, tNozzle, \Wobj := wobjPlatform;
		MoveL Offs(pZero, 5.776, 16.213, 0.9), v30, z0, tNozzle, \Wobj := wobjPlatform;
		MoveL Offs(pZero, 3.523, 16.844, 0.9), v30, z0, tNozzle, \Wobj := wobjPlatform;
		MoveL Offs(pZero, 3.509, 16.848, 0.9), v30, z0, tNozzle, \Wobj := wobjPlatform;
		MoveL Offs(pZero, 1.191, 17.167, 0.9), v30, z0, tNozzle, \Wobj := wobjPlatform;
		MoveL Offs(pZero, 1.177, 17.168, 0.9), v30, z0, tNozzle, \Wobj := wobjPlatform;
		MoveL Offs(pZero, -1.177, 17.168, 0.9), v30, z0, tNozzle, \Wobj := wobjPlatform;
		MoveL Offs(pZero, -3.496, 16.85, 0.9), v30, z0, tNozzle, \Wobj := wobjPlatform;
		MoveL Offs(pZero, -3.509, 16.848, 0.9), v30, z0, tNozzle, \Wobj := wobjPlatform;
		MoveL Offs(pZero, -5.763, 16.216, 0.9), v30, z0, tNozzle, \Wobj := wobjPlatform;
		MoveL Offs(pZero, -5.776, 16.213, 0.9), v30, z0, tNozzle, \Wobj := wobjPlatform;
		MoveL Offs(pZero, -7.923, 15.28, 0.9), v30, z0, tNozzle, \Wobj := wobjPlatform;
		MoveL Offs(pZero, -7.936, 15.275, 0.9), v30, z0, tNozzle, \Wobj := wobjPlatform;
		MoveL Offs(pZero, -9.936, 14.059, 0.9), v30, z0, tNozzle, \Wobj := wobjPlatform;
		MoveL Offs(pZero, -9.947, 14.051, 0.9), v30, z0, tNozzle, \Wobj := wobjPlatform;
		MoveL Offs(pZero, -11.763, 12.574, 0.9), v30, z0, tNozzle, \Wobj := wobjPlatform;
		MoveL Offs(pZero, -11.774, 12.566, 0.9), v30, z0, tNozzle, \Wobj := wobjPlatform;
		MoveL Offs(pZero, -13.371, 10.855, 0.9), v30, z0, tNozzle, \Wobj := wobjPlatform;
		MoveL Offs(pZero, -13.381, 10.845, 0.9), v30, z0, tNozzle, \Wobj := wobjPlatform;
		MoveL Offs(pZero, -14.73, 8.933, 0.9), v30, z0, tNozzle, \Wobj := wobjPlatform;
		MoveL Offs(pZero, -14.738, 8.922, 0.9), v30, z0, tNozzle, \Wobj := wobjPlatform;
		MoveL Offs(pZero, -15.815, 6.843, 0.9), v30, z0, tNozzle, \Wobj := wobjPlatform;
		MoveL Offs(pZero, -15.821, 6.831, 0.9), v30, z0, tNozzle, \Wobj := wobjPlatform;
		MoveL Offs(pZero, -16.605, 4.626, 0.9), v30, z0, tNozzle, \Wobj := wobjPlatform;
		MoveL Offs(pZero, -16.61, 4.613, 0.9), v30, z0, tNozzle, \Wobj := wobjPlatform;
		MoveL Offs(pZero, -17.086, 2.321, 0.9), v30, z0, tNozzle, \Wobj := wobjPlatform;
		MoveL Offs(pZero, -17.089, 2.308, 0.9), v30, z0, tNozzle, \Wobj := wobjPlatform;
		MoveL Offs(pZero, -17.248, -0.027, 0.9), v30, z0, tNozzle, \Wobj := wobjPlatform;
		MoveL Offs(pZero, -17.249, -0.041, 0.9), v30, z0, tNozzle, \Wobj := wobjPlatform;
		MoveL Offs(pZero, -17.09, -2.376, 0.9), v30, z0, tNozzle, \Wobj := wobjPlatform;
		MoveL Offs(pZero, -17.089, -2.39, 0.9), v30, z0, tNozzle, \Wobj := wobjPlatform;
		MoveL Offs(pZero, -16.613, -4.681, 0.9), v30, z0, tNozzle, \Wobj := wobjPlatform;
		MoveL Offs(pZero, -16.61, -4.695, 0.9), v30, z0, tNozzle, \Wobj := wobjPlatform;
		MoveL Offs(pZero, -15.826, -6.9, 0.9), v30, z0, tNozzle, \Wobj := wobjPlatform;
		MoveL Offs(pZero, -15.821, -6.913, 0.9), v30, z0, tNozzle, \Wobj := wobjPlatform;
		MoveL Offs(pZero, -14.744, -8.991, 0.9), v30, z0, tNozzle, \Wobj := wobjPlatform;
		MoveL Offs(pZero, -14.738, -9.003, 0.9), v30, z0, tNozzle, \Wobj := wobjPlatform;
		MoveL Offs(pZero, -13.388, -10.916, 0.9), v30, z0, tNozzle, \Wobj := wobjPlatform;
		MoveL Offs(pZero, -13.381, -10.927, 0.9), v30, z0, tNozzle, \Wobj := wobjPlatform;
		MoveL Offs(pZero, -11.783, -12.637, 0.9), v30, z0, tNozzle, \Wobj := wobjPlatform;
		MoveL Offs(pZero, -11.774, -12.647, 0.9), v30, z0, tNozzle, \Wobj := wobjPlatform;
		MoveL Offs(pZero, -9.958, -14.124, 0.9), v30, z0, tNozzle, \Wobj := wobjPlatform;
		MoveL Offs(pZero, -9.947, -14.133, 0.9), v30, z0, tNozzle, \Wobj := wobjPlatform;
		MoveL Offs(pZero, -7.947, -15.349, 0.9), v30, z0, tNozzle, \Wobj := wobjPlatform;
		MoveL Offs(pZero, -7.936, -15.356, 0.9), v30, z0, tNozzle, \Wobj := wobjPlatform;
		MoveL Offs(pZero, -5.789, -16.289, 0.9), v30, z0, tNozzle, \Wobj := wobjPlatform;
		MoveL Offs(pZero, -5.776, -16.294, 0.9), v30, z0, tNozzle, \Wobj := wobjPlatform;
		MoveL Offs(pZero, -3.523, -16.926, 0.9), v30, z0, tNozzle, \Wobj := wobjPlatform;
		MoveL Offs(pZero, -3.509, -16.929, 0.9), v30, z0, tNozzle, \Wobj := wobjPlatform;
		MoveL Offs(pZero, -1.191, -17.248, 0.9), v30, z0, tNozzle, \Wobj := wobjPlatform;
		MoveL Offs(pZero, -1.177, -17.25, 0.9), v30, z0, tNozzle, \Wobj := wobjPlatform;
		MoveL Offs(pZero, 1.177, -17.25, 0.9), v30, z0, tNozzle, \Wobj := wobjPlatform;
		MoveL Offs(pZero, 3.496, -16.931, 0.9), v30, z0, tNozzle, \Wobj := wobjPlatform;
		MoveL Offs(pZero, 3.509, -16.929, 0.9), v30, z0, tNozzle, \Wobj := wobjPlatform;
		MoveL Offs(pZero, 5.763, -16.298, 0.9), v30, z0, tNozzle, \Wobj := wobjPlatform;
		MoveL Offs(pZero, 5.776, -16.294, 0.9), v30, z0, tNozzle, \Wobj := wobjPlatform;
		MoveL Offs(pZero, 7.923, -15.362, 0.9), v30, z0, tNozzle, \Wobj := wobjPlatform;
		MoveL Offs(pZero, 7.936, -15.356, 0.9), v30, z0, tNozzle, \Wobj := wobjPlatform;
		MoveL Offs(pZero, 9.936, -14.14, 0.9), v30, z0, tNozzle, \Wobj := wobjPlatform;
		MoveL Offs(pZero, 9.947, -14.133, 0.9), v30, z0, tNozzle, \Wobj := wobjPlatform;
		MoveL Offs(pZero, 11.763, -12.656, 0.9), v30, z0, tNozzle, \Wobj := wobjPlatform;
		MoveL Offs(pZero, 11.774, -12.647, 0.9), v30, z0, tNozzle, \Wobj := wobjPlatform;
		MoveL Offs(pZero, 13.371, -10.937, 0.9), v30, z0, tNozzle, \Wobj := wobjPlatform;
		MoveL Offs(pZero, 13.381, -10.927, 0.9), v30, z0, tNozzle, \Wobj := wobjPlatform;
		MoveL Offs(pZero, 14.73, -9.014, 0.9), v30, z0, tNozzle, \Wobj := wobjPlatform;
		MoveL Offs(pZero, 14.738, -9.003, 0.9), v30, z0, tNozzle, \Wobj := wobjPlatform;
		MoveL Offs(pZero, 15.815, -6.925, 0.9), v30, z0, tNozzle, \Wobj := wobjPlatform;
		MoveL Offs(pZero, 15.821, -6.913, 0.9), v30, z0, tNozzle, \Wobj := wobjPlatform;
		MoveL Offs(pZero, 16.605, -4.707, 0.9), v30, z0, tNozzle, \Wobj := wobjPlatform;
		MoveL Offs(pZero, 16.61, -4.695, 0.9), v30, z0, tNozzle, \Wobj := wobjPlatform;
		MoveL Offs(pZero, 17.086, -2.403, 0.9), v30, z0, tNozzle, \Wobj := wobjPlatform;
		MoveL Offs(pZero, 17.089, -2.39, 0.9), v30, z0, tNozzle, \Wobj := wobjPlatform;
		MoveL Offs(pZero, 17.248, -0.054, 0.9), v30, z0, tNozzle, \Wobj := wobjPlatform;
		MoveL Offs(pZero, 17.249, -0.041, 0.9), v30, z0, tNozzle, \Wobj := wobjPlatform;
		MoveL Offs(pZero, 17.09, 2.294, 0.9), v30, z0, tNozzle, \Wobj := wobjPlatform;
		MoveL Offs(pZero, 17.089, 2.308, 0.9), v30, z0, tNozzle, \Wobj := wobjPlatform;
		MoveL Offs(pZero, 16.613, 4.6, 0.9), v30, z0, tNozzle, \Wobj := wobjPlatform;
		MoveL Offs(pZero, 16.61, 4.613, 0.9), v30, z0, tNozzle, \Wobj := wobjPlatform;
		MoveL Offs(pZero, 15.826, 6.819, 0.9), v30, z0, tNozzle, \Wobj := wobjPlatform;
		MoveL Offs(pZero, 15.821, 6.831, 0.9), v30, z0, tNozzle, \Wobj := wobjPlatform;
		MoveL Offs(pZero, 14.744, 8.91, 0.9), v30, z0, tNozzle, \Wobj := wobjPlatform;
		MoveL Offs(pZero, 14.738, 8.922, 0.9), v30, z0, tNozzle, \Wobj := wobjPlatform;
		MoveL Offs(pZero, 13.388, 10.834, 0.9), v30, z0, tNozzle, \Wobj := wobjPlatform;
		MoveL Offs(pZero, 13.381, 10.845, 0.9), v30, z0, tNozzle, \Wobj := wobjPlatform;
		MoveL Offs(pZero, 11.783, 12.556, 0.9), v30, z0, tNozzle, \Wobj := wobjPlatform;
		MoveL Offs(pZero, 11.774, 12.566, 0.9), v30, z0, tNozzle, \Wobj := wobjPlatform;
		MoveL Offs(pZero, 9.958, 14.043, 0.9), v30, z0, tNozzle, \Wobj := wobjPlatform;
		MoveL Offs(pZero, 9.947, 14.051, 0.9), v30, z0, tNozzle, \Wobj := wobjPlatform;
		WaitRob \InPos;
		SetDO DO5_Program_Feed, 0;
		MoveL Offs(pZero, 9.658, 13.642, 0.9), v100, z0, tNozzle, \Wobj := wobjPlatform;
		WaitRob \InPos;
		SetDO DO5_Program_Feed, 1;
		MoveL Offs(pZero, 7.705, 14.83, 0.9), v30, z0, tNozzle, \Wobj := wobjPlatform;
		MoveL Offs(pZero, 5.609, 15.74, 0.9), v30, z0, tNozzle, \Wobj := wobjPlatform;
		MoveL Offs(pZero, 3.408, 16.357, 0.9), v30, z0, tNozzle, \Wobj := wobjPlatform;
		MoveL Offs(pZero, 1.143, 16.668, 0.9), v30, z0, tNozzle, \Wobj := wobjPlatform;
		MoveL Offs(pZero, -1.143, 16.668, 0.9), v30, z0, tNozzle, \Wobj := wobjPlatform;
		MoveL Offs(pZero, -3.408, 16.357, 0.9), v30, z0, tNozzle, \Wobj := wobjPlatform;
		MoveL Offs(pZero, -5.609, 15.74, 0.9), v30, z0, tNozzle, \Wobj := wobjPlatform;
		MoveL Offs(pZero, -7.705, 14.83, 0.9), v30, z0, tNozzle, \Wobj := wobjPlatform;
		MoveL Offs(pZero, -9.658, 13.642, 0.9), v30, z0, tNozzle, \Wobj := wobjPlatform;
		MoveL Offs(pZero, -11.432, 12.199, 0.9), v30, z0, tNozzle, \Wobj := wobjPlatform;
		MoveL Offs(pZero, -12.992, 10.529, 0.9), v30, z0, tNozzle, \Wobj := wobjPlatform;
		MoveL Offs(pZero, -14.31, 8.661, 0.9), v30, z0, tNozzle, \Wobj := wobjPlatform;
		MoveL Offs(pZero, -15.362, 6.632, 0.9), v30, z0, tNozzle, \Wobj := wobjPlatform;
		MoveL Offs(pZero, -16.127, 4.478, 0.9), v30, z0, tNozzle, \Wobj := wobjPlatform;
		MoveL Offs(pZero, -16.592, 2.24, 0.9), v30, z0, tNozzle, \Wobj := wobjPlatform;
		MoveL Offs(pZero, -16.748, -0.041, 0.9), v30, z0, tNozzle, \Wobj := wobjPlatform;
		MoveL Offs(pZero, -16.592, -2.321, 0.9), v30, z0, tNozzle, \Wobj := wobjPlatform;
		MoveL Offs(pZero, -16.127, -4.559, 0.9), v30, z0, tNozzle, \Wobj := wobjPlatform;
		MoveL Offs(pZero, -15.362, -6.713, 0.9), v30, z0, tNozzle, \Wobj := wobjPlatform;
		MoveL Offs(pZero, -14.31, -8.743, 0.9), v30, z0, tNozzle, \Wobj := wobjPlatform;
		MoveL Offs(pZero, -12.992, -10.61, 0.9), v30, z0, tNozzle, \Wobj := wobjPlatform;
		MoveL Offs(pZero, -11.432, -12.281, 0.9), v30, z0, tNozzle, \Wobj := wobjPlatform;
		MoveL Offs(pZero, -9.658, -13.724, 0.9), v30, z0, tNozzle, \Wobj := wobjPlatform;
		MoveL Offs(pZero, -7.705, -14.911, 0.9), v30, z0, tNozzle, \Wobj := wobjPlatform;
		MoveL Offs(pZero, -5.609, -15.822, 0.9), v30, z0, tNozzle, \Wobj := wobjPlatform;
		MoveL Offs(pZero, -3.408, -16.439, 0.9), v30, z0, tNozzle, \Wobj := wobjPlatform;
		MoveL Offs(pZero, -1.143, -16.75, 0.9), v30, z0, tNozzle, \Wobj := wobjPlatform;
		MoveL Offs(pZero, 1.143, -16.75, 0.9), v30, z0, tNozzle, \Wobj := wobjPlatform;
		MoveL Offs(pZero, 3.408, -16.439, 0.9), v30, z0, tNozzle, \Wobj := wobjPlatform;
		MoveL Offs(pZero, 5.609, -15.822, 0.9), v30, z0, tNozzle, \Wobj := wobjPlatform;
		MoveL Offs(pZero, 7.705, -14.911, 0.9), v30, z0, tNozzle, \Wobj := wobjPlatform;
		MoveL Offs(pZero, 9.658, -13.724, 0.9), v30, z0, tNozzle, \Wobj := wobjPlatform;
		MoveL Offs(pZero, 11.432, -12.281, 0.9), v30, z0, tNozzle, \Wobj := wobjPlatform;
		MoveL Offs(pZero, 12.992, -10.61, 0.9), v30, z0, tNozzle, \Wobj := wobjPlatform;
		MoveL Offs(pZero, 14.31, -8.743, 0.9), v30, z0, tNozzle, \Wobj := wobjPlatform;
		MoveL Offs(pZero, 15.362, -6.713, 0.9), v30, z0, tNozzle, \Wobj := wobjPlatform;
		MoveL Offs(pZero, 16.127, -4.559, 0.9), v30, z0, tNozzle, \Wobj := wobjPlatform;
		MoveL Offs(pZero, 16.592, -2.321, 0.9), v30, z0, tNozzle, \Wobj := wobjPlatform;
		MoveL Offs(pZero, 16.748, -0.041, 0.9), v30, z0, tNozzle, \Wobj := wobjPlatform;
		MoveL Offs(pZero, 16.592, 2.24, 0.9), v30, z0, tNozzle, \Wobj := wobjPlatform;
		MoveL Offs(pZero, 16.127, 4.478, 0.9), v30, z0, tNozzle, \Wobj := wobjPlatform;
		MoveL Offs(pZero, 15.362, 6.632, 0.9), v30, z0, tNozzle, \Wobj := wobjPlatform;
		MoveL Offs(pZero, 14.31, 8.661, 0.9), v30, z0, tNozzle, \Wobj := wobjPlatform;
		MoveL Offs(pZero, 12.992, 10.529, 0.9), v30, z0, tNozzle, \Wobj := wobjPlatform;
		MoveL Offs(pZero, 11.432, 12.199, 0.9), v30, z0, tNozzle, \Wobj := wobjPlatform;
		MoveL Offs(pZero, 9.658, 13.642, 0.9), v30, z0, tNozzle, \Wobj := wobjPlatform;
		WaitRob \InPos;
		SetDO DO5_Program_Feed, 0;
		MoveL Offs(pZero, 9.159, 13.361, 0.9), v100, z0, tNozzle, \Wobj := wobjPlatform;
		WaitRob \InPos;
		SetDO DO5_Program_Feed, 1;
		MoveL Offs(pZero, -13.386, -9.185, 0.9), v30, z0, tNozzle, \Wobj := wobjPlatform;
		WaitRob \InPos;
		SetDO DO5_Program_Feed, 0;
		MoveL Offs(pZero, -11.468, -11.509, 0.9), v100, z0, tNozzle, \Wobj := wobjPlatform;
		WaitRob \InPos;
		SetDO DO5_Program_Feed, 1;
		MoveL Offs(pZero, 11.468, 11.428, 0.9), v30, z0, tNozzle, \Wobj := wobjPlatform;
		WaitRob \InPos;
		SetDO DO5_Program_Feed, 0;
		MoveL Offs(pZero, 13.386, 9.103, 0.9), v100, z0, tNozzle, \Wobj := wobjPlatform;
		WaitRob \InPos;
		SetDO DO5_Program_Feed, 1;
		MoveL Offs(pZero, -9.159, -13.442, 0.9), v30, z0, tNozzle, \Wobj := wobjPlatform;
		WaitRob \InPos;
		SetDO DO5_Program_Feed, 0;
		MoveL Offs(pZero, -6.405, -14.931, 0.9), v100, z0, tNozzle, \Wobj := wobjPlatform;
		WaitRob \InPos;
		SetDO DO5_Program_Feed, 1;
		MoveL Offs(pZero, 14.917, 6.391, 0.9), v30, z0, tNozzle, \Wobj := wobjPlatform;
		WaitRob \InPos;
		SetDO DO5_Program_Feed, 0;
		MoveL Offs(pZero, 15.897, 3.128, 0.9), v100, z0, tNozzle, \Wobj := wobjPlatform;
		WaitRob \InPos;
		SetDO DO5_Program_Feed, 1;
		MoveL Offs(pZero, -3.195, -15.963, 0.9), v30, z0, tNozzle, \Wobj := wobjPlatform;
		WaitRob \InPos;
		SetDO DO5_Program_Feed, 0;
		MoveL Offs(pZero, 0.761, -16.25, 0.9), v100, z0, tNozzle, \Wobj := wobjPlatform;
		WaitRob \InPos;
		SetDO DO5_Program_Feed, 1;
		MoveL Offs(pZero, 16.194, -0.817, 0.9), v30, z0, tNozzle, \Wobj := wobjPlatform;
		WaitRob \InPos;
		SetDO DO5_Program_Feed, 0;
		MoveL Offs(pZero, 14.991, -6.263, 0.9), v100, z0, tNozzle, \Wobj := wobjPlatform;
		WaitRob \InPos;
		SetDO DO5_Program_Feed, 1;
		MoveL Offs(pZero, 6.26, -14.994, 0.9), v30, z0, tNozzle, \Wobj := wobjPlatform;
		WaitRob \InPos;
		SetDO DO6_Between_Layer_Retract, 1;
		SetDO DO5_Program_Feed, 0;
		MoveL Offs(pZero, 6.26, -14.994, 10.9), v100, z0, tNozzle, \Wobj := wobjPlatform;
		MoveL Offs(pZero, -14.917, -6.472, 10.9), v100, z0, tNozzle, \Wobj := wobjPlatform;
		WaitRob \InPos;
		SetDO DO6_Between_Layer_Retract, 0;
		MoveL Offs(pZero, -14.917, -6.472, 0.9), v30, z0, tNozzle, \Wobj := wobjPlatform;
		WaitRob \InPos;
		SetDO DO5_Program_Feed, 1;
		MoveL Offs(pZero, 6.405, 14.85, 0.9), v30, z0, tNozzle, \Wobj := wobjPlatform;
		WaitRob \InPos;
		SetDO DO5_Program_Feed, 0;
		MoveL Offs(pZero, 3.195, 15.882, 0.9), v100, z0, tNozzle, \Wobj := wobjPlatform;
		WaitRob \InPos;
		SetDO DO5_Program_Feed, 1;
		MoveL Offs(pZero, -15.897, -3.21, 0.9), v30, z0, tNozzle, \Wobj := wobjPlatform;
		WaitRob \InPos;
		SetDO DO5_Program_Feed, 0;
		MoveL Offs(pZero, -16.194, 0.736, 0.9), v100, z0, tNozzle, \Wobj := wobjPlatform;
		WaitRob \InPos;
		SetDO DO5_Program_Feed, 1;
		MoveL Offs(pZero, -0.761, 16.169, 0.9), v30, z0, tNozzle, \Wobj := wobjPlatform;
		WaitRob \InPos;
		SetDO DO5_Program_Feed, 0;
		MoveL Offs(pZero, -6.26, 14.913, 0.9), v100, z0, tNozzle, \Wobj := wobjPlatform;
		WaitRob \InPos;
		SetDO DO5_Program_Feed, 1;
		MoveL Offs(pZero, -14.991, 6.181, 0.9), v30, z0, tNozzle, \Wobj := wobjPlatform;
		WaitRob \InPos;
		SetDO DO6_Between_Layer_Retract, 1;
		SetDO DO5_Program_Feed, 0;
		MoveL Offs(pZero, -14.991, 6.181, 10.9), v100, z0, tNozzle, \Wobj := wobjPlatform;

		! Layer: 4
		! LayerParams(infillAngleDegrees=-45.0, pathWidth=3.0, layerHeight=0.3, infillShiftX=0.0, infillShiftY=0.0, numShells=2, infillOverlap=0.0002)
		! T14
		! M6
		TPWRITE "Layer 4 of -1";
		MoveL Offs(pZero, 3.509, -16.929, 11.2), v100, z0, tNozzle, \Wobj := wobjPlatform;
		MoveL Offs(pZero, 3.509, -16.929, 1.2), v30, z0, tNozzle, \Wobj := wobjPlatform;
		WaitRob \InPos;
		SetDO DO6_Between_Layer_Retract, 0;
		WaitRob \InPos;
		SetDO DO5_Program_Feed, 1;
		MoveL Offs(pZero, 5.754, -16.301, 1.2), v30, z0, tNozzle, \Wobj := wobjPlatform;
		MoveL Offs(pZero, 5.776, -16.294, 1.2), v30, z0, tNozzle, \Wobj := wobjPlatform;
		MoveL Offs(pZero, 7.914, -15.366, 1.2), v30, z0, tNozzle, \Wobj := wobjPlatform;
		MoveL Offs(pZero, 7.936, -15.356, 1.2), v30, z0, tNozzle, \Wobj := wobjPlatform;
		MoveL Offs(pZero, 9.927, -14.145, 1.2), v30, z0, tNozzle, \Wobj := wobjPlatform;
		MoveL Offs(pZero, 9.947, -14.133, 1.2), v30, z0, tNozzle, \Wobj := wobjPlatform;
		MoveL Offs(pZero, 11.755, -12.662, 1.2), v30, z0, tNozzle, \Wobj := wobjPlatform;
		MoveL Offs(pZero, 11.774, -12.647, 1.2), v30, z0, tNozzle, \Wobj := wobjPlatform;
		MoveL Offs(pZero, 13.364, -10.944, 1.2), v30, z0, tNozzle, \Wobj := wobjPlatform;
		MoveL Offs(pZero, 13.381, -10.927, 1.2), v30, z0, tNozzle, \Wobj := wobjPlatform;
		MoveL Offs(pZero, 14.724, -9.023, 1.2), v30, z0, tNozzle, \Wobj := wobjPlatform;
		MoveL Offs(pZero, 14.738, -9.003, 1.2), v30, z0, tNozzle, \Wobj := wobjPlatform;
		MoveL Offs(pZero, 15.81, -6.934, 1.2), v30, z0, tNozzle, \Wobj := wobjPlatform;
		MoveL Offs(pZero, 15.821, -6.913, 1.2), v30, z0, tNozzle, \Wobj := wobjPlatform;
		MoveL Offs(pZero, 16.602, -4.717, 1.2), v30, z0, tNozzle, \Wobj := wobjPlatform;
		MoveL Offs(pZero, 16.61, -4.695, 1.2), v30, z0, tNozzle, \Wobj := wobjPlatform;
		MoveL Offs(pZero, 17.084, -2.413, 1.2), v30, z0, tNozzle, \Wobj := wobjPlatform;
		MoveL Offs(pZero, 17.089, -2.39, 1.2), v30, z0, tNozzle, \Wobj := wobjPlatform;
		MoveL Offs(pZero, 17.248, -0.065, 1.2), v30, z0, tNozzle, \Wobj := wobjPlatform;
		MoveL Offs(pZero, 17.249, -0.041, 1.2), v30, z0, tNozzle, \Wobj := wobjPlatform;
		MoveL Offs(pZero, 17.09, 2.284, 1.2), v30, z0, tNozzle, \Wobj := wobjPlatform;
		MoveL Offs(pZero, 17.089, 2.308, 1.2), v30, z0, tNozzle, \Wobj := wobjPlatform;
		MoveL Offs(pZero, 16.615, 4.59, 1.2), v30, z0, tNozzle, \Wobj := wobjPlatform;
		MoveL Offs(pZero, 16.61, 4.613, 1.2), v30, z0, tNozzle, \Wobj := wobjPlatform;
		MoveL Offs(pZero, 15.829, 6.809, 1.2), v30, z0, tNozzle, \Wobj := wobjPlatform;
		MoveL Offs(pZero, 15.821, 6.831, 1.2), v30, z0, tNozzle, \Wobj := wobjPlatform;
		MoveL Offs(pZero, 14.749, 8.901, 1.2), v30, z0, tNozzle, \Wobj := wobjPlatform;
		MoveL Offs(pZero, 14.738, 8.922, 1.2), v30, z0, tNozzle, \Wobj := wobjPlatform;
		MoveL Offs(pZero, 13.394, 10.826, 1.2), v30, z0, tNozzle, \Wobj := wobjPlatform;
		MoveL Offs(pZero, 13.381, 10.845, 1.2), v30, z0, tNozzle, \Wobj := wobjPlatform;
		MoveL Offs(pZero, 11.79, 12.548, 1.2), v30, z0, tNozzle, \Wobj := wobjPlatform;
		MoveL Offs(pZero, 11.774, 12.566, 1.2), v30, z0, tNozzle, \Wobj := wobjPlatform;
		MoveL Offs(pZero, 9.966, 14.036, 1.2), v30, z0, tNozzle, \Wobj := wobjPlatform;
		MoveL Offs(pZero, 9.947, 14.051, 1.2), v30, z0, tNozzle, \Wobj := wobjPlatform;
		MoveL Offs(pZero, 7.956, 15.262, 1.2), v30, z0, tNozzle, \Wobj := wobjPlatform;
		MoveL Offs(pZero, 7.936, 15.275, 1.2), v30, z0, tNozzle, \Wobj := wobjPlatform;
		MoveL Offs(pZero, 5.798, 16.203, 1.2), v30, z0, tNozzle, \Wobj := wobjPlatform;
		MoveL Offs(pZero, 5.776, 16.213, 1.2), v30, z0, tNozzle, \Wobj := wobjPlatform;
		MoveL Offs(pZero, 3.532, 16.841, 1.2), v30, z0, tNozzle, \Wobj := wobjPlatform;
		MoveL Offs(pZero, 3.509, 16.848, 1.2), v30, z0, tNozzle, \Wobj := wobjPlatform;
		MoveL Offs(pZero, 1.201, 17.165, 1.2), v30, z0, tNozzle, \Wobj := wobjPlatform;
		MoveL Offs(pZero, 1.177, 17.168, 1.2), v30, z0, tNozzle, \Wobj := wobjPlatform;
		MoveL Offs(pZero, -1.177, 17.168, 1.2), v30, z0, tNozzle, \Wobj := wobjPlatform;
		MoveL Offs(pZero, -3.486, 16.851, 1.2), v30, z0, tNozzle, \Wobj := wobjPlatform;
		MoveL Offs(pZero, -3.509, 16.848, 1.2), v30, z0, tNozzle, \Wobj := wobjPlatform;
		MoveL Offs(pZero, -5.754, 16.219, 1.2), v30, z0, tNozzle, \Wobj := wobjPlatform;
		MoveL Offs(pZero, -5.776, 16.213, 1.2), v30, z0, tNozzle, \Wobj := wobjPlatform;
		MoveL Offs(pZero, -7.914, 15.284, 1.2), v30, z0, tNozzle, \Wobj := wobjPlatform;
		MoveL Offs(pZero, -7.936, 15.275, 1.2), v30, z0, tNozzle, \Wobj := wobjPlatform;
		MoveL Offs(pZero, -9.927, 14.064, 1.2), v30, z0, tNozzle, \Wobj := wobjPlatform;
		MoveL Offs(pZero, -9.947, 14.051, 1.2), v30, z0, tNozzle, \Wobj := wobjPlatform;
		MoveL Offs(pZero, -11.755, 12.581, 1.2), v30, z0, tNozzle, \Wobj := wobjPlatform;
		MoveL Offs(pZero, -11.774, 12.566, 1.2), v30, z0, tNozzle, \Wobj := wobjPlatform;
		MoveL Offs(pZero, -13.364, 10.863, 1.2), v30, z0, tNozzle, \Wobj := wobjPlatform;
		MoveL Offs(pZero, -13.381, 10.845, 1.2), v30, z0, tNozzle, \Wobj := wobjPlatform;
		MoveL Offs(pZero, -14.724, 8.941, 1.2), v30, z0, tNozzle, \Wobj := wobjPlatform;
		MoveL Offs(pZero, -14.738, 8.922, 1.2), v30, z0, tNozzle, \Wobj := wobjPlatform;
		MoveL Offs(pZero, -15.81, 6.853, 1.2), v30, z0, tNozzle, \Wobj := wobjPlatform;
		MoveL Offs(pZero, -15.821, 6.831, 1.2), v30, z0, tNozzle, \Wobj := wobjPlatform;
		MoveL Offs(pZero, -16.602, 4.636, 1.2), v30, z0, tNozzle, \Wobj := wobjPlatform;
		MoveL Offs(pZero, -16.61, 4.613, 1.2), v30, z0, tNozzle, \Wobj := wobjPlatform;
		MoveL Offs(pZero, -17.084, 2.331, 1.2), v30, z0, tNozzle, \Wobj := wobjPlatform;
		MoveL Offs(pZero, -17.089, 2.308, 1.2), v30, z0, tNozzle, \Wobj := wobjPlatform;
		MoveL Offs(pZero, -17.248, -0.017, 1.2), v30, z0, tNozzle, \Wobj := wobjPlatform;
		MoveL Offs(pZero, -17.249, -0.041, 1.2), v30, z0, tNozzle, \Wobj := wobjPlatform;
		MoveL Offs(pZero, -17.09, -2.366, 1.2), v30, z0, tNozzle, \Wobj := wobjPlatform;
		MoveL Offs(pZero, -17.089, -2.39, 1.2), v30, z0, tNozzle, \Wobj := wobjPlatform;
		MoveL Offs(pZero, -16.615, -4.671, 1.2), v30, z0, tNozzle, \Wobj := wobjPlatform;
		MoveL Offs(pZero, -16.61, -4.695, 1.2), v30, z0, tNozzle, \Wobj := wobjPlatform;
		MoveL Offs(pZero, -15.829, -6.891, 1.2), v30, z0, tNozzle, \Wobj := wobjPlatform;
		MoveL Offs(pZero, -15.821, -6.913, 1.2), v30, z0, tNozzle, \Wobj := wobjPlatform;
		MoveL Offs(pZero, -14.749, -8.982, 1.2), v30, z0, tNozzle, \Wobj := wobjPlatform;
		MoveL Offs(pZero, -14.738, -9.003, 1.2), v30, z0, tNozzle, \Wobj := wobjPlatform;
		MoveL Offs(pZero, -13.394, -10.907, 1.2), v30, z0, tNozzle, \Wobj := wobjPlatform;
		MoveL Offs(pZero, -13.381, -10.927, 1.2), v30, z0, tNozzle, \Wobj := wobjPlatform;
		MoveL Offs(pZero, -11.79, -12.63, 1.2), v30, z0, tNozzle, \Wobj := wobjPlatform;
		MoveL Offs(pZero, -11.774, -12.647, 1.2), v30, z0, tNozzle, \Wobj := wobjPlatform;
		MoveL Offs(pZero, -9.966, -14.118, 1.2), v30, z0, tNozzle, \Wobj := wobjPlatform;
		MoveL Offs(pZero, -9.947, -14.133, 1.2), v30, z0, tNozzle, \Wobj := wobjPlatform;
		MoveL Offs(pZero, -7.956, -15.344, 1.2), v30, z0, tNozzle, \Wobj := wobjPlatform;
		MoveL Offs(pZero, -7.936, -15.356, 1.2), v30, z0, tNozzle, \Wobj := wobjPlatform;
		MoveL Offs(pZero, -5.798, -16.285, 1.2), v30, z0, tNozzle, \Wobj := wobjPlatform;
		MoveL Offs(pZero, -5.776, -16.294, 1.2), v30, z0, tNozzle, \Wobj := wobjPlatform;
		MoveL Offs(pZero, -3.532, -16.923, 1.2), v30, z0, tNozzle, \Wobj := wobjPlatform;
		MoveL Offs(pZero, -3.509, -16.929, 1.2), v30, z0, tNozzle, \Wobj := wobjPlatform;
		MoveL Offs(pZero, -1.201, -17.247, 1.2), v30, z0, tNozzle, \Wobj := wobjPlatform;
		MoveL Offs(pZero, -1.177, -17.25, 1.2), v30, z0, tNozzle, \Wobj := wobjPlatform;
		MoveL Offs(pZero, 1.177, -17.25, 1.2), v30, z0, tNozzle, \Wobj := wobjPlatform;
		MoveL Offs(pZero, 3.486, -16.933, 1.2), v30, z0, tNozzle, \Wobj := wobjPlatform;
		MoveL Offs(pZero, 3.509, -16.929, 1.2), v30, z0, tNozzle, \Wobj := wobjPlatform;
		WaitRob \InPos;
		SetDO DO5_Program_Feed, 0;
		MoveL Offs(pZero, 3.408, -16.439, 1.2), v100, z0, tNozzle, \Wobj := wobjPlatform;
		WaitRob \InPos;
		SetDO DO5_Program_Feed, 1;
		MoveL Offs(pZero, 5.609, -15.822, 1.2), v30, z0, tNozzle, \Wobj := wobjPlatform;
		MoveL Offs(pZero, 7.705, -14.911, 1.2), v30, z0, tNozzle, \Wobj := wobjPlatform;
		MoveL Offs(pZero, 9.658, -13.724, 1.2), v30, z0, tNozzle, \Wobj := wobjPlatform;
		MoveL Offs(pZero, 11.432, -12.281, 1.2), v30, z0, tNozzle, \Wobj := wobjPlatform;
		MoveL Offs(pZero, 12.992, -10.61, 1.2), v30, z0, tNozzle, \Wobj := wobjPlatform;
		MoveL Offs(pZero, 14.31, -8.743, 1.2), v30, z0, tNozzle, \Wobj := wobjPlatform;
		MoveL Offs(pZero, 15.362, -6.713, 1.2), v30, z0, tNozzle, \Wobj := wobjPlatform;
		MoveL Offs(pZero, 16.127, -4.559, 1.2), v30, z0, tNozzle, \Wobj := wobjPlatform;
		MoveL Offs(pZero, 16.592, -2.321, 1.2), v30, z0, tNozzle, \Wobj := wobjPlatform;
		MoveL Offs(pZero, 16.748, -0.041, 1.2), v30, z0, tNozzle, \Wobj := wobjPlatform;
		MoveL Offs(pZero, 16.592, 2.24, 1.2), v30, z0, tNozzle, \Wobj := wobjPlatform;
		MoveL Offs(pZero, 16.127, 4.478, 1.2), v30, z0, tNozzle, \Wobj := wobjPlatform;
		MoveL Offs(pZero, 15.362, 6.632, 1.2), v30, z0, tNozzle, \Wobj := wobjPlatform;
		MoveL Offs(pZero, 14.31, 8.661, 1.2), v30, z0, tNozzle, \Wobj := wobjPlatform;
		MoveL Offs(pZero, 12.992, 10.529, 1.2), v30, z0, tNozzle, \Wobj := wobjPlatform;
		MoveL Offs(pZero, 11.432, 12.199, 1.2), v30, z0, tNozzle, \Wobj := wobjPlatform;
		MoveL Offs(pZero, 9.658, 13.642, 1.2), v30, z0, tNozzle, \Wobj := wobjPlatform;
		MoveL Offs(pZero, 7.705, 14.83, 1.2), v30, z0, tNozzle, \Wobj := wobjPlatform;
		MoveL Offs(pZero, 5.609, 15.74, 1.2), v30, z0, tNozzle, \Wobj := wobjPlatform;
		MoveL Offs(pZero, 3.408, 16.357, 1.2), v30, z0, tNozzle, \Wobj := wobjPlatform;
		MoveL Offs(pZero, 1.143, 16.668, 1.2), v30, z0, tNozzle, \Wobj := wobjPlatform;
		MoveL Offs(pZero, -1.143, 16.668, 1.2), v30, z0, tNozzle, \Wobj := wobjPlatform;
		MoveL Offs(pZero, -3.408, 16.357, 1.2), v30, z0, tNozzle, \Wobj := wobjPlatform;
		MoveL Offs(pZero, -5.609, 15.74, 1.2), v30, z0, tNozzle, \Wobj := wobjPlatform;
		MoveL Offs(pZero, -7.705, 14.83, 1.2), v30, z0, tNozzle, \Wobj := wobjPlatform;
		MoveL Offs(pZero, -9.658, 13.642, 1.2), v30, z0, tNozzle, \Wobj := wobjPlatform;
		MoveL Offs(pZero, -11.432, 12.199, 1.2), v30, z0, tNozzle, \Wobj := wobjPlatform;
		MoveL Offs(pZero, -12.992, 10.529, 1.2), v30, z0, tNozzle, \Wobj := wobjPlatform;
		MoveL Offs(pZero, -14.31, 8.661, 1.2), v30, z0, tNozzle, \Wobj := wobjPlatform;
		MoveL Offs(pZero, -15.362, 6.632, 1.2), v30, z0, tNozzle, \Wobj := wobjPlatform;
		MoveL Offs(pZero, -16.127, 4.478, 1.2), v30, z0, tNozzle, \Wobj := wobjPlatform;
		MoveL Offs(pZero, -16.592, 2.24, 1.2), v30, z0, tNozzle, \Wobj := wobjPlatform;
		MoveL Offs(pZero, -16.748, -0.041, 1.2), v30, z0, tNozzle, \Wobj := wobjPlatform;
		MoveL Offs(pZero, -16.592, -2.321, 1.2), v30, z0, tNozzle, \Wobj := wobjPlatform;
		MoveL Offs(pZero, -16.127, -4.559, 1.2), v30, z0, tNozzle, \Wobj := wobjPlatform;
		MoveL Offs(pZero, -15.362, -6.713, 1.2), v30, z0, tNozzle, \Wobj := wobjPlatform;
		MoveL Offs(pZero, -14.31, -8.743, 1.2), v30, z0, tNozzle, \Wobj := wobjPlatform;
		MoveL Offs(pZero, -12.992, -10.61, 1.2), v30, z0, tNozzle, \Wobj := wobjPlatform;
		MoveL Offs(pZero, -11.432, -12.281, 1.2), v30, z0, tNozzle, \Wobj := wobjPlatform;
		MoveL Offs(pZero, -9.658, -13.724, 1.2), v30, z0, tNozzle, \Wobj := wobjPlatform;
		MoveL Offs(pZero, -7.705, -14.911, 1.2), v30, z0, tNozzle, \Wobj := wobjPlatform;
		MoveL Offs(pZero, -5.609, -15.822, 1.2), v30, z0, tNozzle, \Wobj := wobjPlatform;
		MoveL Offs(pZero, -3.408, -16.439, 1.2), v30, z0, tNozzle, \Wobj := wobjPlatform;
		MoveL Offs(pZero, -1.143, -16.75, 1.2), v30, z0, tNozzle, \Wobj := wobjPlatform;
		MoveL Offs(pZero, 1.143, -16.75, 1.2), v30, z0, tNozzle, \Wobj := wobjPlatform;
		MoveL Offs(pZero, 3.408, -16.439, 1.2), v30, z0, tNozzle, \Wobj := wobjPlatform;
		WaitRob \InPos;
		SetDO DO5_Program_Feed, 0;
		MoveL Offs(pZero, 3.195, -15.963, 1.2), v100, z0, tNozzle, \Wobj := wobjPlatform;
		WaitRob \InPos;
		SetDO DO5_Program_Feed, 1;
		MoveL Offs(pZero, -15.897, 3.128, 1.2), v30, z0, tNozzle, \Wobj := wobjPlatform;
		WaitRob \InPos;
		SetDO DO5_Program_Feed, 0;
		MoveL Offs(pZero, -14.917, 6.391, 1.2), v100, z0, tNozzle, \Wobj := wobjPlatform;
		WaitRob \InPos;
		SetDO DO5_Program_Feed, 1;
		MoveL Offs(pZero, 6.405, -14.931, 1.2), v30, z0, tNozzle, \Wobj := wobjPlatform;
		WaitRob \InPos;
		SetDO DO5_Program_Feed, 0;
		MoveL Offs(pZero, 9.159, -13.442, 1.2), v100, z0, tNozzle, \Wobj := wobjPlatform;
		WaitRob \InPos;
		SetDO DO5_Program_Feed, 1;
		MoveL Offs(pZero, -13.386, 9.103, 1.2), v30, z0, tNozzle, \Wobj := wobjPlatform;
		WaitRob \InPos;
		SetDO DO5_Program_Feed, 0;
		MoveL Offs(pZero, -11.468, 11.428, 1.2), v100, z0, tNozzle, \Wobj := wobjPlatform;
		WaitRob \InPos;
		SetDO DO5_Program_Feed, 1;
		MoveL Offs(pZero, 11.468, -11.509, 1.2), v30, z0, tNozzle, \Wobj := wobjPlatform;
		WaitRob \InPos;
		SetDO DO5_Program_Feed, 0;
		MoveL Offs(pZero, 13.386, -9.185, 1.2), v100, z0, tNozzle, \Wobj := wobjPlatform;
		WaitRob \InPos;
		SetDO DO5_Program_Feed, 1;
		MoveL Offs(pZero, -9.159, 13.361, 1.2), v30, z0, tNozzle, \Wobj := wobjPlatform;
		WaitRob \InPos;
		SetDO DO5_Program_Feed, 0;
		MoveL Offs(pZero, -6.405, 14.85, 1.2), v100, z0, tNozzle, \Wobj := wobjPlatform;
		WaitRob \InPos;
		SetDO DO5_Program_Feed, 1;
		MoveL Offs(pZero, 14.917, -6.472, 1.2), v30, z0, tNozzle, \Wobj := wobjPlatform;
		WaitRob \InPos;
		SetDO DO5_Program_Feed, 0;
		MoveL Offs(pZero, 15.897, -3.21, 1.2), v100, z0, tNozzle, \Wobj := wobjPlatform;
		WaitRob \InPos;
		SetDO DO5_Program_Feed, 1;
		MoveL Offs(pZero, -3.195, 15.882, 1.2), v30, z0, tNozzle, \Wobj := wobjPlatform;
		WaitRob \InPos;
		SetDO DO5_Program_Feed, 0;
		MoveL Offs(pZero, 0.761, 16.169, 1.2), v100, z0, tNozzle, \Wobj := wobjPlatform;
		WaitRob \InPos;
		SetDO DO5_Program_Feed, 1;
		MoveL Offs(pZero, 16.194, 0.736, 1.2), v30, z0, tNozzle, \Wobj := wobjPlatform;
		WaitRob \InPos;
		SetDO DO5_Program_Feed, 0;
		MoveL Offs(pZero, 14.991, 6.181, 1.2), v100, z0, tNozzle, \Wobj := wobjPlatform;
		WaitRob \InPos;
		SetDO DO5_Program_Feed, 1;
		MoveL Offs(pZero, 6.26, 14.913, 1.2), v30, z0, tNozzle, \Wobj := wobjPlatform;
		WaitRob \InPos;
		SetDO DO6_Between_Layer_Retract, 1;
		SetDO DO5_Program_Feed, 0;
		MoveL Offs(pZero, 6.26, 14.913, 11.2), v100, z0, tNozzle, \Wobj := wobjPlatform;
		MoveL Offs(pZero, -16.194, -0.817, 11.2), v100, z0, tNozzle, \Wobj := wobjPlatform;
		WaitRob \InPos;
		SetDO DO6_Between_Layer_Retract, 0;
		MoveL Offs(pZero, -16.194, -0.817, 1.2), v30, z0, tNozzle, \Wobj := wobjPlatform;
		WaitRob \InPos;
		SetDO DO5_Program_Feed, 1;
		MoveL Offs(pZero, -0.761, -16.25, 1.2), v30, z0, tNozzle, \Wobj := wobjPlatform;
		WaitRob \InPos;
		SetDO DO5_Program_Feed, 0;
		MoveL Offs(pZero, -6.26, -14.994, 1.2), v100, z0, tNozzle, \Wobj := wobjPlatform;
		WaitRob \InPos;
		SetDO DO5_Program_Feed, 1;
		MoveL Offs(pZero, -14.991, -6.263, 1.2), v30, z0, tNozzle, \Wobj := wobjPlatform;
		WaitRob \InPos;
		SetDO DO6_Between_Layer_Retract, 1;
		SetDO DO5_Program_Feed, 0;
		MoveL Offs(pZero, -14.991, -6.263, 11.2), v100, z0, tNozzle, \Wobj := wobjPlatform;

		! Layer: 5
		! LayerParams(infillAngleDegrees=45.0, pathWidth=3.0, layerHeight=0.3, infillShiftX=0.0, infillShiftY=0.0, numShells=2, infillOverlap=0.0002)
		! T15
		! M6
		TPWRITE "Layer 5 of -1";
		MoveL Offs(pZero, -17.089, -2.39, 11.5), v100, z0, tNozzle, \Wobj := wobjPlatform;
		MoveL Offs(pZero, -17.089, -2.39, 1.5), v30, z0, tNozzle, \Wobj := wobjPlatform;
		WaitRob \InPos;
		SetDO DO6_Between_Layer_Retract, 0;
		WaitRob \InPos;
		SetDO DO5_Program_Feed, 1;
		MoveL Offs(pZero, -16.617, -4.661, 1.5), v30, z0, tNozzle, \Wobj := wobjPlatform;
		MoveL Offs(pZero, -16.61, -4.695, 1.5), v30, z0, tNozzle, \Wobj := wobjPlatform;
		MoveL Offs(pZero, -15.833, -6.881, 1.5), v30, z0, tNozzle, \Wobj := wobjPlatform;
		MoveL Offs(pZero, -15.821, -6.913, 1.5), v30, z0, tNozzle, \Wobj := wobjPlatform;
		MoveL Offs(pZero, -14.754, -8.973, 1.5), v30, z0, tNozzle, \Wobj := wobjPlatform;
		MoveL Offs(pZero, -14.738, -9.003, 1.5), v30, z0, tNozzle, \Wobj := wobjPlatform;
		MoveL Offs(pZero, -13.4, -10.899, 1.5), v30, z0, tNozzle, \Wobj := wobjPlatform;
		MoveL Offs(pZero, -13.381, -10.927, 1.5), v30, z0, tNozzle, \Wobj := wobjPlatform;
		MoveL Offs(pZero, -11.797, -12.622, 1.5), v30, z0, tNozzle, \Wobj := wobjPlatform;
		MoveL Offs(pZero, -11.774, -12.647, 1.5), v30, z0, tNozzle, \Wobj := wobjPlatform;
		MoveL Offs(pZero, -9.974, -14.112, 1.5), v30, z0, tNozzle, \Wobj := wobjPlatform;
		MoveL Offs(pZero, -9.947, -14.133, 1.5), v30, z0, tNozzle, \Wobj := wobjPlatform;
		MoveL Offs(pZero, -7.965, -15.339, 1.5), v30, z0, tNozzle, \Wobj := wobjPlatform;
		MoveL Offs(pZero, -7.936, -15.356, 1.5), v30, z0, tNozzle, \Wobj := wobjPlatform;
		MoveL Offs(pZero, -5.808, -16.281, 1.5), v30, z0, tNozzle, \Wobj := wobjPlatform;
		MoveL Offs(pZero, -5.776, -16.294, 1.5), v30, z0, tNozzle, \Wobj := wobjPlatform;
		MoveL Offs(pZero, -3.542, -16.92, 1.5), v30, z0, tNozzle, \Wobj := wobjPlatform;
		MoveL Offs(pZero, -3.509, -16.929, 1.5), v30, z0, tNozzle, \Wobj := wobjPlatform;
		MoveL Offs(pZero, -1.211, -17.245, 1.5), v30, z0, tNozzle, \Wobj := wobjPlatform;
		MoveL Offs(pZero, -1.177, -17.25, 1.5), v30, z0, tNozzle, \Wobj := wobjPlatform;
		MoveL Offs(pZero, 1.177, -17.25, 1.5), v30, z0, tNozzle, \Wobj := wobjPlatform;
		MoveL Offs(pZero, 3.476, -16.934, 1.5), v30, z0, tNozzle, \Wobj := wobjPlatform;
		MoveL Offs(pZero, 3.509, -16.929, 1.5), v30, z0, tNozzle, \Wobj := wobjPlatform;
		MoveL Offs(pZero, 5.744, -16.303, 1.5), v30, z0, tNozzle, \Wobj := wobjPlatform;
		MoveL Offs(pZero, 5.776, -16.294, 1.5), v30, z0, tNozzle, \Wobj := wobjPlatform;
		MoveL Offs(pZero, 7.905, -15.37, 1.5), v30, z0, tNozzle, \Wobj := wobjPlatform;
		MoveL Offs(pZero, 7.936, -15.356, 1.5), v30, z0, tNozzle, \Wobj := wobjPlatform;
		MoveL Offs(pZero, 9.918, -14.151, 1.5), v30, z0, tNozzle, \Wobj := wobjPlatform;
		MoveL Offs(pZero, 9.947, -14.133, 1.5), v30, z0, tNozzle, \Wobj := wobjPlatform;
		MoveL Offs(pZero, 11.747, -12.669, 1.5), v30, z0, tNozzle, \Wobj := wobjPlatform;
		MoveL Offs(pZero, 11.774, -12.647, 1.5), v30, z0, tNozzle, \Wobj := wobjPlatform;
		MoveL Offs(pZero, 13.357, -10.952, 1.5), v30, z0, tNozzle, \Wobj := wobjPlatform;
		MoveL Offs(pZero, 13.381, -10.927, 1.5), v30, z0, tNozzle, \Wobj := wobjPlatform;
		MoveL Offs(pZero, 14.719, -9.031, 1.5), v30, z0, tNozzle, \Wobj := wobjPlatform;
		MoveL Offs(pZero, 14.738, -9.003, 1.5), v30, z0, tNozzle, \Wobj := wobjPlatform;
		MoveL Offs(pZero, 15.806, -6.943, 1.5), v30, z0, tNozzle, \Wobj := wobjPlatform;
		MoveL Offs(pZero, 15.821, -6.913, 1.5), v30, z0, tNozzle, \Wobj := wobjPlatform;
		MoveL Offs(pZero, 16.598, -4.727, 1.5), v30, z0, tNozzle, \Wobj := wobjPlatform;
		MoveL Offs(pZero, 16.61, -4.695, 1.5), v30, z0, tNozzle, \Wobj := wobjPlatform;
		MoveL Offs(pZero, 17.082, -2.423, 1.5), v30, z0, tNozzle, \Wobj := wobjPlatform;
		MoveL Offs(pZero, 17.089, -2.39, 1.5), v30, z0, tNozzle, \Wobj := wobjPlatform;
		MoveL Offs(pZero, 17.247, -0.075, 1.5), v30, z0, tNozzle, \Wobj := wobjPlatform;
		MoveL Offs(pZero, 17.249, -0.041, 1.5), v30, z0, tNozzle, \Wobj := wobjPlatform;
		MoveL Offs(pZero, 17.091, 2.274, 1.5), v30, z0, tNozzle, \Wobj := wobjPlatform;
		MoveL Offs(pZero, 17.089, 2.308, 1.5), v30, z0, tNozzle, \Wobj := wobjPlatform;
		MoveL Offs(pZero, 16.617, 4.58, 1.5), v30, z0, tNozzle, \Wobj := wobjPlatform;
		MoveL Offs(pZero, 16.61, 4.613, 1.5), v30, z0, tNozzle, \Wobj := wobjPlatform;
		MoveL Offs(pZero, 15.833, 6.799, 1.5), v30, z0, tNozzle, \Wobj := wobjPlatform;
		MoveL Offs(pZero, 15.821, 6.831, 1.5), v30, z0, tNozzle, \Wobj := wobjPlatform;
		MoveL Offs(pZero, 14.754, 8.891, 1.5), v30, z0, tNozzle, \Wobj := wobjPlatform;
		MoveL Offs(pZero, 14.738, 8.922, 1.5), v30, z0, tNozzle, \Wobj := wobjPlatform;
		MoveL Offs(pZero, 13.4, 10.817, 1.5), v30, z0, tNozzle, \Wobj := wobjPlatform;
		MoveL Offs(pZero, 13.381, 10.845, 1.5), v30, z0, tNozzle, \Wobj := wobjPlatform;
		MoveL Offs(pZero, 11.797, 12.541, 1.5), v30, z0, tNozzle, \Wobj := wobjPlatform;
		MoveL Offs(pZero, 11.774, 12.566, 1.5), v30, z0, tNozzle, \Wobj := wobjPlatform;
		MoveL Offs(pZero, 9.974, 14.03, 1.5), v30, z0, tNozzle, \Wobj := wobjPlatform;
		MoveL Offs(pZero, 9.947, 14.051, 1.5), v30, z0, tNozzle, \Wobj := wobjPlatform;
		MoveL Offs(pZero, 7.965, 15.257, 1.5), v30, z0, tNozzle, \Wobj := wobjPlatform;
		MoveL Offs(pZero, 7.936, 15.275, 1.5), v30, z0, tNozzle, \Wobj := wobjPlatform;
		MoveL Offs(pZero, 5.808, 16.199, 1.5), v30, z0, tNozzle, \Wobj := wobjPlatform;
		MoveL Offs(pZero, 5.776, 16.213, 1.5), v30, z0, tNozzle, \Wobj := wobjPlatform;
		MoveL Offs(pZero, 3.542, 16.839, 1.5), v30, z0, tNozzle, \Wobj := wobjPlatform;
		MoveL Offs(pZero, 3.509, 16.848, 1.5), v30, z0, tNozzle, \Wobj := wobjPlatform;
		MoveL Offs(pZero, 1.211, 17.164, 1.5), v30, z0, tNozzle, \Wobj := wobjPlatform;
		MoveL Offs(pZero, 1.177, 17.168, 1.5), v30, z0, tNozzle, \Wobj := wobjPlatform;
		MoveL Offs(pZero, -1.177, 17.168, 1.5), v30, z0, tNozzle, \Wobj := wobjPlatform;
		MoveL Offs(pZero, -3.476, 16.852, 1.5), v30, z0, tNozzle, \Wobj := wobjPlatform;
		MoveL Offs(pZero, -3.509, 16.848, 1.5), v30, z0, tNozzle, \Wobj := wobjPlatform;
		MoveL Offs(pZero, -5.744, 16.222, 1.5), v30, z0, tNozzle, \Wobj := wobjPlatform;
		MoveL Offs(pZero, -5.776, 16.213, 1.5), v30, z0, tNozzle, \Wobj := wobjPlatform;
		MoveL Offs(pZero, -7.905, 15.288, 1.5), v30, z0, tNozzle, \Wobj := wobjPlatform;
		MoveL Offs(pZero, -7.936, 15.275, 1.5), v30, z0, tNozzle, \Wobj := wobjPlatform;
		MoveL Offs(pZero, -9.918, 14.069, 1.5), v30, z0, tNozzle, \Wobj := wobjPlatform;
		MoveL Offs(pZero, -9.947, 14.051, 1.5), v30, z0, tNozzle, \Wobj := wobjPlatform;
		MoveL Offs(pZero, -11.747, 12.587, 1.5), v30, z0, tNozzle, \Wobj := wobjPlatform;
		MoveL Offs(pZero, -11.774, 12.566, 1.5), v30, z0, tNozzle, \Wobj := wobjPlatform;
		MoveL Offs(pZero, -13.357, 10.87, 1.5), v30, z0, tNozzle, \Wobj := wobjPlatform;
		MoveL Offs(pZero, -13.381, 10.845, 1.5), v30, z0, tNozzle, \Wobj := wobjPlatform;
		MoveL Offs(pZero, -14.719, 8.95, 1.5), v30, z0, tNozzle, \Wobj := wobjPlatform;
		MoveL Offs(pZero, -14.738, 8.922, 1.5), v30, z0, tNozzle, \Wobj := wobjPlatform;
		MoveL Offs(pZero, -15.806, 6.862, 1.5), v30, z0, tNozzle, \Wobj := wobjPlatform;
		MoveL Offs(pZero, -15.821, 6.831, 1.5), v30, z0, tNozzle, \Wobj := wobjPlatform;
		MoveL Offs(pZero, -16.598, 4.645, 1.5), v30, z0, tNozzle, \Wobj := wobjPlatform;
		MoveL Offs(pZero, -16.61, 4.613, 1.5), v30, z0, tNozzle, \Wobj := wobjPlatform;
		MoveL Offs(pZero, -17.082, 2.341, 1.5), v30, z0, tNozzle, \Wobj := wobjPlatform;
		MoveL Offs(pZero, -17.089, 2.308, 1.5), v30, z0, tNozzle, \Wobj := wobjPlatform;
		MoveL Offs(pZero, -17.247, -0.007, 1.5), v30, z0, tNozzle, \Wobj := wobjPlatform;
		MoveL Offs(pZero, -17.249, -0.041, 1.5), v30, z0, tNozzle, \Wobj := wobjPlatform;
		MoveL Offs(pZero, -17.091, -2.356, 1.5), v30, z0, tNozzle, \Wobj := wobjPlatform;
		MoveL Offs(pZero, -17.089, -2.39, 1.5), v30, z0, tNozzle, \Wobj := wobjPlatform;
		WaitRob \InPos;
		SetDO DO5_Program_Feed, 0;
		MoveL Offs(pZero, -16.592, -2.321, 1.5), v100, z0, tNozzle, \Wobj := wobjPlatform;
		WaitRob \InPos;
		SetDO DO5_Program_Feed, 1;
		MoveL Offs(pZero, -16.127, -4.559, 1.5), v30, z0, tNozzle, \Wobj := wobjPlatform;
		MoveL Offs(pZero, -15.362, -6.713, 1.5), v30, z0, tNozzle, \Wobj := wobjPlatform;
		MoveL Offs(pZero, -14.31, -8.743, 1.5), v30, z0, tNozzle, \Wobj := wobjPlatform;
		MoveL Offs(pZero, -12.992, -10.61, 1.5), v30, z0, tNozzle, \Wobj := wobjPlatform;
		MoveL Offs(pZero, -11.432, -12.281, 1.5), v30, z0, tNozzle, \Wobj := wobjPlatform;
		MoveL Offs(pZero, -9.658, -13.724, 1.5), v30, z0, tNozzle, \Wobj := wobjPlatform;
		MoveL Offs(pZero, -7.705, -14.911, 1.5), v30, z0, tNozzle, \Wobj := wobjPlatform;
		MoveL Offs(pZero, -5.609, -15.822, 1.5), v30, z0, tNozzle, \Wobj := wobjPlatform;
		MoveL Offs(pZero, -3.408, -16.439, 1.5), v30, z0, tNozzle, \Wobj := wobjPlatform;
		MoveL Offs(pZero, -1.143, -16.75, 1.5), v30, z0, tNozzle, \Wobj := wobjPlatform;
		MoveL Offs(pZero, 1.143, -16.75, 1.5), v30, z0, tNozzle, \Wobj := wobjPlatform;
		MoveL Offs(pZero, 3.408, -16.439, 1.5), v30, z0, tNozzle, \Wobj := wobjPlatform;
		MoveL Offs(pZero, 5.609, -15.822, 1.5), v30, z0, tNozzle, \Wobj := wobjPlatform;
		MoveL Offs(pZero, 7.705, -14.911, 1.5), v30, z0, tNozzle, \Wobj := wobjPlatform;
		MoveL Offs(pZero, 9.658, -13.724, 1.5), v30, z0, tNozzle, \Wobj := wobjPlatform;
		MoveL Offs(pZero, 11.432, -12.281, 1.5), v30, z0, tNozzle, \Wobj := wobjPlatform;
		MoveL Offs(pZero, 12.992, -10.61, 1.5), v30, z0, tNozzle, \Wobj := wobjPlatform;
		MoveL Offs(pZero, 14.31, -8.743, 1.5), v30, z0, tNozzle, \Wobj := wobjPlatform;
		MoveL Offs(pZero, 15.362, -6.713, 1.5), v30, z0, tNozzle, \Wobj := wobjPlatform;
		MoveL Offs(pZero, 16.127, -4.559, 1.5), v30, z0, tNozzle, \Wobj := wobjPlatform;
		MoveL Offs(pZero, 16.592, -2.321, 1.5), v30, z0, tNozzle, \Wobj := wobjPlatform;
		MoveL Offs(pZero, 16.748, -0.041, 1.5), v30, z0, tNozzle, \Wobj := wobjPlatform;
		MoveL Offs(pZero, 16.592, 2.24, 1.5), v30, z0, tNozzle, \Wobj := wobjPlatform;
		MoveL Offs(pZero, 16.127, 4.478, 1.5), v30, z0, tNozzle, \Wobj := wobjPlatform;
		MoveL Offs(pZero, 15.362, 6.632, 1.5), v30, z0, tNozzle, \Wobj := wobjPlatform;
		MoveL Offs(pZero, 14.31, 8.661, 1.5), v30, z0, tNozzle, \Wobj := wobjPlatform;
		MoveL Offs(pZero, 12.992, 10.529, 1.5), v30, z0, tNozzle, \Wobj := wobjPlatform;
		MoveL Offs(pZero, 11.432, 12.199, 1.5), v30, z0, tNozzle, \Wobj := wobjPlatform;
		MoveL Offs(pZero, 9.658, 13.642, 1.5), v30, z0, tNozzle, \Wobj := wobjPlatform;
		MoveL Offs(pZero, 7.705, 14.83, 1.5), v30, z0, tNozzle, \Wobj := wobjPlatform;
		MoveL Offs(pZero, 5.609, 15.74, 1.5), v30, z0, tNozzle, \Wobj := wobjPlatform;
		MoveL Offs(pZero, 3.408, 16.357, 1.5), v30, z0, tNozzle, \Wobj := wobjPlatform;
		MoveL Offs(pZero, 1.143, 16.668, 1.5), v30, z0, tNozzle, \Wobj := wobjPlatform;
		MoveL Offs(pZero, -1.143, 16.668, 1.5), v30, z0, tNozzle, \Wobj := wobjPlatform;
		MoveL Offs(pZero, -3.408, 16.357, 1.5), v30, z0, tNozzle, \Wobj := wobjPlatform;
		MoveL Offs(pZero, -5.609, 15.74, 1.5), v30, z0, tNozzle, \Wobj := wobjPlatform;
		MoveL Offs(pZero, -7.705, 14.83, 1.5), v30, z0, tNozzle, \Wobj := wobjPlatform;
		MoveL Offs(pZero, -9.658, 13.642, 1.5), v30, z0, tNozzle, \Wobj := wobjPlatform;
		MoveL Offs(pZero, -11.432, 12.199, 1.5), v30, z0, tNozzle, \Wobj := wobjPlatform;
		MoveL Offs(pZero, -12.992, 10.529, 1.5), v30, z0, tNozzle, \Wobj := wobjPlatform;
		MoveL Offs(pZero, -14.31, 8.661, 1.5), v30, z0, tNozzle, \Wobj := wobjPlatform;
		MoveL Offs(pZero, -15.362, 6.632, 1.5), v30, z0, tNozzle, \Wobj := wobjPlatform;
		MoveL Offs(pZero, -16.127, 4.478, 1.5), v30, z0, tNozzle, \Wobj := wobjPlatform;
		MoveL Offs(pZero, -16.592, 2.24, 1.5), v30, z0, tNozzle, \Wobj := wobjPlatform;
		MoveL Offs(pZero, -16.748, -0.041, 1.5), v30, z0, tNozzle, \Wobj := wobjPlatform;
		MoveL Offs(pZero, -16.592, -2.321, 1.5), v30, z0, tNozzle, \Wobj := wobjPlatform;
		WaitRob \InPos;
		SetDO DO5_Program_Feed, 0;
		MoveL Offs(pZero, -15.897, -3.21, 1.5), v100, z0, tNozzle, \Wobj := wobjPlatform;
		WaitRob \InPos;
		SetDO DO5_Program_Feed, 1;
		MoveL Offs(pZero, 3.195, 15.882, 1.5), v30, z0, tNozzle, \Wobj := wobjPlatform;
		WaitRob \InPos;
		SetDO DO5_Program_Feed, 0;
		MoveL Offs(pZero, 6.405, 14.85, 1.5), v100, z0, tNozzle, \Wobj := wobjPlatform;
		WaitRob \InPos;
		SetDO DO5_Program_Feed, 1;
		MoveL Offs(pZero, -14.917, -6.472, 1.5), v30, z0, tNozzle, \Wobj := wobjPlatform;
		WaitRob \InPos;
		SetDO DO5_Program_Feed, 0;
		MoveL Offs(pZero, -13.386, -9.185, 1.5), v100, z0, tNozzle, \Wobj := wobjPlatform;
		WaitRob \InPos;
		SetDO DO5_Program_Feed, 1;
		MoveL Offs(pZero, 9.159, 13.361, 1.5), v30, z0, tNozzle, \Wobj := wobjPlatform;
		WaitRob \InPos;
		SetDO DO5_Program_Feed, 0;
		MoveL Offs(pZero, 11.468, 11.428, 1.5), v100, z0, tNozzle, \Wobj := wobjPlatform;
		WaitRob \InPos;
		SetDO DO5_Program_Feed, 1;
		MoveL Offs(pZero, -11.468, -11.509, 1.5), v30, z0, tNozzle, \Wobj := wobjPlatform;
		WaitRob \InPos;
		SetDO DO5_Program_Feed, 0;
		MoveL Offs(pZero, -9.159, -13.442, 1.5), v100, z0, tNozzle, \Wobj := wobjPlatform;
		WaitRob \InPos;
		SetDO DO5_Program_Feed, 1;
		MoveL Offs(pZero, 13.386, 9.103, 1.5), v30, z0, tNozzle, \Wobj := wobjPlatform;
		WaitRob \InPos;
		SetDO DO5_Program_Feed, 0;
		MoveL Offs(pZero, 14.917, 6.391, 1.5), v100, z0, tNozzle, \Wobj := wobjPlatform;
		WaitRob \InPos;
		SetDO DO5_Program_Feed, 1;
		MoveL Offs(pZero, -6.405, -14.931, 1.5), v30, z0, tNozzle, \Wobj := wobjPlatform;
		WaitRob \InPos;
		SetDO DO5_Program_Feed, 0;
		MoveL Offs(pZero, -3.195, -15.963, 1.5), v100, z0, tNozzle, \Wobj := wobjPlatform;
		WaitRob \InPos;
		SetDO DO5_Program_Feed, 1;
		MoveL Offs(pZero, 15.897, 3.128, 1.5), v30, z0, tNozzle, \Wobj := wobjPlatform;
		WaitRob \InPos;
		SetDO DO5_Program_Feed, 0;
		MoveL Offs(pZero, 16.194, -0.817, 1.5), v100, z0, tNozzle, \Wobj := wobjPlatform;
		WaitRob \InPos;
		SetDO DO5_Program_Feed, 1;
		MoveL Offs(pZero, 0.761, -16.25, 1.5), v30, z0, tNozzle, \Wobj := wobjPlatform;
		WaitRob \InPos;
		SetDO DO5_Program_Feed, 0;
		MoveL Offs(pZero, 6.26, -14.994, 1.5), v100, z0, tNozzle, \Wobj := wobjPlatform;
		WaitRob \InPos;
		SetDO DO5_Program_Feed, 1;
		MoveL Offs(pZero, 14.991, -6.263, 1.5), v30, z0, tNozzle, \Wobj := wobjPlatform;
		WaitRob \InPos;
		SetDO DO6_Between_Layer_Retract, 1;
		SetDO DO5_Program_Feed, 0;
		MoveL Offs(pZero, 14.991, -6.263, 11.5), v100, z0, tNozzle, \Wobj := wobjPlatform;
		MoveL Offs(pZero, -0.761, 16.169, 11.5), v100, z0, tNozzle, \Wobj := wobjPlatform;
		WaitRob \InPos;
		SetDO DO6_Between_Layer_Retract, 0;
		MoveL Offs(pZero, -0.761, 16.169, 1.5), v30, z0, tNozzle, \Wobj := wobjPlatform;
		WaitRob \InPos;
		SetDO DO5_Program_Feed, 1;
		MoveL Offs(pZero, -16.194, 0.736, 1.5), v30, z0, tNozzle, \Wobj := wobjPlatform;
		WaitRob \InPos;
		SetDO DO5_Program_Feed, 0;
		MoveL Offs(pZero, -14.991, 6.181, 1.5), v100, z0, tNozzle, \Wobj := wobjPlatform;
		WaitRob \InPos;
		SetDO DO5_Program_Feed, 1;
		MoveL Offs(pZero, -6.26, 14.913, 1.5), v30, z0, tNozzle, \Wobj := wobjPlatform;
		WaitRob \InPos;
		SetDO DO6_Between_Layer_Retract, 1;
		SetDO DO5_Program_Feed, 0;
		MoveL Offs(pZero, -6.26, 14.913, 11.5), v100, z0, tNozzle, \Wobj := wobjPlatform;

		! Layer: 6
		! LayerParams(infillAngleDegrees=-45.0, pathWidth=3.0, layerHeight=0.3, infillShiftX=0.0, infillShiftY=0.0, numShells=2, infillOverlap=0.0002)
		! T16
		! M6
		TPWRITE "Layer 6 of -1";
		MoveL Offs(pZero, 16.619, 4.57, 11.8), v100, z0, tNozzle, \Wobj := wobjPlatform;
		MoveL Offs(pZero, 16.619, 4.57, 1.8), v30, z0, tNozzle, \Wobj := wobjPlatform;
		WaitRob \InPos;
		SetDO DO6_Between_Layer_Retract, 0;
		WaitRob \InPos;
		SetDO DO5_Program_Feed, 1;
		MoveL Offs(pZero, 16.61, 4.613, 1.8), v30, z0, tNozzle, \Wobj := wobjPlatform;
		MoveL Offs(pZero, 15.836, 6.79, 1.8), v30, z0, tNozzle, \Wobj := wobjPlatform;
		MoveL Offs(pZero, 15.821, 6.831, 1.8), v30, z0, tNozzle, \Wobj := wobjPlatform;
		MoveL Offs(pZero, 14.759, 8.882, 1.8), v30, z0, tNozzle, \Wobj := wobjPlatform;
		MoveL Offs(pZero, 14.738, 8.922, 1.8), v30, z0, tNozzle, \Wobj := wobjPlatform;
		MoveL Offs(pZero, 13.406, 10.809, 1.8), v30, z0, tNozzle, \Wobj := wobjPlatform;
		MoveL Offs(pZero, 13.381, 10.845, 1.8), v30, z0, tNozzle, \Wobj := wobjPlatform;
		MoveL Offs(pZero, 11.804, 12.533, 1.8), v30, z0, tNozzle, \Wobj := wobjPlatform;
		MoveL Offs(pZero, 11.774, 12.566, 1.8), v30, z0, tNozzle, \Wobj := wobjPlatform;
		MoveL Offs(pZero, 9.982, 14.023, 1.8), v30, z0, tNozzle, \Wobj := wobjPlatform;
		MoveL Offs(pZero, 9.947, 14.051, 1.8), v30, z0, tNozzle, \Wobj := wobjPlatform;
		MoveL Offs(pZero, 7.974, 15.252, 1.8), v30, z0, tNozzle, \Wobj := wobjPlatform;
		MoveL Offs(pZero, 7.936, 15.275, 1.8), v30, z0, tNozzle, \Wobj := wobjPlatform;
		MoveL Offs(pZero, 5.817, 16.195, 1.8), v30, z0, tNozzle, \Wobj := wobjPlatform;
		MoveL Offs(pZero, 5.776, 16.213, 1.8), v30, z0, tNozzle, \Wobj := wobjPlatform;
		MoveL Offs(pZero, 3.552, 16.836, 1.8), v30, z0, tNozzle, \Wobj := wobjPlatform;
		MoveL Offs(pZero, 3.509, 16.848, 1.8), v30, z0, tNozzle, \Wobj := wobjPlatform;
		MoveL Offs(pZero, 1.221, 17.162, 1.8), v30, z0, tNozzle, \Wobj := wobjPlatform;
		MoveL Offs(pZero, 1.177, 17.168, 1.8), v30, z0, tNozzle, \Wobj := wobjPlatform;
		MoveL Offs(pZero, -1.177, 17.168, 1.8), v30, z0, tNozzle, \Wobj := wobjPlatform;
		MoveL Offs(pZero, -3.466, 16.854, 1.8), v30, z0, tNozzle, \Wobj := wobjPlatform;
		MoveL Offs(pZero, -3.509, 16.848, 1.8), v30, z0, tNozzle, \Wobj := wobjPlatform;
		MoveL Offs(pZero, -5.734, 16.225, 1.8), v30, z0, tNozzle, \Wobj := wobjPlatform;
		MoveL Offs(pZero, -5.776, 16.213, 1.8), v30, z0, tNozzle, \Wobj := wobjPlatform;
		MoveL Offs(pZero, -7.895, 15.292, 1.8), v30, z0, tNozzle, \Wobj := wobjPlatform;
		MoveL Offs(pZero, -7.936, 15.275, 1.8), v30, z0, tNozzle, \Wobj := wobjPlatform;
		MoveL Offs(pZero, -9.91, 14.074, 1.8), v30, z0, tNozzle, \Wobj := wobjPlatform;
		MoveL Offs(pZero, -9.947, 14.051, 1.8), v30, z0, tNozzle, \Wobj := wobjPlatform;
		MoveL Offs(pZero, -11.739, 12.594, 1.8), v30, z0, tNozzle, \Wobj := wobjPlatform;
		MoveL Offs(pZero, -11.774, 12.566, 1.8), v30, z0, tNozzle, \Wobj := wobjPlatform;
		MoveL Offs(pZero, -13.35, 10.877, 1.8), v30, z0, tNozzle, \Wobj := wobjPlatform;
		MoveL Offs(pZero, -13.381, 10.845, 1.8), v30, z0, tNozzle, \Wobj := wobjPlatform;
		MoveL Offs(pZero, -14.713, 8.958, 1.8), v30, z0, tNozzle, \Wobj := wobjPlatform;
		MoveL Offs(pZero, -14.738, 8.922, 1.8), v30, z0, tNozzle, \Wobj := wobjPlatform;
		MoveL Offs(pZero, -15.801, 6.871, 1.8), v30, z0, tNozzle, \Wobj := wobjPlatform;
		MoveL Offs(pZero, -15.821, 6.831, 1.8), v30, z0, tNozzle, \Wobj := wobjPlatform;
		MoveL Offs(pZero, -16.595, 4.655, 1.8), v30, z0, tNozzle, \Wobj := wobjPlatform;
		MoveL Offs(pZero, -16.61, 4.613, 1.8), v30, z0, tNozzle, \Wobj := wobjPlatform;
		MoveL Offs(pZero, -17.08, 2.351, 1.8), v30, z0, tNozzle, \Wobj := wobjPlatform;
		MoveL Offs(pZero, -17.089, 2.308, 1.8), v30, z0, tNozzle, \Wobj := wobjPlatform;
		MoveL Offs(pZero, -17.246, 0.003, 1.8), v30, z0, tNozzle, \Wobj := wobjPlatform;
		MoveL Offs(pZero, -17.249, -0.041, 1.8), v30, z0, tNozzle, \Wobj := wobjPlatform;
		MoveL Offs(pZero, -17.092, -2.345, 1.8), v30, z0, tNozzle, \Wobj := wobjPlatform;
		MoveL Offs(pZero, -17.089, -2.39, 1.8), v30, z0, tNozzle, \Wobj := wobjPlatform;
		MoveL Offs(pZero, -16.619, -4.651, 1.8), v30, z0, tNozzle, \Wobj := wobjPlatform;
		MoveL Offs(pZero, -16.61, -4.695, 1.8), v30, z0, tNozzle, \Wobj := wobjPlatform;
		MoveL Offs(pZero, -15.836, -6.871, 1.8), v30, z0, tNozzle, \Wobj := wobjPlatform;
		MoveL Offs(pZero, -15.821, -6.913, 1.8), v30, z0, tNozzle, \Wobj := wobjPlatform;
		MoveL Offs(pZero, -14.759, -8.964, 1.8), v30, z0, tNozzle, \Wobj := wobjPlatform;
		MoveL Offs(pZero, -14.738, -9.003, 1.8), v30, z0, tNozzle, \Wobj := wobjPlatform;
		MoveL Offs(pZero, -13.406, -10.89, 1.8), v30, z0, tNozzle, \Wobj := wobjPlatform;
		MoveL Offs(pZero, -13.381, -10.927, 1.8), v30, z0, tNozzle, \Wobj := wobjPlatform;
		MoveL Offs(pZero, -11.804, -12.615, 1.8), v30, z0, tNozzle, \Wobj := wobjPlatform;
		MoveL Offs(pZero, -11.774, -12.647, 1.8), v30, z0, tNozzle, \Wobj := wobjPlatform;
		MoveL Offs(pZero, -9.982, -14.105, 1.8), v30, z0, tNozzle, \Wobj := wobjPlatform;
		MoveL Offs(pZero, -9.947, -14.133, 1.8), v30, z0, tNozzle, \Wobj := wobjPlatform;
		MoveL Offs(pZero, -7.974, -15.333, 1.8), v30, z0, tNozzle, \Wobj := wobjPlatform;
		MoveL Offs(pZero, -7.936, -15.356, 1.8), v30, z0, tNozzle, \Wobj := wobjPlatform;
		MoveL Offs(pZero, -5.817, -16.277, 1.8), v30, z0, tNozzle, \Wobj := wobjPlatform;
		MoveL Offs(pZero, -5.776, -16.294, 1.8), v30, z0, tNozzle, \Wobj := wobjPlatform;
		MoveL Offs(pZero, -3.552, -16.917, 1.8), v30, z0, tNozzle, \Wobj := wobjPlatform;
		MoveL Offs(pZero, -3.509, -16.929, 1.8), v30, z0, tNozzle, \Wobj := wobjPlatform;
		MoveL Offs(pZero, -1.221, -17.244, 1.8), v30, z0, tNozzle, \Wobj := wobjPlatform;
		MoveL Offs(pZero, -1.177, -17.25, 1.8), v30, z0, tNozzle, \Wobj := wobjPlatform;
		MoveL Offs(pZero, 1.177, -17.25, 1.8), v30, z0, tNozzle, \Wobj := wobjPlatform;
		MoveL Offs(pZero, 3.466, -16.935, 1.8), v30, z0, tNozzle, \Wobj := wobjPlatform;
		MoveL Offs(pZero, 3.509, -16.929, 1.8), v30, z0, tNozzle, \Wobj := wobjPlatform;
		MoveL Offs(pZero, 5.734, -16.306, 1.8), v30, z0, tNozzle, \Wobj := wobjPlatform;
		MoveL Offs(pZero, 5.776, -16.294, 1.8), v30, z0, tNozzle, \Wobj := wobjPlatform;
		MoveL Offs(pZero, 7.895, -15.374, 1.8), v30, z0, tNozzle, \Wobj := wobjPlatform;
		MoveL Offs(pZero, 7.936, -15.356, 1.8), v30, z0, tNozzle, \Wobj := wobjPlatform;
		MoveL Offs(pZero, 9.91, -14.156, 1.8), v30, z0, tNozzle, \Wobj := wobjPlatform;
		MoveL Offs(pZero, 9.947, -14.133, 1.8), v30, z0, tNozzle, \Wobj := wobjPlatform;
		MoveL Offs(pZero, 11.739, -12.675, 1.8), v30, z0, tNozzle, \Wobj := wobjPlatform;
		MoveL Offs(pZero, 11.774, -12.647, 1.8), v30, z0, tNozzle, \Wobj := wobjPlatform;
		MoveL Offs(pZero, 13.35, -10.959, 1.8), v30, z0, tNozzle, \Wobj := wobjPlatform;
		MoveL Offs(pZero, 13.381, -10.927, 1.8), v30, z0, tNozzle, \Wobj := wobjPlatform;
		MoveL Offs(pZero, 14.713, -9.04, 1.8), v30, z0, tNozzle, \Wobj := wobjPlatform;
		MoveL Offs(pZero, 14.738, -9.003, 1.8), v30, z0, tNozzle, \Wobj := wobjPlatform;
		MoveL Offs(pZero, 15.801, -6.952, 1.8), v30, z0, tNozzle, \Wobj := wobjPlatform;
		MoveL Offs(pZero, 15.821, -6.913, 1.8), v30, z0, tNozzle, \Wobj := wobjPlatform;
		MoveL Offs(pZero, 16.595, -4.736, 1.8), v30, z0, tNozzle, \Wobj := wobjPlatform;
		MoveL Offs(pZero, 16.61, -4.695, 1.8), v30, z0, tNozzle, \Wobj := wobjPlatform;
		MoveL Offs(pZero, 17.08, -2.433, 1.8), v30, z0, tNozzle, \Wobj := wobjPlatform;
		MoveL Offs(pZero, 17.089, -2.39, 1.8), v30, z0, tNozzle, \Wobj := wobjPlatform;
		MoveL Offs(pZero, 17.246, -0.085, 1.8), v30, z0, tNozzle, \Wobj := wobjPlatform;
		MoveL Offs(pZero, 17.249, -0.041, 1.8), v30, z0, tNozzle, \Wobj := wobjPlatform;
		MoveL Offs(pZero, 17.092, 2.264, 1.8), v30, z0, tNozzle, \Wobj := wobjPlatform;
		MoveL Offs(pZero, 17.089, 2.308, 1.8), v30, z0, tNozzle, \Wobj := wobjPlatform;
		MoveL Offs(pZero, 16.619, 4.57, 1.8), v30, z0, tNozzle, \Wobj := wobjPlatform;
		WaitRob \InPos;
		SetDO DO5_Program_Feed, 0;
		MoveL Offs(pZero, 16.129, 4.468, 1.8), v100, z0, tNozzle, \Wobj := wobjPlatform;
		WaitRob \InPos;
		SetDO DO5_Program_Feed, 1;
		MoveL Offs(pZero, 16.127, 4.478, 1.8), v30, z0, tNozzle, \Wobj := wobjPlatform;
		MoveL Offs(pZero, 15.365, 6.622, 1.8), v30, z0, tNozzle, \Wobj := wobjPlatform;
		MoveL Offs(pZero, 15.362, 6.632, 1.8), v30, z0, tNozzle, \Wobj := wobjPlatform;
		MoveL Offs(pZero, 14.315, 8.652, 1.8), v30, z0, tNozzle, \Wobj := wobjPlatform;
		MoveL Offs(pZero, 14.31, 8.661, 1.8), v30, z0, tNozzle, \Wobj := wobjPlatform;
		MoveL Offs(pZero, 12.998, 10.521, 1.8), v30, z0, tNozzle, \Wobj := wobjPlatform;
		MoveL Offs(pZero, 12.992, 10.529, 1.8), v30, z0, tNozzle, \Wobj := wobjPlatform;
		MoveL Offs(pZero, 11.438, 12.192, 1.8), v30, z0, tNozzle, \Wobj := wobjPlatform;
		MoveL Offs(pZero, 11.432, 12.199, 1.8), v30, z0, tNozzle, \Wobj := wobjPlatform;
		MoveL Offs(pZero, 9.666, 13.636, 1.8), v30, z0, tNozzle, \Wobj := wobjPlatform;
		MoveL Offs(pZero, 9.658, 13.642, 1.8), v30, z0, tNozzle, \Wobj := wobjPlatform;
		MoveL Offs(pZero, 7.714, 14.824, 1.8), v30, z0, tNozzle, \Wobj := wobjPlatform;
		MoveL Offs(pZero, 7.705, 14.83, 1.8), v30, z0, tNozzle, \Wobj := wobjPlatform;
		MoveL Offs(pZero, 5.618, 15.736, 1.8), v30, z0, tNozzle, \Wobj := wobjPlatform;
		MoveL Offs(pZero, 5.609, 15.74, 1.8), v30, z0, tNozzle, \Wobj := wobjPlatform;
		MoveL Offs(pZero, 3.417, 16.354, 1.8), v30, z0, tNozzle, \Wobj := wobjPlatform;
		MoveL Offs(pZero, 3.408, 16.357, 1.8), v30, z0, tNozzle, \Wobj := wobjPlatform;
		MoveL Offs(pZero, 1.153, 16.667, 1.8), v30, z0, tNozzle, \Wobj := wobjPlatform;
		MoveL Offs(pZero, 1.143, 16.668, 1.8), v30, z0, tNozzle, \Wobj := wobjPlatform;
		MoveL Offs(pZero, -1.143, 16.668, 1.8), v30, z0, tNozzle, \Wobj := wobjPlatform;
		MoveL Offs(pZero, -3.398, 16.359, 1.8), v30, z0, tNozzle, \Wobj := wobjPlatform;
		MoveL Offs(pZero, -3.408, 16.357, 1.8), v30, z0, tNozzle, \Wobj := wobjPlatform;
		MoveL Offs(pZero, -5.599, 15.743, 1.8), v30, z0, tNozzle, \Wobj := wobjPlatform;
		MoveL Offs(pZero, -5.609, 15.74, 1.8), v30, z0, tNozzle, \Wobj := wobjPlatform;
		MoveL Offs(pZero, -7.696, 14.834, 1.8), v30, z0, tNozzle, \Wobj := wobjPlatform;
		MoveL Offs(pZero, -7.705, 14.83, 1.8), v30, z0, tNozzle, \Wobj := wobjPlatform;
		MoveL Offs(pZero, -9.65, 13.647, 1.8), v30, z0, tNozzle, \Wobj := wobjPlatform;
		MoveL Offs(pZero, -9.658, 13.642, 1.8), v30, z0, tNozzle, \Wobj := wobjPlatform;
		MoveL Offs(pZero, -11.424, 12.206, 1.8), v30, z0, tNozzle, \Wobj := wobjPlatform;
		MoveL Offs(pZero, -11.432, 12.199, 1.8), v30, z0, tNozzle, \Wobj := wobjPlatform;
		MoveL Offs(pZero, -12.985, 10.536, 1.8), v30, z0, tNozzle, \Wobj := wobjPlatform;
		MoveL Offs(pZero, -12.992, 10.529, 1.8), v30, z0, tNozzle, \Wobj := wobjPlatform;
		MoveL Offs(pZero, -14.304, 8.67, 1.8), v30, z0, tNozzle, \Wobj := wobjPlatform;
		MoveL Offs(pZero, -14.31, 8.661, 1.8), v30, z0, tNozzle, \Wobj := wobjPlatform;
		MoveL Offs(pZero, -15.357, 6.641, 1.8), v30, z0, tNozzle, \Wobj := wobjPlatform;
		MoveL Offs(pZero, -15.362, 6.632, 1.8), v30, z0, tNozzle, \Wobj := wobjPlatform;
		MoveL Offs(pZero, -16.124, 4.487, 1.8), v30, z0, tNozzle, \Wobj := wobjPlatform;
		MoveL Offs(pZero, -16.127, 4.478, 1.8), v30, z0, tNozzle, \Wobj := wobjPlatform;
		MoveL Offs(pZero, -16.59, 2.25, 1.8), v30, z0, tNozzle, \Wobj := wobjPlatform;
		MoveL Offs(pZero, -16.592, 2.24, 1.8), v30, z0, tNozzle, \Wobj := wobjPlatform;
		MoveL Offs(pZero, -16.748, -0.031, 1.8), v30, z0, tNozzle, \Wobj := wobjPlatform;
		MoveL Offs(pZero, -16.748, -0.041, 1.8), v30, z0, tNozzle, \Wobj := wobjPlatform;
		MoveL Offs(pZero, -16.593, -2.311, 1.8), v30, z0, tNozzle, \Wobj := wobjPlatform;
		MoveL Offs(pZero, -16.592, -2.321, 1.8), v30, z0, tNozzle, \Wobj := wobjPlatform;
		MoveL Offs(pZero, -16.129, -4.55, 1.8), v30, z0, tNozzle, \Wobj := wobjPlatform;
		MoveL Offs(pZero, -16.127, -4.559, 1.8), v30, z0, tNozzle, \Wobj := wobjPlatform;
		MoveL Offs(pZero, -15.365, -6.704, 1.8), v30, z0, tNozzle, \Wobj := wobjPlatform;
		MoveL Offs(pZero, -15.362, -6.713, 1.8), v30, z0, tNozzle, \Wobj := wobjPlatform;
		MoveL Offs(pZero, -14.315, -8.734, 1.8), v30, z0, tNozzle, \Wobj := wobjPlatform;
		MoveL Offs(pZero, -14.31, -8.743, 1.8), v30, z0, tNozzle, \Wobj := wobjPlatform;
		MoveL Offs(pZero, -12.998, -10.602, 1.8), v30, z0, tNozzle, \Wobj := wobjPlatform;
		MoveL Offs(pZero, -12.992, -10.61, 1.8), v30, z0, tNozzle, \Wobj := wobjPlatform;
		MoveL Offs(pZero, -11.438, -12.274, 1.8), v30, z0, tNozzle, \Wobj := wobjPlatform;
		MoveL Offs(pZero, -11.432, -12.281, 1.8), v30, z0, tNozzle, \Wobj := wobjPlatform;
		MoveL Offs(pZero, -9.666, -13.717, 1.8), v30, z0, tNozzle, \Wobj := wobjPlatform;
		MoveL Offs(pZero, -9.658, -13.724, 1.8), v30, z0, tNozzle, \Wobj := wobjPlatform;
		MoveL Offs(pZero, -7.714, -14.906, 1.8), v30, z0, tNozzle, \Wobj := wobjPlatform;
		MoveL Offs(pZero, -7.705, -14.911, 1.8), v30, z0, tNozzle, \Wobj := wobjPlatform;
		MoveL Offs(pZero, -5.618, -15.818, 1.8), v30, z0, tNozzle, \Wobj := wobjPlatform;
		MoveL Offs(pZero, -5.609, -15.822, 1.8), v30, z0, tNozzle, \Wobj := wobjPlatform;
		MoveL Offs(pZero, -3.417, -16.436, 1.8), v30, z0, tNozzle, \Wobj := wobjPlatform;
		MoveL Offs(pZero, -3.408, -16.439, 1.8), v30, z0, tNozzle, \Wobj := wobjPlatform;
		MoveL Offs(pZero, -1.153, -16.749, 1.8), v30, z0, tNozzle, \Wobj := wobjPlatform;
		MoveL Offs(pZero, -1.143, -16.75, 1.8), v30, z0, tNozzle, \Wobj := wobjPlatform;
		MoveL Offs(pZero, 1.143, -16.75, 1.8), v30, z0, tNozzle, \Wobj := wobjPlatform;
		MoveL Offs(pZero, 3.398, -16.44, 1.8), v30, z0, tNozzle, \Wobj := wobjPlatform;
		MoveL Offs(pZero, 3.408, -16.439, 1.8), v30, z0, tNozzle, \Wobj := wobjPlatform;
		MoveL Offs(pZero, 5.599, -15.825, 1.8), v30, z0, tNozzle, \Wobj := wobjPlatform;
		MoveL Offs(pZero, 5.609, -15.822, 1.8), v30, z0, tNozzle, \Wobj := wobjPlatform;
		MoveL Offs(pZero, 7.696, -14.915, 1.8), v30, z0, tNozzle, \Wobj := wobjPlatform;
		MoveL Offs(pZero, 7.705, -14.911, 1.8), v30, z0, tNozzle, \Wobj := wobjPlatform;
		MoveL Offs(pZero, 9.65, -13.729, 1.8), v30, z0, tNozzle, \Wobj := wobjPlatform;
		MoveL Offs(pZero, 9.658, -13.724, 1.8), v30, z0, tNozzle, \Wobj := wobjPlatform;
		MoveL Offs(pZero, 11.424, -12.287, 1.8), v30, z0, tNozzle, \Wobj := wobjPlatform;
		MoveL Offs(pZero, 11.432, -12.281, 1.8), v30, z0, tNozzle, \Wobj := wobjPlatform;
		MoveL Offs(pZero, 12.985, -10.618, 1.8), v30, z0, tNozzle, \Wobj := wobjPlatform;
		MoveL Offs(pZero, 12.992, -10.61, 1.8), v30, z0, tNozzle, \Wobj := wobjPlatform;
		MoveL Offs(pZero, 14.304, -8.751, 1.8), v30, z0, tNozzle, \Wobj := wobjPlatform;
		MoveL Offs(pZero, 14.31, -8.743, 1.8), v30, z0, tNozzle, \Wobj := wobjPlatform;
		MoveL Offs(pZero, 15.357, -6.722, 1.8), v30, z0, tNozzle, \Wobj := wobjPlatform;
		MoveL Offs(pZero, 15.362, -6.713, 1.8), v30, z0, tNozzle, \Wobj := wobjPlatform;
		MoveL Offs(pZero, 16.124, -4.569, 1.8), v30, z0, tNozzle, \Wobj := wobjPlatform;
		MoveL Offs(pZero, 16.127, -4.559, 1.8), v30, z0, tNozzle, \Wobj := wobjPlatform;
		MoveL Offs(pZero, 16.59, -2.331, 1.8), v30, z0, tNozzle, \Wobj := wobjPlatform;
		MoveL Offs(pZero, 16.592, -2.321, 1.8), v30, z0, tNozzle, \Wobj := wobjPlatform;
		MoveL Offs(pZero, 16.748, -0.051, 1.8), v30, z0, tNozzle, \Wobj := wobjPlatform;
		MoveL Offs(pZero, 16.748, -0.041, 1.8), v30, z0, tNozzle, \Wobj := wobjPlatform;
		MoveL Offs(pZero, 16.593, 2.23, 1.8), v30, z0, tNozzle, \Wobj := wobjPlatform;
		MoveL Offs(pZero, 16.592, 2.24, 1.8), v30, z0, tNozzle, \Wobj := wobjPlatform;
		MoveL Offs(pZero, 16.129, 4.468, 1.8), v30, z0, tNozzle, \Wobj := wobjPlatform;
		WaitRob \InPos;
		SetDO DO5_Program_Feed, 0;
		MoveL Offs(pZero, 14.991, 6.181, 1.8), v100, z0, tNozzle, \Wobj := wobjPlatform;
		WaitRob \InPos;
		SetDO DO5_Program_Feed, 1;
		MoveL Offs(pZero, 6.26, 14.913, 1.8), v30, z0, tNozzle, \Wobj := wobjPlatform;
		WaitRob \InPos;
		SetDO DO5_Program_Feed, 0;
		MoveL Offs(pZero, 0.761, 16.169, 1.8), v100, z0, tNozzle, \Wobj := wobjPlatform;
		WaitRob \InPos;
		SetDO DO5_Program_Feed, 1;
		MoveL Offs(pZero, 16.194, 0.736, 1.8), v30, z0, tNozzle, \Wobj := wobjPlatform;
		WaitRob \InPos;
		SetDO DO5_Program_Feed, 0;
		MoveL Offs(pZero, 15.897, -3.21, 1.8), v100, z0, tNozzle, \Wobj := wobjPlatform;
		WaitRob \InPos;
		SetDO DO5_Program_Feed, 1;
		MoveL Offs(pZero, -3.195, 15.882, 1.8), v30, z0, tNozzle, \Wobj := wobjPlatform;
		WaitRob \InPos;
		SetDO DO5_Program_Feed, 0;
		MoveL Offs(pZero, -6.405, 14.85, 1.8), v100, z0, tNozzle, \Wobj := wobjPlatform;
		WaitRob \InPos;
		SetDO DO5_Program_Feed, 1;
		MoveL Offs(pZero, 14.917, -6.472, 1.8), v30, z0, tNozzle, \Wobj := wobjPlatform;
		WaitRob \InPos;
		SetDO DO5_Program_Feed, 0;
		MoveL Offs(pZero, 13.386, -9.185, 1.8), v100, z0, tNozzle, \Wobj := wobjPlatform;
		WaitRob \InPos;
		SetDO DO5_Program_Feed, 1;
		MoveL Offs(pZero, -9.159, 13.361, 1.8), v30, z0, tNozzle, \Wobj := wobjPlatform;
		WaitRob \InPos;
		SetDO DO5_Program_Feed, 0;
		MoveL Offs(pZero, -11.468, 11.428, 1.8), v100, z0, tNozzle, \Wobj := wobjPlatform;
		WaitRob \InPos;
		SetDO DO5_Program_Feed, 1;
		MoveL Offs(pZero, 11.468, -11.509, 1.8), v30, z0, tNozzle, \Wobj := wobjPlatform;
		WaitRob \InPos;
		SetDO DO5_Program_Feed, 0;
		MoveL Offs(pZero, 9.159, -13.442, 1.8), v100, z0, tNozzle, \Wobj := wobjPlatform;
		WaitRob \InPos;
		SetDO DO5_Program_Feed, 1;
		MoveL Offs(pZero, -13.386, 9.103, 1.8), v30, z0, tNozzle, \Wobj := wobjPlatform;
		WaitRob \InPos;
		SetDO DO5_Program_Feed, 0;
		MoveL Offs(pZero, -14.917, 6.391, 1.8), v100, z0, tNozzle, \Wobj := wobjPlatform;
		WaitRob \InPos;
		SetDO DO5_Program_Feed, 1;
		MoveL Offs(pZero, 6.405, -14.931, 1.8), v30, z0, tNozzle, \Wobj := wobjPlatform;
		WaitRob \InPos;
		SetDO DO5_Program_Feed, 0;
		MoveL Offs(pZero, 3.195, -15.963, 1.8), v100, z0, tNozzle, \Wobj := wobjPlatform;
		WaitRob \InPos;
		SetDO DO5_Program_Feed, 1;
		MoveL Offs(pZero, -15.897, 3.128, 1.8), v30, z0, tNozzle, \Wobj := wobjPlatform;
		WaitRob \InPos;
		SetDO DO5_Program_Feed, 0;
		MoveL Offs(pZero, -16.194, -0.817, 1.8), v100, z0, tNozzle, \Wobj := wobjPlatform;
		WaitRob \InPos;
		SetDO DO5_Program_Feed, 1;
		MoveL Offs(pZero, -0.761, -16.25, 1.8), v30, z0, tNozzle, \Wobj := wobjPlatform;
		WaitRob \InPos;
		SetDO DO5_Program_Feed, 0;
		MoveL Offs(pZero, -6.26, -14.994, 1.8), v100, z0, tNozzle, \Wobj := wobjPlatform;
		WaitRob \InPos;
		SetDO DO5_Program_Feed, 1;
		MoveL Offs(pZero, -14.991, -6.263, 1.8), v30, z0, tNozzle, \Wobj := wobjPlatform;
		WaitRob \InPos;
		SetDO DO6_Between_Layer_Retract, 1;
		SetDO DO5_Program_Feed, 0;
		MoveL Offs(pZero, -14.991, -6.263, 11.8), v100, z0, tNozzle, \Wobj := wobjPlatform;

		! Layer: 7
		! LayerParams(infillAngleDegrees=45.0, pathWidth=3.0, layerHeight=0.3, infillShiftX=0.0, infillShiftY=0.0, numShells=2, infillOverlap=0.0002)
		! T17
		! M6
		TPWRITE "Layer 7 of -1";
		MoveL Offs(pZero, -17.246, 0.014, 12.1), v100, z0, tNozzle, \Wobj := wobjPlatform;
		MoveL Offs(pZero, -17.246, 0.014, 2.1), v30, z0, tNozzle, \Wobj := wobjPlatform;
		WaitRob \InPos;
		SetDO DO6_Between_Layer_Retract, 0;
		WaitRob \InPos;
		SetDO DO5_Program_Feed, 1;
		MoveL Offs(pZero, -17.249, -0.041, 2.1), v30, z0, tNozzle, \Wobj := wobjPlatform;
		MoveL Offs(pZero, -17.092, -2.335, 2.1), v30, z0, tNozzle, \Wobj := wobjPlatform;
		MoveL Offs(pZero, -17.089, -2.39, 2.1), v30, z0, tNozzle, \Wobj := wobjPlatform;
		MoveL Offs(pZero, -16.621, -4.641, 2.1), v30, z0, tNozzle, \Wobj := wobjPlatform;
		MoveL Offs(pZero, -16.61, -4.695, 2.1), v30, z0, tNozzle, \Wobj := wobjPlatform;
		MoveL Offs(pZero, -15.84, -6.862, 2.1), v30, z0, tNozzle, \Wobj := wobjPlatform;
		MoveL Offs(pZero, -15.821, -6.913, 2.1), v30, z0, tNozzle, \Wobj := wobjPlatform;
		MoveL Offs(pZero, -14.763, -8.955, 2.1), v30, z0, tNozzle, \Wobj := wobjPlatform;
		MoveL Offs(pZero, -14.738, -9.003, 2.1), v30, z0, tNozzle, \Wobj := wobjPlatform;
		MoveL Offs(pZero, -13.412, -10.882, 2.1), v30, z0, tNozzle, \Wobj := wobjPlatform;
		MoveL Offs(pZero, -13.381, -10.927, 2.1), v30, z0, tNozzle, \Wobj := wobjPlatform;
		MoveL Offs(pZero, -11.811, -12.607, 2.1), v30, z0, tNozzle, \Wobj := wobjPlatform;
		MoveL Offs(pZero, -11.774, -12.647, 2.1), v30, z0, tNozzle, \Wobj := wobjPlatform;
		MoveL Offs(pZero, -9.99, -14.099, 2.1), v30, z0, tNozzle, \Wobj := wobjPlatform;
		MoveL Offs(pZero, -9.947, -14.133, 2.1), v30, z0, tNozzle, \Wobj := wobjPlatform;
		MoveL Offs(pZero, -7.982, -15.328, 2.1), v30, z0, tNozzle, \Wobj := wobjPlatform;
		MoveL Offs(pZero, -7.936, -15.356, 2.1), v30, z0, tNozzle, \Wobj := wobjPlatform;
		MoveL Offs(pZero, -5.827, -16.273, 2.1), v30, z0, tNozzle, \Wobj := wobjPlatform;
		MoveL Offs(pZero, -5.776, -16.294, 2.1), v30, z0, tNozzle, \Wobj := wobjPlatform;
		MoveL Offs(pZero, -3.562, -16.915, 2.1), v30, z0, tNozzle, \Wobj := wobjPlatform;
		MoveL Offs(pZero, -3.509, -16.929, 2.1), v30, z0, tNozzle, \Wobj := wobjPlatform;
		MoveL Offs(pZero, -1.231, -17.243, 2.1), v30, z0, tNozzle, \Wobj := wobjPlatform;
		MoveL Offs(pZero, -1.177, -17.25, 2.1), v30, z0, tNozzle, \Wobj := wobjPlatform;
		MoveL Offs(pZero, 1.177, -17.25, 2.1), v30, z0, tNozzle, \Wobj := wobjPlatform;
		MoveL Offs(pZero, 3.455, -16.937, 2.1), v30, z0, tNozzle, \Wobj := wobjPlatform;
		MoveL Offs(pZero, 3.509, -16.929, 2.1), v30, z0, tNozzle, \Wobj := wobjPlatform;
		MoveL Offs(pZero, 5.724, -16.309, 2.1), v30, z0, tNozzle, \Wobj := wobjPlatform;
		MoveL Offs(pZero, 5.776, -16.294, 2.1), v30, z0, tNozzle, \Wobj := wobjPlatform;
		MoveL Offs(pZero, 7.886, -15.378, 2.1), v30, z0, tNozzle, \Wobj := wobjPlatform;
		MoveL Offs(pZero, 7.936, -15.356, 2.1), v30, z0, tNozzle, \Wobj := wobjPlatform;
		MoveL Offs(pZero, 9.901, -14.161, 2.1), v30, z0, tNozzle, \Wobj := wobjPlatform;
		MoveL Offs(pZero, 9.947, -14.133, 2.1), v30, z0, tNozzle, \Wobj := wobjPlatform;
		MoveL Offs(pZero, 11.731, -12.682, 2.1), v30, z0, tNozzle, \Wobj := wobjPlatform;
		MoveL Offs(pZero, 11.774, -12.647, 2.1), v30, z0, tNozzle, \Wobj := wobjPlatform;
		MoveL Offs(pZero, 13.343, -10.967, 2.1), v30, z0, tNozzle, \Wobj := wobjPlatform;
		MoveL Offs(pZero, 13.381, -10.927, 2.1), v30, z0, tNozzle, \Wobj := wobjPlatform;
		MoveL Offs(pZero, 14.707, -9.048, 2.1), v30, z0, tNozzle, \Wobj := wobjPlatform;
		MoveL Offs(pZero, 14.738, -9.003, 2.1), v30, z0, tNozzle, \Wobj := wobjPlatform;
		MoveL Offs(pZero, 15.796, -6.961, 2.1), v30, z0, tNozzle, \Wobj := wobjPlatform;
		MoveL Offs(pZero, 15.821, -6.913, 2.1), v30, z0, tNozzle, \Wobj := wobjPlatform;
		MoveL Offs(pZero, 16.591, -4.746, 2.1), v30, z0, tNozzle, \Wobj := wobjPlatform;
		MoveL Offs(pZero, 16.61, -4.695, 2.1), v30, z0, tNozzle, \Wobj := wobjPlatform;
		MoveL Offs(pZero, 17.078, -2.443, 2.1), v30, z0, tNozzle, \Wobj := wobjPlatform;
		MoveL Offs(pZero, 17.089, -2.39, 2.1), v30, z0, tNozzle, \Wobj := wobjPlatform;
		MoveL Offs(pZero, 17.246, -0.095, 2.1), v30, z0, tNozzle, \Wobj := wobjPlatform;
		MoveL Offs(pZero, 17.249, -0.041, 2.1), v30, z0, tNozzle, \Wobj := wobjPlatform;
		MoveL Offs(pZero, 17.092, 2.254, 2.1), v30, z0, tNozzle, \Wobj := wobjPlatform;
		MoveL Offs(pZero, 17.089, 2.308, 2.1), v30, z0, tNozzle, \Wobj := wobjPlatform;
		MoveL Offs(pZero, 16.621, 4.56, 2.1), v30, z0, tNozzle, \Wobj := wobjPlatform;
		MoveL Offs(pZero, 16.61, 4.613, 2.1), v30, z0, tNozzle, \Wobj := wobjPlatform;
		MoveL Offs(pZero, 15.84, 6.78, 2.1), v30, z0, tNozzle, \Wobj := wobjPlatform;
		MoveL Offs(pZero, 15.821, 6.831, 2.1), v30, z0, tNozzle, \Wobj := wobjPlatform;
		MoveL Offs(pZero, 14.763, 8.873, 2.1), v30, z0, tNozzle, \Wobj := wobjPlatform;
		MoveL Offs(pZero, 14.738, 8.922, 2.1), v30, z0, tNozzle, \Wobj := wobjPlatform;
		MoveL Offs(pZero, 13.412, 10.801, 2.1), v30, z0, tNozzle, \Wobj := wobjPlatform;
		MoveL Offs(pZero, 13.381, 10.845, 2.1), v30, z0, tNozzle, \Wobj := wobjPlatform;
		MoveL Offs(pZero, 11.811, 12.526, 2.1), v30, z0, tNozzle, \Wobj := wobjPlatform;
		MoveL Offs(pZero, 11.774, 12.566, 2.1), v30, z0, tNozzle, \Wobj := wobjPlatform;
		MoveL Offs(pZero, 9.99, 14.017, 2.1), v30, z0, tNozzle, \Wobj := wobjPlatform;
		MoveL Offs(pZero, 9.947, 14.051, 2.1), v30, z0, tNozzle, \Wobj := wobjPlatform;
		MoveL Offs(pZero, 7.982, 15.246, 2.1), v30, z0, tNozzle, \Wobj := wobjPlatform;
		MoveL Offs(pZero, 7.936, 15.275, 2.1), v30, z0, tNozzle, \Wobj := wobjPlatform;
		MoveL Offs(pZero, 5.827, 16.191, 2.1), v30, z0, tNozzle, \Wobj := wobjPlatform;
		MoveL Offs(pZero, 5.776, 16.213, 2.1), v30, z0, tNozzle, \Wobj := wobjPlatform;
		MoveL Offs(pZero, 3.562, 16.833, 2.1), v30, z0, tNozzle, \Wobj := wobjPlatform;
		MoveL Offs(pZero, 3.509, 16.848, 2.1), v30, z0, tNozzle, \Wobj := wobjPlatform;
		MoveL Offs(pZero, 1.231, 17.161, 2.1), v30, z0, tNozzle, \Wobj := wobjPlatform;
		MoveL Offs(pZero, 1.177, 17.168, 2.1), v30, z0, tNozzle, \Wobj := wobjPlatform;
		MoveL Offs(pZero, -1.177, 17.168, 2.1), v30, z0, tNozzle, \Wobj := wobjPlatform;
		MoveL Offs(pZero, -3.455, 16.855, 2.1), v30, z0, tNozzle, \Wobj := wobjPlatform;
		MoveL Offs(pZero, -3.509, 16.848, 2.1), v30, z0, tNozzle, \Wobj := wobjPlatform;
		MoveL Offs(pZero, -5.724, 16.227, 2.1), v30, z0, tNozzle, \Wobj := wobjPlatform;
		MoveL Offs(pZero, -5.776, 16.213, 2.1), v30, z0, tNozzle, \Wobj := wobjPlatform;
		MoveL Offs(pZero, -7.886, 15.296, 2.1), v30, z0, tNozzle, \Wobj := wobjPlatform;
		MoveL Offs(pZero, -7.936, 15.275, 2.1), v30, z0, tNozzle, \Wobj := wobjPlatform;
		MoveL Offs(pZero, -9.901, 14.08, 2.1), v30, z0, tNozzle, \Wobj := wobjPlatform;
		MoveL Offs(pZero, -9.947, 14.051, 2.1), v30, z0, tNozzle, \Wobj := wobjPlatform;
		MoveL Offs(pZero, -11.731, 12.6, 2.1), v30, z0, tNozzle, \Wobj := wobjPlatform;
		MoveL Offs(pZero, -11.774, 12.566, 2.1), v30, z0, tNozzle, \Wobj := wobjPlatform;
		MoveL Offs(pZero, -13.343, 10.885, 2.1), v30, z0, tNozzle, \Wobj := wobjPlatform;
		MoveL Offs(pZero, -13.381, 10.845, 2.1), v30, z0, tNozzle, \Wobj := wobjPlatform;
		MoveL Offs(pZero, -14.707, 8.966, 2.1), v30, z0, tNozzle, \Wobj := wobjPlatform;
		MoveL Offs(pZero, -14.738, 8.922, 2.1), v30, z0, tNozzle, \Wobj := wobjPlatform;
		MoveL Offs(pZero, -15.796, 6.88, 2.1), v30, z0, tNozzle, \Wobj := wobjPlatform;
		MoveL Offs(pZero, -15.821, 6.831, 2.1), v30, z0, tNozzle, \Wobj := wobjPlatform;
		MoveL Offs(pZero, -16.591, 4.664, 2.1), v30, z0, tNozzle, \Wobj := wobjPlatform;
		MoveL Offs(pZero, -16.61, 4.613, 2.1), v30, z0, tNozzle, \Wobj := wobjPlatform;
		MoveL Offs(pZero, -17.078, 2.361, 2.1), v30, z0, tNozzle, \Wobj := wobjPlatform;
		MoveL Offs(pZero, -17.089, 2.308, 2.1), v30, z0, tNozzle, \Wobj := wobjPlatform;
		MoveL Offs(pZero, -17.246, 0.014, 2.1), v30, z0, tNozzle, \Wobj := wobjPlatform;
		WaitRob \InPos;
		SetDO DO5_Program_Feed, 0;
		MoveL Offs(pZero, -16.747, -0.02, 2.1), v100, z0, tNozzle, \Wobj := wobjPlatform;
		WaitRob \InPos;
		SetDO DO5_Program_Feed, 1;
		MoveL Offs(pZero, -16.748, -0.041, 2.1), v30, z0, tNozzle, \Wobj := wobjPlatform;
		MoveL Offs(pZero, -16.594, -2.301, 2.1), v30, z0, tNozzle, \Wobj := wobjPlatform;
		MoveL Offs(pZero, -16.592, -2.321, 2.1), v30, z0, tNozzle, \Wobj := wobjPlatform;
		MoveL Offs(pZero, -16.131, -4.539, 2.1), v30, z0, tNozzle, \Wobj := wobjPlatform;
		MoveL Offs(pZero, -16.127, -4.559, 2.1), v30, z0, tNozzle, \Wobj := wobjPlatform;
		MoveL Offs(pZero, -15.368, -6.694, 2.1), v30, z0, tNozzle, \Wobj := wobjPlatform;
		MoveL Offs(pZero, -15.362, -6.713, 2.1), v30, z0, tNozzle, \Wobj := wobjPlatform;
		MoveL Offs(pZero, -14.319, -8.725, 2.1), v30, z0, tNozzle, \Wobj := wobjPlatform;
		MoveL Offs(pZero, -14.31, -8.743, 2.1), v30, z0, tNozzle, \Wobj := wobjPlatform;
