MODULE MainModule
	PROC main()
		Heat;
		SetDO DO1_Auto_Mode, 1;

		

		! Part number: 1
		! PartParams(extrusionFactor=0.98, printSpeed=30, shiftX=-24.0, shiftY=-14.0, shiftZ=0.0, numLayers=-1, designType=0, brims=2, horizontalExpansion=0.0, randomStartLocation=1)

		! Layer: 1
		! LayerParams(infillAngleDegrees=90.0, pathWidth=3.0, layerHeight=0.3, infillShiftX=0.0, infillShiftY=0.0, numShells=2, infillOverlap=0.0002)
		! T11
		! M6
		TPWRITE "Layer 1 of -1";
		MoveL Offs(pZero, 24.131, -13.787, 5.3), v100, z0, tNozzle, \Wobj := wobjPlatform;
		MoveL Offs(pZero, 24.131, -13.787, 0.3), v30, z0, tNozzle, \Wobj := wobjPlatform;
		WaitRob \InPos;
		SetDO DO5_Program_Feed, 1;
		MoveL Offs(pZero, 24.118, -13.886, 0.3), v30, z0, tNozzle, \Wobj := wobjPlatform;
		MoveL Offs(pZero, 24.096, -13.983, 0.3), v30, z0, tNozzle, \Wobj := wobjPlatform;
		MoveL Offs(pZero, 24.064, -14.078, 0.3), v30, z0, tNozzle, \Wobj := wobjPlatform;
		MoveL Offs(pZero, 24.023, -14.169, 0.3), v30, z0, tNozzle, \Wobj := wobjPlatform;
		MoveL Offs(pZero, 23.973, -14.255, 0.3), v30, z0, tNozzle, \Wobj := wobjPlatform;
		MoveL Offs(pZero, 23.915, -14.336, 0.3), v30, z0, tNozzle, \Wobj := wobjPlatform;
		MoveL Offs(pZero, 23.849, -14.411, 0.3), v30, z0, tNozzle, \Wobj := wobjPlatform;
		MoveL Offs(pZero, 23.776, -14.479, 0.3), v30, z0, tNozzle, \Wobj := wobjPlatform;
		MoveL Offs(pZero, 23.697, -14.539, 0.3), v30, z0, tNozzle, \Wobj := wobjPlatform;
		MoveL Offs(pZero, 23.612, -14.591, 0.3), v30, z0, tNozzle, \Wobj := wobjPlatform;
		MoveL Offs(pZero, 23.522, -14.634, 0.3), v30, z0, tNozzle, \Wobj := wobjPlatform;
		MoveL Offs(pZero, 23.428, -14.668, 0.3), v30, z0, tNozzle, \Wobj := wobjPlatform;
		MoveL Offs(pZero, 23.332, -14.693, 0.3), v30, z0, tNozzle, \Wobj := wobjPlatform;
		MoveL Offs(pZero, 23.233, -14.708, 0.3), v30, z0, tNozzle, \Wobj := wobjPlatform;
		MoveL Offs(pZero, 23.133, -14.713, 0.3), v30, z0, tNozzle, \Wobj := wobjPlatform;
		MoveL Offs(pZero, -23.502, -14.713, 0.3), v30, z0, tNozzle, \Wobj := wobjPlatform;
		MoveL Offs(pZero, -23.602, -14.708, 0.3), v30, z0, tNozzle, \Wobj := wobjPlatform;
		MoveL Offs(pZero, -23.7, -14.693, 0.3), v30, z0, tNozzle, \Wobj := wobjPlatform;
		MoveL Offs(pZero, -23.797, -14.668, 0.3), v30, z0, tNozzle, \Wobj := wobjPlatform;
		MoveL Offs(pZero, -23.89, -14.634, 0.3), v30, z0, tNozzle, \Wobj := wobjPlatform;
		MoveL Offs(pZero, -23.98, -14.591, 0.3), v30, z0, tNozzle, \Wobj := wobjPlatform;
		MoveL Offs(pZero, -24.065, -14.539, 0.3), v30, z0, tNozzle, \Wobj := wobjPlatform;
		MoveL Offs(pZero, -24.145, -14.479, 0.3), v30, z0, tNozzle, \Wobj := wobjPlatform;
		MoveL Offs(pZero, -24.218, -14.411, 0.3), v30, z0, tNozzle, \Wobj := wobjPlatform;
		MoveL Offs(pZero, -24.284, -14.336, 0.3), v30, z0, tNozzle, \Wobj := wobjPlatform;
		MoveL Offs(pZero, -24.342, -14.255, 0.3), v30, z0, tNozzle, \Wobj := wobjPlatform;
		MoveL Offs(pZero, -24.392, -14.169, 0.3), v30, z0, tNozzle, \Wobj := wobjPlatform;
		MoveL Offs(pZero, -24.433, -14.078, 0.3), v30, z0, tNozzle, \Wobj := wobjPlatform;
		MoveL Offs(pZero, -24.465, -13.983, 0.3), v30, z0, tNozzle, \Wobj := wobjPlatform;
		MoveL Offs(pZero, -24.487, -13.886, 0.3), v30, z0, tNozzle, \Wobj := wobjPlatform;
		MoveL Offs(pZero, -24.499, -13.787, 0.3), v30, z0, tNozzle, \Wobj := wobjPlatform;
		MoveL Offs(pZero, -24.502, -13.688, 0.3), v30, z0, tNozzle, \Wobj := wobjPlatform;
		MoveL Offs(pZero, -24.494, -13.588, 0.3), v30, z0, tNozzle, \Wobj := wobjPlatform;
		MoveL Offs(pZero, -24.477, -13.49, 0.3), v30, z0, tNozzle, \Wobj := wobjPlatform;
		MoveL Offs(pZero, -24.45, -13.394, 0.3), v30, z0, tNozzle, \Wobj := wobjPlatform;
		MoveL Offs(pZero, -24.414, -13.301, 0.3), v30, z0, tNozzle, \Wobj := wobjPlatform;
		MoveL Offs(pZero, -24.368, -13.212, 0.3), v30, z0, tNozzle, \Wobj := wobjPlatform;
		MoveL Offs(pZero, -1.126, 27.044, 0.3), v30, z0, tNozzle, \Wobj := wobjPlatform;
		MoveL Offs(pZero, -1.05, 27.175, 0.3), v30, z0, tNozzle, \Wobj := wobjPlatform;
		MoveL Offs(pZero, -0.996, 27.259, 0.3), v30, z0, tNozzle, \Wobj := wobjPlatform;
		MoveL Offs(pZero, -0.934, 27.337, 0.3), v30, z0, tNozzle, \Wobj := wobjPlatform;
		MoveL Offs(pZero, -0.864, 27.408, 0.3), v30, z0, tNozzle, \Wobj := wobjPlatform;
		MoveL Offs(pZero, -0.788, 27.472, 0.3), v30, z0, tNozzle, \Wobj := wobjPlatform;
		MoveL Offs(pZero, -0.706, 27.528, 0.3), v30, z0, tNozzle, \Wobj := wobjPlatform;
		MoveL Offs(pZero, -0.618, 27.576, 0.3), v30, z0, tNozzle, \Wobj := wobjPlatform;
		MoveL Offs(pZero, -0.526, 27.615, 0.3), v30, z0, tNozzle, \Wobj := wobjPlatform;
		MoveL Offs(pZero, -0.431, 27.644, 0.3), v30, z0, tNozzle, \Wobj := wobjPlatform;
		MoveL Offs(pZero, -0.333, 27.664, 0.3), v30, z0, tNozzle, \Wobj := wobjPlatform;
		MoveL Offs(pZero, -0.234, 27.674, 0.3), v30, z0, tNozzle, \Wobj := wobjPlatform;
		MoveL Offs(pZero, -0.134, 27.674, 0.3), v30, z0, tNozzle, \Wobj := wobjPlatform;
		MoveL Offs(pZero, -0.035, 27.664, 0.3), v30, z0, tNozzle, \Wobj := wobjPlatform;
		MoveL Offs(pZero, 0.062, 27.644, 0.3), v30, z0, tNozzle, \Wobj := wobjPlatform;
		MoveL Offs(pZero, 0.158, 27.615, 0.3), v30, z0, tNozzle, \Wobj := wobjPlatform;
		MoveL Offs(pZero, 0.25, 27.576, 0.3), v30, z0, tNozzle, \Wobj := wobjPlatform;
		MoveL Offs(pZero, 0.337, 27.528, 0.3), v30, z0, tNozzle, \Wobj := wobjPlatform;
		MoveL Offs(pZero, 0.42, 27.472, 0.3), v30, z0, tNozzle, \Wobj := wobjPlatform;
		MoveL Offs(pZero, 0.496, 27.408, 0.3), v30, z0, tNozzle, \Wobj := wobjPlatform;
		MoveL Offs(pZero, 0.565, 27.337, 0.3), v30, z0, tNozzle, \Wobj := wobjPlatform;
		MoveL Offs(pZero, 0.628, 27.259, 0.3), v30, z0, tNozzle, \Wobj := wobjPlatform;
		MoveL Offs(pZero, 0.682, 27.175, 0.3), v30, z0, tNozzle, \Wobj := wobjPlatform;
		MoveL Offs(pZero, 23.924, -13.081, 0.3), v30, z0, tNozzle, \Wobj := wobjPlatform;
		MoveL Offs(pZero, 23.999, -13.212, 0.3), v30, z0, tNozzle, \Wobj := wobjPlatform;
		MoveL Offs(pZero, 24.045, -13.301, 0.3), v30, z0, tNozzle, \Wobj := wobjPlatform;
		MoveL Offs(pZero, 24.081, -13.394, 0.3), v30, z0, tNozzle, \Wobj := wobjPlatform;
		MoveL Offs(pZero, 24.108, -13.49, 0.3), v30, z0, tNozzle, \Wobj := wobjPlatform;
		MoveL Offs(pZero, 24.126, -13.588, 0.3), v30, z0, tNozzle, \Wobj := wobjPlatform;
		MoveL Offs(pZero, 24.133, -13.688, 0.3), v30, z0, tNozzle, \Wobj := wobjPlatform;
		MoveL Offs(pZero, 24.131, -13.787, 0.3), v30, z0, tNozzle, \Wobj := wobjPlatform;
		WaitRob \InPos;
		SetDO DO5_Program_Feed, 0;
		MoveL Offs(pZero, 23.632, -13.75, 0.3), v100, z0, tNozzle, \Wobj := wobjPlatform;
		WaitRob \InPos;
		SetDO DO5_Program_Feed, 1;
		MoveL Offs(pZero, 23.626, -13.799, 0.3), v30, z0, tNozzle, \Wobj := wobjPlatform;
		MoveL Offs(pZero, 23.615, -13.848, 0.3), v30, z0, tNozzle, \Wobj := wobjPlatform;
		MoveL Offs(pZero, 23.599, -13.895, 0.3), v30, z0, tNozzle, \Wobj := wobjPlatform;
		MoveL Offs(pZero, 23.578, -13.941, 0.3), v30, z0, tNozzle, \Wobj := wobjPlatform;
		MoveL Offs(pZero, 23.553, -13.984, 0.3), v30, z0, tNozzle, \Wobj := wobjPlatform;
		MoveL Offs(pZero, 23.524, -14.024, 0.3), v30, z0, tNozzle, \Wobj := wobjPlatform;
		MoveL Offs(pZero, 23.491, -14.062, 0.3), v30, z0, tNozzle, \Wobj := wobjPlatform;
		MoveL Offs(pZero, 23.455, -14.096, 0.3), v30, z0, tNozzle, \Wobj := wobjPlatform;
		MoveL Offs(pZero, 23.415, -14.126, 0.3), v30, z0, tNozzle, \Wobj := wobjPlatform;
		MoveL Offs(pZero, 23.373, -14.152, 0.3), v30, z0, tNozzle, \Wobj := wobjPlatform;
		MoveL Offs(pZero, 23.328, -14.173, 0.3), v30, z0, tNozzle, \Wobj := wobjPlatform;
		MoveL Offs(pZero, 23.281, -14.19, 0.3), v30, z0, tNozzle, \Wobj := wobjPlatform;
		MoveL Offs(pZero, 23.233, -14.203, 0.3), v30, z0, tNozzle, \Wobj := wobjPlatform;
		MoveL Offs(pZero, 23.183, -14.21, 0.3), v30, z0, tNozzle, \Wobj := wobjPlatform;
		MoveL Offs(pZero, 23.133, -14.213, 0.3), v30, z0, tNozzle, \Wobj := wobjPlatform;
		MoveL Offs(pZero, -23.502, -14.213, 0.3), v30, z0, tNozzle, \Wobj := wobjPlatform;
		MoveL Offs(pZero, -23.552, -14.21, 0.3), v30, z0, tNozzle, \Wobj := wobjPlatform;
		MoveL Offs(pZero, -23.601, -14.203, 0.3), v30, z0, tNozzle, \Wobj := wobjPlatform;
		MoveL Offs(pZero, -23.649, -14.19, 0.3), v30, z0, tNozzle, \Wobj := wobjPlatform;
		MoveL Offs(pZero, -23.696, -14.173, 0.3), v30, z0, tNozzle, \Wobj := wobjPlatform;
		MoveL Offs(pZero, -23.741, -14.152, 0.3), v30, z0, tNozzle, \Wobj := wobjPlatform;
		MoveL Offs(pZero, -23.784, -14.126, 0.3), v30, z0, tNozzle, \Wobj := wobjPlatform;
		MoveL Offs(pZero, -23.823, -14.096, 0.3), v30, z0, tNozzle, \Wobj := wobjPlatform;
		MoveL Offs(pZero, -23.86, -14.062, 0.3), v30, z0, tNozzle, \Wobj := wobjPlatform;
		MoveL Offs(pZero, -23.893, -14.024, 0.3), v30, z0, tNozzle, \Wobj := wobjPlatform;
		MoveL Offs(pZero, -23.922, -13.984, 0.3), v30, z0, tNozzle, \Wobj := wobjPlatform;
		MoveL Offs(pZero, -23.947, -13.941, 0.3), v30, z0, tNozzle, \Wobj := wobjPlatform;
		MoveL Offs(pZero, -23.967, -13.895, 0.3), v30, z0, tNozzle, \Wobj := wobjPlatform;
		MoveL Offs(pZero, -23.983, -13.848, 0.3), v30, z0, tNozzle, \Wobj := wobjPlatform;
		MoveL Offs(pZero, -23.994, -13.799, 0.3), v30, z0, tNozzle, \Wobj := wobjPlatform;
		MoveL Offs(pZero, -24.001, -13.75, 0.3), v30, z0, tNozzle, \Wobj := wobjPlatform;
		MoveL Offs(pZero, -24.002, -13.7, 0.3), v30, z0, tNozzle, \Wobj := wobjPlatform;
		MoveL Offs(pZero, -23.998, -13.65, 0.3), v30, z0, tNozzle, \Wobj := wobjPlatform;
		MoveL Offs(pZero, -23.989, -13.601, 0.3), v30, z0, tNozzle, \Wobj := wobjPlatform;
		MoveL Offs(pZero, -23.976, -13.553, 0.3), v30, z0, tNozzle, \Wobj := wobjPlatform;
		MoveL Offs(pZero, -23.958, -13.507, 0.3), v30, z0, tNozzle, \Wobj := wobjPlatform;
		MoveL Offs(pZero, -23.935, -13.462, 0.3), v30, z0, tNozzle, \Wobj := wobjPlatform;
		MoveL Offs(pZero, -0.693, 26.794, 0.3), v30, z0, tNozzle, \Wobj := wobjPlatform;
		MoveL Offs(pZero, -0.617, 26.925, 0.3), v30, z0, tNozzle, \Wobj := wobjPlatform;
		MoveL Offs(pZero, -0.59, 26.967, 0.3), v30, z0, tNozzle, \Wobj := wobjPlatform;
		MoveL Offs(pZero, -0.559, 27.006, 0.3), v30, z0, tNozzle, \Wobj := wobjPlatform;
		MoveL Offs(pZero, -0.524, 27.042, 0.3), v30, z0, tNozzle, \Wobj := wobjPlatform;
		MoveL Offs(pZero, -0.486, 27.074, 0.3), v30, z0, tNozzle, \Wobj := wobjPlatform;
		MoveL Offs(pZero, -0.445, 27.102, 0.3), v30, z0, tNozzle, \Wobj := wobjPlatform;
		MoveL Offs(pZero, -0.401, 27.125, 0.3), v30, z0, tNozzle, \Wobj := wobjPlatform;
		MoveL Offs(pZero, -0.355, 27.145, 0.3), v30, z0, tNozzle, \Wobj := wobjPlatform;
		MoveL Offs(pZero, -0.308, 27.16, 0.3), v30, z0, tNozzle, \Wobj := wobjPlatform;
		MoveL Offs(pZero, -0.259, 27.169, 0.3), v30, z0, tNozzle, \Wobj := wobjPlatform;
		MoveL Offs(pZero, -0.209, 27.174, 0.3), v30, z0, tNozzle, \Wobj := wobjPlatform;
		MoveL Offs(pZero, -0.159, 27.174, 0.3), v30, z0, tNozzle, \Wobj := wobjPlatform;
		MoveL Offs(pZero, -0.11, 27.169, 0.3), v30, z0, tNozzle, \Wobj := wobjPlatform;
		MoveL Offs(pZero, -0.061, 27.16, 0.3), v30, z0, tNozzle, \Wobj := wobjPlatform;
		MoveL Offs(pZero, -0.013, 27.145, 0.3), v30, z0, tNozzle, \Wobj := wobjPlatform;
		MoveL Offs(pZero, 0.033, 27.125, 0.3), v30, z0, tNozzle, \Wobj := wobjPlatform;
		MoveL Offs(pZero, 0.076, 27.102, 0.3), v30, z0, tNozzle, \Wobj := wobjPlatform;
		MoveL Offs(pZero, 0.118, 27.074, 0.3), v30, z0, tNozzle, \Wobj := wobjPlatform;
		MoveL Offs(pZero, 0.156, 27.042, 0.3), v30, z0, tNozzle, \Wobj := wobjPlatform;
		MoveL Offs(pZero, 0.191, 27.006, 0.3), v30, z0, tNozzle, \Wobj := wobjPlatform;
		MoveL Offs(pZero, 0.222, 26.967, 0.3), v30, z0, tNozzle, \Wobj := wobjPlatform;
		MoveL Offs(pZero, 0.249, 26.925, 0.3), v30, z0, tNozzle, \Wobj := wobjPlatform;
		MoveL Offs(pZero, 23.491, -13.331, 0.3), v30, z0, tNozzle, \Wobj := wobjPlatform;
		MoveL Offs(pZero, 23.566, -13.462, 0.3), v30, z0, tNozzle, \Wobj := wobjPlatform;
		MoveL Offs(pZero, 23.589, -13.507, 0.3), v30, z0, tNozzle, \Wobj := wobjPlatform;
		MoveL Offs(pZero, 23.607, -13.553, 0.3), v30, z0, tNozzle, \Wobj := wobjPlatform;
		MoveL Offs(pZero, 23.621, -13.601, 0.3), v30, z0, tNozzle, \Wobj := wobjPlatform;
		MoveL Offs(pZero, 23.63, -13.65, 0.3), v30, z0, tNozzle, \Wobj := wobjPlatform;
		MoveL Offs(pZero, 23.633, -13.7, 0.3), v30, z0, tNozzle, \Wobj := wobjPlatform;
		MoveL Offs(pZero, 23.632, -13.75, 0.3), v30, z0, tNozzle, \Wobj := wobjPlatform;
		WaitRob \InPos;
		SetDO DO5_Program_Feed, 0;
		MoveL Offs(pZero, 23.133, -13.713, 0.3), v100, z0, tNozzle, \Wobj := wobjPlatform;
		WaitRob \InPos;
		SetDO DO5_Program_Feed, 1;
		MoveL Offs(pZero, 23.058, -13.581, 0.3), v30, z0, tNozzle, \Wobj := wobjPlatform;
		MoveL Offs(pZero, -0.184, 26.675, 0.3), v30, z0, tNozzle, \Wobj := wobjPlatform;
		MoveL Offs(pZero, -0.26, 26.544, 0.3), v30, z0, tNozzle, \Wobj := wobjPlatform;
		MoveL Offs(pZero, -23.502, -13.713, 0.3), v30, z0, tNozzle, \Wobj := wobjPlatform;
		MoveL Offs(pZero, -23.35, -13.713, 0.3), v30, z0, tNozzle, \Wobj := wobjPlatform;
		MoveL Offs(pZero, 23.133, -13.713, 0.3), v30, z0, tNozzle, \Wobj := wobjPlatform;
		WaitRob \InPos;
		SetDO DO5_Program_Feed, 0;
		MoveL Offs(pZero, 22.267, -13.213, 0.3), v100, z0, tNozzle, \Wobj := wobjPlatform;
		WaitRob \InPos;
		SetDO DO5_Program_Feed, 1;
		MoveL Offs(pZero, -0.184, 25.675, 0.3), v30, z0, tNozzle, \Wobj := wobjPlatform;
		MoveL Offs(pZero, -22.636, -13.213, 0.3), v30, z0, tNozzle, \Wobj := wobjPlatform;
		MoveL Offs(pZero, 22.267, -13.213, 0.3), v30, z0, tNozzle, \Wobj := wobjPlatform;
		WaitRob \InPos;
		SetDO DO5_Program_Feed, 0;
		MoveL Offs(pZero, 20.816, -12.713, 0.3), v100, z0, tNozzle, \Wobj := wobjPlatform;
		WaitRob \InPos;
		SetDO DO5_Program_Feed, 1;
		MoveL Offs(pZero, 20.816, -11.698, 0.3), v30, z0, tNozzle, \Wobj := wobjPlatform;
		WaitRob \InPos;
		SetDO DO5_Program_Feed, 0;
		MoveL Offs(pZero, 17.816, -12.713, 0.3), v100, z0, tNozzle, \Wobj := wobjPlatform;
		WaitRob \InPos;
		SetDO DO5_Program_Feed, 1;
		MoveL Offs(pZero, 17.816, -6.502, 0.3), v30, z0, tNozzle, \Wobj := wobjPlatform;
		WaitRob \InPos;
		SetDO DO5_Program_Feed, 0;
		MoveL Offs(pZero, 14.816, -1.305, 0.3), v100, z0, tNozzle, \Wobj := wobjPlatform;
		WaitRob \InPos;
		SetDO DO5_Program_Feed, 1;
		MoveL Offs(pZero, 14.816, -12.713, 0.3), v30, z0, tNozzle, \Wobj := wobjPlatform;
		WaitRob \InPos;
		SetDO DO5_Program_Feed, 0;
		MoveL Offs(pZero, 11.816, -12.713, 0.3), v100, z0, tNozzle, \Wobj := wobjPlatform;
		WaitRob \InPos;
		SetDO DO5_Program_Feed, 1;
		MoveL Offs(pZero, 11.816, 3.891, 0.3), v30, z0, tNozzle, \Wobj := wobjPlatform;
		WaitRob \InPos;
		SetDO DO5_Program_Feed, 0;
		MoveL Offs(pZero, 8.816, 9.087, 0.3), v100, z0, tNozzle, \Wobj := wobjPlatform;
		WaitRob \InPos;
		SetDO DO5_Program_Feed, 1;
		MoveL Offs(pZero, 8.816, -12.713, 0.3), v30, z0, tNozzle, \Wobj := wobjPlatform;
		WaitRob \InPos;
		SetDO DO5_Program_Feed, 0;
		MoveL Offs(pZero, 5.816, -12.713, 0.3), v100, z0, tNozzle, \Wobj := wobjPlatform;
		WaitRob \InPos;
		SetDO DO5_Program_Feed, 1;
		MoveL Offs(pZero, 5.816, 14.283, 0.3), v30, z0, tNozzle, \Wobj := wobjPlatform;
		WaitRob \InPos;
		SetDO DO5_Program_Feed, 0;
		MoveL Offs(pZero, 2.816, 19.479, 0.3), v100, z0, tNozzle, \Wobj := wobjPlatform;
		WaitRob \InPos;
		SetDO DO5_Program_Feed, 1;
		MoveL Offs(pZero, 2.816, -12.713, 0.3), v30, z0, tNozzle, \Wobj := wobjPlatform;
		WaitRob \InPos;
		SetDO DO5_Program_Feed, 0;
		MoveL Offs(pZero, -0.184, -12.713, 0.3), v100, z0, tNozzle, \Wobj := wobjPlatform;
		WaitRob \InPos;
		SetDO DO5_Program_Feed, 1;
		MoveL Offs(pZero, -0.184, 24.675, 0.3), v30, z0, tNozzle, \Wobj := wobjPlatform;
		WaitRob \InPos;
		SetDO DO5_Program_Feed, 0;
		MoveL Offs(pZero, -3.184, 19.479, 0.3), v100, z0, tNozzle, \Wobj := wobjPlatform;
		WaitRob \InPos;
		SetDO DO5_Program_Feed, 1;
		MoveL Offs(pZero, -3.184, -12.713, 0.3), v30, z0, tNozzle, \Wobj := wobjPlatform;
		WaitRob \InPos;
		SetDO DO5_Program_Feed, 0;
		MoveL Offs(pZero, -6.184, -12.713, 0.3), v100, z0, tNozzle, \Wobj := wobjPlatform;
		WaitRob \InPos;
		SetDO DO5_Program_Feed, 1;
		MoveL Offs(pZero, -6.184, 14.283, 0.3), v30, z0, tNozzle, \Wobj := wobjPlatform;
		WaitRob \InPos;
		SetDO DO5_Program_Feed, 0;
		MoveL Offs(pZero, -9.184, 9.087, 0.3), v100, z0, tNozzle, \Wobj := wobjPlatform;
		WaitRob \InPos;
		SetDO DO5_Program_Feed, 1;
		MoveL Offs(pZero, -9.184, -12.713, 0.3), v30, z0, tNozzle, \Wobj := wobjPlatform;
		WaitRob \InPos;
		SetDO DO5_Program_Feed, 0;
		MoveL Offs(pZero, -12.184, -12.713, 0.3), v100, z0, tNozzle, \Wobj := wobjPlatform;
		WaitRob \InPos;
		SetDO DO5_Program_Feed, 1;
		MoveL Offs(pZero, -12.184, 3.891, 0.3), v30, z0, tNozzle, \Wobj := wobjPlatform;
		WaitRob \InPos;
		SetDO DO5_Program_Feed, 0;
		MoveL Offs(pZero, -15.184, -1.305, 0.3), v100, z0, tNozzle, \Wobj := wobjPlatform;
		WaitRob \InPos;
		SetDO DO5_Program_Feed, 1;
		MoveL Offs(pZero, -15.184, -12.713, 0.3), v30, z0, tNozzle, \Wobj := wobjPlatform;
		WaitRob \InPos;
		SetDO DO5_Program_Feed, 0;
		MoveL Offs(pZero, -18.184, -12.713, 0.3), v100, z0, tNozzle, \Wobj := wobjPlatform;
		WaitRob \InPos;
		SetDO DO5_Program_Feed, 1;
		MoveL Offs(pZero, -18.184, -6.502, 0.3), v30, z0, tNozzle, \Wobj := wobjPlatform;
		WaitRob \InPos;
		SetDO DO5_Program_Feed, 0;
		MoveL Offs(pZero, -21.184, -11.698, 0.3), v100, z0, tNozzle, \Wobj := wobjPlatform;
		WaitRob \InPos;
		SetDO DO5_Program_Feed, 1;
		MoveL Offs(pZero, -21.184, -12.713, 0.3), v30, z0, tNozzle, \Wobj := wobjPlatform;
		WaitRob \InPos;
		SetDO DO6_Between_Layer_Retract, 1;
		SetDO DO5_Program_Feed, 0;
		MoveL Offs(pZero, -21.184, -12.713, 5.3), v100, z0, tNozzle, \Wobj := wobjPlatform;

		! Layer: 2
		! LayerParams(infillAngleDegrees=30.0, pathWidth=3.0, layerHeight=0.3, infillShiftX=0.0, infillShiftY=0.0, numShells=2, infillOverlap=0.0002)
		! T12
		! M6
		TPWRITE "Layer 2 of -1";
		MoveL Offs(pZero, -22.701, -13.675, 5.6), v100, z0, tNozzle, \Wobj := wobjPlatform;
		MoveL Offs(pZero, -22.701, -13.675, 0.6), v30, z0, tNozzle, \Wobj := wobjPlatform;
		WaitRob \InPos;
		SetDO DO6_Between_Layer_Retract, 0;
		WaitRob \InPos;
		SetDO DO5_Program_Feed, 1;
		MoveL Offs(pZero, 23.068, -13.675, 0.6), v30, z0, tNozzle, \Wobj := wobjPlatform;
		MoveL Offs(pZero, 22.7, -13.037, 0.6), v30, z0, tNozzle, \Wobj := wobjPlatform;
		MoveL Offs(pZero, -0.184, 26.6, 0.6), v30, z0, tNozzle, \Wobj := wobjPlatform;
		MoveL Offs(pZero, -0.552, 25.962, 0.6), v30, z0, tNozzle, \Wobj := wobjPlatform;
		MoveL Offs(pZero, -23.437, -13.675, 0.6), v30, z0, tNozzle, \Wobj := wobjPlatform;
		MoveL Offs(pZero, -22.701, -13.675, 0.6), v30, z0, tNozzle, \Wobj := wobjPlatform;
		WaitRob \InPos;
		SetDO DO5_Program_Feed, 0;
		MoveL Offs(pZero, -22.571, -13.175, 0.6), v100, z0, tNozzle, \Wobj := wobjPlatform;
		WaitRob \InPos;
		SetDO DO5_Program_Feed, 1;
		MoveL Offs(pZero, 22.202, -13.175, 0.6), v30, z0, tNozzle, \Wobj := wobjPlatform;
		MoveL Offs(pZero, -0.184, 25.6, 0.6), v30, z0, tNozzle, \Wobj := wobjPlatform;
		MoveL Offs(pZero, -22.571, -13.175, 0.6), v30, z0, tNozzle, \Wobj := wobjPlatform;
		WaitRob \InPos;
		SetDO DO5_Program_Feed, 0;
		MoveL Offs(pZero, -20.466, -12.675, 0.6), v100, z0, tNozzle, \Wobj := wobjPlatform;
		WaitRob \InPos;
		SetDO DO5_Program_Feed, 1;
		MoveL Offs(pZero, 10.886, 5.426, 0.6), v30, z0, tNozzle, \Wobj := wobjPlatform;
		WaitRob \InPos;
		SetDO DO5_Program_Feed, 0;
		MoveL Offs(pZero, 12.386, 2.828, 0.6), v100, z0, tNozzle, \Wobj := wobjPlatform;
		WaitRob \InPos;
		SetDO DO5_Program_Feed, 1;
		MoveL Offs(pZero, -14.466, -12.675, 0.6), v30, z0, tNozzle, \Wobj := wobjPlatform;
		WaitRob \InPos;
		SetDO DO5_Program_Feed, 0;
		MoveL Offs(pZero, -8.466, -12.675, 0.6), v100, z0, tNozzle, \Wobj := wobjPlatform;
		WaitRob \InPos;
		SetDO DO5_Program_Feed, 1;
		MoveL Offs(pZero, 13.886, 0.23, 0.6), v30, z0, tNozzle, \Wobj := wobjPlatform;
		WaitRob \InPos;
		SetDO DO5_Program_Feed, 0;
		MoveL Offs(pZero, 15.386, -2.368, 0.6), v100, z0, tNozzle, \Wobj := wobjPlatform;
		WaitRob \InPos;
		SetDO DO5_Program_Feed, 1;
		MoveL Offs(pZero, -2.466, -12.675, 0.6), v30, z0, tNozzle, \Wobj := wobjPlatform;
		WaitRob \InPos;
		SetDO DO5_Program_Feed, 0;
		MoveL Offs(pZero, 3.534, -12.675, 0.6), v100, z0, tNozzle, \Wobj := wobjPlatform;
		WaitRob \InPos;
		SetDO DO5_Program_Feed, 1;
		MoveL Offs(pZero, 16.886, -4.966, 0.6), v30, z0, tNozzle, \Wobj := wobjPlatform;
		WaitRob \InPos;
		SetDO DO5_Program_Feed, 0;
		MoveL Offs(pZero, 18.386, -7.564, 0.6), v100, z0, tNozzle, \Wobj := wobjPlatform;
		WaitRob \InPos;
		SetDO DO5_Program_Feed, 1;
		MoveL Offs(pZero, 9.534, -12.675, 0.6), v30, z0, tNozzle, \Wobj := wobjPlatform;
		WaitRob \InPos;
		SetDO DO5_Program_Feed, 0;
		MoveL Offs(pZero, 15.534, -12.675, 0.6), v100, z0, tNozzle, \Wobj := wobjPlatform;
		WaitRob \InPos;
		SetDO DO5_Program_Feed, 1;
		MoveL Offs(pZero, 19.886, -10.163, 0.6), v30, z0, tNozzle, \Wobj := wobjPlatform;
		WaitRob \InPos;
		SetDO DO5_Program_Feed, 0;
		MoveL Offs(pZero, 9.386, 8.024, 0.6), v100, z0, tNozzle, \Wobj := wobjPlatform;
		WaitRob \InPos;
		SetDO DO5_Program_Feed, 1;
		MoveL Offs(pZero, -19.325, -8.552, 0.6), v30, z0, tNozzle, \Wobj := wobjPlatform;
		WaitRob \InPos;
		SetDO DO5_Program_Feed, 0;
		MoveL Offs(pZero, -16.325, -3.356, 0.6), v100, z0, tNozzle, \Wobj := wobjPlatform;
		WaitRob \InPos;
		SetDO DO5_Program_Feed, 1;
		MoveL Offs(pZero, 7.886, 10.622, 0.6), v30, z0, tNozzle, \Wobj := wobjPlatform;
		WaitRob \InPos;
		SetDO DO5_Program_Feed, 0;
		MoveL Offs(pZero, 6.386, 13.22, 0.6), v100, z0, tNozzle, \Wobj := wobjPlatform;
		WaitRob \InPos;
		SetDO DO5_Program_Feed, 1;
		MoveL Offs(pZero, -13.325, 1.84, 0.6), v30, z0, tNozzle, \Wobj := wobjPlatform;
		WaitRob \InPos;
		SetDO DO5_Program_Feed, 0;
		MoveL Offs(pZero, -10.325, 7.036, 0.6), v100, z0, tNozzle, \Wobj := wobjPlatform;
		WaitRob \InPos;
		SetDO DO5_Program_Feed, 1;
		MoveL Offs(pZero, 4.886, 15.818, 0.6), v30, z0, tNozzle, \Wobj := wobjPlatform;
		WaitRob \InPos;
		SetDO DO5_Program_Feed, 0;
		MoveL Offs(pZero, 3.386, 18.416, 0.6), v100, z0, tNozzle, \Wobj := wobjPlatform;
		WaitRob \InPos;
		SetDO DO5_Program_Feed, 1;
		MoveL Offs(pZero, -7.325, 12.232, 0.6), v30, z0, tNozzle, \Wobj := wobjPlatform;
		WaitRob \InPos;
		SetDO DO5_Program_Feed, 0;
		MoveL Offs(pZero, -4.325, 17.428, 0.6), v100, z0, tNozzle, \Wobj := wobjPlatform;
		WaitRob \InPos;
		SetDO DO5_Program_Feed, 1;
		MoveL Offs(pZero, 1.886, 21.014, 0.6), v30, z0, tNozzle, \Wobj := wobjPlatform;
		WaitRob \InPos;
		SetDO DO5_Program_Feed, 0;
		MoveL Offs(pZero, 0.386, 23.612, 0.6), v100, z0, tNozzle, \Wobj := wobjPlatform;
		WaitRob \InPos;
		SetDO DO5_Program_Feed, 1;
		MoveL Offs(pZero, -1.325, 22.624, 0.6), v30, z0, tNozzle, \Wobj := wobjPlatform;
		WaitRob \InPos;
		SetDO DO6_Between_Layer_Retract, 1;
		SetDO DO5_Program_Feed, 0;
		MoveL Offs(pZero, -1.325, 22.624, 5.6), v100, z0, tNozzle, \Wobj := wobjPlatform;

		! Layer: 3
		! LayerParams(infillAngleDegrees=-30.0, pathWidth=3.0, layerHeight=0.3, infillShiftX=0.0, infillShiftY=0.0, numShells=2, infillOverlap=0.0002)
		! T13
		! M6
		TPWRITE "Layer 3 of -1";
		MoveL Offs(pZero, 22.343, -12.494, 5.9), v100, z0, tNozzle, \Wobj := wobjPlatform;
		MoveL Offs(pZero, 22.343, -12.494, 0.9), v30, z0, tNozzle, \Wobj := wobjPlatform;
		WaitRob \InPos;
		SetDO DO6_Between_Layer_Retract, 0;
		WaitRob \InPos;
		SetDO DO5_Program_Feed, 1;
		MoveL Offs(pZero, -0.184, 26.525, 0.9), v30, z0, tNozzle, \Wobj := wobjPlatform;
		MoveL Offs(pZero, -0.845, 25.381, 0.9), v30, z0, tNozzle, \Wobj := wobjPlatform;
		MoveL Offs(pZero, -23.372, -13.638, 0.9), v30, z0, tNozzle, \Wobj := wobjPlatform;
		MoveL Offs(pZero, -22.051, -13.638, 0.9), v30, z0, tNozzle, \Wobj := wobjPlatform;
		MoveL Offs(pZero, 23.004, -13.638, 0.9), v30, z0, tNozzle, \Wobj := wobjPlatform;
		MoveL Offs(pZero, 22.343, -12.494, 0.9), v30, z0, tNozzle, \Wobj := wobjPlatform;
		WaitRob \InPos;
		SetDO DO5_Program_Feed, 0;
		MoveL Offs(pZero, 21.91, -12.744, 0.9), v100, z0, tNozzle, \Wobj := wobjPlatform;
		WaitRob \InPos;
		SetDO DO5_Program_Feed, 1;
		MoveL Offs(pZero, -0.184, 25.525, 0.9), v30, z0, tNozzle, \Wobj := wobjPlatform;
		MoveL Offs(pZero, -0.412, 25.131, 0.9), v30, z0, tNozzle, \Wobj := wobjPlatform;
		MoveL Offs(pZero, -22.506, -13.138, 0.9), v30, z0, tNozzle, \Wobj := wobjPlatform;
		MoveL Offs(pZero, -22.051, -13.138, 0.9), v30, z0, tNozzle, \Wobj := wobjPlatform;
		MoveL Offs(pZero, 22.138, -13.138, 0.9), v30, z0, tNozzle, \Wobj := wobjPlatform;
		MoveL Offs(pZero, 21.91, -12.744, 0.9), v30, z0, tNozzle, \Wobj := wobjPlatform;
		WaitRob \InPos;
		SetDO DO5_Program_Feed, 0;
		MoveL Offs(pZero, 20.0, -12.638, 0.9), v100, z0, tNozzle, \Wobj := wobjPlatform;
		WaitRob \InPos;
		SetDO DO5_Program_Feed, 1;
		MoveL Offs(pZero, -11.23, 5.393, 0.9), v30, z0, tNozzle, \Wobj := wobjPlatform;
		WaitRob \InPos;
		SetDO DO5_Program_Feed, 0;
		MoveL Offs(pZero, -9.73, 7.991, 0.9), v100, z0, tNozzle, \Wobj := wobjPlatform;
		WaitRob \InPos;
		SetDO DO5_Program_Feed, 1;
		MoveL Offs(pZero, 18.908, -8.543, 0.9), v30, z0, tNozzle, \Wobj := wobjPlatform;
		WaitRob \InPos;
		SetDO DO5_Program_Feed, 0;
		MoveL Offs(pZero, 15.908, -3.347, 0.9), v100, z0, tNozzle, \Wobj := wobjPlatform;
		WaitRob \InPos;
		SetDO DO5_Program_Feed, 1;
		MoveL Offs(pZero, -8.23, 10.589, 0.9), v30, z0, tNozzle, \Wobj := wobjPlatform;
		WaitRob \InPos;
		SetDO DO5_Program_Feed, 0;
		MoveL Offs(pZero, -6.73, 13.187, 0.9), v100, z0, tNozzle, \Wobj := wobjPlatform;
		WaitRob \InPos;
		SetDO DO5_Program_Feed, 1;
		MoveL Offs(pZero, 12.908, 1.849, 0.9), v30, z0, tNozzle, \Wobj := wobjPlatform;
		WaitRob \InPos;
		SetDO DO5_Program_Feed, 0;
		MoveL Offs(pZero, 9.908, 7.045, 0.9), v100, z0, tNozzle, \Wobj := wobjPlatform;
		WaitRob \InPos;
		SetDO DO5_Program_Feed, 1;
		MoveL Offs(pZero, -5.23, 15.785, 0.9), v30, z0, tNozzle, \Wobj := wobjPlatform;
		WaitRob \InPos;
		SetDO DO5_Program_Feed, 0;
		MoveL Offs(pZero, -3.73, 18.383, 0.9), v100, z0, tNozzle, \Wobj := wobjPlatform;
		WaitRob \InPos;
		SetDO DO5_Program_Feed, 1;
		MoveL Offs(pZero, 6.908, 12.242, 0.9), v30, z0, tNozzle, \Wobj := wobjPlatform;
		WaitRob \InPos;
		SetDO DO5_Program_Feed, 0;
		MoveL Offs(pZero, 3.908, 17.438, 0.9), v100, z0, tNozzle, \Wobj := wobjPlatform;
		WaitRob \InPos;
		SetDO DO5_Program_Feed, 1;
		MoveL Offs(pZero, -2.23, 20.982, 0.9), v30, z0, tNozzle, \Wobj := wobjPlatform;
		WaitRob \InPos;
		SetDO DO5_Program_Feed, 0;
		MoveL Offs(pZero, -0.73, 23.58, 0.9), v100, z0, tNozzle, \Wobj := wobjPlatform;
		WaitRob \InPos;
		SetDO DO5_Program_Feed, 1;
		MoveL Offs(pZero, 0.908, 22.634, 0.9), v30, z0, tNozzle, \Wobj := wobjPlatform;
		WaitRob \InPos;
		SetDO DO5_Program_Feed, 0;
		MoveL Offs(pZero, -12.73, 2.795, 0.9), v100, z0, tNozzle, \Wobj := wobjPlatform;
		WaitRob \InPos;
		SetDO DO5_Program_Feed, 1;
		MoveL Offs(pZero, 14.0, -12.638, 0.9), v30, z0, tNozzle, \Wobj := wobjPlatform;
		WaitRob \InPos;
		SetDO DO5_Program_Feed, 0;
		MoveL Offs(pZero, 8.0, -12.638, 0.9), v100, z0, tNozzle, \Wobj := wobjPlatform;
		WaitRob \InPos;
		SetDO DO5_Program_Feed, 1;
		MoveL Offs(pZero, -14.23, 0.197, 0.9), v30, z0, tNozzle, \Wobj := wobjPlatform;
		WaitRob \InPos;
		SetDO DO5_Program_Feed, 0;
		MoveL Offs(pZero, -15.73, -2.401, 0.9), v100, z0, tNozzle, \Wobj := wobjPlatform;
		WaitRob \InPos;
		SetDO DO5_Program_Feed, 1;
		MoveL Offs(pZero, 2.0, -12.638, 0.9), v30, z0, tNozzle, \Wobj := wobjPlatform;
		WaitRob \InPos;
		SetDO DO5_Program_Feed, 0;
		MoveL Offs(pZero, -4.0, -12.638, 0.9), v100, z0, tNozzle, \Wobj := wobjPlatform;
		WaitRob \InPos;
		SetDO DO5_Program_Feed, 1;
		MoveL Offs(pZero, -17.23, -4.999, 0.9), v30, z0, tNozzle, \Wobj := wobjPlatform;
		WaitRob \InPos;
		SetDO DO5_Program_Feed, 0;
		MoveL Offs(pZero, -18.73, -7.597, 0.9), v100, z0, tNozzle, \Wobj := wobjPlatform;
		WaitRob \InPos;
		SetDO DO5_Program_Feed, 1;
		MoveL Offs(pZero, -10.0, -12.638, 0.9), v30, z0, tNozzle, \Wobj := wobjPlatform;
		WaitRob \InPos;
		SetDO DO5_Program_Feed, 0;
		MoveL Offs(pZero, -16.0, -12.638, 0.9), v100, z0, tNozzle, \Wobj := wobjPlatform;
		WaitRob \InPos;
		SetDO DO5_Program_Feed, 1;
		MoveL Offs(pZero, -20.23, -10.195, 0.9), v30, z0, tNozzle, \Wobj := wobjPlatform;
		WaitRob \InPos;
		SetDO DO6_Between_Layer_Retract, 1;
		SetDO DO5_Program_Feed, 0;
		MoveL Offs(pZero, -20.23, -10.195, 5.9), v100, z0, tNozzle, \Wobj := wobjPlatform;

		! Layer: 4
		! LayerParams(infillAngleDegrees=90.0, pathWidth=3.0, layerHeight=0.3, infillShiftX=0.0, infillShiftY=0.0, numShells=2, infillOverlap=0.0002)
		! T14
		! M6
		TPWRITE "Layer 4 of -1";
		MoveL Offs(pZero, 22.939, -13.6, 6.2), v100, z0, tNozzle, \Wobj := wobjPlatform;
		MoveL Offs(pZero, 22.939, -13.6, 1.2), v30, z0, tNozzle, \Wobj := wobjPlatform;
		WaitRob \InPos;
		SetDO DO6_Between_Layer_Retract, 0;
		WaitRob \InPos;
		SetDO DO5_Program_Feed, 1;
		MoveL Offs(pZero, 21.986, -11.95, 1.2), v30, z0, tNozzle, \Wobj := wobjPlatform;
		MoveL Offs(pZero, -0.184, 26.45, 1.2), v30, z0, tNozzle, \Wobj := wobjPlatform;
		MoveL Offs(pZero, -1.137, 24.8, 1.2), v30, z0, tNozzle, \Wobj := wobjPlatform;
		MoveL Offs(pZero, -23.307, -13.6, 1.2), v30, z0, tNozzle, \Wobj := wobjPlatform;
		MoveL Offs(pZero, -21.402, -13.6, 1.2), v30, z0, tNozzle, \Wobj := wobjPlatform;
		MoveL Offs(pZero, 22.939, -13.6, 1.2), v30, z0, tNozzle, \Wobj := wobjPlatform;
		WaitRob \InPos;
		SetDO DO5_Program_Feed, 0;
		MoveL Offs(pZero, 22.073, -13.1, 1.2), v100, z0, tNozzle, \Wobj := wobjPlatform;
		WaitRob \InPos;
		SetDO DO5_Program_Feed, 1;
		MoveL Offs(pZero, 21.553, -12.2, 1.2), v30, z0, tNozzle, \Wobj := wobjPlatform;
		MoveL Offs(pZero, -0.184, 25.45, 1.2), v30, z0, tNozzle, \Wobj := wobjPlatform;
		MoveL Offs(pZero, -0.704, 24.55, 1.2), v30, z0, tNozzle, \Wobj := wobjPlatform;
		MoveL Offs(pZero, -22.441, -13.1, 1.2), v30, z0, tNozzle, \Wobj := wobjPlatform;
		MoveL Offs(pZero, -21.402, -13.1, 1.2), v30, z0, tNozzle, \Wobj := wobjPlatform;
		MoveL Offs(pZero, 22.073, -13.1, 1.2), v30, z0, tNozzle, \Wobj := wobjPlatform;
		WaitRob \InPos;
		SetDO DO5_Program_Feed, 0;
		MoveL Offs(pZero, 20.816, -12.6, 1.2), v100, z0, tNozzle, \Wobj := wobjPlatform;
		WaitRob \InPos;
		SetDO DO5_Program_Feed, 1;
		MoveL Offs(pZero, 20.816, -11.923, 1.2), v30, z0, tNozzle, \Wobj := wobjPlatform;
		WaitRob \InPos;
		SetDO DO5_Program_Feed, 0;
		MoveL Offs(pZero, 17.816, -12.6, 1.2), v100, z0, tNozzle, \Wobj := wobjPlatform;
		WaitRob \InPos;
		SetDO DO5_Program_Feed, 1;
		MoveL Offs(pZero, 17.816, -6.727, 1.2), v30, z0, tNozzle, \Wobj := wobjPlatform;
		WaitRob \InPos;
		SetDO DO5_Program_Feed, 0;
		MoveL Offs(pZero, 14.816, -1.53, 1.2), v100, z0, tNozzle, \Wobj := wobjPlatform;
		WaitRob \InPos;
		SetDO DO5_Program_Feed, 1;
		MoveL Offs(pZero, 14.816, -12.6, 1.2), v30, z0, tNozzle, \Wobj := wobjPlatform;
		WaitRob \InPos;
		SetDO DO5_Program_Feed, 0;
		MoveL Offs(pZero, 11.816, -12.6, 1.2), v100, z0, tNozzle, \Wobj := wobjPlatform;
		WaitRob \InPos;
		SetDO DO5_Program_Feed, 1;
		MoveL Offs(pZero, 11.816, 3.666, 1.2), v30, z0, tNozzle, \Wobj := wobjPlatform;
		WaitRob \InPos;
		SetDO DO5_Program_Feed, 0;
		MoveL Offs(pZero, 8.816, 8.862, 1.2), v100, z0, tNozzle, \Wobj := wobjPlatform;
		WaitRob \InPos;
		SetDO DO5_Program_Feed, 1;
		MoveL Offs(pZero, 8.816, -12.6, 1.2), v30, z0, tNozzle, \Wobj := wobjPlatform;
		WaitRob \InPos;
		SetDO DO5_Program_Feed, 0;
		MoveL Offs(pZero, 5.816, -12.6, 1.2), v100, z0, tNozzle, \Wobj := wobjPlatform;
		WaitRob \InPos;
		SetDO DO5_Program_Feed, 1;
		MoveL Offs(pZero, 5.816, 14.058, 1.2), v30, z0, tNozzle, \Wobj := wobjPlatform;
		WaitRob \InPos;
		SetDO DO5_Program_Feed, 0;
		MoveL Offs(pZero, 2.816, 19.254, 1.2), v100, z0, tNozzle, \Wobj := wobjPlatform;
		WaitRob \InPos;
		SetDO DO5_Program_Feed, 1;
		MoveL Offs(pZero, 2.816, -12.6, 1.2), v30, z0, tNozzle, \Wobj := wobjPlatform;
		WaitRob \InPos;
		SetDO DO5_Program_Feed, 0;
		MoveL Offs(pZero, -0.184, -12.6, 1.2), v100, z0, tNozzle, \Wobj := wobjPlatform;
		WaitRob \InPos;
		SetDO DO5_Program_Feed, 1;
		MoveL Offs(pZero, -0.184, 24.45, 1.2), v30, z0, tNozzle, \Wobj := wobjPlatform;
		WaitRob \InPos;
		SetDO DO5_Program_Feed, 0;
		MoveL Offs(pZero, -3.184, 19.254, 1.2), v100, z0, tNozzle, \Wobj := wobjPlatform;
		WaitRob \InPos;
		SetDO DO5_Program_Feed, 1;
		MoveL Offs(pZero, -3.184, -12.6, 1.2), v30, z0, tNozzle, \Wobj := wobjPlatform;
		WaitRob \InPos;
		SetDO DO5_Program_Feed, 0;
		MoveL Offs(pZero, -6.184, -12.6, 1.2), v100, z0, tNozzle, \Wobj := wobjPlatform;
		WaitRob \InPos;
		SetDO DO5_Program_Feed, 1;
		MoveL Offs(pZero, -6.184, 14.058, 1.2), v30, z0, tNozzle, \Wobj := wobjPlatform;
		WaitRob \InPos;
		SetDO DO5_Program_Feed, 0;
		MoveL Offs(pZero, -9.184, 8.862, 1.2), v100, z0, tNozzle, \Wobj := wobjPlatform;
		WaitRob \InPos;
		SetDO DO5_Program_Feed, 1;
		MoveL Offs(pZero, -9.184, -12.6, 1.2), v30, z0, tNozzle, \Wobj := wobjPlatform;
		WaitRob \InPos;
		SetDO DO5_Program_Feed, 0;
		MoveL Offs(pZero, -12.184, -12.6, 1.2), v100, z0, tNozzle, \Wobj := wobjPlatform;
		WaitRob \InPos;
		SetDO DO5_Program_Feed, 1;
		MoveL Offs(pZero, -12.184, 3.666, 1.2), v30, z0, tNozzle, \Wobj := wobjPlatform;
		WaitRob \InPos;
		SetDO DO5_Program_Feed, 0;
		MoveL Offs(pZero, -15.184, -1.53, 1.2), v100, z0, tNozzle, \Wobj := wobjPlatform;
		WaitRob \InPos;
		SetDO DO5_Program_Feed, 1;
		MoveL Offs(pZero, -15.184, -12.6, 1.2), v30, z0, tNozzle, \Wobj := wobjPlatform;
		WaitRob \InPos;
		SetDO DO5_Program_Feed, 0;
		MoveL Offs(pZero, -18.184, -12.6, 1.2), v100, z0, tNozzle, \Wobj := wobjPlatform;
		WaitRob \InPos;
		SetDO DO5_Program_Feed, 1;
		MoveL Offs(pZero, -18.184, -6.727, 1.2), v30, z0, tNozzle, \Wobj := wobjPlatform;
		WaitRob \InPos;
		SetDO DO5_Program_Feed, 0;
		MoveL Offs(pZero, -21.184, -11.923, 1.2), v100, z0, tNozzle, \Wobj := wobjPlatform;
		WaitRob \InPos;
		SetDO DO5_Program_Feed, 1;
		MoveL Offs(pZero, -21.184, -12.6, 1.2), v30, z0, tNozzle, \Wobj := wobjPlatform;
		WaitRob \InPos;
		SetDO DO6_Between_Layer_Retract, 1;
		SetDO DO5_Program_Feed, 0;
		MoveL Offs(pZero, -21.184, -12.6, 6.2), v100, z0, tNozzle, \Wobj := wobjPlatform;

		! Layer: 5
		! LayerParams(infillAngleDegrees=30.0, pathWidth=3.0, layerHeight=0.3, infillShiftX=0.0, infillShiftY=0.0, numShells=2, infillOverlap=0.0002)
		! T15
		! M6
		TPWRITE "Layer 5 of -1";
		MoveL Offs(pZero, -0.184, 26.375, 6.5), v100, z0, tNozzle, \Wobj := wobjPlatform;
		MoveL Offs(pZero, -0.184, 26.375, 1.5), v30, z0, tNozzle, \Wobj := wobjPlatform;
		WaitRob \InPos;
		SetDO DO6_Between_Layer_Retract, 0;
		WaitRob \InPos;
		SetDO DO5_Program_Feed, 1;
		MoveL Offs(pZero, -1.429, 24.219, 1.5), v30, z0, tNozzle, \Wobj := wobjPlatform;
		MoveL Offs(pZero, -23.242, -13.563, 1.5), v30, z0, tNozzle, \Wobj := wobjPlatform;
		MoveL Offs(pZero, -20.752, -13.563, 1.5), v30, z0, tNozzle, \Wobj := wobjPlatform;
		MoveL Offs(pZero, 22.874, -13.563, 1.5), v30, z0, tNozzle, \Wobj := wobjPlatform;
		MoveL Offs(pZero, 21.629, -11.406, 1.5), v30, z0, tNozzle, \Wobj := wobjPlatform;
		MoveL Offs(pZero, -0.184, 26.375, 1.5), v30, z0, tNozzle, \Wobj := wobjPlatform;
		WaitRob \InPos;
		SetDO DO5_Program_Feed, 0;
		MoveL Offs(pZero, -0.184, 25.375, 1.5), v100, z0, tNozzle, \Wobj := wobjPlatform;
		WaitRob \InPos;
		SetDO DO5_Program_Feed, 1;
		MoveL Offs(pZero, -0.996, 23.969, 1.5), v30, z0, tNozzle, \Wobj := wobjPlatform;
		MoveL Offs(pZero, -22.376, -13.063, 1.5), v30, z0, tNozzle, \Wobj := wobjPlatform;
		MoveL Offs(pZero, -20.752, -13.063, 1.5), v30, z0, tNozzle, \Wobj := wobjPlatform;
		MoveL Offs(pZero, 22.008, -13.063, 1.5), v30, z0, tNozzle, \Wobj := wobjPlatform;
		MoveL Offs(pZero, 21.196, -11.656, 1.5), v30, z0, tNozzle, \Wobj := wobjPlatform;
		MoveL Offs(pZero, -0.184, 25.375, 1.5), v30, z0, tNozzle, \Wobj := wobjPlatform;
		WaitRob \InPos;
		SetDO DO5_Program_Feed, 0;
		MoveL Offs(pZero, 0.313, 23.514, 1.5), v100, z0, tNozzle, \Wobj := wobjPlatform;
		WaitRob \InPos;
		SetDO DO5_Program_Feed, 1;
		MoveL Offs(pZero, -1.179, 22.653, 1.5), v30, z0, tNozzle, \Wobj := wobjPlatform;
		WaitRob \InPos;
		SetDO DO5_Program_Feed, 0;
		MoveL Offs(pZero, 1.813, 20.916, 1.5), v100, z0, tNozzle, \Wobj := wobjPlatform;
		WaitRob \InPos;
		SetDO DO5_Program_Feed, 1;
		MoveL Offs(pZero, -4.179, 17.456, 1.5), v30, z0, tNozzle, \Wobj := wobjPlatform;
		WaitRob \InPos;
		SetDO DO5_Program_Feed, 0;
		MoveL Offs(pZero, -7.179, 12.26, 1.5), v100, z0, tNozzle, \Wobj := wobjPlatform;
		WaitRob \InPos;
		SetDO DO5_Program_Feed, 1;
		MoveL Offs(pZero, 3.313, 18.318, 1.5), v30, z0, tNozzle, \Wobj := wobjPlatform;
		WaitRob \InPos;
		SetDO DO5_Program_Feed, 0;
		MoveL Offs(pZero, 4.813, 15.72, 1.5), v100, z0, tNozzle, \Wobj := wobjPlatform;
		WaitRob \InPos;
		SetDO DO5_Program_Feed, 1;
		MoveL Offs(pZero, -10.179, 7.064, 1.5), v30, z0, tNozzle, \Wobj := wobjPlatform;
		WaitRob \InPos;
		SetDO DO5_Program_Feed, 0;
		MoveL Offs(pZero, -13.179, 1.868, 1.5), v100, z0, tNozzle, \Wobj := wobjPlatform;
		WaitRob \InPos;
		SetDO DO5_Program_Feed, 1;
		MoveL Offs(pZero, 6.313, 13.122, 1.5), v30, z0, tNozzle, \Wobj := wobjPlatform;
		WaitRob \InPos;
		SetDO DO5_Program_Feed, 0;
		MoveL Offs(pZero, 7.813, 10.524, 1.5), v100, z0, tNozzle, \Wobj := wobjPlatform;
		WaitRob \InPos;
		SetDO DO5_Program_Feed, 1;
		MoveL Offs(pZero, -16.179, -3.328, 1.5), v30, z0, tNozzle, \Wobj := wobjPlatform;
		WaitRob \InPos;
		SetDO DO5_Program_Feed, 0;
		MoveL Offs(pZero, -19.179, -8.524, 1.5), v100, z0, tNozzle, \Wobj := wobjPlatform;
		WaitRob \InPos;
		SetDO DO5_Program_Feed, 1;
		MoveL Offs(pZero, 9.313, 7.926, 1.5), v30, z0, tNozzle, \Wobj := wobjPlatform;
		WaitRob \InPos;
		SetDO DO5_Program_Feed, 0;
		MoveL Offs(pZero, 10.813, 5.327, 1.5), v100, z0, tNozzle, \Wobj := wobjPlatform;
		WaitRob \InPos;
		SetDO DO5_Program_Feed, 1;
		MoveL Offs(pZero, -20.174, -12.563, 1.5), v30, z0, tNozzle, \Wobj := wobjPlatform;
		WaitRob \InPos;
		SetDO DO5_Program_Feed, 0;
		MoveL Offs(pZero, -14.174, -12.563, 1.5), v100, z0, tNozzle, \Wobj := wobjPlatform;
		WaitRob \InPos;
		SetDO DO5_Program_Feed, 1;
		MoveL Offs(pZero, 12.313, 2.729, 1.5), v30, z0, tNozzle, \Wobj := wobjPlatform;
		WaitRob \InPos;
		SetDO DO5_Program_Feed, 0;
		MoveL Offs(pZero, 13.813, 0.131, 1.5), v100, z0, tNozzle, \Wobj := wobjPlatform;
		WaitRob \InPos;
		SetDO DO5_Program_Feed, 1;
		MoveL Offs(pZero, -8.174, -12.563, 1.5), v30, z0, tNozzle, \Wobj := wobjPlatform;
		WaitRob \InPos;
		SetDO DO5_Program_Feed, 0;
		MoveL Offs(pZero, -2.174, -12.563, 1.5), v100, z0, tNozzle, \Wobj := wobjPlatform;
		WaitRob \InPos;
		SetDO DO5_Program_Feed, 1;
		MoveL Offs(pZero, 15.313, -2.467, 1.5), v30, z0, tNozzle, \Wobj := wobjPlatform;
		WaitRob \InPos;
		SetDO DO5_Program_Feed, 0;
		MoveL Offs(pZero, 16.813, -5.065, 1.5), v100, z0, tNozzle, \Wobj := wobjPlatform;
		WaitRob \InPos;
		SetDO DO5_Program_Feed, 1;
		MoveL Offs(pZero, 3.826, -12.563, 1.5), v30, z0, tNozzle, \Wobj := wobjPlatform;
		WaitRob \InPos;
		SetDO DO5_Program_Feed, 0;
		MoveL Offs(pZero, 9.826, -12.563, 1.5), v100, z0, tNozzle, \Wobj := wobjPlatform;
		WaitRob \InPos;
		SetDO DO5_Program_Feed, 1;
		MoveL Offs(pZero, 18.313, -7.663, 1.5), v30, z0, tNozzle, \Wobj := wobjPlatform;
		WaitRob \InPos;
		SetDO DO5_Program_Feed, 0;
		MoveL Offs(pZero, 19.813, -10.261, 1.5), v100, z0, tNozzle, \Wobj := wobjPlatform;
		WaitRob \InPos;
		SetDO DO5_Program_Feed, 1;
		MoveL Offs(pZero, 15.826, -12.563, 1.5), v30, z0, tNozzle, \Wobj := wobjPlatform;
		WaitRob \InPos;
		SetDO DO6_Between_Layer_Retract, 1;
		SetDO DO5_Program_Feed, 0;
		MoveL Offs(pZero, 15.826, -12.563, 6.5), v100, z0, tNozzle, \Wobj := wobjPlatform;

		! Layer: 6
		! LayerParams(infillAngleDegrees=-30.0, pathWidth=3.0, layerHeight=0.3, infillShiftX=0.0, infillShiftY=0.0, numShells=2, infillOverlap=0.0002)
		! T16
		! M6
		TPWRITE "Layer 6 of -1";
		MoveL Offs(pZero, 21.271, -10.862, 6.8), v100, z0, tNozzle, \Wobj := wobjPlatform;
		MoveL Offs(pZero, 21.271, -10.862, 1.8), v30, z0, tNozzle, \Wobj := wobjPlatform;
		WaitRob \InPos;
		SetDO DO6_Between_Layer_Retract, 0;
		WaitRob \InPos;
		SetDO DO5_Program_Feed, 1;
		MoveL Offs(pZero, -0.184, 26.3, 1.8), v30, z0, tNozzle, \Wobj := wobjPlatform;
		MoveL Offs(pZero, -1.721, 23.637, 1.8), v30, z0, tNozzle, \Wobj := wobjPlatform;
		MoveL Offs(pZero, -23.177, -13.525, 1.8), v30, z0, tNozzle, \Wobj := wobjPlatform;
		MoveL Offs(pZero, -20.103, -13.525, 1.8), v30, z0, tNozzle, \Wobj := wobjPlatform;
		MoveL Offs(pZero, 22.809, -13.525, 1.8), v30, z0, tNozzle, \Wobj := wobjPlatform;
		MoveL Offs(pZero, 21.271, -10.862, 1.8), v30, z0, tNozzle, \Wobj := wobjPlatform;
		WaitRob \InPos;
		SetDO DO5_Program_Feed, 0;
		MoveL Offs(pZero, 20.838, -11.112, 1.8), v100, z0, tNozzle, \Wobj := wobjPlatform;
		WaitRob \InPos;
		SetDO DO5_Program_Feed, 1;
		MoveL Offs(pZero, -0.184, 25.3, 1.8), v30, z0, tNozzle, \Wobj := wobjPlatform;
		MoveL Offs(pZero, -1.288, 23.387, 1.8), v30, z0, tNozzle, \Wobj := wobjPlatform;
		MoveL Offs(pZero, -22.311, -13.025, 1.8), v30, z0, tNozzle, \Wobj := wobjPlatform;
		MoveL Offs(pZero, -20.103, -13.025, 1.8), v30, z0, tNozzle, \Wobj := wobjPlatform;
		MoveL Offs(pZero, 21.943, -13.025, 1.8), v30, z0, tNozzle, \Wobj := wobjPlatform;
		MoveL Offs(pZero, 20.838, -11.112, 1.8), v30, z0, tNozzle, \Wobj := wobjPlatform;
		WaitRob \InPos;
		SetDO DO5_Program_Feed, 0;
		MoveL Offs(pZero, 19.708, -12.525, 1.8), v100, z0, tNozzle, \Wobj := wobjPlatform;
		WaitRob \InPos;
		SetDO DO5_Program_Feed, 1;
		MoveL Offs(pZero, -11.157, 5.295, 1.8), v30, z0, tNozzle, \Wobj := wobjPlatform;
		WaitRob \InPos;
		SetDO DO5_Program_Feed, 0;
		MoveL Offs(pZero, -12.657, 2.697, 1.8), v100, z0, tNozzle, \Wobj := wobjPlatform;
		WaitRob \InPos;
		SetDO DO5_Program_Feed, 1;
		MoveL Offs(pZero, 13.708, -12.525, 1.8), v30, z0, tNozzle, \Wobj := wobjPlatform;
		WaitRob \InPos;
		SetDO DO5_Program_Feed, 0;
		MoveL Offs(pZero, 7.708, -12.525, 1.8), v100, z0, tNozzle, \Wobj := wobjPlatform;
		WaitRob \InPos;
		SetDO DO5_Program_Feed, 1;
		MoveL Offs(pZero, -14.157, 0.098, 1.8), v30, z0, tNozzle, \Wobj := wobjPlatform;
		WaitRob \InPos;
		SetDO DO5_Program_Feed, 0;
		MoveL Offs(pZero, -15.657, -2.5, 1.8), v100, z0, tNozzle, \Wobj := wobjPlatform;
		WaitRob \InPos;
		SetDO DO5_Program_Feed, 1;
		MoveL Offs(pZero, 1.708, -12.525, 1.8), v30, z0, tNozzle, \Wobj := wobjPlatform;
		WaitRob \InPos;
		SetDO DO5_Program_Feed, 0;
		MoveL Offs(pZero, -4.292, -12.525, 1.8), v100, z0, tNozzle, \Wobj := wobjPlatform;
		WaitRob \InPos;
		SetDO DO5_Program_Feed, 1;
		MoveL Offs(pZero, -17.157, -5.098, 1.8), v30, z0, tNozzle, \Wobj := wobjPlatform;
		WaitRob \InPos;
		SetDO DO5_Program_Feed, 0;
		MoveL Offs(pZero, -18.657, -7.696, 1.8), v100, z0, tNozzle, \Wobj := wobjPlatform;
		WaitRob \InPos;
		SetDO DO5_Program_Feed, 1;
		MoveL Offs(pZero, -10.292, -12.525, 1.8), v30, z0, tNozzle, \Wobj := wobjPlatform;
		WaitRob \InPos;
		SetDO DO5_Program_Feed, 0;
		MoveL Offs(pZero, -16.292, -12.525, 1.8), v100, z0, tNozzle, \Wobj := wobjPlatform;
		WaitRob \InPos;
		SetDO DO5_Program_Feed, 1;
		MoveL Offs(pZero, -20.157, -10.294, 1.8), v30, z0, tNozzle, \Wobj := wobjPlatform;
		WaitRob \InPos;
		SetDO DO5_Program_Feed, 0;
		MoveL Offs(pZero, -9.657, 7.893, 1.8), v100, z0, tNozzle, \Wobj := wobjPlatform;
		WaitRob \InPos;
		SetDO DO5_Program_Feed, 1;
		MoveL Offs(pZero, 18.762, -8.515, 1.8), v30, z0, tNozzle, \Wobj := wobjPlatform;
		WaitRob \InPos;
		SetDO DO5_Program_Feed, 0;
		MoveL Offs(pZero, 15.762, -3.319, 1.8), v100, z0, tNozzle, \Wobj := wobjPlatform;
		WaitRob \InPos;
		SetDO DO5_Program_Feed, 1;
		MoveL Offs(pZero, -8.157, 10.491, 1.8), v30, z0, tNozzle, \Wobj := wobjPlatform;
		WaitRob \InPos;
		SetDO DO5_Program_Feed, 0;
		MoveL Offs(pZero, -6.657, 13.089, 1.8), v100, z0, tNozzle, \Wobj := wobjPlatform;
		WaitRob \InPos;
		SetDO DO5_Program_Feed, 1;
		MoveL Offs(pZero, 12.762, 1.877, 1.8), v30, z0, tNozzle, \Wobj := wobjPlatform;
		WaitRob \InPos;
		SetDO DO5_Program_Feed, 0;
		MoveL Offs(pZero, 9.762, 7.074, 1.8), v100, z0, tNozzle, \Wobj := wobjPlatform;
		WaitRob \InPos;
		SetDO DO5_Program_Feed, 1;
		MoveL Offs(pZero, -5.157, 15.687, 1.8), v30, z0, tNozzle, \Wobj := wobjPlatform;
		WaitRob \InPos;
		SetDO DO5_Program_Feed, 0;
		MoveL Offs(pZero, -3.657, 18.285, 1.8), v100, z0, tNozzle, \Wobj := wobjPlatform;
		WaitRob \InPos;
		SetDO DO5_Program_Feed, 1;
		MoveL Offs(pZero, 6.762, 12.27, 1.8), v30, z0, tNozzle, \Wobj := wobjPlatform;
		WaitRob \InPos;
		SetDO DO5_Program_Feed, 0;
		MoveL Offs(pZero, 3.762, 17.466, 1.8), v100, z0, tNozzle, \Wobj := wobjPlatform;
		WaitRob \InPos;
		SetDO DO5_Program_Feed, 1;
		MoveL Offs(pZero, -2.157, 20.883, 1.8), v30, z0, tNozzle, \Wobj := wobjPlatform;
		WaitRob \InPos;
		SetDO DO5_Program_Feed, 0;
		MoveL Offs(pZero, -0.657, 23.481, 1.8), v100, z0, tNozzle, \Wobj := wobjPlatform;
		WaitRob \InPos;
		SetDO DO5_Program_Feed, 1;
		MoveL Offs(pZero, 0.762, 22.662, 1.8), v30, z0, tNozzle, \Wobj := wobjPlatform;
		WaitRob \InPos;
		SetDO DO6_Between_Layer_Retract, 1;
		SetDO DO5_Program_Feed, 0;
		MoveL Offs(pZero, 0.762, 22.662, 6.8), v100, z0, tNozzle, \Wobj := wobjPlatform;

		! Layer: 7
		! LayerParams(infillAngleDegrees=90.0, pathWidth=3.0, layerHeight=0.3, infillShiftX=0.0, infillShiftY=0.0, numShells=2, infillOverlap=0.0002)
		! T17
		! M6
		TPWRITE "Layer 7 of -1";
		MoveL Offs(pZero, -23.112, -13.488, 7.1), v100, z0, tNozzle, \Wobj := wobjPlatform;
		MoveL Offs(pZero, -23.112, -13.488, 2.1), v30, z0, tNozzle, \Wobj := wobjPlatform;
		WaitRob \InPos;
		SetDO DO6_Between_Layer_Retract, 0;
		WaitRob \InPos;
		SetDO DO5_Program_Feed, 1;
		MoveL Offs(pZero, -19.453, -13.488, 2.1), v30, z0, tNozzle, \Wobj := wobjPlatform;
		MoveL Offs(pZero, 22.744, -13.488, 2.1), v30, z0, tNozzle, \Wobj := wobjPlatform;
		MoveL Offs(pZero, 20.914, -10.319, 2.1), v30, z0, tNozzle, \Wobj := wobjPlatform;
		MoveL Offs(pZero, -0.184, 26.225, 2.1), v30, z0, tNozzle, \Wobj := wobjPlatform;
		MoveL Offs(pZero, -2.014, 23.056, 2.1), v30, z0, tNozzle, \Wobj := wobjPlatform;
		MoveL Offs(pZero, -23.112, -13.488, 2.1), v30, z0, tNozzle, \Wobj := wobjPlatform;
		WaitRob \InPos;
		SetDO DO5_Program_Feed, 0;
		MoveL Offs(pZero, -22.246, -12.988, 2.1), v100, z0, tNozzle, \Wobj := wobjPlatform;
		WaitRob \InPos;
		SetDO DO5_Program_Feed, 1;
		MoveL Offs(pZero, -19.453, -12.988, 2.1), v30, z0, tNozzle, \Wobj := wobjPlatform;
		MoveL Offs(pZero, 21.878, -12.988, 2.1), v30, z0, tNozzle, \Wobj := wobjPlatform;
		MoveL Offs(pZero, 20.481, -10.569, 2.1), v30, z0, tNozzle, \Wobj := wobjPlatform;
		MoveL Offs(pZero, -0.184, 25.225, 2.1), v30, z0, tNozzle, \Wobj := wobjPlatform;
		MoveL Offs(pZero, -1.581, 22.806, 2.1), v30, z0, tNozzle, \Wobj := wobjPlatform;
		MoveL Offs(pZero, -22.246, -12.988, 2.1), v30, z0, tNozzle, \Wobj := wobjPlatform;
		WaitRob \InPos;
		SetDO DO5_Program_Feed, 0;
		MoveL Offs(pZero, -21.184, -12.488, 2.1), v100, z0, tNozzle, \Wobj := wobjPlatform;
		WaitRob \InPos;
		SetDO DO5_Program_Feed, 1;
		MoveL Offs(pZero, -21.184, -12.148, 2.1), v30, z0, tNozzle, \Wobj := wobjPlatform;
		WaitRob \InPos;
		SetDO DO5_Program_Feed, 0;
		MoveL Offs(pZero, -18.184, -12.488, 2.1), v100, z0, tNozzle, \Wobj := wobjPlatform;
		WaitRob \InPos;
		SetDO DO5_Program_Feed, 1;
		MoveL Offs(pZero, -18.184, -6.952, 2.1), v30, z0, tNozzle, \Wobj := wobjPlatform;
		WaitRob \InPos;
		SetDO DO5_Program_Feed, 0;
		MoveL Offs(pZero, -15.184, -1.755, 2.1), v100, z0, tNozzle, \Wobj := wobjPlatform;
		WaitRob \InPos;
		SetDO DO5_Program_Feed, 1;
		MoveL Offs(pZero, -15.184, -12.488, 2.1), v30, z0, tNozzle, \Wobj := wobjPlatform;
		WaitRob \InPos;
		SetDO DO5_Program_Feed, 0;
		MoveL Offs(pZero, -12.184, -12.488, 2.1), v100, z0, tNozzle, \Wobj := wobjPlatform;
		WaitRob \InPos;
		SetDO DO5_Program_Feed, 1;
		MoveL Offs(pZero, -12.184, 3.441, 2.1), v30, z0, tNozzle, \Wobj := wobjPlatform;
		WaitRob \InPos;
		SetDO DO5_Program_Feed, 0;
		MoveL Offs(pZero, -9.184, 8.637, 2.1), v100, z0, tNozzle, \Wobj := wobjPlatform;
		WaitRob \InPos;
		SetDO DO5_Program_Feed, 1;
		MoveL Offs(pZero, -9.184, -12.488, 2.1), v30, z0, tNozzle, \Wobj := wobjPlatform;
		WaitRob \InPos;
		SetDO DO5_Program_Feed, 0;
		MoveL Offs(pZero, -6.184, -12.488, 2.1), v100, z0, tNozzle, \Wobj := wobjPlatform;
		WaitRob \InPos;
		SetDO DO5_Program_Feed, 1;
		MoveL Offs(pZero, -6.184, 13.833, 2.1), v30, z0, tNozzle, \Wobj := wobjPlatform;
		WaitRob \InPos;
		SetDO DO5_Program_Feed, 0;
		MoveL Offs(pZero, -3.184, 19.029, 2.1), v100, z0, tNozzle, \Wobj := wobjPlatform;
		WaitRob \InPos;
		SetDO DO5_Program_Feed, 1;
		MoveL Offs(pZero, -3.184, -12.488, 2.1), v30, z0, tNozzle, \Wobj := wobjPlatform;
		WaitRob \InPos;
		SetDO DO5_Program_Feed, 0;
		MoveL Offs(pZero, -0.184, -12.488, 2.1), v100, z0, tNozzle, \Wobj := wobjPlatform;
		WaitRob \InPos;
		SetDO DO5_Program_Feed, 1;
		MoveL Offs(pZero, -0.184, 24.225, 2.1), v30, z0, tNozzle, \Wobj := wobjPlatform;
		WaitRob \InPos;
		SetDO DO5_Program_Feed, 0;
		MoveL Offs(pZero, 2.816, 19.029, 2.1), v100, z0, tNozzle, \Wobj := wobjPlatform;
		WaitRob \InPos;
		SetDO DO5_Program_Feed, 1;
		MoveL Offs(pZero, 2.816, -12.488, 2.1), v30, z0, tNozzle, \Wobj := wobjPlatform;
		WaitRob \InPos;
		SetDO DO5_Program_Feed, 0;
		MoveL Offs(pZero, 5.816, -12.488, 2.1), v100, z0, tNozzle, \Wobj := wobjPlatform;
		WaitRob \InPos;
		SetDO DO5_Program_Feed, 1;
		MoveL Offs(pZero, 5.816, 13.833, 2.1), v30, z0, tNozzle, \Wobj := wobjPlatform;
		WaitRob \InPos;
		SetDO DO5_Program_Feed, 0;
		MoveL Offs(pZero, 8.816, 8.637, 2.1), v100, z0, tNozzle, \Wobj := wobjPlatform;
		WaitRob \InPos;
		SetDO DO5_Program_Feed, 1;
		MoveL Offs(pZero, 8.816, -12.488, 2.1), v30, z0, tNozzle, \Wobj := wobjPlatform;
		WaitRob \InPos;
		SetDO DO5_Program_Feed, 0;
		MoveL Offs(pZero, 11.816, -12.488, 2.1), v100, z0, tNozzle, \Wobj := wobjPlatform;
		WaitRob \InPos;
		SetDO DO5_Program_Feed, 1;
		MoveL Offs(pZero, 11.816, 3.441, 2.1), v30, z0, tNozzle, \Wobj := wobjPlatform;
		WaitRob \InPos;
		SetDO DO5_Program_Feed, 0;
		MoveL Offs(pZero, 14.816, -1.755, 2.1), v100, z0, tNozzle, \Wobj := wobjPlatform;
		WaitRob \InPos;
		SetDO DO5_Program_Feed, 1;
		MoveL Offs(pZero, 14.816, -12.488, 2.1), v30, z0, tNozzle, \Wobj := wobjPlatform;
		WaitRob \InPos;
		SetDO DO5_Program_Feed, 0;
		MoveL Offs(pZero, 17.816, -12.488, 2.1), v100, z0, tNozzle, \Wobj := wobjPlatform;
		WaitRob \InPos;
		SetDO DO5_Program_Feed, 1;
		MoveL Offs(pZero, 17.816, -6.952, 2.1), v30, z0, tNozzle, \Wobj := wobjPlatform;
		WaitRob \InPos;
		SetDO DO5_Program_Feed, 0;
		MoveL Offs(pZero, 20.816, -12.148, 2.1), v100, z0, tNozzle, \Wobj := wobjPlatform;
		WaitRob \InPos;
		SetDO DO5_Program_Feed, 1;
		MoveL Offs(pZero, 20.816, -12.488, 2.1), v30, z0, tNozzle, \Wobj := wobjPlatform;
		WaitRob \InPos;
		SetDO DO6_Between_Layer_Retract, 1;
		SetDO DO5_Program_Feed, 0;
		MoveL Offs(pZero, 20.816, -12.488, 7.1), v100, z0, tNozzle, \Wobj := wobjPlatform;

		! Layer: 8
		! LayerParams(infillAngleDegrees=30.0, pathWidth=3.0, layerHeight=0.3, infillShiftX=0.0, infillShiftY=0.0, numShells=2, infillOverlap=0.0002)
		! T18
		! M6
		TPWRITE "Layer 8 of -1";
		MoveL Offs(pZero, 20.557, -9.775, 7.4), v100, z0, tNozzle, \Wobj := wobjPlatform;
		MoveL Offs(pZero, 20.557, -9.775, 2.4), v30, z0, tNozzle, \Wobj := wobjPlatform;
		WaitRob \InPos;
		SetDO DO6_Between_Layer_Retract, 0;
		WaitRob \InPos;
		SetDO DO5_Program_Feed, 1;
		MoveL Offs(pZero, -0.184, 26.15, 2.4), v30, z0, tNozzle, \Wobj := wobjPlatform;
		MoveL Offs(pZero, -2.306, 22.475, 2.4), v30, z0, tNozzle, \Wobj := wobjPlatform;
		MoveL Offs(pZero, -23.047, -13.45, 2.4), v30, z0, tNozzle, \Wobj := wobjPlatform;
		MoveL Offs(pZero, -18.804, -13.45, 2.4), v30, z0, tNozzle, \Wobj := wobjPlatform;
		MoveL Offs(pZero, 22.679, -13.45, 2.4), v30, z0, tNozzle, \Wobj := wobjPlatform;
		MoveL Offs(pZero, 20.557, -9.775, 2.4), v30, z0, tNozzle, \Wobj := wobjPlatform;
		WaitRob \InPos;
		SetDO DO5_Program_Feed, 0;
		MoveL Offs(pZero, 20.124, -10.025, 2.4), v100, z0, tNozzle, \Wobj := wobjPlatform;
		WaitRob \InPos;
		SetDO DO5_Program_Feed, 1;
		MoveL Offs(pZero, -0.184, 25.15, 2.4), v30, z0, tNozzle, \Wobj := wobjPlatform;
		MoveL Offs(pZero, -1.873, 22.225, 2.4), v30, z0, tNozzle, \Wobj := wobjPlatform;
		MoveL Offs(pZero, -22.181, -12.95, 2.4), v30, z0, tNozzle, \Wobj := wobjPlatform;
		MoveL Offs(pZero, -18.804, -12.95, 2.4), v30, z0, tNozzle, \Wobj := wobjPlatform;
		MoveL Offs(pZero, 21.813, -12.95, 2.4), v30, z0, tNozzle, \Wobj := wobjPlatform;
		MoveL Offs(pZero, 20.124, -10.025, 2.4), v30, z0, tNozzle, \Wobj := wobjPlatform;
		WaitRob \InPos;
		SetDO DO5_Program_Feed, 0;
		MoveL Offs(pZero, 19.74, -10.359, 2.4), v100, z0, tNozzle, \Wobj := wobjPlatform;
		WaitRob \InPos;
		SetDO DO5_Program_Feed, 1;
		MoveL Offs(pZero, 16.119, -12.45, 2.4), v30, z0, tNozzle, \Wobj := wobjPlatform;
		WaitRob \InPos;
		SetDO DO5_Program_Feed, 0;
		MoveL Offs(pZero, 18.24, -7.761, 2.4), v100, z0, tNozzle, \Wobj := wobjPlatform;
		WaitRob \InPos;
		SetDO DO5_Program_Feed, 1;
		MoveL Offs(pZero, 10.119, -12.45, 2.4), v30, z0, tNozzle, \Wobj := wobjPlatform;
		WaitRob \InPos;
		SetDO DO5_Program_Feed, 0;
		MoveL Offs(pZero, 4.119, -12.45, 2.4), v100, z0, tNozzle, \Wobj := wobjPlatform;
		WaitRob \InPos;
		SetDO DO5_Program_Feed, 1;
		MoveL Offs(pZero, 16.74, -5.163, 2.4), v30, z0, tNozzle, \Wobj := wobjPlatform;
		WaitRob \InPos;
		SetDO DO5_Program_Feed, 0;
		MoveL Offs(pZero, 15.24, -2.565, 2.4), v100, z0, tNozzle, \Wobj := wobjPlatform;
		WaitRob \InPos;
		SetDO DO5_Program_Feed, 1;
		MoveL Offs(pZero, -1.881, -12.45, 2.4), v30, z0, tNozzle, \Wobj := wobjPlatform;
		WaitRob \InPos;
		SetDO DO5_Program_Feed, 0;
		MoveL Offs(pZero, -7.881, -12.45, 2.4), v100, z0, tNozzle, \Wobj := wobjPlatform;
		WaitRob \InPos;
		SetDO DO5_Program_Feed, 1;
		MoveL Offs(pZero, 13.74, 0.033, 2.4), v30, z0, tNozzle, \Wobj := wobjPlatform;
		WaitRob \InPos;
		SetDO DO5_Program_Feed, 0;
		MoveL Offs(pZero, 12.24, 2.631, 2.4), v100, z0, tNozzle, \Wobj := wobjPlatform;
		WaitRob \InPos;
		SetDO DO5_Program_Feed, 1;
		MoveL Offs(pZero, -13.881, -12.45, 2.4), v30, z0, tNozzle, \Wobj := wobjPlatform;
		WaitRob \InPos;
		SetDO DO5_Program_Feed, 0;
		MoveL Offs(pZero, -19.881, -12.45, 2.4), v100, z0, tNozzle, \Wobj := wobjPlatform;
		WaitRob \InPos;
		SetDO DO5_Program_Feed, 1;
		MoveL Offs(pZero, 10.74, 5.229, 2.4), v30, z0, tNozzle, \Wobj := wobjPlatform;
		WaitRob \InPos;
		SetDO DO5_Program_Feed, 0;
		MoveL Offs(pZero, 9.24, 7.827, 2.4), v100, z0, tNozzle, \Wobj := wobjPlatform;
		WaitRob \InPos;
		SetDO DO5_Program_Feed, 1;
		MoveL Offs(pZero, -19.033, -8.496, 2.4), v30, z0, tNozzle, \Wobj := wobjPlatform;
		WaitRob \InPos;
		SetDO DO5_Program_Feed, 0;
		MoveL Offs(pZero, -16.033, -3.3, 2.4), v100, z0, tNozzle, \Wobj := wobjPlatform;
		WaitRob \InPos;
		SetDO DO5_Program_Feed, 1;
		MoveL Offs(pZero, 7.74, 10.425, 2.4), v30, z0, tNozzle, \Wobj := wobjPlatform;
		WaitRob \InPos;
		SetDO DO5_Program_Feed, 0;
		MoveL Offs(pZero, 6.24, 13.023, 2.4), v100, z0, tNozzle, \Wobj := wobjPlatform;
		WaitRob \InPos;
		SetDO DO5_Program_Feed, 1;
		MoveL Offs(pZero, -13.033, 1.896, 2.4), v30, z0, tNozzle, \Wobj := wobjPlatform;
		WaitRob \InPos;
		SetDO DO5_Program_Feed, 0;
		MoveL Offs(pZero, -10.033, 7.092, 2.4), v100, z0, tNozzle, \Wobj := wobjPlatform;
		WaitRob \InPos;
		SetDO DO5_Program_Feed, 1;
		MoveL Offs(pZero, 4.74, 15.621, 2.4), v30, z0, tNozzle, \Wobj := wobjPlatform;
		WaitRob \InPos;
		SetDO DO5_Program_Feed, 0;
		MoveL Offs(pZero, 3.24, 18.219, 2.4), v100, z0, tNozzle, \Wobj := wobjPlatform;
		WaitRob \InPos;
		SetDO DO5_Program_Feed, 1;
		MoveL Offs(pZero, -7.033, 12.288, 2.4), v30, z0, tNozzle, \Wobj := wobjPlatform;
		WaitRob \InPos;
		SetDO DO5_Program_Feed, 0;
		MoveL Offs(pZero, -4.033, 17.485, 2.4), v100, z0, tNozzle, \Wobj := wobjPlatform;
		WaitRob \InPos;
		SetDO DO5_Program_Feed, 1;
		MoveL Offs(pZero, 1.74, 20.817, 2.4), v30, z0, tNozzle, \Wobj := wobjPlatform;
		WaitRob \InPos;
		SetDO DO5_Program_Feed, 0;
		MoveL Offs(pZero, 0.24, 23.416, 2.4), v100, z0, tNozzle, \Wobj := wobjPlatform;
		WaitRob \InPos;
		SetDO DO5_Program_Feed, 1;
		MoveL Offs(pZero, -1.033, 22.681, 2.4), v30, z0, tNozzle, \Wobj := wobjPlatform;
		WaitRob \InPos;
		SetDO DO6_Between_Layer_Retract, 1;
		SetDO DO5_Program_Feed, 0;
		MoveL Offs(pZero, -1.033, 22.681, 7.4), v100, z0, tNozzle, \Wobj := wobjPlatform;

		! Layer: 9
		! LayerParams(infillAngleDegrees=-30.0, pathWidth=3.0, layerHeight=0.3, infillShiftX=0.0, infillShiftY=0.0, numShells=2, infillOverlap=0.0002)
		! T19
		! M6
		TPWRITE "Layer 9 of -1";
		MoveL Offs(pZero, -2.598, 21.894, 7.7), v100, z0, tNozzle, \Wobj := wobjPlatform;
		MoveL Offs(pZero, -2.598, 21.894, 2.7), v30, z0, tNozzle, \Wobj := wobjPlatform;
		WaitRob \InPos;
		SetDO DO6_Between_Layer_Retract, 0;
		WaitRob \InPos;
		SetDO DO5_Program_Feed, 1;
		MoveL Offs(pZero, -22.982, -13.413, 2.7), v30, z0, tNozzle, \Wobj := wobjPlatform;
		MoveL Offs(pZero, 22.614, -13.413, 2.7), v30, z0, tNozzle, \Wobj := wobjPlatform;
		MoveL Offs(pZero, 20.2, -9.231, 2.7), v30, z0, tNozzle, \Wobj := wobjPlatform;
		MoveL Offs(pZero, -0.184, 26.075, 2.7), v30, z0, tNozzle, \Wobj := wobjPlatform;
		MoveL Offs(pZero, -2.598, 21.894, 2.7), v30, z0, tNozzle, \Wobj := wobjPlatform;
		WaitRob \InPos;
		SetDO DO5_Program_Feed, 0;
		MoveL Offs(pZero, -2.165, 21.644, 2.7), v100, z0, tNozzle, \Wobj := wobjPlatform;
		WaitRob \InPos;
		SetDO DO5_Program_Feed, 1;
		MoveL Offs(pZero, -22.116, -12.913, 2.7), v30, z0, tNozzle, \Wobj := wobjPlatform;
		MoveL Offs(pZero, 21.748, -12.913, 2.7), v30, z0, tNozzle, \Wobj := wobjPlatform;
		MoveL Offs(pZero, 19.767, -9.481, 2.7), v30, z0, tNozzle, \Wobj := wobjPlatform;
		MoveL Offs(pZero, -0.184, 25.075, 2.7), v30, z0, tNozzle, \Wobj := wobjPlatform;
		MoveL Offs(pZero, -2.165, 21.644, 2.7), v30, z0, tNozzle, \Wobj := wobjPlatform;
		WaitRob \InPos;
		SetDO DO5_Program_Feed, 0;
		MoveL Offs(pZero, -2.084, 20.785, 2.7), v100, z0, tNozzle, \Wobj := wobjPlatform;
		WaitRob \InPos;
		SetDO DO5_Program_Feed, 1;
		MoveL Offs(pZero, 3.616, 17.494, 2.7), v30, z0, tNozzle, \Wobj := wobjPlatform;
		WaitRob \InPos;
		SetDO DO5_Program_Feed, 0;
		MoveL Offs(pZero, 6.616, 12.298, 2.7), v100, z0, tNozzle, \Wobj := wobjPlatform;
		WaitRob \InPos;
		SetDO DO5_Program_Feed, 1;
		MoveL Offs(pZero, -3.584, 18.187, 2.7), v30, z0, tNozzle, \Wobj := wobjPlatform;
		WaitRob \InPos;
		SetDO DO5_Program_Feed, 0;
		MoveL Offs(pZero, -5.084, 15.589, 2.7), v100, z0, tNozzle, \Wobj := wobjPlatform;
		WaitRob \InPos;
		SetDO DO5_Program_Feed, 1;
		MoveL Offs(pZero, 9.616, 7.102, 2.7), v30, z0, tNozzle, \Wobj := wobjPlatform;
		WaitRob \InPos;
		SetDO DO5_Program_Feed, 0;
		MoveL Offs(pZero, 12.616, 1.905, 2.7), v100, z0, tNozzle, \Wobj := wobjPlatform;
		WaitRob \InPos;
		SetDO DO5_Program_Feed, 1;
		MoveL Offs(pZero, -6.584, 12.99, 2.7), v30, z0, tNozzle, \Wobj := wobjPlatform;
		WaitRob \InPos;
		SetDO DO5_Program_Feed, 0;
		MoveL Offs(pZero, -8.084, 10.392, 2.7), v100, z0, tNozzle, \Wobj := wobjPlatform;
		WaitRob \InPos;
		SetDO DO5_Program_Feed, 1;
		MoveL Offs(pZero, 15.616, -3.291, 2.7), v30, z0, tNozzle, \Wobj := wobjPlatform;
		WaitRob \InPos;
		SetDO DO5_Program_Feed, 0;
		MoveL Offs(pZero, 18.616, -8.487, 2.7), v100, z0, tNozzle, \Wobj := wobjPlatform;
		WaitRob \InPos;
		SetDO DO5_Program_Feed, 1;
		MoveL Offs(pZero, -9.584, 7.794, 2.7), v30, z0, tNozzle, \Wobj := wobjPlatform;
		WaitRob \InPos;
		SetDO DO5_Program_Feed, 0;
		MoveL Offs(pZero, -11.084, 5.196, 2.7), v100, z0, tNozzle, \Wobj := wobjPlatform;
		WaitRob \InPos;
		SetDO DO5_Program_Feed, 1;
		MoveL Offs(pZero, 19.415, -12.413, 2.7), v30, z0, tNozzle, \Wobj := wobjPlatform;
		WaitRob \InPos;
		SetDO DO5_Program_Feed, 0;
		MoveL Offs(pZero, 13.415, -12.413, 2.7), v100, z0, tNozzle, \Wobj := wobjPlatform;
		WaitRob \InPos;
		SetDO DO5_Program_Feed, 1;
		MoveL Offs(pZero, -12.584, 2.598, 2.7), v30, z0, tNozzle, \Wobj := wobjPlatform;
		WaitRob \InPos;
		SetDO DO5_Program_Feed, 0;
		MoveL Offs(pZero, -14.084, 0.0, 2.7), v100, z0, tNozzle, \Wobj := wobjPlatform;
		WaitRob \InPos;
		SetDO DO5_Program_Feed, 1;
		MoveL Offs(pZero, 7.415, -12.413, 2.7), v30, z0, tNozzle, \Wobj := wobjPlatform;
		WaitRob \InPos;
		SetDO DO5_Program_Feed, 0;
		MoveL Offs(pZero, 1.415, -12.413, 2.7), v100, z0, tNozzle, \Wobj := wobjPlatform;
		WaitRob \InPos;
		SetDO DO5_Program_Feed, 1;
		MoveL Offs(pZero, -15.584, -2.598, 2.7), v30, z0, tNozzle, \Wobj := wobjPlatform;
		WaitRob \InPos;
		SetDO DO5_Program_Feed, 0;
		MoveL Offs(pZero, -17.084, -5.196, 2.7), v100, z0, tNozzle, \Wobj := wobjPlatform;
		WaitRob \InPos;
		SetDO DO5_Program_Feed, 1;
		MoveL Offs(pZero, -4.585, -12.413, 2.7), v30, z0, tNozzle, \Wobj := wobjPlatform;
		WaitRob \InPos;
		SetDO DO5_Program_Feed, 0;
		MoveL Offs(pZero, -10.585, -12.413, 2.7), v100, z0, tNozzle, \Wobj := wobjPlatform;
		WaitRob \InPos;
		SetDO DO5_Program_Feed, 1;
		MoveL Offs(pZero, -18.584, -7.794, 2.7), v30, z0, tNozzle, \Wobj := wobjPlatform;
		WaitRob \InPos;
		SetDO DO5_Program_Feed, 0;
		MoveL Offs(pZero, -20.084, -10.392, 2.7), v100, z0, tNozzle, \Wobj := wobjPlatform;
		WaitRob \InPos;
		SetDO DO5_Program_Feed, 1;
		MoveL Offs(pZero, -16.585, -12.413, 2.7), v30, z0, tNozzle, \Wobj := wobjPlatform;
		WaitRob \InPos;
		SetDO DO6_Between_Layer_Retract, 1;
		SetDO DO5_Program_Feed, 0;
		MoveL Offs(pZero, -16.585, -12.413, 7.7), v100, z0, tNozzle, \Wobj := wobjPlatform;
		MoveL Offs(pZero, 0.616, 22.69, 7.7), v100, z0, tNozzle, \Wobj := wobjPlatform;
		WaitRob \InPos;
		SetDO DO6_Between_Layer_Retract, 0;
		MoveL Offs(pZero, 0.616, 22.69, 2.7), v30, z0, tNozzle, \Wobj := wobjPlatform;
		WaitRob \InPos;
		SetDO DO5_Program_Feed, 1;
		MoveL Offs(pZero, -0.584, 23.383, 2.7), v30, z0, tNozzle, \Wobj := wobjPlatform;
		WaitRob \InPos;
		SetDO DO6_Between_Layer_Retract, 1;
		SetDO DO5_Program_Feed, 0;
		MoveL Offs(pZero, -0.584, 23.383, 7.7), v100, z0, tNozzle, \Wobj := wobjPlatform;

		! Layer: 10
		! LayerParams(infillAngleDegrees=90.0, pathWidth=3.0, layerHeight=0.3, infillShiftX=0.0, infillShiftY=0.0, numShells=2, infillOverlap=0.0002)
		! T110
		! M6
		TPWRITE "Layer 10 of -1";
		MoveL Offs(pZero, -0.184, 26.0, 8.0), v100, z0, tNozzle, \Wobj := wobjPlatform;
		MoveL Offs(pZero, -0.184, 26.0, 3.0), v30, z0, tNozzle, \Wobj := wobjPlatform;
		WaitRob \InPos;
		SetDO DO6_Between_Layer_Retract, 0;
		WaitRob \InPos;
		SetDO DO5_Program_Feed, 1;
		MoveL Offs(pZero, -2.891, 21.312, 3.0), v30, z0, tNozzle, \Wobj := wobjPlatform;
		MoveL Offs(pZero, -22.917, -13.375, 3.0), v30, z0, tNozzle, \Wobj := wobjPlatform;
		MoveL Offs(pZero, 22.549, -13.375, 3.0), v30, z0, tNozzle, \Wobj := wobjPlatform;
		MoveL Offs(pZero, 19.843, -8.687, 3.0), v30, z0, tNozzle, \Wobj := wobjPlatform;
		MoveL Offs(pZero, -0.184, 26.0, 3.0), v30, z0, tNozzle, \Wobj := wobjPlatform;
		WaitRob \InPos;
		SetDO DO5_Program_Feed, 0;
		MoveL Offs(pZero, -0.184, 25.0, 3.0), v100, z0, tNozzle, \Wobj := wobjPlatform;
		WaitRob \InPos;
		SetDO DO5_Program_Feed, 1;
		MoveL Offs(pZero, -2.458, 21.062, 3.0), v30, z0, tNozzle, \Wobj := wobjPlatform;
		MoveL Offs(pZero, -22.051, -12.875, 3.0), v30, z0, tNozzle, \Wobj := wobjPlatform;
		MoveL Offs(pZero, 21.683, -12.875, 3.0), v30, z0, tNozzle, \Wobj := wobjPlatform;
		MoveL Offs(pZero, 19.41, -8.937, 3.0), v30, z0, tNozzle, \Wobj := wobjPlatform;
		MoveL Offs(pZero, -0.184, 25.0, 3.0), v30, z0, tNozzle, \Wobj := wobjPlatform;
		WaitRob \InPos;
		SetDO DO5_Program_Feed, 0;
		MoveL Offs(pZero, -0.184, 24.0, 3.0), v100, z0, tNozzle, \Wobj := wobjPlatform;
		WaitRob \InPos;
		SetDO DO5_Program_Feed, 1;
		MoveL Offs(pZero, -0.184, -12.375, 3.0), v30, z0, tNozzle, \Wobj := wobjPlatform;
		WaitRob \InPos;
		SetDO DO5_Program_Feed, 0;
		MoveL Offs(pZero, 2.816, -12.375, 3.0), v100, z0, tNozzle, \Wobj := wobjPlatform;
		WaitRob \InPos;
		SetDO DO5_Program_Feed, 1;
		MoveL Offs(pZero, 2.816, 18.804, 3.0), v30, z0, tNozzle, \Wobj := wobjPlatform;
		WaitRob \InPos;
		SetDO DO5_Program_Feed, 0;
		MoveL Offs(pZero, 5.816, 13.608, 3.0), v100, z0, tNozzle, \Wobj := wobjPlatform;
		WaitRob \InPos;
		SetDO DO5_Program_Feed, 1;
		MoveL Offs(pZero, 5.816, -12.375, 3.0), v30, z0, tNozzle, \Wobj := wobjPlatform;
		WaitRob \InPos;
		SetDO DO5_Program_Feed, 0;
		MoveL Offs(pZero, 8.816, -12.375, 3.0), v100, z0, tNozzle, \Wobj := wobjPlatform;
		WaitRob \InPos;
		SetDO DO5_Program_Feed, 1;
		MoveL Offs(pZero, 8.816, 8.412, 3.0), v30, z0, tNozzle, \Wobj := wobjPlatform;
		WaitRob \InPos;
		SetDO DO5_Program_Feed, 0;
		MoveL Offs(pZero, 11.816, 3.216, 3.0), v100, z0, tNozzle, \Wobj := wobjPlatform;
		WaitRob \InPos;
		SetDO DO5_Program_Feed, 1;
		MoveL Offs(pZero, 11.816, -12.375, 3.0), v30, z0, tNozzle, \Wobj := wobjPlatform;
		WaitRob \InPos;
		SetDO DO5_Program_Feed, 0;
		MoveL Offs(pZero, 14.816, -12.375, 3.0), v100, z0, tNozzle, \Wobj := wobjPlatform;
		WaitRob \InPos;
		SetDO DO5_Program_Feed, 1;
		MoveL Offs(pZero, 14.816, -1.98, 3.0), v30, z0, tNozzle, \Wobj := wobjPlatform;
		WaitRob \InPos;
		SetDO DO5_Program_Feed, 0;
		MoveL Offs(pZero, 17.816, -7.177, 3.0), v100, z0, tNozzle, \Wobj := wobjPlatform;
		WaitRob \InPos;
		SetDO DO5_Program_Feed, 1;
		MoveL Offs(pZero, 17.816, -12.375, 3.0), v30, z0, tNozzle, \Wobj := wobjPlatform;
		WaitRob \InPos;
		SetDO DO5_Program_Feed, 0;
		MoveL Offs(pZero, 20.816, -12.375, 3.0), v100, z0, tNozzle, \Wobj := wobjPlatform;
		WaitRob \InPos;
		SetDO DO5_Program_Feed, 1;
		MoveL Offs(pZero, 20.816, -12.373, 3.0), v30, z0, tNozzle, \Wobj := wobjPlatform;
		WaitRob \InPos;
		SetDO DO5_Program_Feed, 0;
		MoveL Offs(pZero, -3.184, -12.375, 3.0), v100, z0, tNozzle, \Wobj := wobjPlatform;
		WaitRob \InPos;
		SetDO DO5_Program_Feed, 1;
		MoveL Offs(pZero, -3.184, 18.804, 3.0), v30, z0, tNozzle, \Wobj := wobjPlatform;
		WaitRob \InPos;
		SetDO DO5_Program_Feed, 0;
		MoveL Offs(pZero, -6.184, 13.608, 3.0), v100, z0, tNozzle, \Wobj := wobjPlatform;
		WaitRob \InPos;
		SetDO DO5_Program_Feed, 1;
		MoveL Offs(pZero, -6.184, -12.375, 3.0), v30, z0, tNozzle, \Wobj := wobjPlatform;
		WaitRob \InPos;
		SetDO DO5_Program_Feed, 0;
		MoveL Offs(pZero, -9.184, -12.375, 3.0), v100, z0, tNozzle, \Wobj := wobjPlatform;
		WaitRob \InPos;
		SetDO DO5_Program_Feed, 1;
		MoveL Offs(pZero, -9.184, 8.412, 3.0), v30, z0, tNozzle, \Wobj := wobjPlatform;
		WaitRob \InPos;
		SetDO DO5_Program_Feed, 0;
		MoveL Offs(pZero, -12.184, 3.216, 3.0), v100, z0, tNozzle, \Wobj := wobjPlatform;
		WaitRob \InPos;
		SetDO DO5_Program_Feed, 1;
		MoveL Offs(pZero, -12.184, -12.375, 3.0), v30, z0, tNozzle, \Wobj := wobjPlatform;
		WaitRob \InPos;
		SetDO DO5_Program_Feed, 0;
		MoveL Offs(pZero, -15.184, -12.375, 3.0), v100, z0, tNozzle, \Wobj := wobjPlatform;
		WaitRob \InPos;
		SetDO DO5_Program_Feed, 1;
		MoveL Offs(pZero, -15.184, -1.98, 3.0), v30, z0, tNozzle, \Wobj := wobjPlatform;
		WaitRob \InPos;
		SetDO DO5_Program_Feed, 0;
		MoveL Offs(pZero, -18.184, -7.177, 3.0), v100, z0, tNozzle, \Wobj := wobjPlatform;
		WaitRob \InPos;
		SetDO DO5_Program_Feed, 1;
		MoveL Offs(pZero, -18.184, -12.375, 3.0), v30, z0, tNozzle, \Wobj := wobjPlatform;
		WaitRob \InPos;
		SetDO DO5_Program_Feed, 0;
		MoveL Offs(pZero, -21.184, -12.375, 3.0), v100, z0, tNozzle, \Wobj := wobjPlatform;
		WaitRob \InPos;
		SetDO DO5_Program_Feed, 1;
		MoveL Offs(pZero, -21.184, -12.373, 3.0), v30, z0, tNozzle, \Wobj := wobjPlatform;
		WaitRob \InPos;
		SetDO DO6_Between_Layer_Retract, 1;
		SetDO DO5_Program_Feed, 0;
		MoveL Offs(pZero, -21.184, -12.373, 8.0), v100, z0, tNozzle, \Wobj := wobjPlatform;

		! Layer: 11
		! LayerParams(infillAngleDegrees=30.0, pathWidth=3.0, layerHeight=0.3, infillShiftX=0.0, infillShiftY=0.0, numShells=2, infillOverlap=0.0002)
		! T111
		! M6
		TPWRITE "Layer 11 of -1";
		MoveL Offs(pZero, -22.853, -13.338, 8.3), v100, z0, tNozzle, \Wobj := wobjPlatform;
		MoveL Offs(pZero, -22.853, -13.338, 3.3), v30, z0, tNozzle, \Wobj := wobjPlatform;
		WaitRob \InPos;
		SetDO DO6_Between_Layer_Retract, 0;
		WaitRob \InPos;
		SetDO DO5_Program_Feed, 1;
		MoveL Offs(pZero, -16.855, -13.338, 3.3), v30, z0, tNozzle, \Wobj := wobjPlatform;
		MoveL Offs(pZero, 22.484, -13.338, 3.3), v30, z0, tNozzle, \Wobj := wobjPlatform;
		MoveL Offs(pZero, 19.485, -8.144, 3.3), v30, z0, tNozzle, \Wobj := wobjPlatform;
		MoveL Offs(pZero, -0.184, 25.925, 3.3), v30, z0, tNozzle, \Wobj := wobjPlatform;
		MoveL Offs(pZero, -3.183, 20.731, 3.3), v30, z0, tNozzle, \Wobj := wobjPlatform;
		MoveL Offs(pZero, -22.853, -13.338, 3.3), v30, z0, tNozzle, \Wobj := wobjPlatform;
		WaitRob \InPos;
		SetDO DO5_Program_Feed, 0;
		MoveL Offs(pZero, -21.986, -12.838, 3.3), v100, z0, tNozzle, \Wobj := wobjPlatform;
		WaitRob \InPos;
		SetDO DO5_Program_Feed, 1;
		MoveL Offs(pZero, -16.855, -12.838, 3.3), v30, z0, tNozzle, \Wobj := wobjPlatform;
		MoveL Offs(pZero, 21.618, -12.838, 3.3), v30, z0, tNozzle, \Wobj := wobjPlatform;
		MoveL Offs(pZero, 19.052, -8.394, 3.3), v30, z0, tNozzle, \Wobj := wobjPlatform;
		MoveL Offs(pZero, -0.184, 24.925, 3.3), v30, z0, tNozzle, \Wobj := wobjPlatform;
		MoveL Offs(pZero, -2.75, 20.481, 3.3), v30, z0, tNozzle, \Wobj := wobjPlatform;
		MoveL Offs(pZero, -21.986, -12.838, 3.3), v30, z0, tNozzle, \Wobj := wobjPlatform;
		WaitRob \InPos;
		SetDO DO5_Program_Feed, 0;
		MoveL Offs(pZero, -19.589, -12.338, 3.3), v100, z0, tNozzle, \Wobj := wobjPlatform;
		WaitRob \InPos;
		SetDO DO5_Program_Feed, 1;
		MoveL Offs(pZero, 10.667, 5.131, 3.3), v30, z0, tNozzle, \Wobj := wobjPlatform;
		WaitRob \InPos;
		SetDO DO5_Program_Feed, 0;
		MoveL Offs(pZero, 12.167, 2.533, 3.3), v100, z0, tNozzle, \Wobj := wobjPlatform;
		WaitRob \InPos;
		SetDO DO5_Program_Feed, 1;
		MoveL Offs(pZero, -13.589, -12.338, 3.3), v30, z0, tNozzle, \Wobj := wobjPlatform;
		WaitRob \InPos;
		SetDO DO5_Program_Feed, 0;
		MoveL Offs(pZero, -7.589, -12.338, 3.3), v100, z0, tNozzle, \Wobj := wobjPlatform;
		WaitRob \InPos;
		SetDO DO5_Program_Feed, 1;
		MoveL Offs(pZero, 13.667, -0.066, 3.3), v30, z0, tNozzle, \Wobj := wobjPlatform;
		WaitRob \InPos;
		SetDO DO5_Program_Feed, 0;
		MoveL Offs(pZero, 15.167, -2.664, 3.3), v100, z0, tNozzle, \Wobj := wobjPlatform;
		WaitRob \InPos;
		SetDO DO5_Program_Feed, 1;
		MoveL Offs(pZero, -1.589, -12.338, 3.3), v30, z0, tNozzle, \Wobj := wobjPlatform;
		WaitRob \InPos;
		SetDO DO5_Program_Feed, 0;
		MoveL Offs(pZero, 4.411, -12.338, 3.3), v100, z0, tNozzle, \Wobj := wobjPlatform;
		WaitRob \InPos;
		SetDO DO5_Program_Feed, 1;
		MoveL Offs(pZero, 16.667, -5.262, 3.3), v30, z0, tNozzle, \Wobj := wobjPlatform;
		WaitRob \InPos;
		SetDO DO5_Program_Feed, 0;
		MoveL Offs(pZero, 18.167, -7.86, 3.3), v100, z0, tNozzle, \Wobj := wobjPlatform;
		WaitRob \InPos;
		SetDO DO5_Program_Feed, 1;
		MoveL Offs(pZero, 10.411, -12.338, 3.3), v30, z0, tNozzle, \Wobj := wobjPlatform;
		WaitRob \InPos;
		SetDO DO5_Program_Feed, 0;
		MoveL Offs(pZero, 16.411, -12.338, 3.3), v100, z0, tNozzle, \Wobj := wobjPlatform;
		WaitRob \InPos;
		SetDO DO5_Program_Feed, 1;
		MoveL Offs(pZero, 19.667, -10.458, 3.3), v30, z0, tNozzle, \Wobj := wobjPlatform;
		WaitRob \InPos;
		SetDO DO5_Program_Feed, 0;
		MoveL Offs(pZero, 9.167, 7.729, 3.3), v100, z0, tNozzle, \Wobj := wobjPlatform;
		WaitRob \InPos;
		SetDO DO5_Program_Feed, 1;
		MoveL Offs(pZero, -18.887, -8.468, 3.3), v30, z0, tNozzle, \Wobj := wobjPlatform;
		WaitRob \InPos;
		SetDO DO5_Program_Feed, 0;
		MoveL Offs(pZero, -15.887, -3.272, 3.3), v100, z0, tNozzle, \Wobj := wobjPlatform;
		WaitRob \InPos;
		SetDO DO5_Program_Feed, 1;
		MoveL Offs(pZero, 7.667, 10.327, 3.3), v30, z0, tNozzle, \Wobj := wobjPlatform;
		WaitRob \InPos;
		SetDO DO5_Program_Feed, 0;
		MoveL Offs(pZero, 6.167, 12.925, 3.3), v100, z0, tNozzle, \Wobj := wobjPlatform;
		WaitRob \InPos;
		SetDO DO5_Program_Feed, 1;
		MoveL Offs(pZero, -12.887, 1.924, 3.3), v30, z0, tNozzle, \Wobj := wobjPlatform;
		WaitRob \InPos;
		SetDO DO5_Program_Feed, 0;
		MoveL Offs(pZero, -9.887, 7.12, 3.3), v100, z0, tNozzle, \Wobj := wobjPlatform;
		WaitRob \InPos;
		SetDO DO5_Program_Feed, 1;
		MoveL Offs(pZero, 4.667, 15.523, 3.3), v30, z0, tNozzle, \Wobj := wobjPlatform;
		WaitRob \InPos;
		SetDO DO5_Program_Feed, 0;
		MoveL Offs(pZero, 3.167, 18.121, 3.3), v100, z0, tNozzle, \Wobj := wobjPlatform;
		WaitRob \InPos;
		SetDO DO5_Program_Feed, 1;
		MoveL Offs(pZero, -6.887, 12.317, 3.3), v30, z0, tNozzle, \Wobj := wobjPlatform;
		WaitRob \InPos;
		SetDO DO5_Program_Feed, 0;
		MoveL Offs(pZero, -3.887, 17.513, 3.3), v100, z0, tNozzle, \Wobj := wobjPlatform;
		WaitRob \InPos;
		SetDO DO5_Program_Feed, 1;
		MoveL Offs(pZero, 1.667, 20.719, 3.3), v30, z0, tNozzle, \Wobj := wobjPlatform;
		WaitRob \InPos;
		SetDO DO5_Program_Feed, 0;
		MoveL Offs(pZero, 0.167, 23.317, 3.3), v100, z0, tNozzle, \Wobj := wobjPlatform;
		WaitRob \InPos;
		SetDO DO5_Program_Feed, 1;
		MoveL Offs(pZero, -0.887, 22.709, 3.3), v30, z0, tNozzle, \Wobj := wobjPlatform;
		WaitRob \InPos;
		SetDO DO6_Between_Layer_Retract, 1;
		SetDO DO5_Program_Feed, 0;
		MoveL Offs(pZero, -0.887, 22.709, 8.3), v100, z0, tNozzle, \Wobj := wobjPlatform;

		! Layer: 12
		! LayerParams(infillAngleDegrees=-30.0, pathWidth=3.0, layerHeight=0.3, infillShiftX=0.0, infillShiftY=0.0, numShells=2, infillOverlap=0.0002)
		! T112
		! M6
		TPWRITE "Layer 12 of -1";
		MoveL Offs(pZero, 19.128, -7.6, 8.6), v100, z0, tNozzle, \Wobj := wobjPlatform;
		MoveL Offs(pZero, 19.128, -7.6, 3.6), v30, z0, tNozzle, \Wobj := wobjPlatform;
		WaitRob \InPos;
		SetDO DO6_Between_Layer_Retract, 0;
		WaitRob \InPos;
		SetDO DO5_Program_Feed, 1;
		MoveL Offs(pZero, -0.184, 25.85, 3.6), v30, z0, tNozzle, \Wobj := wobjPlatform;
		MoveL Offs(pZero, -3.475, 20.15, 3.6), v30, z0, tNozzle, \Wobj := wobjPlatform;
		MoveL Offs(pZero, -22.788, -13.3, 3.6), v30, z0, tNozzle, \Wobj := wobjPlatform;
		MoveL Offs(pZero, 22.419, -13.3, 3.6), v30, z0, tNozzle, \Wobj := wobjPlatform;
		MoveL Offs(pZero, 19.128, -7.6, 3.6), v30, z0, tNozzle, \Wobj := wobjPlatform;
		WaitRob \InPos;
		SetDO DO5_Program_Feed, 0;
		MoveL Offs(pZero, 18.695, -7.85, 3.6), v100, z0, tNozzle, \Wobj := wobjPlatform;
		WaitRob \InPos;
		SetDO DO5_Program_Feed, 1;
		MoveL Offs(pZero, -0.184, 24.85, 3.6), v30, z0, tNozzle, \Wobj := wobjPlatform;
		MoveL Offs(pZero, -3.042, 19.9, 3.6), v30, z0, tNozzle, \Wobj := wobjPlatform;
		MoveL Offs(pZero, -21.922, -12.8, 3.6), v30, z0, tNozzle, \Wobj := wobjPlatform;
		MoveL Offs(pZero, 21.553, -12.8, 3.6), v30, z0, tNozzle, \Wobj := wobjPlatform;
		MoveL Offs(pZero, 18.695, -7.85, 3.6), v30, z0, tNozzle, \Wobj := wobjPlatform;
		WaitRob \InPos;
		SetDO DO5_Program_Feed, 0;
		MoveL Offs(pZero, 18.469, -8.459, 3.6), v100, z0, tNozzle, \Wobj := wobjPlatform;
		WaitRob \InPos;
		SetDO DO5_Program_Feed, 1;
		MoveL Offs(pZero, -9.511, 7.696, 3.6), v30, z0, tNozzle, \Wobj := wobjPlatform;
		WaitRob \InPos;
		SetDO DO5_Program_Feed, 0;
		MoveL Offs(pZero, -8.011, 10.294, 3.6), v100, z0, tNozzle, \Wobj := wobjPlatform;
		WaitRob \InPos;
		SetDO DO5_Program_Feed, 1;
		MoveL Offs(pZero, 15.469, -3.263, 3.6), v30, z0, tNozzle, \Wobj := wobjPlatform;
		WaitRob \InPos;
		SetDO DO5_Program_Feed, 0;
		MoveL Offs(pZero, 12.469, 1.934, 3.6), v100, z0, tNozzle, \Wobj := wobjPlatform;
		WaitRob \InPos;
		SetDO DO5_Program_Feed, 1;
		MoveL Offs(pZero, -6.511, 12.892, 3.6), v30, z0, tNozzle, \Wobj := wobjPlatform;
		WaitRob \InPos;
		SetDO DO5_Program_Feed, 0;
		MoveL Offs(pZero, -5.011, 15.49, 3.6), v100, z0, tNozzle, \Wobj := wobjPlatform;
		WaitRob \InPos;
		SetDO DO5_Program_Feed, 1;
		MoveL Offs(pZero, 9.469, 7.13, 3.6), v30, z0, tNozzle, \Wobj := wobjPlatform;
		WaitRob \InPos;
		SetDO DO5_Program_Feed, 0;
		MoveL Offs(pZero, 6.469, 12.326, 3.6), v100, z0, tNozzle, \Wobj := wobjPlatform;
		WaitRob \InPos;
		SetDO DO5_Program_Feed, 1;
		MoveL Offs(pZero, -3.511, 18.088, 3.6), v30, z0, tNozzle, \Wobj := wobjPlatform;
		WaitRob \InPos;
		SetDO DO5_Program_Feed, 0;
		MoveL Offs(pZero, -2.011, 20.686, 3.6), v100, z0, tNozzle, \Wobj := wobjPlatform;
		WaitRob \InPos;
		SetDO DO5_Program_Feed, 1;
		MoveL Offs(pZero, 3.469, 17.522, 3.6), v30, z0, tNozzle, \Wobj := wobjPlatform;
		WaitRob \InPos;
		SetDO DO5_Program_Feed, 0;
		MoveL Offs(pZero, 0.469, 22.718, 3.6), v100, z0, tNozzle, \Wobj := wobjPlatform;
		WaitRob \InPos;
		SetDO DO5_Program_Feed, 1;
		MoveL Offs(pZero, -0.511, 23.284, 3.6), v30, z0, tNozzle, \Wobj := wobjPlatform;
		WaitRob \InPos;
		SetDO DO5_Program_Feed, 0;
		MoveL Offs(pZero, -11.011, 5.098, 3.6), v100, z0, tNozzle, \Wobj := wobjPlatform;
		WaitRob \InPos;
		SetDO DO5_Program_Feed, 1;
		MoveL Offs(pZero, 19.123, -12.3, 3.6), v30, z0, tNozzle, \Wobj := wobjPlatform;
		WaitRob \InPos;
		SetDO DO5_Program_Feed, 0;
		MoveL Offs(pZero, 13.123, -12.3, 3.6), v100, z0, tNozzle, \Wobj := wobjPlatform;
		WaitRob \InPos;
		SetDO DO5_Program_Feed, 1;
		MoveL Offs(pZero, -12.511, 2.5, 3.6), v30, z0, tNozzle, \Wobj := wobjPlatform;
		WaitRob \InPos;
		SetDO DO5_Program_Feed, 0;
		MoveL Offs(pZero, -14.011, -0.098, 3.6), v100, z0, tNozzle, \Wobj := wobjPlatform;
		WaitRob \InPos;
		SetDO DO5_Program_Feed, 1;
		MoveL Offs(pZero, 7.123, -12.3, 3.6), v30, z0, tNozzle, \Wobj := wobjPlatform;
		WaitRob \InPos;
		SetDO DO5_Program_Feed, 0;
		MoveL Offs(pZero, 1.123, -12.3, 3.6), v100, z0, tNozzle, \Wobj := wobjPlatform;
		WaitRob \InPos;
		SetDO DO5_Program_Feed, 1;
		MoveL Offs(pZero, -15.511, -2.696, 3.6), v30, z0, tNozzle, \Wobj := wobjPlatform;
		WaitRob \InPos;
		SetDO DO5_Program_Feed, 0;
		MoveL Offs(pZero, -17.011, -5.295, 3.6), v100, z0, tNozzle, \Wobj := wobjPlatform;
		WaitRob \InPos;
		SetDO DO5_Program_Feed, 1;
		MoveL Offs(pZero, -4.877, -12.3, 3.6), v30, z0, tNozzle, \Wobj := wobjPlatform;
		WaitRob \InPos;
		SetDO DO5_Program_Feed, 0;
		MoveL Offs(pZero, -10.877, -12.3, 3.6), v100, z0, tNozzle, \Wobj := wobjPlatform;
		WaitRob \InPos;
		SetDO DO5_Program_Feed, 1;
		MoveL Offs(pZero, -18.511, -7.893, 3.6), v30, z0, tNozzle, \Wobj := wobjPlatform;
		WaitRob \InPos;
		SetDO DO5_Program_Feed, 0;
		MoveL Offs(pZero, -20.011, -10.491, 3.6), v100, z0, tNozzle, \Wobj := wobjPlatform;
		WaitRob \InPos;
		SetDO DO5_Program_Feed, 1;
		MoveL Offs(pZero, -16.877, -12.3, 3.6), v30, z0, tNozzle, \Wobj := wobjPlatform;
		WaitRob \InPos;
		SetDO DO6_Between_Layer_Retract, 1;
		SetDO DO5_Program_Feed, 0;
		MoveL Offs(pZero, -16.877, -12.3, 8.6), v100, z0, tNozzle, \Wobj := wobjPlatform;

		! Layer: 13
		! LayerParams(infillAngleDegrees=90.0, pathWidth=3.0, layerHeight=0.3, infillShiftX=0.0, infillShiftY=0.0, numShells=2, infillOverlap=0.0002)
		! T113
		! M6
		TPWRITE "Layer 13 of -1";
		MoveL Offs(pZero, 18.771, -7.056, 8.9), v100, z0, tNozzle, \Wobj := wobjPlatform;
		MoveL Offs(pZero, 18.771, -7.056, 3.9), v30, z0, tNozzle, \Wobj := wobjPlatform;
		WaitRob \InPos;
		SetDO DO6_Between_Layer_Retract, 0;
		WaitRob \InPos;
		SetDO DO5_Program_Feed, 1;
		MoveL Offs(pZero, -0.184, 25.775, 3.9), v30, z0, tNozzle, \Wobj := wobjPlatform;
		MoveL Offs(pZero, -3.767, 19.569, 3.9), v30, z0, tNozzle, \Wobj := wobjPlatform;
		MoveL Offs(pZero, -22.723, -13.263, 3.9), v30, z0, tNozzle, \Wobj := wobjPlatform;
		MoveL Offs(pZero, -15.556, -13.263, 3.9), v30, z0, tNozzle, \Wobj := wobjPlatform;
		MoveL Offs(pZero, 22.354, -13.263, 3.9), v30, z0, tNozzle, \Wobj := wobjPlatform;
		MoveL Offs(pZero, 18.771, -7.056, 3.9), v30, z0, tNozzle, \Wobj := wobjPlatform;
		WaitRob \InPos;
		SetDO DO5_Program_Feed, 0;
		MoveL Offs(pZero, 18.338, -7.306, 3.9), v100, z0, tNozzle, \Wobj := wobjPlatform;
		WaitRob \InPos;
		SetDO DO5_Program_Feed, 1;
		MoveL Offs(pZero, -0.184, 24.775, 3.9), v30, z0, tNozzle, \Wobj := wobjPlatform;
		MoveL Offs(pZero, -3.334, 19.319, 3.9), v30, z0, tNozzle, \Wobj := wobjPlatform;
		MoveL Offs(pZero, -21.857, -12.763, 3.9), v30, z0, tNozzle, \Wobj := wobjPlatform;
		MoveL Offs(pZero, 21.488, -12.763, 3.9), v30, z0, tNozzle, \Wobj := wobjPlatform;
		MoveL Offs(pZero, 18.338, -7.306, 3.9), v30, z0, tNozzle, \Wobj := wobjPlatform;
		WaitRob \InPos;
		SetDO DO5_Program_Feed, 0;
		MoveL Offs(pZero, 17.816, -7.402, 3.9), v100, z0, tNozzle, \Wobj := wobjPlatform;
		WaitRob \InPos;
		SetDO DO5_Program_Feed, 1;
		MoveL Offs(pZero, 17.816, -12.263, 3.9), v30, z0, tNozzle, \Wobj := wobjPlatform;
		WaitRob \InPos;
		SetDO DO5_Program_Feed, 0;
		MoveL Offs(pZero, 14.816, -12.263, 3.9), v100, z0, tNozzle, \Wobj := wobjPlatform;
		WaitRob \InPos;
		SetDO DO5_Program_Feed, 1;
		MoveL Offs(pZero, 14.816, -2.205, 3.9), v30, z0, tNozzle, \Wobj := wobjPlatform;
		WaitRob \InPos;
		SetDO DO5_Program_Feed, 0;
		MoveL Offs(pZero, 11.816, 2.991, 3.9), v100, z0, tNozzle, \Wobj := wobjPlatform;
		WaitRob \InPos;
		SetDO DO5_Program_Feed, 1;
		MoveL Offs(pZero, 11.816, -12.263, 3.9), v30, z0, tNozzle, \Wobj := wobjPlatform;
		WaitRob \InPos;
		SetDO DO5_Program_Feed, 0;
		MoveL Offs(pZero, 8.816, -12.263, 3.9), v100, z0, tNozzle, \Wobj := wobjPlatform;
		WaitRob \InPos;
		SetDO DO5_Program_Feed, 1;
		MoveL Offs(pZero, 8.816, 8.187, 3.9), v30, z0, tNozzle, \Wobj := wobjPlatform;
		WaitRob \InPos;
		SetDO DO5_Program_Feed, 0;
		MoveL Offs(pZero, 5.816, 13.383, 3.9), v100, z0, tNozzle, \Wobj := wobjPlatform;
		WaitRob \InPos;
		SetDO DO5_Program_Feed, 1;
		MoveL Offs(pZero, 5.816, -12.263, 3.9), v30, z0, tNozzle, \Wobj := wobjPlatform;
		WaitRob \InPos;
		SetDO DO5_Program_Feed, 0;
		MoveL Offs(pZero, 2.816, -12.263, 3.9), v100, z0, tNozzle, \Wobj := wobjPlatform;
		WaitRob \InPos;
		SetDO DO5_Program_Feed, 1;
		MoveL Offs(pZero, 2.816, 18.579, 3.9), v30, z0, tNozzle, \Wobj := wobjPlatform;
		WaitRob \InPos;
		SetDO DO5_Program_Feed, 0;
		MoveL Offs(pZero, -0.184, 23.775, 3.9), v100, z0, tNozzle, \Wobj := wobjPlatform;
		WaitRob \InPos;
		SetDO DO5_Program_Feed, 1;
		MoveL Offs(pZero, -0.184, -12.263, 3.9), v30, z0, tNozzle, \Wobj := wobjPlatform;
		WaitRob \InPos;
		SetDO DO5_Program_Feed, 0;
		MoveL Offs(pZero, -3.184, -12.263, 3.9), v100, z0, tNozzle, \Wobj := wobjPlatform;
		WaitRob \InPos;
		SetDO DO5_Program_Feed, 1;
		MoveL Offs(pZero, -3.184, 18.579, 3.9), v30, z0, tNozzle, \Wobj := wobjPlatform;
		WaitRob \InPos;
		SetDO DO5_Program_Feed, 0;
		MoveL Offs(pZero, -6.184, 13.383, 3.9), v100, z0, tNozzle, \Wobj := wobjPlatform;
		WaitRob \InPos;
		SetDO DO5_Program_Feed, 1;
		MoveL Offs(pZero, -6.184, -12.263, 3.9), v30, z0, tNozzle, \Wobj := wobjPlatform;
		WaitRob \InPos;
		SetDO DO5_Program_Feed, 0;
		MoveL Offs(pZero, -9.184, -12.263, 3.9), v100, z0, tNozzle, \Wobj := wobjPlatform;
		WaitRob \InPos;
		SetDO DO5_Program_Feed, 1;
		MoveL Offs(pZero, -9.184, 8.187, 3.9), v30, z0, tNozzle, \Wobj := wobjPlatform;
		WaitRob \InPos;
		SetDO DO5_Program_Feed, 0;
		MoveL Offs(pZero, -12.184, 2.991, 3.9), v100, z0, tNozzle, \Wobj := wobjPlatform;
		WaitRob \InPos;
		SetDO DO5_Program_Feed, 1;
		MoveL Offs(pZero, -12.184, -12.263, 3.9), v30, z0, tNozzle, \Wobj := wobjPlatform;
		WaitRob \InPos;
		SetDO DO5_Program_Feed, 0;
		MoveL Offs(pZero, -15.184, -12.263, 3.9), v100, z0, tNozzle, \Wobj := wobjPlatform;
		WaitRob \InPos;
		SetDO DO5_Program_Feed, 1;
		MoveL Offs(pZero, -15.184, -2.205, 3.9), v30, z0, tNozzle, \Wobj := wobjPlatform;
		WaitRob \InPos;
		SetDO DO5_Program_Feed, 0;
		MoveL Offs(pZero, -18.184, -7.402, 3.9), v100, z0, tNozzle, \Wobj := wobjPlatform;
		WaitRob \InPos;
		SetDO DO5_Program_Feed, 1;
		MoveL Offs(pZero, -18.184, -12.263, 3.9), v30, z0, tNozzle, \Wobj := wobjPlatform;
		WaitRob \InPos;
		SetDO DO6_Between_Layer_Retract, 1;
		SetDO DO5_Program_Feed, 0;
		MoveL Offs(pZero, -18.184, -12.263, 8.9), v100, z0, tNozzle, \Wobj := wobjPlatform;

		! Layer: 14
		! LayerParams(infillAngleDegrees=30.0, pathWidth=3.0, layerHeight=0.3, infillShiftX=0.0, infillShiftY=0.0, numShells=2, infillOverlap=0.0002)
		! T114
		! M6
		TPWRITE "Layer 14 of -1";
		MoveL Offs(pZero, 18.414, -6.512, 9.2), v100, z0, tNozzle, \Wobj := wobjPlatform;
		MoveL Offs(pZero, 18.414, -6.512, 4.2), v30, z0, tNozzle, \Wobj := wobjPlatform;
		WaitRob \InPos;
		SetDO DO6_Between_Layer_Retract, 0;
		WaitRob \InPos;
		SetDO DO5_Program_Feed, 1;
		MoveL Offs(pZero, -0.184, 25.7, 4.2), v30, z0, tNozzle, \Wobj := wobjPlatform;
		MoveL Offs(pZero, -4.06, 18.987, 4.2), v30, z0, tNozzle, \Wobj := wobjPlatform;
		MoveL Offs(pZero, -22.658, -13.225, 4.2), v30, z0, tNozzle, \Wobj := wobjPlatform;
		MoveL Offs(pZero, -14.907, -13.225, 4.2), v30, z0, tNozzle, \Wobj := wobjPlatform;
		MoveL Offs(pZero, 22.289, -13.225, 4.2), v30, z0, tNozzle, \Wobj := wobjPlatform;
		MoveL Offs(pZero, 18.414, -6.512, 4.2), v30, z0, tNozzle, \Wobj := wobjPlatform;
		WaitRob \InPos;
		SetDO DO5_Program_Feed, 0;
		MoveL Offs(pZero, 17.981, -6.762, 4.2), v100, z0, tNozzle, \Wobj := wobjPlatform;
		WaitRob \InPos;
		SetDO DO5_Program_Feed, 1;
		MoveL Offs(pZero, -0.184, 24.7, 4.2), v30, z0, tNozzle, \Wobj := wobjPlatform;
		MoveL Offs(pZero, -3.627, 18.737, 4.2), v30, z0, tNozzle, \Wobj := wobjPlatform;
		MoveL Offs(pZero, -21.792, -12.725, 4.2), v30, z0, tNozzle, \Wobj := wobjPlatform;
		MoveL Offs(pZero, -14.907, -12.725, 4.2), v30, z0, tNozzle, \Wobj := wobjPlatform;
		MoveL Offs(pZero, 21.423, -12.725, 4.2), v30, z0, tNozzle, \Wobj := wobjPlatform;
		MoveL Offs(pZero, 17.981, -6.762, 4.2), v30, z0, tNozzle, \Wobj := wobjPlatform;
		WaitRob \InPos;
		SetDO DO5_Program_Feed, 0;
		MoveL Offs(pZero, 18.094, -7.958, 4.2), v100, z0, tNozzle, \Wobj := wobjPlatform;
		WaitRob \InPos;
		SetDO DO5_Program_Feed, 1;
		MoveL Offs(pZero, 10.703, -12.225, 4.2), v30, z0, tNozzle, \Wobj := wobjPlatform;
		WaitRob \InPos;
		SetDO DO5_Program_Feed, 0;
		MoveL Offs(pZero, 4.703, -12.225, 4.2), v100, z0, tNozzle, \Wobj := wobjPlatform;
		WaitRob \InPos;
		SetDO DO5_Program_Feed, 1;
		MoveL Offs(pZero, 16.594, -5.36, 4.2), v30, z0, tNozzle, \Wobj := wobjPlatform;
		WaitRob \InPos;
		SetDO DO5_Program_Feed, 0;
		MoveL Offs(pZero, 15.094, -2.762, 4.2), v100, z0, tNozzle, \Wobj := wobjPlatform;
		WaitRob \InPos;
		SetDO DO5_Program_Feed, 1;
		MoveL Offs(pZero, -1.297, -12.225, 4.2), v30, z0, tNozzle, \Wobj := wobjPlatform;
		WaitRob \InPos;
		SetDO DO5_Program_Feed, 0;
		MoveL Offs(pZero, -7.297, -12.225, 4.2), v100, z0, tNozzle, \Wobj := wobjPlatform;
		WaitRob \InPos;
		SetDO DO5_Program_Feed, 1;
		MoveL Offs(pZero, 13.594, -0.164, 4.2), v30, z0, tNozzle, \Wobj := wobjPlatform;
		WaitRob \InPos;
		SetDO DO5_Program_Feed, 0;
		MoveL Offs(pZero, 12.094, 2.434, 4.2), v100, z0, tNozzle, \Wobj := wobjPlatform;
		WaitRob \InPos;
		SetDO DO5_Program_Feed, 1;
		MoveL Offs(pZero, -13.297, -12.225, 4.2), v30, z0, tNozzle, \Wobj := wobjPlatform;
		WaitRob \InPos;
		SetDO DO5_Program_Feed, 0;
		MoveL Offs(pZero, -19.297, -12.225, 4.2), v100, z0, tNozzle, \Wobj := wobjPlatform;
		WaitRob \InPos;
		SetDO DO5_Program_Feed, 1;
		MoveL Offs(pZero, 10.594, 5.032, 4.2), v30, z0, tNozzle, \Wobj := wobjPlatform;
		WaitRob \InPos;
		SetDO DO5_Program_Feed, 0;
		MoveL Offs(pZero, 9.094, 7.63, 4.2), v100, z0, tNozzle, \Wobj := wobjPlatform;
		WaitRob \InPos;
		SetDO DO5_Program_Feed, 1;
		MoveL Offs(pZero, -18.741, -8.44, 4.2), v30, z0, tNozzle, \Wobj := wobjPlatform;
		WaitRob \InPos;
		SetDO DO5_Program_Feed, 0;
		MoveL Offs(pZero, -15.741, -3.244, 4.2), v100, z0, tNozzle, \Wobj := wobjPlatform;
		WaitRob \InPos;
		SetDO DO5_Program_Feed, 1;
		MoveL Offs(pZero, 7.594, 10.228, 4.2), v30, z0, tNozzle, \Wobj := wobjPlatform;
		WaitRob \InPos;
		SetDO DO5_Program_Feed, 0;
		MoveL Offs(pZero, 6.094, 12.826, 4.2), v100, z0, tNozzle, \Wobj := wobjPlatform;
		WaitRob \InPos;
		SetDO DO5_Program_Feed, 1;
		MoveL Offs(pZero, -12.741, 1.952, 4.2), v30, z0, tNozzle, \Wobj := wobjPlatform;
		WaitRob \InPos;
		SetDO DO5_Program_Feed, 0;
		MoveL Offs(pZero, -9.741, 7.149, 4.2), v100, z0, tNozzle, \Wobj := wobjPlatform;
		WaitRob \InPos;
		SetDO DO5_Program_Feed, 1;
		MoveL Offs(pZero, 4.594, 15.424, 4.2), v30, z0, tNozzle, \Wobj := wobjPlatform;
		WaitRob \InPos;
		SetDO DO5_Program_Feed, 0;
		MoveL Offs(pZero, 3.094, 18.023, 4.2), v100, z0, tNozzle, \Wobj := wobjPlatform;
		WaitRob \InPos;
		SetDO DO5_Program_Feed, 1;
		MoveL Offs(pZero, -6.741, 12.345, 4.2), v30, z0, tNozzle, \Wobj := wobjPlatform;
		WaitRob \InPos;
		SetDO DO5_Program_Feed, 0;
		MoveL Offs(pZero, -3.741, 17.541, 4.2), v100, z0, tNozzle, \Wobj := wobjPlatform;
		WaitRob \InPos;
		SetDO DO5_Program_Feed, 1;
		MoveL Offs(pZero, 1.594, 20.621, 4.2), v30, z0, tNozzle, \Wobj := wobjPlatform;
		WaitRob \InPos;
		SetDO DO5_Program_Feed, 0;
		MoveL Offs(pZero, 0.094, 23.219, 4.2), v100, z0, tNozzle, \Wobj := wobjPlatform;
		WaitRob \InPos;
		SetDO DO5_Program_Feed, 1;
		MoveL Offs(pZero, -0.741, 22.737, 4.2), v30, z0, tNozzle, \Wobj := wobjPlatform;
		WaitRob \InPos;
		SetDO DO6_Between_Layer_Retract, 1;
		SetDO DO5_Program_Feed, 0;
		MoveL Offs(pZero, -0.741, 22.737, 9.2), v100, z0, tNozzle, \Wobj := wobjPlatform;
		MoveL Offs(pZero, 19.594, -10.556, 9.2), v100, z0, tNozzle, \Wobj := wobjPlatform;
		WaitRob \InPos;
		SetDO DO6_Between_Layer_Retract, 0;
		MoveL Offs(pZero, 19.594, -10.556, 4.2), v30, z0, tNozzle, \Wobj := wobjPlatform;
		WaitRob \InPos;
		SetDO DO5_Program_Feed, 1;
		MoveL Offs(pZero, 16.703, -12.225, 4.2), v30, z0, tNozzle, \Wobj := wobjPlatform;
		WaitRob \InPos;
		SetDO DO6_Between_Layer_Retract, 1;
		SetDO DO5_Program_Feed, 0;
		MoveL Offs(pZero, 16.703, -12.225, 9.2), v100, z0, tNozzle, \Wobj := wobjPlatform;

		! Layer: 15
		! LayerParams(infillAngleDegrees=-30.0, pathWidth=3.0, layerHeight=0.3, infillShiftX=0.0, infillShiftY=0.0, numShells=2, infillOverlap=0.0002)
		! T115
		! M6
		TPWRITE "Layer 15 of -1";
		MoveL Offs(pZero, 22.224, -13.188, 9.5), v100, z0, tNozzle, \Wobj := wobjPlatform;
		MoveL Offs(pZero, 22.224, -13.188, 4.5), v30, z0, tNozzle, \Wobj := wobjPlatform;
		WaitRob \InPos;
		SetDO DO6_Between_Layer_Retract, 0;
		WaitRob \InPos;
		SetDO DO5_Program_Feed, 1;
		MoveL Offs(pZero, 18.056, -5.969, 4.5), v30, z0, tNozzle, \Wobj := wobjPlatform;
		MoveL Offs(pZero, -0.184, 25.625, 4.5), v30, z0, tNozzle, \Wobj := wobjPlatform;
		MoveL Offs(pZero, -4.352, 18.406, 4.5), v30, z0, tNozzle, \Wobj := wobjPlatform;
		MoveL Offs(pZero, -22.593, -13.188, 4.5), v30, z0, tNozzle, \Wobj := wobjPlatform;
		MoveL Offs(pZero, -14.257, -13.188, 4.5), v30, z0, tNozzle, \Wobj := wobjPlatform;
		MoveL Offs(pZero, 22.224, -13.188, 4.5), v30, z0, tNozzle, \Wobj := wobjPlatform;
		WaitRob \InPos;
		SetDO DO5_Program_Feed, 0;
		MoveL Offs(pZero, 21.358, -12.688, 4.5), v100, z0, tNozzle, \Wobj := wobjPlatform;
		WaitRob \InPos;
		SetDO DO5_Program_Feed, 1;
		MoveL Offs(pZero, 17.623, -6.219, 4.5), v30, z0, tNozzle, \Wobj := wobjPlatform;
		MoveL Offs(pZero, -0.184, 24.625, 4.5), v30, z0, tNozzle, \Wobj := wobjPlatform;
		MoveL Offs(pZero, -3.919, 18.156, 4.5), v30, z0, tNozzle, \Wobj := wobjPlatform;
		MoveL Offs(pZero, -21.727, -12.688, 4.5), v30, z0, tNozzle, \Wobj := wobjPlatform;
		MoveL Offs(pZero, -14.257, -12.688, 4.5), v30, z0, tNozzle, \Wobj := wobjPlatform;
		MoveL Offs(pZero, 21.358, -12.688, 4.5), v30, z0, tNozzle, \Wobj := wobjPlatform;
		WaitRob \InPos;
		SetDO DO5_Program_Feed, 0;
		MoveL Offs(pZero, 18.831, -12.188, 4.5), v100, z0, tNozzle, \Wobj := wobjPlatform;
		WaitRob \InPos;
		SetDO DO5_Program_Feed, 1;
		MoveL Offs(pZero, -10.938, 4.999, 4.5), v30, z0, tNozzle, \Wobj := wobjPlatform;
		WaitRob \InPos;
		SetDO DO5_Program_Feed, 0;
		MoveL Offs(pZero, -12.438, 2.401, 4.5), v100, z0, tNozzle, \Wobj := wobjPlatform;
		WaitRob \InPos;
		SetDO DO5_Program_Feed, 1;
		MoveL Offs(pZero, 12.831, -12.188, 4.5), v30, z0, tNozzle, \Wobj := wobjPlatform;
		WaitRob \InPos;
		SetDO DO5_Program_Feed, 0;
		MoveL Offs(pZero, 6.831, -12.188, 4.5), v100, z0, tNozzle, \Wobj := wobjPlatform;
		WaitRob \InPos;
		SetDO DO5_Program_Feed, 1;
		MoveL Offs(pZero, -13.938, -0.197, 4.5), v30, z0, tNozzle, \Wobj := wobjPlatform;
		WaitRob \InPos;
		SetDO DO5_Program_Feed, 0;
		MoveL Offs(pZero, -15.438, -2.795, 4.5), v100, z0, tNozzle, \Wobj := wobjPlatform;
		WaitRob \InPos;
		SetDO DO5_Program_Feed, 1;
		MoveL Offs(pZero, 0.831, -12.188, 4.5), v30, z0, tNozzle, \Wobj := wobjPlatform;
		WaitRob \InPos;
		SetDO DO5_Program_Feed, 0;
		MoveL Offs(pZero, -5.169, -12.188, 4.5), v100, z0, tNozzle, \Wobj := wobjPlatform;
		WaitRob \InPos;
		SetDO DO5_Program_Feed, 1;
		MoveL Offs(pZero, -16.938, -5.393, 4.5), v30, z0, tNozzle, \Wobj := wobjPlatform;
		WaitRob \InPos;
		SetDO DO5_Program_Feed, 0;
		MoveL Offs(pZero, -18.438, -7.991, 4.5), v100, z0, tNozzle, \Wobj := wobjPlatform;
		WaitRob \InPos;
		SetDO DO5_Program_Feed, 1;
		MoveL Offs(pZero, -11.169, -12.188, 4.5), v30, z0, tNozzle, \Wobj := wobjPlatform;
		WaitRob \InPos;
		SetDO DO5_Program_Feed, 0;
		MoveL Offs(pZero, -17.169, -12.188, 4.5), v100, z0, tNozzle, \Wobj := wobjPlatform;
		WaitRob \InPos;
		SetDO DO5_Program_Feed, 1;
		MoveL Offs(pZero, -19.938, -10.589, 4.5), v30, z0, tNozzle, \Wobj := wobjPlatform;
		WaitRob \InPos;
		SetDO DO5_Program_Feed, 0;
		MoveL Offs(pZero, -9.438, 7.597, 4.5), v100, z0, tNozzle, \Wobj := wobjPlatform;
		WaitRob \InPos;
		SetDO DO5_Program_Feed, 1;
		MoveL Offs(pZero, 18.323, -8.431, 4.5), v30, z0, tNozzle, \Wobj := wobjPlatform;
		WaitRob \InPos;
		SetDO DO5_Program_Feed, 0;
		MoveL Offs(pZero, 15.323, -3.234, 4.5), v100, z0, tNozzle, \Wobj := wobjPlatform;
		WaitRob \InPos;
		SetDO DO5_Program_Feed, 1;
		MoveL Offs(pZero, -7.938, 10.195, 4.5), v30, z0, tNozzle, \Wobj := wobjPlatform;
		WaitRob \InPos;
		SetDO DO5_Program_Feed, 0;
		MoveL Offs(pZero, -6.438, 12.794, 4.5), v100, z0, tNozzle, \Wobj := wobjPlatform;
		WaitRob \InPos;
		SetDO DO5_Program_Feed, 1;
		MoveL Offs(pZero, 12.323, 1.962, 4.5), v30, z0, tNozzle, \Wobj := wobjPlatform;
		WaitRob \InPos;
		SetDO DO5_Program_Feed, 0;
		MoveL Offs(pZero, 9.323, 7.158, 4.5), v100, z0, tNozzle, \Wobj := wobjPlatform;
		WaitRob \InPos;
		SetDO DO5_Program_Feed, 1;
		MoveL Offs(pZero, -4.938, 15.392, 4.5), v30, z0, tNozzle, \Wobj := wobjPlatform;
		WaitRob \InPos;
		SetDO DO5_Program_Feed, 0;
		MoveL Offs(pZero, -3.438, 17.99, 4.5), v100, z0, tNozzle, \Wobj := wobjPlatform;
		WaitRob \InPos;
		SetDO DO5_Program_Feed, 1;
		MoveL Offs(pZero, 6.323, 12.354, 4.5), v30, z0, tNozzle, \Wobj := wobjPlatform;
		WaitRob \InPos;
		SetDO DO5_Program_Feed, 0;
		MoveL Offs(pZero, 3.323, 17.55, 4.5), v100, z0, tNozzle, \Wobj := wobjPlatform;
		WaitRob \InPos;
		SetDO DO5_Program_Feed, 1;
		MoveL Offs(pZero, -1.938, 20.588, 4.5), v30, z0, tNozzle, \Wobj := wobjPlatform;
		WaitRob \InPos;
		SetDO DO5_Program_Feed, 0;
		MoveL Offs(pZero, -0.438, 23.186, 4.5), v100, z0, tNozzle, \Wobj := wobjPlatform;
		WaitRob \InPos;
		SetDO DO5_Program_Feed, 1;
		MoveL Offs(pZero, 0.323, 22.746, 4.5), v30, z0, tNozzle, \Wobj := wobjPlatform;
		WaitRob \InPos;
		SetDO DO6_Between_Layer_Retract, 1;
		SetDO DO5_Program_Feed, 0;
		MoveL Offs(pZero, 0.323, 22.746, 9.5), v100, z0, tNozzle, \Wobj := wobjPlatform;

		! Layer: 16
		! LayerParams(infillAngleDegrees=90.0, pathWidth=3.0, layerHeight=0.3, infillShiftX=0.0, infillShiftY=0.0, numShells=2, infillOverlap=0.0002)
		! T116
		! M6
		TPWRITE "Layer 16 of -1";
		MoveL Offs(pZero, -0.184, 25.55, 9.8), v100, z0, tNozzle, \Wobj := wobjPlatform;
		MoveL Offs(pZero, -0.184, 25.55, 4.8), v30, z0, tNozzle, \Wobj := wobjPlatform;
		WaitRob \InPos;
		SetDO DO6_Between_Layer_Retract, 0;
		WaitRob \InPos;
		SetDO DO5_Program_Feed, 1;
		MoveL Offs(pZero, -4.644, 17.825, 4.8), v30, z0, tNozzle, \Wobj := wobjPlatform;
		MoveL Offs(pZero, -22.528, -13.15, 4.8), v30, z0, tNozzle, \Wobj := wobjPlatform;
		MoveL Offs(pZero, -13.608, -13.15, 4.8), v30, z0, tNozzle, \Wobj := wobjPlatform;
		MoveL Offs(pZero, 22.159, -13.15, 4.8), v30, z0, tNozzle, \Wobj := wobjPlatform;
		MoveL Offs(pZero, 17.699, -5.425, 4.8), v30, z0, tNozzle, \Wobj := wobjPlatform;
		MoveL Offs(pZero, -0.184, 25.55, 4.8), v30, z0, tNozzle, \Wobj := wobjPlatform;
		WaitRob \InPos;
		SetDO DO5_Program_Feed, 0;
		MoveL Offs(pZero, -0.184, 24.55, 4.8), v100, z0, tNozzle, \Wobj := wobjPlatform;
		WaitRob \InPos;
		SetDO DO5_Program_Feed, 1;
		MoveL Offs(pZero, -4.211, 17.575, 4.8), v30, z0, tNozzle, \Wobj := wobjPlatform;
		MoveL Offs(pZero, -21.662, -12.65, 4.8), v30, z0, tNozzle, \Wobj := wobjPlatform;
		MoveL Offs(pZero, -13.608, -12.65, 4.8), v30, z0, tNozzle, \Wobj := wobjPlatform;
		MoveL Offs(pZero, 21.293, -12.65, 4.8), v30, z0, tNozzle, \Wobj := wobjPlatform;
		MoveL Offs(pZero, 17.266, -5.675, 4.8), v30, z0, tNozzle, \Wobj := wobjPlatform;
		MoveL Offs(pZero, -0.184, 24.55, 4.8), v30, z0, tNozzle, \Wobj := wobjPlatform;
		WaitRob \InPos;
		SetDO DO5_Program_Feed, 0;
		MoveL Offs(pZero, -1.684, 20.952, 4.8), v100, z0, tNozzle, \Wobj := wobjPlatform;
		WaitRob \InPos;
		SetDO DO5_Program_Feed, 1;
		MoveL Offs(pZero, -1.684, -12.15, 4.8), v30, z0, tNozzle, \Wobj := wobjPlatform;
		WaitRob \InPos;
		SetDO DO5_Program_Feed, 0;
		MoveL Offs(pZero, 1.316, -12.15, 4.8), v100, z0, tNozzle, \Wobj := wobjPlatform;
		WaitRob \InPos;
		SetDO DO5_Program_Feed, 1;
		MoveL Offs(pZero, 1.316, 20.952, 4.8), v30, z0, tNozzle, \Wobj := wobjPlatform;
		WaitRob \InPos;
		SetDO DO5_Program_Feed, 0;
		MoveL Offs(pZero, 4.316, 15.756, 4.8), v100, z0, tNozzle, \Wobj := wobjPlatform;
		WaitRob \InPos;
		SetDO DO5_Program_Feed, 1;
		MoveL Offs(pZero, 4.316, -12.15, 4.8), v30, z0, tNozzle, \Wobj := wobjPlatform;
		WaitRob \InPos;
		SetDO DO5_Program_Feed, 0;
		MoveL Offs(pZero, 7.316, -12.15, 4.8), v100, z0, tNozzle, \Wobj := wobjPlatform;
		WaitRob \InPos;
		SetDO DO5_Program_Feed, 1;
		MoveL Offs(pZero, 7.316, 10.56, 4.8), v30, z0, tNozzle, \Wobj := wobjPlatform;
		WaitRob \InPos;
		SetDO DO5_Program_Feed, 0;
		MoveL Offs(pZero, 10.316, 5.364, 4.8), v100, z0, tNozzle, \Wobj := wobjPlatform;
		WaitRob \InPos;
		SetDO DO5_Program_Feed, 1;
		MoveL Offs(pZero, 10.316, -12.15, 4.8), v30, z0, tNozzle, \Wobj := wobjPlatform;
		WaitRob \InPos;
		SetDO DO5_Program_Feed, 0;
		MoveL Offs(pZero, 13.316, -12.15, 4.8), v100, z0, tNozzle, \Wobj := wobjPlatform;
		WaitRob \InPos;
		SetDO DO5_Program_Feed, 1;
		MoveL Offs(pZero, 13.316, 0.168, 4.8), v30, z0, tNozzle, \Wobj := wobjPlatform;
		WaitRob \InPos;
		SetDO DO5_Program_Feed, 0;
		MoveL Offs(pZero, 16.316, -5.028, 4.8), v100, z0, tNozzle, \Wobj := wobjPlatform;
		WaitRob \InPos;
		SetDO DO5_Program_Feed, 1;
		MoveL Offs(pZero, 16.316, -12.15, 4.8), v30, z0, tNozzle, \Wobj := wobjPlatform;
		WaitRob \InPos;
		SetDO DO5_Program_Feed, 0;
		MoveL Offs(pZero, 19.316, -12.15, 4.8), v100, z0, tNozzle, \Wobj := wobjPlatform;
		WaitRob \InPos;
		SetDO DO5_Program_Feed, 1;
		MoveL Offs(pZero, 19.316, -10.225, 4.8), v30, z0, tNozzle, \Wobj := wobjPlatform;
		WaitRob \InPos;
		SetDO DO5_Program_Feed, 0;
		MoveL Offs(pZero, -4.684, -12.15, 4.8), v100, z0, tNozzle, \Wobj := wobjPlatform;
		WaitRob \InPos;
		SetDO DO5_Program_Feed, 1;
		MoveL Offs(pZero, -4.684, 15.756, 4.8), v30, z0, tNozzle, \Wobj := wobjPlatform;
		WaitRob \InPos;
		SetDO DO5_Program_Feed, 0;
		MoveL Offs(pZero, -7.684, 10.56, 4.8), v100, z0, tNozzle, \Wobj := wobjPlatform;
		WaitRob \InPos;
		SetDO DO5_Program_Feed, 1;
		MoveL Offs(pZero, -7.684, -12.15, 4.8), v30, z0, tNozzle, \Wobj := wobjPlatform;
		WaitRob \InPos;
		SetDO DO5_Program_Feed, 0;
		MoveL Offs(pZero, -10.684, -12.15, 4.8), v100, z0, tNozzle, \Wobj := wobjPlatform;
		WaitRob \InPos;
		SetDO DO5_Program_Feed, 1;
		MoveL Offs(pZero, -10.684, 5.364, 4.8), v30, z0, tNozzle, \Wobj := wobjPlatform;
		WaitRob \InPos;
		SetDO DO5_Program_Feed, 0;
		MoveL Offs(pZero, -13.684, 0.168, 4.8), v100, z0, tNozzle, \Wobj := wobjPlatform;
		WaitRob \InPos;
		SetDO DO5_Program_Feed, 1;
		MoveL Offs(pZero, -13.684, -12.15, 4.8), v30, z0, tNozzle, \Wobj := wobjPlatform;
		WaitRob \InPos;
		SetDO DO5_Program_Feed, 0;
		MoveL Offs(pZero, -16.684, -12.15, 4.8), v100, z0, tNozzle, \Wobj := wobjPlatform;
		WaitRob \InPos;
		SetDO DO5_Program_Feed, 1;
		MoveL Offs(pZero, -16.684, -5.028, 4.8), v30, z0, tNozzle, \Wobj := wobjPlatform;
		WaitRob \InPos;
		SetDO DO5_Program_Feed, 0;
		MoveL Offs(pZero, -19.684, -10.225, 4.8), v100, z0, tNozzle, \Wobj := wobjPlatform;
		WaitRob \InPos;
		SetDO DO5_Program_Feed, 1;
		MoveL Offs(pZero, -19.684, -12.15, 4.8), v30, z0, tNozzle, \Wobj := wobjPlatform;
		WaitRob \InPos;
		SetDO DO6_Between_Layer_Retract, 1;
		SetDO DO5_Program_Feed, 0;
		MoveL Offs(pZero, -19.684, -12.15, 9.8), v100, z0, tNozzle, \Wobj := wobjPlatform;

		! Layer: 17
		! LayerParams(infillAngleDegrees=30.0, pathWidth=3.0, layerHeight=0.3, infillShiftX=0.0, infillShiftY=0.0, numShells=2, infillOverlap=0.0002)
		! T117
		! M6
		TPWRITE "Layer 17 of -1";
